LUT预设1/iPhone专用lut合集3/iPhone合集3标准版（709）/FAKE理光负片709.cube
TITLE "Generated by Resolve"
LUT_3D_SIZE 5
0.0133516 0.0305638 0.063859
0.484947 0.0215915 0.0586252
0.737408 0.0243839 0.0623941
0.85481 0.0402838 0.0689708
0.878721 0.0691386 0.0722515
0.057496 0.366934 0.102281
0.356207 0.41062 0.113725
0.719844 0.418158 0.0996872
0.869795 0.417197 0.0887617
0.940841 0.401175 0.080827
0.273747 0.673091 0.18146
0.4636 0.673838 0.191623
0.655985 0.667506 0.182025
0.843458 0.661036 0.179095
0.942061 0.653864 0.16466
0.425757 0.809796 0.267933
0.546624 0.809796 0.266743
0.668635 0.799802 0.274281
0.782742 0.788998 0.244358
0.928054 0.782635 0.23241
0.495598 0.896635 0.347646
0.581109 0.894835 0.341375
0.673854 0.8934 0.335821
0.768994 0.889845 0.337514
0.867536 0.885496 0.295598
0.0197452 0.0540169 0.452293
0.296498 0.0672313 0.390509
0.583474 0.113863 0.372549
0.773007 0.157488 0.359457
0.860243 0.180743 0.324102
0.0706188 0.40708 0.491524
0.354696 0.477836 0.515358
0.682048 0.481178 0.452384
0.848707 0.470924 0.387533
0.932799 0.45359 0.326589
0.246937 0.690425 0.557961
0.472908 0.69926 0.558389
0.662684 0.69987 0.513298
0.831769 0.684855 0.440146
0.943175 0.665415 0.367758
0.411765 0.820981 0.577615
0.551278 0.819898 0.564569
0.670314 0.816281 0.567498
0.789517 0.80798 0.514778
0.930434 0.797101 0.460975
0.489952 0.907149 0.5888
0.583078 0.906645 0.579171
0.682704 0.905913 0.56791
0.775143 0.903853 0.560571
0.876966 0.895415 0.500908
0.0537423 0.153719 0.712551
0.276768 0.191577 0.719265
0.581949 0.258701 0.723186
0.754955 0.324865 0.715373
0.841688 0.373953 0.691798
0.123293 0.507195 0.789166
0.363653 0.549859 0.796353
0.624048 0.564324 0.779721
0.781735 0.573785 0.74995
0.883192 0.575998 0.717281
0.304677 0.712123 0.791516
0.486183 0.71931 0.787793
0.661967 0.721508 0.772412
0.805982 0.715602 0.742992
0.916075 0.705867 0.706004
0.442939 0.826825 0.778759
0.559609 0.827222 0.775433
0.683864 0.825452 0.770184
0.791241 0.823468 0.744991
0.916457 0.81384 0.695033
0.513436 0.912062 0.76524
0.596368 0.91426 0.761761
0.697078 0.91516 0.754849
0.788525 0.911803 0.749249
0.889891 0.905776 0.711391
0.103532 0.325322 0.853925
0.302159 0.381552 0.892439
0.60029 0.422507 0.912657
0.768734 0.454765 0.89691
0.8654 0.486488 0.868421
0.191165 0.59144 0.926574
0.412146 0.612528 0.933608
0.631586 0.619425 0.927504
0.77818 0.6206 0.906966
0.882033 0.626764 0.876249
0.370535 0.741115 0.933883
0.519265 0.744488 0.931441
0.669627 0.744335 0.923827
0.791608 0.740307 0.903044
0.89839 0.736584 0.87776
0.483467 0.838865 0.916045
0.582025 0.838453 0.912856
0.696712 0.837919 0.906538
0.805753 0.833906 0.893263
0.912856 0.827298 0.868391
0.538293 0.917433 0.89427
0.613367 0.917739 0.892958
0.708721 0.917845 0.888792
0.808347 0.918288 0.882216
0.904936 0.918166 0.858213
0.143267 0.48011 0.905104
0.322148 0.515602 0.925048
0.586572 0.537301 0.938674
0.761456 0.545281 0.94403
0.873381 0.558679 0.949447
0.253742 0.646525 0.942657
0.417899 0.658305 0.949264
0.619944 0.66247 0.955428
0.769696 0.660334 0.956466
0.886152 0.660304 0.959152
0.41265 0.765454 0.958648
0.528237 0.766918 0.961975
0.663325 0.766827 0.96643
0.787472 0.761776 0.967193
0.895598 0.756176 0.967819
0.512306 0.855222 0.967407
0.595163 0.854582 0.969818
0.69781 0.853132 0.97377
0.804669 0.849577 0.976562
0.907988 0.843519 0.978027
0.556252 0.918944 0.974334
0.625971 0.921035 0.97615
0.717296 0.924498 0.978393
0.817487 0.925643 0.979294
0.924468 0.922606 0.978332
