LUT预设1/iPhone专用lut合集3/iPhone合集3标准版（709）/FAKE胶片1980-709.cube
TITLE "Generated by Resolve"
LUT_3D_SIZE 9
0.000366217 0.0543221 0.0688792
0.0855726 0.0581216 0.055436
0.201709 0.0608988 0.0405432
0.309483 0.0649729 0.0354009
0.398154 0.0734569 0.0326543
0.467308 0.084123 0.0310216
0.517143 0.0948959 0.0303807
0.558038 0.107591 0.0303044
0.596765 0.121889 0.030869
0.000396735 0.121584 0.104631
0.132189 0.184176 0.108293
0.392676 0.229755 0.094728
0.53608 0.233234 0.0792554
0.61413 0.222553 0.0655985
0.657359 0.208103 0.0539712
0.686748 0.206378 0.0513619
0.714656 0.211124 0.0489815
0.742611 0.230381 0.0547341
0.0136721 0.223453 0.142092
0.168841 0.298863 0.157229
0.378408 0.372793 0.166125
0.588037 0.40676 0.167895
0.726864 0.407492 0.1626
0.794858 0.406806 0.15491
0.833967 0.397391 0.143664
0.861967 0.389838 0.133455
0.877531 0.390036 0.129122
0.0819104 0.359976 0.219974
0.238956 0.419043 0.239933
0.407935 0.478233 0.25713
0.592493 0.53753 0.268788
0.76704 0.576394 0.277028
0.875425 0.582712 0.279774
0.930037 0.585672 0.276143
0.953124 0.577676 0.265171
0.963912 0.570275 0.255451
0.209461 0.492973 0.303136
0.354192 0.540276 0.320027
0.489006 0.586297 0.340566
0.637919 0.635752 0.36286
0.781231 0.680781 0.385092
0.894133 0.709804 0.403067
0.960525 0.710033 0.404959
0.986755 0.705104 0.394491
0.995697 0.70486 0.38584
0.385245 0.612879 0.376059
0.493858 0.647608 0.39588
0.598032 0.68162 0.420645
0.70695 0.717189 0.447974
0.810925 0.750484 0.473289
0.900816 0.776135 0.490944
0.966567 0.787213 0.494728
0.998001 0.785336 0.488167
1 0.787762 0.488396
0.586465 0.716411 0.451698
0.652384 0.736797 0.469352
0.717037 0.757565 0.490089
0.786343 0.780224 0.512673
0.854154 0.800473 0.529946
0.917586 0.815152 0.537911
0.968917 0.821653 0.536065
0.995575 0.820981 0.532647
1 0.820325 0.535424
0.702464 0.772213 0.508095
0.740703 0.783536 0.52076
0.781292 0.794934 0.533913
0.828779 0.807309 0.547326
0.881788 0.819074 0.557031
0.935317 0.827787 0.559365
0.978515 0.831449 0.555673
0.998947 0.830915 0.550759
1 0.829953 0.552407
0.730129 0.789136 0.546822
0.76466 0.798169 0.555856
0.805371 0.807782 0.565164
0.854047 0.818341 0.574456
0.904097 0.827726 0.581338
0.951507 0.834699 0.583825
0.985458 0.837156 0.580941
0.997909 0.835599 0.575601
0.999847 0.833463 0.56997
0.000198367 0.0458076 0.105699
0.0877852 0.0435645 0.133654
0.207233 0.0439155 0.137148
0.314839 0.0512245 0.110185
0.407279 0.0586252 0.0792401
0.456809 0.0634012 0.057023
0.491997 0.0684825 0.0439155
0.529702 0.0782177 0.0374304
0.571893 0.094728 0.0348821
7.62951e-05 0.14844 0.212222
0.135973 0.19202 0.218631
0.389578 0.218769 0.19202
0.517769 0.212558 0.150347
0.585428 0.194659 0.116106
0.625864 0.181308 0.0906081
0.653925 0.176333 0.0712596
0.683207 0.183154 0.0605173
0.71284 0.204364 0.0617075
0.00872816 0.293263 0.300145
0.172244 0.343709 0.293523
0.394629 0.389212 0.28542
0.594156 0.411612 0.259236
0.721981 0.406409 0.223362
0.777813 0.388998 0.197162
0.81033 0.37142 0.174151
0.8309 0.358236 0.151217
0.846326 0.367132 0.150942
0.0785687 0.425177 0.353857
0.259342 0.470115 0.343496
0.432166 0.513802 0.346487
0.599756 0.557824 0.345495
0.766506 0.582422 0.346303
0.867903 0.588769 0.34052
0.919753 0.58027 0.325322
0.941131 0.565805 0.305135
0.952056 0.560678 0.29604
0.202243 0.538857 0.400961
0.36054 0.574975 0.396872
0.503822 0.61146 0.407446
0.638254 0.650339 0.423163
0.773358 0.689082 0.441337
0.889479 0.711742 0.454002
0.955245 0.712566 0.449088
0.985275 0.711009 0.434623
0.993347 0.714199 0.427543
0.379095 0.640513 0.449668
0.491447 0.666896 0.457176
0.599435 0.695018 0.473213
0.703563 0.725216 0.494636
0.805127 0.755596 0.513954
0.899474 0.78117 0.526146
0.969558 0.792752 0.526131
0.998306 0.792508 0.521843
0.999863 0.796613 0.520043
0.563058 0.726909 0.508049
0.628244 0.743038 0.517189
0.699702 0.76199 0.531655
0.771221 0.781582 0.547433
0.841825 0.80061 0.561196
0.913268 0.816419 0.56701
0.969482 0.824125 0.56321
0.996033 0.824765 0.560204
0.999893 0.826215 0.565774
0.655528 0.769879 0.552316
0.700267 0.780774 0.559365
0.752789 0.793667 0.570169
0.810224 0.807034 0.581567
0.869795 0.819852 0.590677
0.9299 0.831052 0.594766
0.977188 0.836896 0.592264
0.996582 0.837018 0.587366
0.999893 0.836683 0.588968
0.685374 0.787289 0.591974
0.726879 0.796582 0.597116
0.778424 0.807691 0.6038
0.837278 0.819837 0.61146
0.894835 0.8309 0.618616
0.943435 0.839109 0.623041
0.978897 0.843275 0.622965
0.994125 0.843091 0.619471
0.998627 0.841367 0.612253
1.5259e-05 0.0436255 0.140063
0.0606546 0.0484932 0.186206
0.20354 0.047303 0.209018
0.33373 0.0548257 0.21677
0.422309 0.0628214 0.200855
0.472435 0.0644083 0.163592
0.502068 0.0693217 0.120409
0.534386 0.0754711 0.090425
0.570413 0.0873274 0.0790265
0 0.173541 0.29778
0.0843824 0.215305 0.317296
0.32488 0.239384 0.326116
0.498573 0.235828 0.302953
0.581033 0.218509 0.263844
0.624598 0.198032 0.216434
0.651209 0.181125 0.166598
0.678019 0.184634 0.130434
0.704784 0.200259 0.117739
0.016022 0.342763 0.414282
0.139178 0.385748 0.416037
0.370779 0.418814 0.41294
0.564538 0.429297 0.383871
0.686091 0.420386 0.341924
0.746639 0.395254 0.296727
0.781338 0.36733 0.248737
0.805798 0.360479 0.222034
0.82649 0.373816 0.218006
0.0808118 0.480354 0.47277
0.22681 0.516686 0.467109
0.416251 0.546181 0.461723
0.585092 0.572137 0.457481
0.736507 0.585901 0.439796
0.83714 0.583246 0.413886
0.888716 0.565179 0.383062
0.913634 0.552041 0.359243
0.927138 0.555703 0.354299
0.197345 0.581308 0.504311
0.332769 0.606775 0.497215
0.482246 0.632151 0.49723
0.619104 0.659709 0.504036
0.745464 0.687236 0.507988
0.8636 0.702861 0.508568
0.936004 0.706035 0.494148
0.971328 0.705562 0.480003
0.983627 0.711696 0.477333
0.367987 0.66804 0.534859
0.466041 0.684672 0.533257
0.571496 0.703761 0.537774
0.678218 0.726452 0.548867
0.777752 0.750973 0.559213
0.876524 0.775296 0.565621
0.957305 0.789258 0.56437
0.988586 0.791745 0.560372
0.998108 0.799252 0.55671
0.521737 0.736736 0.574029
0.585046 0.747936 0.575525
0.659022 0.761761 0.580163
0.739452 0.778134 0.5888
0.813901 0.794553 0.597772
0.890837 0.81117 0.602121
0.9561 0.822644 0.600763
0.988815 0.826185 0.600809
0.997513 0.829664 0.607767
0.599817 0.771771 0.614023
0.649012 0.78085 0.616068
0.708919 0.791836 0.619089
0.780316 0.805463 0.624765
0.847013 0.818662 0.631159
0.907439 0.830884 0.636042
0.960693 0.83975 0.636713
0.988098 0.842741 0.634455
0.994858 0.843671 0.640192
0.644923 0.790829 0.651789
0.690944 0.798917 0.652338
0.747478 0.809018 0.653315
0.814618 0.821454 0.657206
0.877516 0.83331 0.662745
0.924834 0.841978 0.667689
0.95816 0.847242 0.670542
0.97998 0.849699 0.672114
0.98967 0.849424 0.669261
3.0518e-05 0.0576791 0.212222
0.0422522 0.0741436 0.262654
0.204181 0.0779431 0.293858
0.35079 0.0806287 0.310033
0.443351 0.0873121 0.310048
0.502388 0.0843214 0.287968
0.542123 0.0845808 0.247913
0.579736 0.0865797 0.208499
0.615717 0.102266 0.194171
0.000259403 0.218997 0.394095
0.0430915 0.253529 0.412253
0.24535 0.278294 0.423941
0.442466 0.277989 0.42739
0.565362 0.267613 0.415717
0.633875 0.246708 0.37937
0.679011 0.228931 0.327871
0.713329 0.225483 0.28571
0.735973 0.24683 0.271809
0.0222934 0.381079 0.504662
0.102983 0.416571 0.511574
0.28658 0.445167 0.515587
0.495674 0.457389 0.510521
0.634165 0.452918 0.487694
0.719295 0.435737 0.450187
0.772549 0.413291 0.406256
0.804364 0.408835 0.374716
0.825071 0.422232 0.363226
0.0902113 0.516258 0.566262
0.199619 0.546593 0.567208
0.364538 0.572381 0.567544
0.544472 0.590387 0.565469
0.689113 0.598321 0.551598
0.788235 0.592676 0.525032
0.844526 0.578042 0.489616
0.879088 0.569726 0.462867
0.90045 0.573968 0.452491
0.206424 0.616861 0.596567
0.319677 0.638025 0.595285
0.450629 0.655894 0.594156
0.59173 0.672984 0.59498
0.71162 0.6878 0.593103
0.818814 0.695369 0.579461
0.895582 0.695994 0.559853
0.940017 0.694972 0.543542
0.957931 0.699504 0.540932
0.360143 0.694835 0.621149
0.441199 0.706157 0.619028
0.534722 0.717571 0.617655
0.642924 0.731197 0.617761
0.738567 0.746212 0.619547
0.831312 0.764584 0.618921
0.916548 0.774243 0.614908
0.963623 0.780346 0.605127
0.982345 0.784115 0.602502
0.482856 0.750271 0.652003
0.542809 0.758022 0.650538
0.612894 0.766278 0.648234
0.695796 0.776074 0.646342
0.777066 0.787823 0.646937
0.850492 0.801221 0.647517
0.919173 0.813489 0.647257
0.967056 0.821668 0.648966
0.984909 0.826963 0.655985
0.570443 0.784146 0.693034
0.619684 0.790539 0.691188
0.676631 0.797574 0.687602
0.746807 0.80621 0.681254
0.817929 0.816938 0.678706
0.872129 0.826703 0.680659
0.92285 0.836088 0.68217
0.961379 0.843214 0.685908
0.977783 0.845518 0.695933
0.634058 0.80354 0.725856
0.676417 0.80914 0.723323
0.726665 0.815518 0.719158
0.788128 0.824186 0.715068
0.847745 0.833387 0.711833
0.891814 0.840757 0.710842
0.923339 0.846494 0.713664
0.951064 0.851209 0.719112
0.968109 0.853437 0.726177
0 0.10399 0.325994
0.0316777 0.122713 0.357
0.177478 0.138277 0.383795
0.340963 0.136919 0.404105
0.443015 0.135042 0.414206
0.519112 0.12459 0.41268
0.582773 0.124865 0.401114
0.635981 0.131365 0.389731
0.671672 0.158572 0.388937
0.00291447 0.272648 0.479316
0.0379797 0.301045 0.491997
0.181231 0.326635 0.502922
0.378393 0.330816 0.512566
0.511299 0.321447 0.51751
0.610559 0.314229 0.515801
0.692805 0.308186 0.503853
0.739559 0.316442 0.487282
0.765347 0.342626 0.481804
0.023682 0.412421 0.567849
0.0852064 0.441779 0.576989
0.226276 0.471595 0.585397
0.418936 0.489128 0.590616
0.570108 0.489906 0.588617
0.678065 0.486015 0.580041
0.751873 0.483314 0.563912
0.79884 0.493523 0.552895
0.824155 0.509056 0.547585
0.0883345 0.534035 0.626459
0.181918 0.564187 0.632883
0.329976 0.592569 0.640009
0.496834 0.611948 0.643961
0.635508 0.618402 0.640955
0.733074 0.615442 0.62565
0.801816 0.61207 0.607111
0.848432 0.61648 0.594766
0.875151 0.628397 0.591669
0.221439 0.639796 0.664225
0.320348 0.659052 0.667216
0.432914 0.675258 0.669337
0.558679 0.688014 0.670497
0.676829 0.696559 0.668299
0.775174 0.701091 0.65922
0.849973 0.700618 0.643046
0.895186 0.699977 0.62652
0.919417 0.704906 0.620218
0.367025 0.715251 0.689464
0.438972 0.725933 0.69073
0.521065 0.734768 0.69044
0.615702 0.742855 0.68777
0.713573 0.750881 0.685557
0.795483 0.758648 0.680995
0.872435 0.762844 0.669505
0.92488 0.763592 0.659434
0.952438 0.766857 0.654063
0.486091 0.767926 0.724071
0.540642 0.774456 0.724178
0.599237 0.778408 0.719753
0.669596 0.781811 0.710933
0.744503 0.786526 0.701717
0.812009 0.794171 0.696544
0.877348 0.803494 0.693217
0.935943 0.810971 0.694286
0.964187 0.817029 0.694606
0.590799 0.800595 0.756832
0.632258 0.804715 0.754101
0.676478 0.80798 0.747204
0.728328 0.811231 0.736202
0.785214 0.81561 0.724361
0.83743 0.821591 0.7178
0.883375 0.829328 0.717433
0.927962 0.837125 0.721935
0.958816 0.841947 0.733562
0.6607 0.817044 0.777859
0.693233 0.820386 0.774563
0.731014 0.824262 0.770123
0.77583 0.828595 0.761883
0.819455 0.832853 0.749935
0.85478 0.836347 0.738094
0.886 0.840925 0.7346
0.919554 0.847135 0.74049
0.947951 0.85243 0.754253
0.000762951 0.178759 0.434302
0.0243534 0.198932 0.451637
0.145495 0.217121 0.468009
0.307805 0.217899 0.487846
0.41088 0.206683 0.501045
0.496574 0.205493 0.514061
0.584924 0.214038 0.529168
0.648234 0.242374 0.544518
0.684077 0.276967 0.559579
0.00701915 0.326665 0.544533
0.038407 0.351843 0.556329
0.145266 0.380484 0.56907
0.322591 0.39675 0.582208
0.46804 0.399054 0.592844
0.574151 0.400366 0.60148
0.662104 0.412772 0.611643
0.721965 0.441398 0.624887
0.750378 0.465827 0.633265
0.0299687 0.442863 0.616266
0.0866407 0.475303 0.627665
0.222934 0.512749 0.64094
0.40734 0.541085 0.652125
0.552407 0.549599 0.655955
0.646067 0.548898 0.656565
0.718975 0.558312 0.661814
0.77377 0.580285 0.671962
0.805905 0.604044 0.681117
0.11165 0.564508 0.672419
0.216632 0.5991 0.68333
0.36202 0.629114 0.694011
0.506493 0.646845 0.699886
0.6206 0.650248 0.698833
0.70341 0.647929 0.694438
0.768856 0.653239 0.692882
0.823072 0.670497 0.695781
0.856703 0.691966 0.702571
0.26891 0.666377 0.711666
0.36022 0.68397 0.717388
0.460288 0.698543 0.722179
0.568627 0.709667 0.725399
0.668971 0.715877 0.72607
0.750988 0.717494 0.722347
0.810605 0.716747 0.712169
0.857755 0.722484 0.704829
0.889815 0.732662 0.703319
0.409308 0.736507 0.738537
0.474693 0.744976 0.740963
0.544503 0.75169 0.742
0.621561 0.756558 0.741222
0.700694 0.759731 0.738827
0.774166 0.761608 0.733455
0.837125 0.762737 0.724285
0.888472 0.764096 0.714321
0.919783 0.766217 0.708263
0.52726 0.781949 0.764294
0.57409 0.786603 0.764813
0.622187 0.789532 0.763058
0.674128 0.790616 0.756909
0.730861 0.792111 0.74902
0.791897 0.795132 0.742565
0.847974 0.800351 0.738659
0.904845 0.80383 0.732387
0.938445 0.805234 0.729839
0.626688 0.81059 0.78735
0.661189 0.813947 0.786603
0.692012 0.815503 0.781872
0.728161 0.81677 0.77406
0.766674 0.817792 0.763439
0.808347 0.819913 0.752773
0.853086 0.824704 0.74667
0.901656 0.831647 0.746258
0.945144 0.837415 0.753277
0.685939 0.823621 0.797543
0.713207 0.826566 0.796124
0.740215 0.828931 0.791897
0.769848 0.831052 0.784558
0.797391 0.832334 0.773037
0.825162 0.833677 0.759976
0.859083 0.837461 0.753628
0.897108 0.843854 0.756756
0.934676 0.850233 0.764996
0.00453193 0.26157 0.513542
0.0280156 0.280064 0.525048
0.114137 0.30219 0.539422
0.266957 0.313085 0.557656
0.404974 0.318807 0.575204
0.508888 0.328252 0.591867
0.595941 0.349432 0.61117
0.652308 0.380957 0.626917
0.680079 0.418967 0.64123
0.0126802 0.376791 0.59501
0.0496376 0.404639 0.60734
0.162631 0.442267 0.623011
0.34522 0.476692 0.640085
0.499825 0.496239 0.653284
0.600519 0.507118 0.663066
0.672663 0.518929 0.671931
0.72018 0.543496 0.683986
0.746578 0.573831 0.696178
0.0581826 0.488594 0.657084
0.142535 0.530221 0.671458
0.298817 0.575662 0.688609
0.48249 0.612299 0.703609
0.605936 0.621927 0.70724
0.681727 0.623377 0.708263
0.735088 0.631464 0.712749
0.779629 0.655238 0.724224
0.808774 0.681254 0.736202
0.204608 0.618967 0.712016
0.325536 0.651759 0.723583
0.45507 0.676631 0.733776
0.581872 0.694118 0.741344
0.680873 0.702327 0.744121
0.745205 0.703944 0.74313
0.786603 0.706233 0.74226
0.822751 0.719524 0.747631
0.852186 0.736828 0.75465
0.371557 0.707927 0.746471
0.459937 0.723781 0.753475
0.548959 0.736248 0.759793
0.637659 0.745007 0.76434
0.715816 0.749096 0.765866
0.770382 0.746929 0.762615
0.808133 0.74403 0.757626
0.843915 0.74963 0.756191
0.87657 0.762646 0.758862
0.478309 0.757061 0.767117
0.53698 0.763897 0.770672
0.594644 0.768338 0.772931
0.658076 0.771634 0.774472
0.71928 0.773526 0.774502
0.774685 0.773953 0.772671
0.822797 0.773571 0.768124
0.86537 0.774945 0.761669
0.894362 0.778881 0.757946
0.571786 0.791501 0.785245
0.610544 0.794217 0.786435
0.651255 0.796643 0.787015
0.694087 0.79826 0.786175
0.739193 0.799558 0.784054
0.787854 0.801129 0.781155
0.837919 0.802915 0.777142
0.882353 0.804944 0.771588
0.915694 0.806806 0.766567
0.654154 0.815198 0.799771
0.680995 0.817517 0.799985
0.709331 0.819684 0.799619
0.738491 0.821347 0.797314
0.767498 0.822721 0.793271
0.799603 0.824216 0.787732
0.839857 0.826825 0.782696
0.885054 0.831678 0.780255
0.926925 0.835676 0.780179
0.701152 0.826566 0.806134
0.723507 0.828977 0.805966
0.744244 0.8309 0.804364
0.765835 0.832593 0.801053
0.786313 0.83386 0.795926
0.809079 0.835203 0.789532
0.842817 0.838346 0.785031
0.883116 0.843519 0.785641
0.921996 0.849424 0.787976
0.0121004 0.336202 0.569757
0.0463874 0.357946 0.580835
0.147753 0.386648 0.595682
0.309575 0.414298 0.613809
0.456855 0.433478 0.631296
0.565713 0.446174 0.644953
0.643412 0.468208 0.65864
0.690532 0.501991 0.673304
0.712413 0.530236 0.684123
0.0328374 0.434089 0.633173
0.0925765 0.470237 0.646754
0.235035 0.517647 0.66537
0.428168 0.55639 0.682185
0.568856 0.575891 0.692607
0.659815 0.587686 0.700221
0.718441 0.603189 0.708309
0.755871 0.627008 0.718639
0.775784 0.646494 0.727214
0.132082 0.553521 0.691325
0.248814 0.595361 0.705608
0.402167 0.633371 0.720302
0.559853 0.662547 0.732799
0.675715 0.679576 0.740093
0.743389 0.688228 0.743404
0.782437 0.696544 0.746639
0.808759 0.708736 0.752544
0.828931 0.723751 0.759365
0.324941 0.675837 0.74107
0.436576 0.701411 0.751583
0.548272 0.720409 0.761044
0.661982 0.737057 0.769802
0.751415 0.748623 0.775204
0.798413 0.750317 0.774472
0.821729 0.748959 0.772259
0.841993 0.754589 0.77348
0.864134 0.768795 0.778347
0.466529 0.743145 0.769146
0.543099 0.754772 0.775753
0.618753 0.764233 0.781643
0.694484 0.771328 0.786419
0.759716 0.775082 0.788708
0.805386 0.77496 0.787778
0.834073 0.773266 0.784985
0.856886 0.775937 0.78323
0.878386 0.785702 0.785031
0.536995 0.77258 0.782498
0.590539 0.778592 0.786709
0.645274 0.78349 0.790539
0.702708 0.787091 0.793713
0.75642 0.789624 0.795682
0.803632 0.790875 0.796063
0.840284 0.791043 0.794217
0.86656 0.792065 0.790784
0.886259 0.795804 0.789044
0.606165 0.797055 0.795224
0.644907 0.80058 0.798123
0.680049 0.80267 0.800076
0.719753 0.80473 0.801923
0.760449 0.806516 0.80322
0.80087 0.808331 0.80383
0.840864 0.810559 0.803311
0.877165 0.813092 0.801328
0.902464 0.815793 0.799008
0.673304 0.818097 0.807218
0.697353 0.82034 0.80885
0.722133 0.822446 0.810407
0.749096 0.824643 0.811948
0.774975 0.826581 0.812787
0.804471 0.828626 0.812894
0.842588 0.831235 0.812528
0.884459 0.834791 0.811582
0.914229 0.837751 0.810452
0.711269 0.828199 0.812894
0.728023 0.829938 0.81384
0.748028 0.832044 0.814954
0.767391 0.834012 0.815549
0.7879 0.836057 0.815671
0.812314 0.838453 0.815442
0.844953 0.841703 0.815732
0.8851 0.845792 0.81738
0.916808 0.849744 0.818677
0.0314183 0.406531 0.615656
0.0876936 0.436179 0.627527
0.214771 0.474617 0.643717
0.390509 0.508797 0.660227
0.529778 0.52958 0.672648
0.626734 0.54226 0.682322
0.692485 0.555047 0.690776
0.731197 0.581308 0.702037
0.752941 0.609964 0.712993
0.0915541 0.505196 0.66836
0.194064 0.545205 0.682506
0.344228 0.585321 0.697917
0.509194 0.618341 0.71165
0.633188 0.638651 0.72047
0.709453 0.646555 0.724941
0.755016 0.654719 0.729671
0.785168 0.672343 0.737865
0.806836 0.693416 0.747021
0.236774 0.618006 0.717922
0.354696 0.651225 0.730022
0.487343 0.67866 0.741878
0.622507 0.702144 0.752712
0.722805 0.716014 0.758587
0.776135 0.720455 0.759762
0.80557 0.72372 0.760906
0.828046 0.734005 0.765301
0.849622 0.752117 0.772747
0.410574 0.711192 0.756695
0.501503 0.727977 0.764721
0.594537 0.742245 0.772442
0.689052 0.754589 0.779461
0.76405 0.762325 0.783307
0.810636 0.764492 0.783368
0.835889 0.764843 0.78204
0.854963 0.770794 0.78294
0.874815 0.784833 0.787503
0.511315 0.757504 0.777035
0.577371 0.766949 0.782864
0.642206 0.773907 0.787869
0.709972 0.779507 0.792126
0.771115 0.783276 0.794736
0.817319 0.784756 0.795071
0.846494 0.784543 0.793256
0.86508 0.786709 0.791485
0.881086 0.793866 0.792508
0.567468 0.780484 0.788128
0.614267 0.785321 0.791959
0.662287 0.789319 0.795453
0.715236 0.792889 0.798795
0.766308 0.795483 0.80116
0.811093 0.797147 0.802106
0.845914 0.798306 0.801404
0.871504 0.800153 0.799374
0.889357 0.803937 0.798123
0.631617 0.802441 0.799969
0.66215 0.804852 0.802274
0.695338 0.807233 0.804654
0.730785 0.809064 0.80679
0.767575 0.810849 0.808637
0.806516 0.812985 0.810224
0.846876 0.815869 0.811139
0.883192 0.819333 0.810224
0.903044 0.822416 0.808957
0.687099 0.821485 0.810315
0.710109 0.82388 0.812161
0.731258 0.825559 0.813687
0.754986 0.827192 0.81532
0.780499 0.82884 0.816938
0.810742 0.830961 0.818586
0.848768 0.834089 0.820386
0.888075 0.838132 0.821744
0.91606 0.841962 0.822141
0.715618 0.828595 0.81413
0.733303 0.830549 0.815595
0.75108 0.832532 0.817136
0.77145 0.834867 0.818982
0.791943 0.837201 0.820783
0.81796 0.839857 0.822675
0.851682 0.843061 0.825025
0.890532 0.846937 0.827726
0.919234 0.85069 0.828962
