LUT预设1/iPhone专用lut合集3/iPhone合集3标准版（709）/FAKE胶片复古709.cube
TITLE "Generated by Resolve"
LUT_3D_SIZE 5
0.0189517 0.0492256 0.0827344
0.291997 0.04477 0.0648661
0.59823 0.0509957 0.062501
0.789914 0.0695201 0.0682231
0.887907 0.112474 0.07393
0.0682689 0.243442 0.123735
0.385229 0.3234 0.120607
0.712489 0.35877 0.0991379
0.877501 0.388785 0.0864881
0.943404 0.424979 0.0899062
0.359564 0.609537 0.271153
0.572 0.638498 0.267445
0.746487 0.654231 0.241917
0.893278 0.661738 0.232563
0.958282 0.673259 0.208835
0.573892 0.778027 0.404578
0.675975 0.788113 0.408469
0.780819 0.798795 0.393194
0.887068 0.805982 0.363302
0.967514 0.810605 0.383932
0.688777 0.880034 0.523354
0.753292 0.886595 0.529686
0.821866 0.893889 0.525856
0.893339 0.897093 0.505135
0.965911 0.901091 0.468864
0.0262913 0.0894026 0.267491
0.234363 0.107576 0.259831
0.572244 0.134325 0.245731
0.793332 0.165484 0.224781
0.903899 0.213519 0.200931
0.0806439 0.35227 0.393317
0.397238 0.458045 0.431373
0.712474 0.484642 0.371328
0.871061 0.499199 0.316838
0.948608 0.522713 0.281865
0.318944 0.66685 0.555962
0.563775 0.691402 0.549401
0.736233 0.704814 0.523827
0.879713 0.710002 0.476005
0.95436 0.713481 0.437583
0.546029 0.807172 0.623652
0.670909 0.814359 0.61622
0.778393 0.822553 0.608377
0.878676 0.829999 0.579019
0.958709 0.832532 0.574166
0.675883 0.896803 0.674525
0.748089 0.901854 0.670771
0.825086 0.904463 0.664836
0.891173 0.907423 0.653346
0.962341 0.910597 0.626566
0.0602121 0.189319 0.531579
0.255421 0.248493 0.580911
0.570474 0.327169 0.622126
0.76318 0.388296 0.633158
0.865629 0.43624 0.619867
0.135012 0.489601 0.670268
0.409476 0.562356 0.701946
0.666606 0.594141 0.698207
0.827436 0.612024 0.678294
0.919402 0.626703 0.648829
0.364782 0.710781 0.739849
0.565774 0.732418 0.744366
0.737026 0.742992 0.732418
0.864393 0.749203 0.707317
0.940932 0.755169 0.678416
0.557076 0.82974 0.772869
0.666499 0.837415 0.771984
0.786175 0.842954 0.763378
0.8766 0.849653 0.750103
0.946975 0.851987 0.730297
0.671702 0.912306 0.8009
0.740795 0.914214 0.796323
0.824872 0.914015 0.787564
0.895842 0.917128 0.782422
0.95346 0.917784 0.766552
0.130053 0.385016 0.776135
0.36144 0.455222 0.812879
0.629999 0.495644 0.823194
0.790509 0.524483 0.822293
0.877623 0.554116 0.81529
0.246601 0.605447 0.838819
0.489769 0.640345 0.849149
0.688289 0.656474 0.846876
0.824704 0.671382 0.839628
0.904692 0.685389 0.828885
0.444007 0.752438 0.859968
0.597528 0.766384 0.862882
0.739086 0.776287 0.859205
0.852277 0.784115 0.8486
0.925673 0.789883 0.832746
0.584131 0.850721 0.875776
0.681788 0.857847 0.877913
0.784298 0.863752 0.873228
0.878981 0.867582 0.86424
0.94139 0.870741 0.852293
0.682933 0.918669 0.894347
0.744671 0.921248 0.894987
0.823301 0.924163 0.890059
0.903578 0.924163 0.882765
0.950256 0.923766 0.874357
0.259525 0.565942 0.923796
0.486946 0.594446 0.936538
0.680964 0.608087 0.939239
0.81236 0.621592 0.937377
0.892805 0.637736 0.936339
0.389609 0.686168 0.943755
0.563165 0.702876 0.948623
0.717647 0.713268 0.950683
0.834806 0.722225 0.948165
0.910094 0.730816 0.944091
0.51548 0.791653 0.952377
0.633097 0.801419 0.956069
0.755001 0.808591 0.95758
0.855421 0.81294 0.954223
0.921553 0.81828 0.95079
0.618952 0.873106 0.960555
0.699214 0.879561 0.965164
0.792081 0.884901 0.965484
0.879652 0.888304 0.962554
0.937194 0.891173 0.958114
0.700633 0.9243 0.97052
0.755947 0.927337 0.971313
0.827573 0.928969 0.969985
0.902754 0.928603 0.968612
0.948287 0.928832 0.966339
