LUT预设1/iPhone专用lut合集3/iPhone合集3标准版（709）/FAKE理光负片（暖）709.cube
TITLE "Generated by Resolve"
LUT_3D_SIZE 5
0.0128328 0.0293889 0.0630655
0.503883 0.0205234 0.0586709
0.788815 0.0211948 0.0638285
0.859083 0.0272679 0.0676738
0.868971 0.0431525 0.0699626
0.0529488 0.352544 0.0999771
0.381765 0.391073 0.1084
0.741314 0.368612 0.0861982
0.887007 0.333242 0.0767376
0.929702 0.297292 0.0734417
0.238544 0.639002 0.168017
0.427771 0.637507 0.168139
0.658091 0.632242 0.167529
0.854765 0.614023 0.155322
0.945647 0.597086 0.140734
0.405112 0.776455 0.205936
0.52105 0.779812 0.214023
0.651347 0.765713 0.214954
0.794507 0.759594 0.204471
0.944717 0.748012 0.202319
0.507561 0.88249 0.254627
0.575235 0.886213 0.26154
0.666133 0.885374 0.261082
0.770687 0.87689 0.259434
0.896056 0.874556 0.241245
0.0202945 0.0482032 0.407568
0.331212 0.0494392 0.320439
0.663951 0.0662699 0.263722
0.840009 0.0659495 0.196979
0.874022 0.0658122 0.136309
0.0758984 0.379278 0.405112
0.414694 0.439017 0.396323
0.732403 0.396201 0.280797
0.881437 0.343236 0.194354
0.928267 0.304006 0.142748
0.255924 0.649927 0.398627
0.470466 0.658412 0.412345
0.692744 0.646815 0.337514
0.857801 0.620127 0.252613
0.948974 0.584115 0.188174
0.433036 0.783246 0.393576
0.551644 0.78674 0.405798
0.668833 0.77998 0.40531
0.814801 0.769146 0.329885
0.949645 0.752834 0.276204
0.524285 0.890654 0.407172
0.595071 0.893568 0.411383
0.683238 0.892561 0.404929
0.782818 0.888014 0.394125
0.910292 0.879973 0.310796
0.0689708 0.157839 0.687312
0.315801 0.185595 0.686397
0.618814 0.230167 0.656764
0.773938 0.255818 0.595728
0.83093 0.248356 0.502281
0.148898 0.491707 0.746746
0.404852 0.529549 0.747539
0.655802 0.522271 0.702495
0.812314 0.502846 0.637797
0.893736 0.466987 0.548745
0.294652 0.673579 0.699519
0.484062 0.686427 0.701732
0.669947 0.682261 0.667582
0.833661 0.664393 0.600595
0.938949 0.637186 0.520317
0.444556 0.795285 0.663691
0.55845 0.799939 0.666163
0.676265 0.798444 0.663218
0.816312 0.792004 0.610391
0.946319 0.773999 0.515526
0.53138 0.900847 0.637903
0.602365 0.904158 0.63743
0.695613 0.905974 0.630793
0.791119 0.903349 0.619898
0.923491 0.892927 0.53341
0.145846 0.373144 0.874113
0.373754 0.412757 0.902113
0.642344 0.416388 0.897322
0.791501 0.413825 0.834928
0.85182 0.411429 0.765499
0.247776 0.587411 0.922881
0.456916 0.600214 0.92108
0.656626 0.589044 0.888411
0.79968 0.577371 0.839994
0.881086 0.567529 0.786389
0.378561 0.705821 0.878584
0.519768 0.713252 0.874098
0.674052 0.709621 0.855604
0.807889 0.701625 0.824674
0.907835 0.688487 0.782773
0.493462 0.806561 0.834684
0.585504 0.812116 0.83653
0.700526 0.812207 0.828779
0.819547 0.808225 0.804425
0.931441 0.793362 0.759152
0.56051 0.90782 0.805356
0.623957 0.914015 0.809277
0.713451 0.913512 0.804211
0.810269 0.912902 0.796902
0.936355 0.909392 0.746883
0.160388 0.527626 0.917311
0.328252 0.545586 0.930327
0.607019 0.538125 0.939071
0.78558 0.520256 0.941527
0.872618 0.516182 0.933257
0.283238 0.641688 0.943008
0.442878 0.648249 0.948806
0.638804 0.639704 0.952773
0.793408 0.62739 0.952926
0.889082 0.61976 0.942855
0.432212 0.735775 0.956802
0.542077 0.74078 0.960388
0.674296 0.737972 0.962875
0.803296 0.729229 0.959838
0.904295 0.719295 0.944533
0.533059 0.826078 0.962203
0.608347 0.830945 0.96463
0.710262 0.830915 0.966628
0.82266 0.826642 0.964309
0.920287 0.817578 0.950347
0.586603 0.914839 0.95494
0.642496 0.918822 0.958724
0.728603 0.922118 0.959731
0.83505 0.92369 0.957504
0.943053 0.921035 0.938659
