LUT预设1/iPhone专用lut合集3/iPhone合集3标准版（709）/FAKE理光负片709.cube
TITLE "Generated by Resolve"
LUT_3D_SIZE 33
0.0133516 0.0305638 0.063859
0.0349279 0.0297704 0.0632792
0.0769818 0.028275 0.0625772
0.144884 0.0262303 0.0616464
0.226566 0.0243839 0.0606088
0.302281 0.0230411 0.059556
0.370382 0.0222477 0.0588998
0.431067 0.0217899 0.0586099
0.484947 0.0215915 0.0586252
0.530144 0.0215457 0.0588998
0.570947 0.0214694 0.0592203
0.605844 0.0217746 0.0596475
0.637186 0.0221714 0.0601053
0.665583 0.022446 0.0605783
0.691676 0.0226596 0.0610971
0.715404 0.0229496 0.061677
0.737408 0.0243839 0.0623941
0.757534 0.0256504 0.0632181
0.776608 0.0265965 0.0639506
0.792935 0.0284428 0.0648203
0.80943 0.0306401 0.0657969
0.823758 0.0321813 0.0666514
0.834089 0.033463 0.0673533
0.846693 0.0370794 0.0682689
0.85481 0.0402838 0.0689708
0.860838 0.0426337 0.0695506
0.868391 0.0440986 0.0701915
0.871046 0.0491035 0.0706188
0.872648 0.0540322 0.0710155
0.874632 0.0576181 0.0714275
0.875929 0.060441 0.0717632
0.877058 0.0630198 0.0720226
0.878721 0.0691386 0.0722515
0.0117647 0.0475319 0.0636301
0.0290074 0.0480812 0.0634623
0.0661021 0.0465553 0.0629435
0.12195 0.0439612 0.0621195
0.189837 0.0412146 0.0612345
0.263294 0.0377356 0.0603799
0.332372 0.0356603 0.0596628
0.391226 0.0357671 0.0594644
0.4448 0.0359655 0.0595102
0.492302 0.0364996 0.0598001
0.533913 0.0369879 0.0601511
0.572259 0.0371557 0.060502
0.604593 0.0399176 0.0609751
0.635691 0.0422217 0.0614328
0.663401 0.0439918 0.062089
0.689815 0.0451209 0.0627604
0.714046 0.0462043 0.0635386
0.73669 0.0505074 0.0644541
0.758755 0.0538338 0.0654307
0.778439 0.0566262 0.0664836
0.797909 0.0583963 0.0675212
0.814984 0.0602274 0.0684825
0.830686 0.066392 0.0693523
0.846906 0.0714275 0.0703593
0.85716 0.0755169 0.0711376
0.866835 0.0786908 0.0719615
0.877897 0.0807507 0.0728923
0.880095 0.0866102 0.0729229
0.883024 0.0925154 0.073106
0.886778 0.0971847 0.0734417
0.887831 0.100893 0.07364
0.888701 0.103578 0.0738689
0.889494 0.105882 0.0740826
0.0112764 0.0752728 0.0647135
0.021561 0.0771038 0.0644846
0.0444343 0.0784466 0.0640269
0.0946212 0.0753338 0.0629587
0.152743 0.0742046 0.0619059
0.218753 0.0721141 0.0609751
0.284932 0.0699931 0.0603189
0.346334 0.0691234 0.0601968
0.402716 0.0685893 0.0603189
0.457328 0.067689 0.0606394
0.504097 0.0677195 0.0610819
0.548135 0.0709544 0.0614176
0.58439 0.0736248 0.0617838
0.619181 0.0759136 0.0621805
0.649149 0.0777295 0.0628672
0.678279 0.0792096 0.0636149
0.704402 0.0800183 0.0645609
0.729122 0.0837262 0.0653697
0.752544 0.0879377 0.0661784
0.773709 0.0921035 0.0671244
0.794308 0.0954757 0.0681621
0.812406 0.0984817 0.0692149
0.83006 0.100542 0.0703593
0.848051 0.105486 0.0711833
0.859297 0.111131 0.0716411
0.871061 0.115938 0.0723125
0.882811 0.120012 0.0731365
0.886198 0.123293 0.0734569
0.890654 0.125566 0.0739605
0.895445 0.128923 0.0742962
0.89688 0.134829 0.0740063
0.898238 0.139864 0.0738537
0.899428 0.14406 0.0738537
0.0120089 0.109255 0.0659342
0.0225986 0.107225 0.0656748
0.0440833 0.111498 0.0655985
0.0770886 0.113252 0.065156
0.135332 0.111772 0.06392
0.19971 0.110918 0.0628519
0.265187 0.109438 0.0618753
0.329091 0.106859 0.0610361
0.386542 0.107225 0.0609293
0.438117 0.109056 0.0609598
0.486412 0.109636 0.0612345
0.532311 0.109697 0.0615549
0.573129 0.11249 0.062089
0.61088 0.115999 0.0624704
0.643503 0.118334 0.0629892
0.674983 0.120348 0.0634012
0.701488 0.122072 0.0642252
0.726726 0.12343 0.065156
0.750439 0.124559 0.0662089
0.772519 0.12903 0.067155
0.794263 0.133806 0.0678569
0.813367 0.138369 0.068574
0.831662 0.141863 0.0694285
0.849287 0.144961 0.0703288
0.861708 0.147402 0.0712291
0.87483 0.14931 0.0723125
0.886702 0.154009 0.0729534
0.892287 0.159274 0.0729992
0.899138 0.16379 0.0732128
0.904982 0.167666 0.0734417
0.905867 0.170535 0.0734264
0.906813 0.173266 0.0735485
0.90753 0.175265 0.0737316
0.0154116 0.150774 0.068452
0.0252995 0.144671 0.0678416
0.0429999 0.149355 0.0682689
0.0711376 0.155337 0.0686809
0.114473 0.160006 0.0686351
0.183474 0.161013 0.0675975
0.252964 0.160357 0.0665599
0.322103 0.160296 0.065507
0.383459 0.159747 0.064271
0.440803 0.159304 0.0631876
0.489632 0.160647 0.0628367
0.533501 0.162844 0.062562
0.572732 0.164706 0.0624399
0.609842 0.166232 0.0625315
0.644129 0.168658 0.0634012
0.676402 0.172076 0.0639963
0.703777 0.175158 0.0647746
0.730632 0.177935 0.0650797
0.754589 0.179644 0.0654307
0.776486 0.18056 0.0659648
0.797482 0.181247 0.0664225
0.815961 0.181796 0.0674601
0.834195 0.186343 0.0686809
0.851759 0.190799 0.069398
0.865904 0.1953 0.0700847
0.880262 0.198795 0.0706951
0.892439 0.201389 0.0711681
0.900084 0.203403 0.0716106
0.908751 0.204822 0.072221
0.914397 0.205676 0.0727245
0.914412 0.209461 0.0728771
0.915206 0.213062 0.0728923
0.916075 0.216037 0.0728008
0.0196994 0.199741 0.0733501
0.0332647 0.191104 0.0724041
0.0501869 0.194217 0.0728923
0.0717632 0.199832 0.0736248
0.111223 0.210163 0.0750439
0.162234 0.219867 0.0761578
0.242115 0.222568 0.0752728
0.314015 0.223545 0.0741588
0.383459 0.222995 0.0726482
0.442145 0.224201 0.0713664
0.496559 0.224308 0.0693828
0.542504 0.225589 0.0682383
0.583993 0.227344 0.0672923
0.619654 0.23032 0.066804
0.651667 0.23415 0.0664988
0.682139 0.237812 0.06598
0.709636 0.236561 0.0658885
0.73579 0.237034 0.0664836
0.758404 0.238941 0.0675059
0.780133 0.241093 0.0681163
0.801358 0.243259 0.0681468
0.820447 0.244892 0.0682994
0.839338 0.245686 0.06804
0.856413 0.246265 0.0679637
0.871443 0.246983 0.068513
0.88629 0.247181 0.0691386
0.89749 0.250065 0.0704967
0.906081 0.252522 0.0714122
0.915572 0.254475 0.071931
0.920455 0.256489 0.0720531
0.921828 0.257816 0.0719615
0.923919 0.25861 0.071809
0.924926 0.258656 0.0716564
0.029572 0.253971 0.0812848
0.0447395 0.246479 0.0804303
0.0652018 0.248905 0.0810101
0.0879683 0.253758 0.0818952
0.12137 0.261677 0.0831922
0.168338 0.272801 0.0852064
0.220264 0.287098 0.0880446
0.299718 0.293935 0.0878462
0.379126 0.298985 0.0872053
0.442588 0.293614 0.0831617
0.50396 0.291905 0.0803998
0.54757 0.293233 0.0791333
0.592325 0.294224 0.077409
0.627161 0.296605 0.0766155
0.659922 0.298405 0.0755932
0.688823 0.300206 0.0749371
0.714275 0.302571 0.0745708
0.738949 0.306477 0.0740063
0.7617 0.30753 0.0729534
0.78497 0.307195 0.0711376
0.806332 0.305959 0.0701915
0.824018 0.305074 0.071107
0.841581 0.305318 0.0716411
0.85771 0.306065 0.0721904
0.872709 0.306508 0.0725567
0.887968 0.30721 0.0722362
0.900023 0.306996 0.0719463
0.910719 0.306661 0.0718242
0.921904 0.306157 0.0714885
0.926925 0.305226 0.0711833
0.929 0.304494 0.0715648
0.931289 0.304875 0.0724498
0.931502 0.304814 0.0729992
0.0417792 0.310552 0.0912337
0.0618601 0.305623 0.0908522
0.0811933 0.307362 0.0915236
0.108797 0.312337 0.0925307
0.139239 0.318761 0.0938735
0.18117 0.328878 0.0961471
0.230091 0.338735 0.0982071
0.292927 0.349645 0.100282
0.357275 0.358312 0.101411
0.429679 0.363775 0.101061
0.495872 0.366415 0.0994278
0.550591 0.36289 0.0949721
0.601785 0.359442 0.0905318
0.633036 0.359854 0.0890059
0.66508 0.360616 0.0874952
0.691722 0.362737 0.0867781
0.716915 0.364904 0.0859998
0.74168 0.366003 0.0849012
0.763684 0.36556 0.0839399
0.784894 0.36643 0.0831159
0.804425 0.367575 0.082414
0.822828 0.367575 0.0812848
0.841428 0.368063 0.0795605
0.858381 0.367544 0.0779126
0.874739 0.365606 0.0759594
0.890166 0.363409 0.0749065
0.901274 0.361166 0.0758831
0.911711 0.360189 0.0767224
0.92285 0.359014 0.0768597
0.927108 0.358007 0.0770428
0.931136 0.357015 0.0768292
0.936187 0.355871 0.0761883
0.936782 0.35407 0.0757
0.057496 0.366934 0.102281
0.0814679 0.363989 0.102281
0.106859 0.366247 0.10312
0.130938 0.370321 0.10425
0.163409 0.375509 0.105608
0.198322 0.381308 0.107103
0.245441 0.39202 0.109895
0.292988 0.403006 0.112657
0.356207 0.41062 0.113725
0.418723 0.418021 0.114687
0.477989 0.420264 0.113634
0.536156 0.421683 0.112383
0.586191 0.422354 0.110658
0.627131 0.420722 0.107668
0.666835 0.418921 0.104555
0.693614 0.418524 0.102159
0.719844 0.418158 0.0996872
0.743221 0.419791 0.0978866
0.763745 0.422965 0.0966964
0.784192 0.424949 0.0956588
0.803525 0.423606 0.0939193
0.821836 0.421714 0.0921035
0.839551 0.420691 0.090486
0.85481 0.418677 0.0896468
0.869795 0.417197 0.0887617
0.884901 0.416709 0.0877089
0.896956 0.415061 0.0868849
0.909316 0.413626 0.0855879
0.921935 0.412024 0.083772
0.927901 0.409934 0.082475
0.934661 0.407202 0.0807965
0.940734 0.404334 0.0802625
0.940841 0.401175 0.080827
0.0794537 0.422629 0.115099
0.106752 0.422538 0.115572
0.133455 0.425437 0.116655
0.160113 0.428077 0.117556
0.191638 0.430716 0.118456
0.226047 0.434852 0.119631
0.263218 0.440543 0.120912
0.303944 0.446677 0.122347
0.353201 0.457053 0.125185
0.403891 0.466331 0.127626
0.468254 0.471412 0.128328
0.529427 0.476585 0.129076
0.576806 0.474037 0.12604
0.620111 0.47126 0.123003
0.658091 0.469322 0.120409
0.687602 0.467552 0.117739
0.717464 0.466316 0.115297
0.741207 0.466178 0.113237
0.762951 0.466117 0.111131
0.784588 0.466163 0.108995
0.801862 0.466239 0.107393
0.818357 0.467109 0.106035
0.834302 0.468757 0.104799
0.849683 0.468879 0.10312
0.865431 0.469093 0.100969
0.880919 0.467689 0.0987411
0.894057 0.463813 0.0970474
0.907073 0.460563 0.0955825
0.918563 0.458122 0.0945754
0.925933 0.454719 0.0938735
0.934005 0.452033 0.0930495
0.940566 0.449317 0.0920577
0.942153 0.446052 0.091249
0.104036 0.472572 0.126864
0.137209 0.474205 0.127901
0.163958 0.476173 0.128832
0.190768 0.478996 0.129839
0.219348 0.482246 0.130953
0.253117 0.484199 0.131319
0.286763 0.486168 0.13167
0.327245 0.491875 0.13315
0.36762 0.49781 0.13492
0.414115 0.50309 0.13637
0.464347 0.508415 0.137682
0.512154 0.512749 0.138445
0.560525 0.514458 0.13817
0.609308 0.516945 0.138354
0.648692 0.515602 0.136263
0.684352 0.512596 0.133211
0.718776 0.509133 0.129961
0.740673 0.507774 0.127092
0.762097 0.506142 0.124407
0.782269 0.50573 0.122377
0.798413 0.506722 0.121019
0.815 0.50721 0.119387
0.831357 0.506691 0.117479
0.846983 0.505364 0.115496
0.862211 0.504753 0.113771
0.876356 0.503868 0.112291
0.889311 0.502678 0.11104
0.902632 0.502022 0.10985
0.914122 0.500832 0.108492
0.92401 0.498497 0.106661
0.934371 0.496361 0.104524
0.941329 0.493538 0.102358
0.944106 0.49015 0.100465
0.13257 0.518151 0.137987
0.165286 0.521279 0.139193
0.195056 0.524712 0.140642
0.219791 0.527459 0.14197
0.249378 0.527993 0.142794
0.280476 0.528359 0.143694
0.312795 0.529732 0.144442
0.346059 0.531701 0.144579
0.380209 0.533761 0.144656
0.422202 0.538582 0.145769
0.462715 0.543023 0.146532
0.507713 0.546563 0.147189
0.554681 0.549157 0.147784
0.598123 0.551431 0.148119
0.634684 0.54902 0.145892
0.67039 0.547356 0.144381
0.701991 0.54612 0.14284
0.729015 0.543816 0.140322
0.75581 0.542168 0.138079
0.777691 0.541009 0.135866
0.795636 0.540047 0.133623
0.813581 0.538933 0.131319
0.829267 0.538888 0.129641
0.843702 0.539834 0.128435
0.857618 0.541634 0.127535
0.871229 0.542779 0.126452
0.885237 0.541817 0.124636
0.899367 0.540185 0.122621
0.911192 0.537148 0.120363
0.921981 0.533959 0.118273
0.932937 0.531197 0.116365
0.938811 0.527642 0.114794
0.943069 0.523796 0.113283
0.161639 0.557229 0.148623
0.197864 0.560601 0.150179
0.224079 0.562997 0.151492
0.249439 0.564446 0.152331
0.277134 0.565744 0.153155
0.306065 0.567178 0.153979
0.337362 0.566812 0.153735
0.369253 0.56643 0.153567
0.40296 0.567727 0.153429
0.437278 0.569665 0.153048
0.47071 0.571588 0.15259
0.509071 0.574426 0.154238
0.54522 0.577417 0.155398
0.582025 0.5794 0.15584
0.621088 0.580667 0.156161
0.659358 0.58265 0.156695
0.692882 0.581247 0.155123
0.723735 0.578073 0.152621
0.75314 0.574777 0.150072
0.77229 0.572366 0.147341
0.791241 0.570367 0.144823
0.810895 0.56846 0.142458
0.825956 0.568887 0.141375
0.841047 0.569039 0.140047
0.856382 0.568872 0.138369
0.870054 0.567864 0.13666
0.883604 0.567132 0.134981
0.896803 0.56669 0.133288
0.907881 0.565255 0.131762
0.91899 0.56437 0.130465
0.930434 0.563546 0.129152
0.936675 0.56109 0.127626
0.943145 0.558312 0.126055
0.190036 0.593317 0.157015
0.226642 0.596857 0.158297
0.25359 0.598642 0.159121
0.277501 0.599832 0.159823
0.303105 0.601282 0.160632
0.331884 0.600198 0.161975
0.361379 0.599252 0.163348
0.391165 0.59884 0.164508
0.419776 0.598703 0.164202
0.448615 0.598306 0.163668
0.479469 0.599374 0.163638
0.511635 0.601129 0.163317
0.54258 0.602792 0.162448
0.578561 0.604212 0.16257
0.614054 0.605325 0.162554
0.647929 0.606119 0.162173
0.678798 0.604639 0.160891
0.709667 0.603647 0.159915
0.738231 0.602655 0.158877
0.761624 0.600336 0.157473
0.785443 0.59826 0.156054
0.807446 0.596429 0.154574
0.82359 0.595529 0.15285
0.839963 0.5944 0.150927
0.855726 0.593347 0.148959
0.868528 0.593408 0.147509
0.880995 0.594202 0.146151
0.892958 0.595346 0.144884
0.904387 0.594949 0.143679
0.91635 0.593866 0.14226
0.92784 0.592309 0.140749
0.935088 0.588998 0.138781
0.94258 0.586007 0.136904
0.219791 0.623331 0.1673
0.254078 0.625574 0.168612
0.279927 0.627085 0.169955
0.302113 0.628077 0.171099
0.326879 0.628397 0.171954
0.353399 0.628443 0.172839
0.380362 0.62858 0.173724
0.407248 0.627344 0.17348
0.434775 0.625727 0.173266
0.462165 0.624521 0.173007
0.490288 0.624689 0.171481
0.517723 0.624399 0.169528
0.54612 0.624811 0.168093
0.575998 0.625849 0.167758
0.604974 0.627085 0.167224
0.635157 0.628168 0.167865
0.667613 0.62945 0.16907
0.699794 0.630991 0.170031
0.729427 0.63006 0.169589
0.756008 0.627039 0.168215
0.781903 0.62417 0.166873
0.802136 0.621836 0.164996
0.818998 0.619989 0.162799
0.836652 0.618235 0.160647
0.85211 0.617243 0.15874
0.864958 0.617182 0.157015
0.87808 0.61677 0.155123
0.890898 0.616205 0.153964
0.902754 0.615335 0.152834
0.914687 0.614633 0.151354
0.924971 0.613443 0.14963
0.933181 0.612055 0.148302
0.941878 0.610956 0.147036
0.244846 0.650752 0.175555
0.281193 0.652781 0.176379
0.305898 0.654108 0.176898
0.327047 0.654398 0.177295
0.349477 0.654765 0.177768
0.372992 0.655299 0.178347
0.397787 0.654108 0.178958
0.423621 0.651972 0.179721
0.449744 0.650172 0.180591
0.475151 0.648615 0.179171
0.499672 0.647501 0.178256
0.524086 0.646342 0.177722
0.550683 0.646922 0.178012
0.577066 0.647456 0.177523
0.602914 0.647745 0.176196
0.633326 0.64863 0.176501
0.662562 0.649378 0.176318
0.691112 0.649973 0.175494
0.717281 0.6486 0.174792
0.743267 0.647471 0.174182
0.768765 0.646693 0.173571
0.789944 0.644846 0.171984
0.811429 0.642603 0.170275
0.832914 0.640818 0.168811
0.84828 0.639719 0.16817
0.862333 0.638758 0.167224
0.876799 0.637324 0.165713
0.889143 0.636866 0.164462
0.90074 0.636622 0.162737
0.912139 0.63682 0.160555
0.921965 0.637171 0.159182
0.93164 0.63714 0.158328
0.941863 0.636347 0.157153
0.273747 0.673091 0.18146
0.306401 0.674754 0.181613
0.32842 0.675395 0.18291
0.347265 0.675822 0.184054
0.368231 0.676417 0.185519
0.390631 0.676265 0.187015
0.414664 0.675578 0.188769
0.439246 0.674968 0.190494
0.4636 0.673838 0.191623
0.487266 0.671992 0.191516
0.510948 0.6701 0.191531
0.534874 0.668803 0.191211
0.558846 0.667994 0.189502
0.582177 0.667201 0.187472
0.606439 0.666667 0.18558
0.631769 0.667033 0.1841
0.655985 0.667506 0.182025
0.680751 0.667704 0.180377
0.707134 0.668223 0.18024
0.733104 0.6692 0.180072
0.758862 0.669291 0.180056
0.783246 0.667201 0.180285
0.807034 0.665125 0.180545
0.829023 0.662837 0.180499
0.843458 0.661036 0.179095
0.85864 0.659281 0.177615
0.874464 0.657572 0.176013
0.886152 0.657069 0.173907
0.898177 0.656626 0.171481
0.910597 0.656031 0.168719
0.920974 0.655329 0.167422
0.931334 0.654551 0.16611
0.942061 0.653864 0.16466
0.295705 0.69546 0.193133
0.326314 0.696452 0.193942
0.347845 0.69688 0.194812
0.366934 0.697337 0.195529
0.387198 0.697673 0.196323
0.40911 0.697643 0.197208
0.431556 0.697627 0.198062
0.454749 0.697536 0.199039
0.477165 0.695201 0.200153
0.50016 0.692988 0.201511
0.523323 0.690898 0.203052
0.544732 0.689082 0.200885
0.566018 0.687221 0.198489
0.587121 0.685527 0.195941
0.609308 0.685389 0.19321
0.631189 0.685069 0.18999
0.653025 0.684871 0.187304
0.677226 0.68545 0.187823
0.701534 0.686168 0.188174
0.725307 0.686687 0.187655
0.748867 0.685847 0.187533
0.772259 0.684565 0.187747
0.79498 0.683696 0.187839
0.815579 0.682475 0.187228
0.83415 0.680659 0.186252
0.853269 0.678798 0.185321
0.870588 0.677348 0.18407
0.883711 0.675959 0.181781
0.897078 0.674846 0.179507
0.910063 0.673533 0.17731
0.920623 0.672938 0.176684
0.931289 0.672618 0.175631
0.940902 0.672312 0.173907
0.317418 0.714809 0.20325
0.347234 0.715343 0.203387
0.367758 0.71574 0.203418
0.385519 0.715908 0.203632
0.404562 0.715877 0.20412
0.424704 0.715984 0.204578
0.446082 0.716045 0.205081
0.467781 0.714733 0.205921
0.490028 0.713329 0.206836
0.512703 0.711971 0.207935
0.534035 0.710094 0.207202
0.55404 0.708232 0.206836
0.574258 0.70634 0.207065
0.594461 0.705028 0.206744
0.614298 0.704097 0.205005
0.634256 0.702998 0.202899
0.654185 0.702296 0.2009
0.675395 0.702296 0.199451
0.696071 0.702296 0.197284
0.716335 0.702327 0.194491
0.739223 0.702296 0.19443
0.762219 0.702586 0.193912
0.78526 0.703014 0.192874
0.806775 0.701686 0.192462
0.828885 0.699687 0.192279
0.851606 0.697749 0.192309
0.868559 0.695857 0.191211
0.882094 0.694072 0.190814
0.895994 0.692592 0.190417
0.908507 0.691676 0.18941
0.919219 0.691173 0.18735
0.930297 0.690486 0.184558
0.939269 0.689754 0.182422
0.339361 0.732509 0.209308
0.367498 0.732982 0.208148
0.386664 0.73315 0.208713
0.403174 0.733211 0.209705
0.421164 0.733577 0.210819
0.440589 0.73373 0.211887
0.460746 0.733379 0.213504
0.481529 0.732845 0.215137
0.5028 0.732525 0.216831
0.523522 0.731701 0.218204
0.542763 0.729534 0.219394
0.562234 0.72752 0.221057
0.581689 0.725551 0.223041
0.599924 0.723644 0.22121
0.617731 0.721706 0.219242
0.635706 0.719905 0.217014
0.654108 0.719203 0.213779
0.672328 0.718914 0.209918
0.690806 0.718257 0.205325
0.711086 0.718196 0.202365
0.733242 0.718593 0.200824
0.755154 0.718944 0.198672
0.776669 0.718578 0.196506
0.798291 0.717113 0.197055
0.819867 0.715984 0.19884
0.840696 0.715206 0.20029
0.857435 0.713497 0.200244
0.87454 0.711971 0.200168
0.89247 0.710414 0.199863
0.905089 0.709377 0.198169
0.917021 0.708064 0.195834
0.929412 0.706752 0.193149
0.938048 0.705653 0.191333
0.358144 0.750057 0.222187
0.384512 0.750301 0.222675
0.403037 0.750301 0.223087
0.419471 0.7505 0.223529
0.437552 0.750652 0.223819
0.455467 0.750484 0.224552
0.474052 0.750347 0.225467
0.493156 0.750225 0.226474
0.512963 0.749996 0.22742
0.531441 0.748257 0.229038
0.550439 0.746563 0.230701
0.569482 0.744961 0.232578
0.587564 0.743206 0.232212
0.604898 0.741192 0.230564
0.622461 0.739101 0.228992
0.639887 0.737408 0.226825
0.657023 0.73608 0.222751
0.674281 0.734768 0.218387
0.691554 0.733455 0.213657
0.710704 0.733288 0.211627
0.729458 0.733364 0.210178
0.747906 0.733272 0.207767
0.76788 0.733028 0.207126
0.78851 0.732982 0.207675
0.809369 0.733043 0.207416
0.82974 0.732601 0.206882
0.849897 0.730983 0.207294
0.870466 0.72932 0.207767
0.890333 0.727733 0.207965
0.903151 0.726009 0.206332
0.916289 0.724147 0.2047
0.929213 0.72224 0.203067
0.937575 0.721187 0.200549
0.377035 0.76585 0.234913
0.402792 0.766033 0.234302
0.420981 0.766033 0.23386
0.436973 0.766217 0.23331
0.452018 0.766201 0.233616
0.468437 0.76614 0.233845
0.485969 0.766186 0.234287
0.504417 0.766049 0.234699
0.522271 0.765255 0.23563
0.540352 0.764172 0.236988
0.558785 0.763348 0.238132
0.577005 0.762219 0.239033
0.59382 0.759945 0.238224
0.610605 0.757839 0.237766
0.62739 0.755795 0.238575
0.643366 0.75404 0.237598
0.659037 0.752453 0.235843
0.674708 0.750637 0.234257
0.6907 0.749447 0.232258
0.706752 0.749096 0.228504
0.722713 0.748501 0.224002
0.738888 0.747967 0.21886
0.759915 0.748547 0.217578
0.780606 0.748928 0.215549
0.801068 0.749218 0.212634
0.822003 0.747951 0.212238
0.843229 0.746365 0.212863
0.864057 0.744915 0.213123
0.881376 0.743282 0.212421
0.896101 0.741558 0.211093
0.911696 0.739834 0.209827
0.925048 0.738262 0.208042
0.935103 0.737011 0.207294
0.396704 0.781109 0.242451
0.421515 0.781231 0.240436
0.438178 0.781262 0.239643
0.451423 0.78117 0.239567
0.466087 0.781125 0.239658
0.48191 0.781048 0.239673
0.498955 0.780896 0.239734
0.515465 0.780667 0.241154
0.532006 0.780392 0.242893
0.54902 0.780133 0.2448
0.566171 0.780011 0.246525
0.582269 0.778134 0.248188
0.598596 0.77615 0.250507
0.614954 0.774258 0.252659
0.631006 0.772488 0.253681
0.646113 0.770581 0.252522
0.661418 0.768643 0.251255
0.676677 0.766873 0.249958
0.692058 0.765621 0.246128
0.707607 0.764477 0.241505
0.723064 0.763363 0.236606
0.740078 0.762554 0.232425
0.758114 0.762417 0.228519
0.77586 0.762112 0.223987
0.793729 0.761608 0.218997
0.813687 0.760906 0.218402
0.833494 0.760418 0.217182
0.853346 0.760052 0.215244
0.871244 0.758801 0.215625
0.889555 0.757504 0.217426
0.908858 0.75613 0.219165
0.922164 0.75462 0.219013
0.934142 0.75285 0.218418
0.413397 0.795377 0.253147
0.434958 0.795331 0.252811
0.449516 0.795407 0.253071
0.462547 0.795377 0.253422
0.476722 0.795453 0.253605
0.49247 0.795499 0.253895
0.507515 0.795392 0.254704
0.522698 0.795377 0.255482
0.538735 0.795193 0.256199
0.5552 0.79527 0.257252
0.571328 0.794186 0.258656
0.587381 0.792828 0.260533
0.603967 0.791485 0.262669
0.620584 0.790249 0.26479
0.635248 0.788388 0.264088
0.650126 0.786328 0.263645
0.664927 0.784436 0.263478
0.679652 0.782757 0.261646
0.694194 0.780972 0.257923
0.708797 0.779248 0.254047
0.723369 0.777462 0.250324
0.738918 0.776638 0.244785
0.754116 0.775921 0.238392
0.769177 0.774929 0.231205
0.786206 0.774701 0.227039
0.804761 0.775402 0.2262
0.824063 0.775998 0.224277
0.843656 0.77615 0.2224
0.86453 0.774807 0.224842
0.885298 0.773358 0.227115
0.905089 0.771878 0.228687
0.91783 0.76994 0.228305
0.931777 0.767849 0.227726
0.425757 0.809796 0.267933
0.446418 0.809735 0.267201
0.460899 0.809796 0.266804
0.473716 0.809766 0.266316
0.488075 0.809827 0.265843
0.501808 0.809689 0.266087
0.515953 0.809812 0.266194
0.530785 0.80975 0.26656
0.546624 0.809796 0.266743
0.562448 0.809339 0.267643
0.578347 0.808423 0.269017
0.594675 0.807691 0.270207
0.611078 0.80705 0.271778
0.626215 0.805585 0.272435
0.640177 0.80354 0.273014
0.654276 0.801663 0.273533
0.668635 0.799802 0.274281
0.682414 0.797726 0.271534
0.696178 0.795651 0.268574
0.709926 0.793774 0.265843
0.723552 0.79234 0.263081
0.737408 0.791272 0.257801
0.751308 0.790127 0.252705
0.765438 0.788876 0.247364
0.782742 0.788998 0.244358
0.800122 0.788983 0.240497
0.817426 0.788785 0.235813
0.835843 0.788251 0.234272
0.855207 0.787488 0.234455
0.874693 0.786877 0.23389
0.892714 0.785824 0.233005
0.909773 0.784253 0.232822
0.928054 0.782635 0.23241
0.438514 0.823423 0.279866
0.458732 0.823392 0.278553
0.472984 0.82324 0.277821
0.48542 0.823133 0.27718
0.497505 0.823133 0.277104
0.510811 0.822934 0.276936
0.524926 0.822843 0.27686
0.540124 0.822812 0.2766
0.555459 0.822477 0.276692
0.570184 0.822034 0.276875
0.585306 0.821759 0.277028
0.600916 0.821363 0.277028
0.615991 0.820691 0.27718
0.629877 0.819059 0.277821
0.643732 0.817517 0.279606
0.657542 0.81622 0.281865
0.671244 0.814481 0.282536
0.684367 0.812665 0.281788
0.697627 0.811002 0.281376
0.710948 0.809201 0.281132
0.724041 0.807691 0.277806
0.737285 0.806104 0.273777
0.75053 0.804456 0.270115
0.764736 0.803174 0.266026
0.779477 0.802625 0.26041
0.794293 0.801785 0.254063
0.809247 0.800916 0.246998
0.827344 0.800977 0.244404
0.845777 0.800946 0.240574
0.864469 0.801053 0.235431
0.88455 0.799954 0.234852
0.905562 0.798795 0.23508
0.927581 0.797757 0.23534
0.451865 0.836362 0.289219
0.472007 0.836088 0.287343
0.484535 0.835904 0.286854
0.495567 0.835904 0.28629
0.507851 0.835721 0.285603
0.521111 0.83566 0.285298
0.535485 0.835584 0.285084
0.549661 0.835492 0.285069
0.562921 0.835508 0.285176
0.576669 0.835508 0.285161
0.591119 0.835492 0.284977
0.605524 0.835431 0.285176
0.61886 0.834379 0.287129
0.63267 0.833341 0.289387
0.646479 0.832395 0.2916
0.660304 0.831342 0.293462
0.673014 0.829648 0.293614
0.685908 0.827924 0.294224
0.698985 0.826185 0.295293
0.711681 0.824323 0.294759
0.723995 0.8224 0.292805
0.736522 0.820249 0.290913
0.749233 0.818235 0.288991
0.762097 0.817151 0.281895
0.775235 0.815885 0.274083
