LUT预设1/iPhone专用lut合集3/iPhone合集3标准版（709）/FAKE胶片复古709.cube
TITLE "Generated by Resolve"
LUT_3D_SIZE 33
0.0189517 0.0492256 0.0827344
0.0304417 0.0493629 0.0809949
0.0471351 0.0492103 0.0788739
0.0690929 0.0491035 0.0764782
0.105577 0.0485542 0.07364
0.148104 0.047715 0.0708934
0.194354 0.0466926 0.0683604
0.244129 0.045655 0.0664988
0.291997 0.04477 0.0648661
0.338491 0.0442969 0.0638743
0.383383 0.0438849 0.0630503
0.42565 0.0439155 0.0627298
0.46656 0.0446326 0.0624399
0.502449 0.0463722 0.0624247
0.53756 0.0480812 0.0623484
0.568475 0.0496376 0.0624247
0.59823 0.0509957 0.062501
0.626612 0.0521553 0.0626688
0.653162 0.0530404 0.062974
0.679591 0.0559701 0.063386
0.704005 0.0588388 0.0640879
0.727337 0.0615702 0.0649271
0.750103 0.0642405 0.065919
0.770153 0.0670024 0.0671092
0.789914 0.0695201 0.0682231
0.809918 0.0742504 0.0691844
0.826398 0.078584 0.0700694
0.842954 0.0834211 0.0710002
0.858671 0.0883192 0.0719463
0.867216 0.093431 0.0725872
0.875593 0.0984665 0.073228
0.884016 0.10454 0.0738079
0.887907 0.112474 0.07393
0.0196384 0.062562 0.0840009
0.0288548 0.0641947 0.082536
0.0460975 0.0648203 0.0802167
0.0718547 0.0651713 0.0778363
0.104219 0.0654002 0.0753033
0.149508 0.0648814 0.0724346
0.195529 0.0643778 0.0697948
0.245762 0.063386 0.0678569
0.295506 0.0625925 0.0663462
0.344015 0.062089 0.0653697
0.390692 0.0620432 0.064683
0.43505 0.0624399 0.0641794
0.476036 0.0641337 0.0637217
0.512703 0.0665141 0.0634623
0.548409 0.0691539 0.0632639
0.579721 0.071397 0.0634012
0.610376 0.0739757 0.0635386
0.639063 0.0762036 0.0638285
0.666056 0.0783093 0.0643931
0.692851 0.0809644 0.0649882
0.716686 0.0849622 0.0659953
0.7402 0.0892653 0.0668803
0.762692 0.0937362 0.0676738
0.783093 0.0983139 0.0685893
0.80354 0.1028 0.0694896
0.822629 0.107195 0.0703899
0.838956 0.112688 0.0712444
0.855406 0.119799 0.0719615
0.869703 0.12697 0.0726177
0.878996 0.134035 0.0732738
0.888518 0.141268 0.0739147
0.89633 0.148287 0.074403
0.899718 0.155276 0.0745251
0.0210574 0.0771038 0.0852979
0.0319677 0.0791638 0.083772
0.0428779 0.0809186 0.0820783
0.0710918 0.0814221 0.0796826
0.104173 0.082063 0.0770581
0.148791 0.0823987 0.0740978
0.19707 0.0822614 0.0715953
0.247044 0.0820783 0.0691081
0.298039 0.0817273 0.0675212
0.349203 0.0814679 0.0662242
0.396872 0.0820478 0.0655222
0.442924 0.0829938 0.0650034
0.484154 0.0847028 0.0647288
0.521996 0.0867475 0.0645762
0.557626 0.0896468 0.0644541
0.589853 0.0931563 0.0646067
0.622003 0.0969406 0.0648051
0.650813 0.100145 0.0652781
0.678386 0.103349 0.0657206
0.705196 0.106798 0.0661631
0.72842 0.110521 0.0668956
0.751202 0.114183 0.0675212
0.773297 0.118944 0.0681926
0.794202 0.125032 0.0690013
0.814694 0.131106 0.069749
0.833356 0.137392 0.0704662
0.84979 0.144152 0.071397
0.865965 0.150896 0.0724041
0.878798 0.157412 0.073167
0.888212 0.164157 0.0737621
0.898192 0.172824 0.0740368
0.905547 0.181842 0.0739757
0.908934 0.190188 0.0737011
0.022797 0.0942245 0.0874495
0.0339971 0.0970474 0.0863203
0.0486152 0.0993668 0.0847791
0.069688 0.101472 0.0824598
0.106386 0.102495 0.079942
0.150118 0.103212 0.0773327
0.199359 0.103334 0.0738231
0.249805 0.104417 0.0702831
0.304494 0.104402 0.068925
0.357137 0.105089 0.0673991
0.405478 0.106706 0.0667124
0.452689 0.108675 0.0658579
0.493431 0.111254 0.0657206
0.533196 0.114015 0.0656901
0.569512 0.11693 0.0657664
0.602762 0.119524 0.0659037
0.635386 0.122377 0.065919
0.663615 0.125048 0.0662547
0.691752 0.129915 0.0664683
0.718166 0.13518 0.0667887
0.741543 0.140154 0.0673991
0.764462 0.145342 0.0679026
0.786084 0.150652 0.0685283
0.806363 0.155657 0.0692607
0.826337 0.161074 0.0700999
0.843778 0.16701 0.0710307
0.859754 0.17351 0.07187
0.876173 0.182116 0.0724346
0.888411 0.190219 0.0727855
0.898421 0.198566 0.0730144
0.908461 0.206882 0.0731212
0.914336 0.214771 0.0729686
0.917159 0.222278 0.072694
0.0261082 0.114839 0.0905318
0.0375525 0.118349 0.0896315
0.0545052 0.121996 0.0880903
0.0736858 0.125719 0.0865339
0.110903 0.128664 0.08365
0.152026 0.131456 0.0805829
0.209171 0.132143 0.0770886
0.264286 0.133013 0.074052
0.315541 0.134188 0.0716716
0.365469 0.135622 0.0697032
0.415427 0.136507 0.0686503
0.464408 0.139315 0.0680095
0.506737 0.143023 0.0680858
0.547616 0.147127 0.0677348
0.584146 0.151034 0.0675669
0.618448 0.154864 0.0673838
0.651606 0.158465 0.067216
0.680171 0.162203 0.0674296
0.707851 0.165881 0.0675212
0.733074 0.169818 0.0678264
0.755962 0.173846 0.0682841
0.778622 0.178073 0.068574
0.799466 0.184665 0.0692607
0.819486 0.191852 0.0699168
0.8392 0.198444 0.0703899
0.85626 0.205844 0.070985
0.872236 0.212924 0.0714885
0.888121 0.219913 0.0717937
0.899092 0.227222 0.0720073
0.90898 0.234485 0.0721294
0.91899 0.241733 0.0720836
0.922759 0.249561 0.0720989
0.924315 0.257786 0.0724651
0.031632 0.138521 0.0940871
0.0464027 0.143603 0.0932174
0.0614481 0.148898 0.0928664
0.0866255 0.154116 0.0912947
0.117266 0.159869 0.0894179
0.16437 0.164157 0.0871595
0.217548 0.1682 0.0847028
0.272908 0.171191 0.0820935
0.330541 0.173709 0.0793774
0.384466 0.176226 0.0772869
0.434791 0.178729 0.0753643
0.48159 0.182071 0.0735027
0.523919 0.18529 0.0719921
0.565545 0.188891 0.0702068
0.601663 0.191012 0.0697642
0.637034 0.193225 0.0692454
0.668681 0.197757 0.0694285
0.696498 0.202853 0.0696117
0.723934 0.208301 0.0693675
0.748074 0.213748 0.0695201
0.771023 0.219059 0.0697642
0.794064 0.224399 0.0696422
0.814359 0.229953 0.0701152
0.834073 0.234943 0.0704356
0.853574 0.24004 0.0705119
0.869368 0.246189 0.0708934
0.884825 0.252033 0.0711376
0.899351 0.259876 0.0716411
0.908217 0.26804 0.0722972
0.91696 0.276173 0.0727092
0.925521 0.28368 0.0731212
0.927855 0.291081 0.0737926
0.929961 0.298146 0.0741131
0.0383612 0.16791 0.100923
0.0570993 0.174975 0.101732
0.0755016 0.180957 0.101991
0.101671 0.188449 0.101381
0.13109 0.196109 0.100511
0.176532 0.20322 0.0975814
0.223545 0.210925 0.0950484
0.288548 0.213901 0.0922408
0.350103 0.218173 0.0896315
0.402396 0.222004 0.0870527
0.454292 0.225895 0.0843214
0.501244 0.22974 0.0822003
0.545266 0.233616 0.0802472
0.586694 0.237385 0.0783246
0.620783 0.241627 0.0769818
0.653483 0.246601 0.0751507
0.683238 0.250889 0.0740826
0.711406 0.255161 0.0734874
0.73959 0.259297 0.0725261
0.763516 0.263066 0.0723278
0.787243 0.26656 0.0718242
0.809705 0.270527 0.0715801
0.828092 0.276188 0.0724956
0.846357 0.281804 0.0729686
0.864118 0.287907 0.0731823
0.878584 0.294697 0.0737774
0.892882 0.301289 0.0740673
0.906447 0.308034 0.0741436
0.914824 0.314519 0.0746777
0.923125 0.320958 0.0753948
0.930861 0.32694 0.0756847
0.933165 0.333028 0.0758221
0.935775 0.338445 0.0755474
0.0515755 0.204044 0.111803
0.0719921 0.212604 0.112673
0.096849 0.221698 0.113298
0.122606 0.230884 0.113802
0.160128 0.240513 0.113115
0.201587 0.250431 0.112047
0.250919 0.258625 0.110109
0.306065 0.265293 0.107195
0.361135 0.27129 0.104173
0.421256 0.274723 0.100679
0.480888 0.278141 0.0971695
0.525902 0.281132 0.0940261
0.568994 0.284642 0.0906844
0.605997 0.289403 0.0878614
0.637888 0.294911 0.0859846
0.6701 0.300374 0.0840772
0.698695 0.304036 0.0835431
0.726116 0.308385 0.0827192
0.752026 0.31284 0.0816205
0.774655 0.316701 0.0810407
0.796857 0.321111 0.0801099
0.818036 0.32578 0.0791638
0.836667 0.330266 0.0788891
0.855344 0.334615 0.0782025
0.87245 0.339529 0.0776226
0.886809 0.344701 0.0775006
0.901091 0.350011 0.07776
0.913329 0.355138 0.0781415
0.920714 0.360357 0.07953
0.928313 0.365637 0.0806134
0.934768 0.37084 0.0813153
0.937087 0.376486 0.0820935
0.939559 0.382147 0.0825818
0.0682689 0.243442 0.123735
0.0956436 0.25539 0.125322
0.121904 0.265995 0.126925
0.152224 0.276814 0.127977
0.190311 0.288258 0.128283
0.229236 0.299687 0.128435
0.278996 0.308598 0.126085
0.328634 0.317708 0.123735
0.385229 0.3234 0.120607
0.443061 0.328313 0.117556
0.49485 0.333501 0.114916
0.540459 0.33753 0.111894
0.585458 0.341665 0.108873
0.620935 0.346136 0.1066
0.654673 0.349996 0.104128
0.686717 0.354116 0.101625
0.712489 0.35877 0.0991379
0.737606 0.363714 0.0960555
0.761166 0.368444 0.0932326
0.783764 0.371756 0.090898
0.806424 0.375692 0.0881971
0.82678 0.37882 0.0868238
0.844663 0.381567 0.0864881
0.862272 0.384665 0.085893
0.877501 0.388785 0.0864881
0.890974 0.393164 0.0874952
0.904768 0.397513 0.0881208
0.915541 0.402045 0.0887007
0.923842 0.406332 0.08925
0.932311 0.410651 0.0894331
0.938247 0.415366 0.089601
0.94078 0.420142 0.0898756
0.943404 0.424979 0.0899062
0.0916152 0.290608 0.138369
0.124926 0.30454 0.14107
0.15378 0.316243 0.143343
0.188403 0.327565 0.144747
0.224079 0.3393 0.146471
0.266392 0.350225 0.146777
0.312154 0.360525 0.146197
0.359442 0.370199 0.145068
0.41001 0.377264 0.141833
0.458808 0.384604 0.13843
0.508186 0.38938 0.135027
0.557153 0.393118 0.131701
0.602594 0.396475 0.128511
0.636271 0.399573 0.125689
0.66949 0.402838 0.12285
0.6981 0.406653 0.119646
0.722789 0.410819 0.116243
0.747326 0.414466 0.11281
0.769985 0.417212 0.110155
0.791562 0.419944 0.107515
0.812604 0.422797 0.10454
0.830457 0.425864 0.103304
0.847684 0.429023 0.101884
0.864881 0.432624 0.0999313
0.879499 0.43621 0.099733
0.893904 0.440101 0.0997482
0.908293 0.443961 0.099321
0.918547 0.447532 0.0991684
0.927703 0.451255 0.0988785
0.936782 0.454261 0.0985122
0.941451 0.457481 0.0988937
0.943908 0.460777 0.0992752
0.946502 0.464485 0.0994736
0.123522 0.341268 0.155718
0.157595 0.356146 0.159319
0.190631 0.367849 0.162036
0.224475 0.379248 0.164569
0.261982 0.390768 0.166308
0.304646 0.401068 0.166155
0.34725 0.411368 0.166033
0.39202 0.419623 0.163958
0.437201 0.427039 0.161028
0.4822 0.433768 0.157992
0.526497 0.438056 0.154833
0.5691 0.442557 0.151781
0.607187 0.446326 0.148821
0.642802 0.448859 0.145708
0.678004 0.452155 0.142916
0.705638 0.454551 0.139849
0.731746 0.457511 0.137163
0.757473 0.46009 0.134691
0.777874 0.463004 0.131411
0.797757 0.466072 0.127504
0.816739 0.469612 0.123186
0.833768 0.472847 0.120256
0.850797 0.475364 0.117342
0.867857 0.477485 0.114809
0.882322 0.479698 0.114885
0.896452 0.482399 0.114458
0.910674 0.484871 0.113207
0.920256 0.487312 0.112779
0.929778 0.48983 0.112016
0.939712 0.492332 0.110796
0.943511 0.495293 0.110536
0.946334 0.498802 0.111879
0.94931 0.502327 0.112993
0.156191 0.394797 0.175479
0.195346 0.408621 0.178912
0.229984 0.420066 0.181643
0.265385 0.431113 0.183917
0.304021 0.44065 0.184527
0.343587 0.450629 0.185214
0.383612 0.45948 0.185061
0.424155 0.466819 0.183185
0.464332 0.474495 0.181399
0.503456 0.480308 0.178668
0.540825 0.485725 0.175479
0.577432 0.491646 0.172122
0.615442 0.493141 0.168765
0.65211 0.494957 0.165515
0.685496 0.497246 0.163256
0.711696 0.498787 0.161089
0.737713 0.500374 0.158679
0.761334 0.502098 0.155612
0.781521 0.504051 0.151263
0.801633 0.505913 0.147097
0.820859 0.508019 0.143603
0.837797 0.509896 0.140887
0.854505 0.512474 0.138323
0.870375 0.514778 0.135744
0.88423 0.517418 0.133852
0.898116 0.520088 0.131106
0.911345 0.522667 0.127916
0.921645 0.525032 0.126314
0.932418 0.52755 0.125154
0.942748 0.530373 0.124788
0.945785 0.533227 0.125856
0.948974 0.53637 0.126696
0.952132 0.538689 0.127596
0.194903 0.446662 0.195987
0.237476 0.459602 0.198886
0.273243 0.47013 0.201144
0.307927 0.478706 0.202182
0.344121 0.486915 0.202777
0.381903 0.495567 0.203479
0.418173 0.502312 0.20206
0.454261 0.508568 0.200198
0.489982 0.514672 0.198154
0.524697 0.519265 0.19498
0.559045 0.52398 0.192401
0.592325 0.527916 0.189975
0.625025 0.530587 0.187411
0.656809 0.533379 0.18468
0.685527 0.535485 0.182132
0.712566 0.536873 0.179538
0.739513 0.538277 0.176974
0.762951 0.539696 0.174182
0.785016 0.540658 0.171267
0.806745 0.542321 0.169146
0.824948 0.544106 0.1664
0.841276 0.546548 0.163378
0.857435 0.549065 0.159747
0.872038 0.551965 0.156024
0.885756 0.554223 0.151553
0.899931 0.555962 0.147005
0.912703 0.557595 0.144915
0.923629 0.559396 0.144594
0.934493 0.561151 0.143709
0.943053 0.563256 0.14316
0.946715 0.565484 0.143725
0.950729 0.567437 0.143694
0.954055 0.569635 0.143786
0.239918 0.495109 0.214603
0.283848 0.506767 0.216541
0.316472 0.514336 0.217548
0.349889 0.521691 0.218235
0.385153 0.529015 0.219242
0.417548 0.535348 0.219379
0.448859 0.541146 0.219074
0.480812 0.54699 0.218753
0.512322 0.551705 0.217212
0.543847 0.556085 0.215076
0.574807 0.560693 0.213077
0.60415 0.56405 0.210025
0.632227 0.567346 0.206882
0.6598 0.570977 0.203464
0.688289 0.571435 0.200488
0.716075 0.572045 0.197559
0.742885 0.572931 0.19443
0.765332 0.57348 0.192309
0.787182 0.574166 0.190066
0.809018 0.574975 0.187839
0.826017 0.576455 0.183963
0.84303 0.57792 0.180255
0.860151 0.57966 0.177264
0.8748 0.581216 0.174334
0.888838 0.583032 0.171633
0.902724 0.584939 0.169192
0.914351 0.587167 0.167452
0.925017 0.589273 0.165469
0.935592 0.591775 0.163027
0.942931 0.593973 0.161501
0.947768 0.596094 0.160815
0.952926 0.598199 0.159823
0.955886 0.599695 0.159045
0.286961 0.540093 0.232456
0.324269 0.548165 0.234943
0.354879 0.554192 0.236606
0.386679 0.560372 0.237705
0.417304 0.565744 0.238193
0.445762 0.570474 0.238254
0.475212 0.57525 0.238209
0.504891 0.579797 0.237354
0.533318 0.583612 0.235309
0.562234 0.587442 0.233097
0.589944 0.590768 0.23035
0.616861 0.593576 0.226368
0.643336 0.596323 0.222187
0.669154 0.59826 0.21828
0.694453 0.599374 0.214847
0.719036 0.600824 0.211292
0.742626 0.601984 0.208194
0.765026 0.60264 0.205615
0.787198 0.603647 0.203128
0.808209 0.604654 0.201984
0.826719 0.605737 0.200748
0.845533 0.60708 0.200015
0.863813 0.608209 0.199176
0.877531 0.610117 0.197391
0.891371 0.612009 0.195026
0.904921 0.614298 0.192737
0.915312 0.616724 0.189563
0.925872 0.61944 0.185733
0.936751 0.621317 0.180941
0.943404 0.62266 0.179049
0.949172 0.623529 0.177127
0.955001 0.624628 0.174731
0.956863 0.625422 0.173342
0.322133 0.576226 0.253071
0.359014 0.582895 0.25452
0.389441 0.588113 0.255558
0.417792 0.592737 0.255924
0.444556 0.596857 0.255848
0.472313 0.601053 0.255863
0.501427 0.605203 0.255329
0.527321 0.608637 0.253574
0.553399 0.612299 0.25182
0.579614 0.615763 0.249958
0.604685 0.618296 0.245701
0.629252 0.620996 0.241337
0.653986 0.623468 0.236835
0.676661 0.625391 0.232822
0.698848 0.627115 0.228702
0.720088 0.629618 0.225742
0.742504 0.630732 0.224018
0.765408 0.631708 0.22266
0.788144 0.632425 0.221149
0.808576 0.632944 0.220722
0.828275 0.633371 0.220539
0.847318 0.634119 0.220295
0.863966 0.635218 0.219059
0.877913 0.636545 0.21651
0.891875 0.638178 0.214572
0.905394 0.639567 0.211948
0.916487 0.641291 0.208164
0.927779 0.643153 0.204471
0.938994 0.644678 0.200488
0.944732 0.645884 0.197589
0.950607 0.647089 0.193881
0.956619 0.648447 0.190646
0.957488 0.649424 0.190356
0.359564 0.609537 0.271153
0.39649 0.615015 0.271687
0.422736 0.618982 0.272084
0.446891 0.622202 0.272267
0.472862 0.62565 0.272084
0.500664 0.629175 0.271672
0.524285 0.632273 0.270359
0.548043 0.635401 0.269017
0.572 0.638498 0.267445
0.595392 0.641001 0.26424
0.618067 0.643412 0.261021
0.640604 0.64564 0.257801
0.662364 0.647807 0.254536
0.683192 0.649836 0.25124
0.704051 0.651652 0.247669
0.724849 0.653361 0.244404
0.746487 0.654231 0.241917
0.767712 0.655207 0.23946
0.788373 0.656428 0.236881
0.807996 0.656825 0.23592
0.827329 0.657481 0.234821
0.846708 0.658213 0.233738
0.862394 0.659434 0.233066
0.87776 0.660471 0.232639
0.893278 0.661738 0.232563
0.906584 0.663142 0.231083
0.918242 0.66482 0.228244
0.930205 0.666255 0.225071
0.939986 0.667903 0.222324
0.945861 0.669367 0.218601
0.95198 0.670787 0.21384
0.957168 0.672328 0.209598
0.958282 0.673259 0.208835
0.397635 0.63711 0.286305
0.427756 0.641184 0.286946
0.451408 0.644297 0.287083
0.475364 0.647364 0.287144
0.501259 0.650324 0.287114
0.523003 0.653315 0.287068
0.544015 0.656275 0.28687
0.565682 0.659037 0.286305
0.587549 0.66186 0.28542
0.60824 0.664118 0.282734
0.629068 0.666636 0.2804
0.65005 0.66894 0.277745
0.670161 0.670817 0.274128
0.689967 0.672663 0.27042
0.710018 0.674556 0.266758
0.729915 0.675883 0.262882
0.749584 0.677272 0.259052
0.768902 0.678492 0.254856
0.788174 0.679545 0.251606
0.807858 0.680308 0.249882
0.827497 0.680873 0.247974
0.846372 0.681697 0.246509
0.862745 0.682704 0.248447
0.878965 0.683513 0.250004
0.895064 0.684382 0.251514
0.907256 0.685725 0.250111
0.919036 0.687053 0.248447
0.93138 0.68835 0.247059
0.939757 0.689433 0.244129
0.946349 0.690471 0.240055
0.953246 0.69131 0.236255
0.957702 0.692103 0.233555
0.959258 0.692622 0.230854
0.429313 0.662684 0.3028
0.456397 0.666178 0.304128
0.479377 0.669032 0.304768
0.503197 0.671626 0.304952
0.522683 0.674357 0.305318
0.541756 0.676875 0.305318
0.561807 0.679469 0.305486
0.582605 0.682216 0.305348
0.601434 0.684565 0.303609
0.620447 0.686641 0.301701
0.639673 0.688869 0.29987
0.65893 0.690913 0.297017
0.678248 0.69247 0.293065
0.69749 0.694224 0.289433
0.716533 0.69572 0.285542
0.735042 0.696941 0.280827
0.753521 0.698329 0.27599
0.77203 0.69958 0.271107
0.790677 0.700236 0.268376
0.809506 0.700816 0.265476
0.828183 0.701442 0.262165
0.845258 0.702266 0.262104
0.86128 0.703059 0.263432
0.877302 0.704021 0.264332
0.892805 0.704982 0.264775
0.905531 0.706035 0.265614
0.918608 0.707179 0.266514
0.932097 0.708156 0.267964
0.939605 0.709148 0.266239
0.94725 0.710048 0.263996
0.955123 0.710948 0.261845
0.958434 0.711788 0.257954
0.960449 0.712291 0.251926
0.456764 0.685725 0.320684
0.483742 0.688731 0.321355
0.506981 0.691249 0.32163
0.522789 0.693553 0.322332
0.540368 0.695689 0.322469
0.559396 0.697871 0.322393
0.579568 0.700114 0.322408
0.597513 0.702281 0.321431
0.615137 0.70425 0.320256
0.633219 0.706462 0.319402
0.651453 0.70837 0.317876
0.669184 0.709987 0.314809
0.687327 0.711788 0.311635
0.705165 0.713436 0.308492
0.722972 0.714748 0.304341
0.740932 0.716045 0.299245
0.758556 0.717403 0.294636
0.776181 0.718639 0.290776
0.793256 0.719753 0.287922
0.810483 0.720668 0.284276
0.827497 0.721874 0.28072
0.843488 0.722667 0.280201
0.859998 0.723415 0.279759
0.876417 0.724132 0.278782
0.891218 0.725048 0.280385
0.905348 0.725948 0.284153
0.919448 0.726879 0.288472
0.932113 0.72781 0.292088
0.940276 0.728664 0.291295
0.948638 0.72961 0.290028
0.957061 0.730419 0.287938
0.959365 0.7308 0.279789
0.961852 0.731121 0.271366
0.485069 0.707073 0.336965
0.509499 0.709819 0.337652
0.525139 0.711955 0.338613
0.54139 0.713863 0.339178
0.559213 0.71577 0.339193
0.578592 0.717678 0.338979
0.595682 0.719585 0.33875
0.61178 0.721614 0.338369
0.628595 0.723583 0.338201
0.645655 0.725719 0.33817
0.662181 0.727337 0.336233
0.67895 0.729015 0.33373
0.695567 0.73077 0.331853
0.712337 0.732372 0.329061
0.729076 0.733745 0.325322
0.745785 0.735286 0.321309
0.762692 0.73669 0.317098
0.77879 0.737911 0.312627
0.794934 0.738979 0.307774
0.810834 0.740063 0.303014
0.827024 0.741085 0.299657
0.843412 0.741604 0.297948
0.85977 0.742016 0.29633
0.876005 0.742626 0.294545
0.890135 0.743358 0.297688
0.904402 0.743954 0.300923
0.918624 0.744747 0.30367
0.929885 0.745449 0.304646
0.939803 0.746075 0.304936
0.95024 0.7467 0.305638
0.957931 0.747219 0.304372
0.960601 0.747707 0.299535
0.963317 0.748196 0.295537
0.509682 0.727535 0.353384
0.529061 0.729732 0.354528
0.545281 0.731334 0.355047
0.561822 0.733013 0.355276
0.580026 0.734569 0.3552
0.595758 0.736126 0.355642
0.610315 0.738018 0.356527
0.625528 0.739727 0.357
0.641596 0.741497 0.357671
0.657343 0.743084 0.356847
0.672633 0.744656 0.354757
0.68806 0.746151 0.352972
0.703624 0.74786 0.351553
0.719493 0.749187 0.347662
0.735515 0.750546 0.343709
0.751446 0.751919 0.339788
0.767117 0.753338 0.33576
0.782635 0.754391 0.331136
0.798077 0.755627 0.326879
0.813535 0.756848 0.322301
0.829053 0.75761 0.319371
0.844205 0.75845 0.317052
0.85977 0.759106 0.313893
0.87451 0.759915 0.312398
0.888808 0.760494 0.3131
0.902983 0.76112 0.31371
0.917647 0.761746 0.314092
0.929091 0.762356 0.316747
0.94078 0.763027 0.320912
0.953109 0.763638 0.325399
0.95877 0.764187 0.326146
0.961639 0.764675 0.325292
0.964675 0.765209 0.325078
0.530205 0.745144 0.370199
0.549889 0.74696 0.371359
0.566155 0.748562 0.372168
0.583093 0.750011 0.372854
0.596078 0.751537 0.373663
0.609476 0.753094 0.374426
0.624002 0.754681 0.375326
0.639246 0.756237 0.375814
0.654398 0.757763 0.375387
0.668315 0.759274 0.374151
0.682658 0.760784 0.372534
0.697169 0.762493 0.371298
0.711833 0.763912 0.368856
0.726619 0.765332 0.36527
0.741527 0.766781 0.361654
0.756313 0.768292 0.358434
0.771176 0.769543 0.354559
0.786191 0.770901 0.350515
0.801007 0.772137 0.346548
0.816037 0.773388 0.342473
0.830304 0.774289 0.338781
0.844694 0.775174 0.334325
0.858915 0.776257 0.329854
0.873243 0.776837 0.327718
0.887678 0.777462 0.32697
0.902235 0.777951 0.326085
0.916243 0.778347 0.327764
0.928908 0.778668 0.333639
0.941772 0.779019 0.338857
0.954391 0.779553 0.343511
0.957732 0.779934 0.343694
0.961578 0.780362 0.344549
0.965896 0.780743 0.34551
0.551507 0.762066 0.387945
0.571817 0.763882 0.389013
0.586618 0.76527 0.390066
0.597879 0.76669 0.391455
0.610407 0.768078 0.392309
0.623865 0.769467 0.392996
0.6383 0.77084 0.3935
0.65275 0.772244 0.393454
0.665476 0.773754 0.392462
0.67863 0.775296 0.391424
0.692195 0.776837 0.390646
0.705928 0.778393 0.389151
0.719738 0.779675 0.386206
0.733486 0.781048 0.383062
0.747372 0.782376 0.380255
0.761486 0.783703 0.377096
0.775677 0.785016 0.373709
0.790066 0.786175 0.369833
0.804623 0.787381 0.366171
0.818586 0.788327 0.361852
0.832273 0.789151 0.357534
0.846113 0.790021 0.353445
0.860105 0.790784 0.349355
0.873823 0.791211 0.347753
0.887633 0.791806 0.345907
0.901442 0.792279 0.343801
0.914504 0.792767 0.345022
0.927199 0.79324 0.347585
0.940337 0.793683 0.349187
0.950362 0.794263 0.351278
0.955856 0.794598 0.35491
0.961822 0.795056 0.359121
0.966857 0.795544 0.362814
0.573892 0.778027 0.404578
0.589059 0.779553 0.406363
0.600259 0.780896 0.407553
0.611383 0.782071 0.408728
0.62414 0.783078 0.409262
0.637934 0.784207 0.409598
0.651621 0.785397 0.409598
0.663569 0.78674 0.408896
0.675975 0.788113 0.408469
0.688869 0.789502 0.408011
0.702037 0.790906 0.407584
0.7149 0.792203 0.405493
0.727642 0.793622 0.403449
0.740719 0.79498 0.401694
0.753735 0.796414 0.399817
0.767315 0.797604 0.39646
0.780819 0.798795 0.393194
0.794247 0.799985 0.38999
0.807889 0.801129 0.386679
0.821042 0.802045 0.382239
0.834546 0.802884 0.377874
0.84799 0.803876 0.373617
0.861189 0.804639 0.370016
0.874052 0.80531 0.36701
0.887068 0.805982 0.363302
0.900084 0.806821 0.360021
0.912856 0.807385 0.359747
0.925948 0.80795 0.358923
0.93933 0.808545 0.357565
0.948165 0.809003 0.362448
0.955673 0.809384 0.369787
0.963561 0.809979 0.378332
0.967514 0.810605 0.383932
0.589075 0.792828 0.42118
0.602853 0.794156 0.422644
0.614343 0.795377 0.423911
0.626123 0.796384 0.424475
0.638987 0.79736 0.424796
0.651438 0.798337 0.424979
0.662501 0.799588 0.424918
0.674281 0.80087 0.425101
0.686549 0.802136 0.424918
0.699275 0.803418 0.425025
0.711284 0.804685 0.424231
0.723049 0.805966 0.423224
0.735164 0.807279 0.422232
0.747448 0.808713 0.421347
0.75996 0.809888 0.419013
0.772625 0.811124 0.41593
0.785199 0.81239 0.41326
0.798077 0.813687 0.410498
0.810849 0.814694 0.406546
0.823728 0.815763 0.402258
0.836606 0.816709 0.398306
0.849714 0.81767 0.393851
0.861769 0.818418 0.389532
0.874205 0.819181 0.384955
0.886824 0.819974 0.380224
0.899489 0.820569 0.376928
0.912459 0.821134 0.37496
0.925475 0.821607 0.372763
0.938109 0.822187 0.371359
0.946471 0.822553 0.377447
0.955245 0.823041 0.382986
0.964538 0.823423 0.388052
0.966522 0.823926 0.391836
0.604181 0.807172 0.436927
0.618448 0.808469 0.438087
0.630121 0.809369 0.439185
0.641993 0.810178 0.439628
0.652171 0.811185 0.44007
0.662272 0.812284 0.440864
0.673198 0.81326 0.441154
0.684947 0.814328 0.441291
0.697246 0.815442 0.441642
0.708721 0.816571 0.441245
0.719722 0.817792 0.440909
0.731136 0.818982 0.440192
0.742733 0.820218 0.439811
0.754467 0.8215 0.438758
0.766369 0.822568 0.436118
0.77821 0.823758 0.433616
0.790372 0.824964 0.431052
0.802457 0.826093 0.428336
0.814679 0.827008 0.424216
0.827008 0.82797 0.420432
0.839231 0.829053 0.416831
0.851438 0.829938 0.412909
0.863416 0.830823 0.408301
0.875532 0.831769 0.403937
0.887831 0.832746 0.399466
0.900023 0.833356 0.396139
