LUT预设1/iPhone专用lut合集3/iPhone合集3标准版（709）/FAKE理光负片（暖）709.cube
TITLE "Generated by Resolve"
LUT_3D_SIZE 9
0.0128328 0.0293889 0.0630655
0.218814 0.0236667 0.0605631
0.503883 0.0205234 0.0586709
0.67689 0.0207218 0.0606851
0.788815 0.0211948 0.0638285
0.842283 0.0230411 0.0662394
0.859083 0.0272679 0.0676738
0.864912 0.033875 0.0688334
0.868971 0.0431525 0.0699626
0.0135348 0.136172 0.0674601
0.127474 0.144732 0.0671244
0.415473 0.139925 0.0630503
0.611078 0.139116 0.0628214
0.740444 0.141894 0.0658885
0.829602 0.141009 0.0693675
0.879606 0.144244 0.072343
0.898253 0.146792 0.0733196
0.89987 0.147173 0.0736095
0.0529488 0.352544 0.0999771
0.158999 0.363836 0.103319
0.381765 0.391073 0.1084
0.615 0.382696 0.097734
0.741314 0.368612 0.0861982
0.825071 0.352255 0.0792554
0.887007 0.333242 0.0767376
0.922652 0.315801 0.0751965
0.929702 0.297292 0.0734417
0.142123 0.53051 0.141131
0.251987 0.537743 0.143984
0.381872 0.540154 0.144793
0.556542 0.546349 0.146563
0.70959 0.532815 0.137026
0.805005 0.518746 0.124483
0.86981 0.508171 0.114458
0.921233 0.491936 0.105409
0.943984 0.469902 0.0980697
0.238544 0.639002 0.168017
0.333181 0.642649 0.169802
0.427771 0.637507 0.168139
0.536843 0.633478 0.167651
0.658091 0.632242 0.167529
0.774075 0.62472 0.163546
0.854765 0.614023 0.155322
0.911116 0.608896 0.148653
0.945647 0.597086 0.140734
0.327062 0.714992 0.186587
0.402838 0.717494 0.187671
0.476463 0.714214 0.190829
0.559213 0.706264 0.1906
0.642481 0.70106 0.18677
0.734844 0.69926 0.185046
0.829419 0.694453 0.184878
0.901335 0.686275 0.180636
0.947601 0.681071 0.175113
0.405112 0.776455 0.205936
0.463828 0.780407 0.209918
0.52105 0.779812 0.214023
0.58674 0.774395 0.217212
0.651347 0.765713 0.214954
0.715785 0.760006 0.205951
0.794507 0.759594 0.204471
0.881376 0.756222 0.205646
0.944717 0.748012 0.202319
0.467247 0.833326 0.229328
0.511299 0.837293 0.237018
0.556176 0.838499 0.240131
0.610468 0.837186 0.241794
0.666621 0.831968 0.243153
0.72079 0.823896 0.239216
0.775494 0.817563 0.229953
0.84712 0.817136 0.224277
0.93254 0.814038 0.224781
0.507561 0.88249 0.254627
0.542107 0.884855 0.260136
0.575235 0.886213 0.26154
0.617929 0.886931 0.261402
0.666133 0.885374 0.261082
0.717708 0.881865 0.260624
0.770687 0.87689 0.259434
0.825208 0.874083 0.251286
0.896056 0.874556 0.241245
0.0130312 0.0337072 0.203418
0.160266 0.0305486 0.152773
0.439277 0.0242618 0.121752
0.628931 0.0225834 0.107057
0.749996 0.0240177 0.0978256
0.826795 0.027451 0.0893568
0.858167 0.0330358 0.081651
0.867521 0.0401923 0.0755322
0.870756 0.047425 0.0723583
0.0176242 0.147326 0.168017
0.167803 0.153872 0.143008
0.43125 0.145678 0.112963
0.617334 0.140749 0.0984817
0.736202 0.136141 0.0909285
0.821424 0.137743 0.0872663
0.874434 0.140002 0.084596
0.896345 0.139696 0.0818036
0.899382 0.145739 0.0776837
0.0643626 0.342916 0.183093
0.220813 0.375433 0.196979
0.442786 0.388296 0.162799
0.630579 0.37145 0.123461
0.745296 0.348058 0.10045
0.827146 0.326543 0.0882582
0.886412 0.308339 0.0826581
0.921141 0.294423 0.0799725
0.927611 0.281346 0.0783398
0.167056 0.525567 0.210178
0.307225 0.543313 0.231159
0.439887 0.546654 0.216541
0.597269 0.539864 0.183597
0.720485 0.525795 0.158083
0.807797 0.509331 0.133989
0.874052 0.491218 0.118639
0.924636 0.472282 0.107164
0.943664 0.45037 0.0972
0.274815 0.635493 0.229435
0.376684 0.643229 0.245136
0.467933 0.642023 0.250507
0.569406 0.636469 0.230655
0.685832 0.63154 0.202701
0.786114 0.621286 0.187945
0.856458 0.611994 0.169299
0.913176 0.601312 0.153475
0.946639 0.584497 0.141848
0.360479 0.713359 0.250126
0.439399 0.716915 0.259525
0.508721 0.716289 0.26833
0.582986 0.710857 0.26807
0.662684 0.705226 0.245502
0.751568 0.700618 0.223682
0.839826 0.693767 0.212024
0.90454 0.685481 0.197498
0.948852 0.679637 0.180835
0.431693 0.776944 0.275731
0.490867 0.780499 0.281544
0.54403 0.781033 0.28452
0.604166 0.777462 0.290425
0.664698 0.770809 0.287144
0.729961 0.765148 0.264225
0.807477 0.761624 0.242756
0.890211 0.756725 0.232639
0.94754 0.747784 0.21973
0.484962 0.83476 0.302235
0.531579 0.838376 0.30695
0.573739 0.839994 0.307301
0.624399 0.839521 0.308263
0.676585 0.835584 0.309163
0.729015 0.828855 0.304341
0.784878 0.822446 0.281987
0.857038 0.819379 0.257252
0.937667 0.814618 0.24712
0.520592 0.88571 0.319753
0.555932 0.888395 0.322972
0.588525 0.889723 0.322957
0.630289 0.889204 0.32076
0.676493 0.887984 0.318502
0.725963 0.885298 0.316686
0.777798 0.881361 0.31165
0.832776 0.878614 0.29337
0.902922 0.876966 0.262135
0.0202945 0.0482032 0.407568
0.132433 0.043473 0.355505
0.331212 0.0494392 0.320439
0.517006 0.059266 0.292866
0.663951 0.0662699 0.263722
0.77554 0.0675822 0.230884
0.840009 0.0659495 0.196979
0.865843 0.0629129 0.164523
0.874022 0.0658122 0.136309
0.0350347 0.184878 0.376196
0.147967 0.208255 0.374182
0.360372 0.22858 0.364462
0.559518 0.228183 0.330892
0.698116 0.218463 0.286305
0.798138 0.203983 0.241794
0.864225 0.18764 0.202609
0.89749 0.180056 0.168872
0.903151 0.172091 0.140185
0.0758984 0.379278 0.405112
0.208988 0.421958 0.420661
0.414694 0.439017 0.396323
0.610117 0.424308 0.338827
0.732403 0.396201 0.280797
0.818494 0.367468 0.231998
0.881437 0.343236 0.194354
0.920821 0.321904 0.165927
0.928267 0.304006 0.142748
0.150851 0.548165 0.414374
0.289372 0.568551 0.42826
0.436683 0.574945 0.411002
0.592935 0.56614 0.357855
0.717418 0.546761 0.30016
0.806668 0.524971 0.250568
0.875761 0.502937 0.212024
0.927901 0.481117 0.180713
0.945098 0.457893 0.154833
0.255924 0.649927 0.398627
0.370581 0.657816 0.40856
0.470466 0.658412 0.412345
0.576272 0.655299 0.381537
0.692744 0.646815 0.337514
0.78436 0.634424 0.296834
0.857801 0.620127 0.252613
0.916304 0.603204 0.214527
0.948974 0.584115 0.188174
0.354452 0.722057 0.393408
0.440879 0.726467 0.400992
0.514977 0.726421 0.40798
0.588434 0.72369 0.404746
0.66807 0.7178 0.371633
0.758938 0.711116 0.328939
0.842237 0.702617 0.304387
0.904936 0.693416 0.266773
0.949722 0.680217 0.226886
0.433036 0.783246 0.393576
0.495888 0.786511 0.400046
0.551644 0.78674 0.405798
0.610498 0.784863 0.41239
0.668833 0.77998 0.40531
0.736171 0.774639 0.36936
0.814801 0.769146 0.329885
0.895582 0.762371 0.305699
0.949645 0.752834 0.276204
0.48896 0.839246 0.404578
0.537865 0.842573 0.408545
0.581964 0.843839 0.409415
0.630426 0.844022 0.409415
0.680461 0.84126 0.411399
0.732525 0.83566 0.403647
0.791043 0.829526 0.370169
0.864546 0.824872 0.328664
0.942397 0.81825 0.304494
0.524285 0.890654 0.407172
0.560494 0.893645 0.411582
0.595071 0.893568 0.411383
0.637201 0.893309 0.408515
0.683238 0.892561 0.404929
0.731502 0.890761 0.401526
0.782818 0.888014 0.394125
0.838148 0.884978 0.366293
0.910292 0.879973 0.310796
0.0387274 0.0888991 0.556085
0.137087 0.088014 0.53051
0.307637 0.100954 0.518364
0.484962 0.123217 0.502632
0.611734 0.144228 0.478462
0.711696 0.159121 0.44654
0.786435 0.164172 0.405798
0.832547 0.157656 0.355032
0.853437 0.145418 0.300877
0.0643473 0.248081 0.573007
0.167742 0.282429 0.586831
0.343465 0.311879 0.591852
0.525277 0.326452 0.575463
0.651453 0.328786 0.542794
0.745953 0.323064 0.499504
0.82182 0.308873 0.447028
0.870588 0.28806 0.389853
0.887922 0.262638 0.327657
0.107301 0.43331 0.603983
0.219684 0.470253 0.619226
0.389029 0.489311 0.616327
0.558419 0.488838 0.587228
0.681666 0.475151 0.542931
0.774136 0.455497 0.491981
0.84802 0.432395 0.437964
0.900389 0.407462 0.3823
0.918547 0.378592 0.323766
0.171832 0.571588 0.597787
0.290211 0.59115 0.605707
0.430213 0.598657 0.597345
0.569986 0.595865 0.565072
0.690333 0.58349 0.519951
0.782879 0.566201 0.47039
0.858778 0.547662 0.42208
0.917144 0.527199 0.373129
0.940291 0.501335 0.321828
0.260655 0.661326 0.573754
0.367239 0.671122 0.581109
0.471214 0.673823 0.580316
0.573861 0.673945 0.559197
0.679072 0.666362 0.520638
0.772503 0.654505 0.473701
0.850141 0.640604 0.424536
0.912474 0.624491 0.377295
0.948867 0.605219 0.330831
0.355062 0.730632 0.554986
0.436271 0.735988 0.560647
0.512276 0.736934 0.563043
0.587839 0.735744 0.560449
0.665034 0.732891 0.531731
0.756405 0.726757 0.491615
0.834882 0.718044 0.451087
0.902907 0.706569 0.396551
0.948562 0.690242 0.347738
0.43154 0.790173 0.541817
0.493141 0.793667 0.547341
0.553567 0.794125 0.548119
0.613596 0.792889 0.549874
0.670832 0.790417 0.542748
0.736584 0.786145 0.511131
0.815885 0.780972 0.468681
0.893889 0.7738 0.439475
0.94934 0.763622 0.380255
0.490593 0.844984 0.533654
0.537926 0.848264 0.536416
0.585138 0.84918 0.53576
0.634409 0.849119 0.536828
0.683925 0.847822 0.539269
0.734646 0.843915 0.529931
0.79443 0.838788 0.495384
0.869642 0.833768 0.446021
0.945098 0.826261 0.415427
0.52668 0.896956 0.524865
0.561013 0.898634 0.529
0.598886 0.899001 0.528099
0.642252 0.899092 0.524742
0.688136 0.899184 0.519829
0.735866 0.898314 0.51545
0.786923 0.896544 0.506676
0.84242 0.892561 0.473991
0.917769 0.885374 0.409384
0.0689708 0.157839 0.687312
0.158358 0.167452 0.685115
0.315801 0.185595 0.686397
0.49305 0.209796 0.678874
0.618814 0.230167 0.656764
0.708171 0.245029 0.629587
0.773938 0.255818 0.595728
0.815854 0.258808 0.555138
0.83093 0.248356 0.502281
0.103609 0.335424 0.732082
0.204776 0.370764 0.743755
0.364935 0.39353 0.744945
0.530587 0.402655 0.727916
0.6477 0.405051 0.702373
0.730983 0.404761 0.671885
0.798459 0.400214 0.636744
0.844587 0.388693 0.594507
0.864088 0.369802 0.542611
0.148898 0.491707 0.746746
0.256764 0.51783 0.753643
0.404852 0.529549 0.747539
0.54786 0.529351 0.729366
0.655802 0.522271 0.702495
0.7402 0.513588 0.671138
0.812314 0.502846 0.637797
0.867689 0.48806 0.599054
0.893736 0.466987 0.548745
0.211215 0.597925 0.72549
0.32285 0.612909 0.728664
0.443412 0.618677 0.723369
0.563989 0.618296 0.709148
0.665385 0.611688 0.684962
0.752926 0.602457 0.654459
0.828351 0.591485 0.621088
0.888777 0.577249 0.581445
0.920851 0.557748 0.532464
0.294652 0.673579 0.699519
0.390738 0.682963 0.703166
0.484062 0.686427 0.701732
0.5794 0.686488 0.690715
0.669947 0.682261 0.667582
0.756771 0.674083 0.636088
0.833661 0.664393 0.600595
0.898604 0.652659 0.563012
0.938949 0.637186 0.520317
0.375051 0.737972 0.680079
0.448905 0.743923 0.682734
0.520882 0.745296 0.68368
0.59649 0.745449 0.680354
0.668284 0.745022 0.660563
0.749508 0.739437 0.634195
0.827085 0.731273 0.597086
0.897475 0.721035 0.557412
0.942428 0.706615 0.514565
0.444556 0.795285 0.663691
0.502327 0.798962 0.665629
0.55845 0.799939 0.666163
0.619699 0.79971 0.666285
0.676265 0.798444 0.663218
0.737179 0.796155 0.642344
0.816312 0.792004 0.610391
0.888243 0.785061 0.573465
0.946319 0.773999 0.515526
0.500237 0.849454 0.650874
0.543679 0.852689 0.654353
0.588067 0.853819 0.654185
0.640146 0.853819 0.653239
0.690044 0.853315 0.652384
0.739605 0.851392 0.645228
0.796963 0.847807 0.618875
0.87303 0.843458 0.576715
0.942657 0.835386 0.542916
0.53138 0.900847 0.637903
0.565209 0.902861 0.639002
0.602365 0.904158 0.63743
0.648798 0.905135 0.633783
0.695613 0.905974 0.630793
0.742596 0.906111 0.627146
0.791119 0.903349 0.619898
0.847272 0.898619 0.589792
0.923491 0.892927 0.53341
0.104448 0.259464 0.806821
0.193362 0.283009 0.819165
0.342031 0.305409 0.82829
0.512917 0.318914 0.818723
0.635431 0.325154 0.794232
0.719676 0.332982 0.764065
0.784146 0.339742 0.731304
0.824369 0.342306 0.69662
0.837659 0.33817 0.656641
0.146304 0.429099 0.851759
0.24654 0.455924 0.859846
0.398245 0.468757 0.856001
0.548653 0.46981 0.840284
0.652598 0.466087 0.812985
0.732692 0.463645 0.782147
0.797421 0.461753 0.751995
0.84152 0.45803 0.721065
0.861082 0.448051 0.685054
0.195911 0.544335 0.85275
0.303883 0.561654 0.853315
0.434485 0.567269 0.845335
0.557885 0.564782 0.828946
0.652842 0.558038 0.804593
0.732601 0.552483 0.778119
0.80087 0.548241 0.752438
0.852903 0.541009 0.725139
0.879683 0.528099 0.693065
0.260716 0.626352 0.825483
0.364889 0.636423 0.825284
0.468391 0.639292 0.819516
0.569482 0.637552 0.807034
0.658015 0.632609 0.788708
0.737072 0.627222 0.767498
0.807446 0.621729 0.745342
0.866331 0.613901 0.720287
0.901732 0.601465 0.690913
0.340093 0.689128 0.796017
0.420783 0.695933 0.797208
0.50045 0.698543 0.793652
0.587671 0.698817 0.784833
0.669795 0.696208 0.770916
0.746334 0.691157 0.752407
0.817685 0.685023 0.730358
0.88249 0.677256 0.705898
0.921218 0.664881 0.675456
0.406302 0.745907 0.771969
0.471824 0.751186 0.773938
0.537835 0.75346 0.772503
0.610803 0.754101 0.768002
0.679591 0.752926 0.758206
0.749615 0.74905 0.740505
0.821851 0.743069 0.718257
0.889876 0.735256 0.691463
0.933379 0.723781 0.660456
0.467643 0.799847 0.755703
0.520012 0.804089 0.758389
0.570916 0.805707 0.758068
0.630106 0.805783 0.757763
0.687236 0.805386 0.755245
0.744274 0.804852 0.73846
0.815183 0.800595 0.717525
0.886275 0.794156 0.685542
0.938308 0.783795 0.649073
0.515373 0.852857 0.742931
0.556909 0.856672 0.74612
0.59762 0.858228 0.745464
0.648386 0.858686 0.743618
0.70016 0.858381 0.742245
0.748302 0.857435 0.739818
0.801923 0.855665 0.721325
0.874876 0.851347 0.693843
0.941222 0.843732 0.655024
0.543862 0.903395 0.72784
0.577386 0.906966 0.730541
0.611963 0.909087 0.729976
0.65687 0.910948 0.727855
0.705226 0.911376 0.724727
0.75172 0.909804 0.721767
0.798688 0.907652 0.714336
0.853803 0.904875 0.693126
0.929442 0.90132 0.648173
0.145846 0.373144 0.874113
0.234257 0.396918 0.889448
0.373754 0.412757 0.902113
0.528954 0.418036 0.908324
0.642344 0.416388 0.897322
0.726986 0.414435 0.868498
0.791501 0.413825 0.834928
0.833829 0.413901 0.800885
0.85182 0.411429 0.765499
0.188418 0.504448 0.912139
0.291768 0.521523 0.919905
0.424903 0.52871 0.923522
0.554711 0.527092 0.920287
0.655604 0.519982 0.902144
0.735821 0.512505 0.873106
0.799542 0.508415 0.843442
0.847227 0.506462 0.813718
0.869673 0.50161 0.781949
0.247776 0.587411 0.922881
0.348486 0.598001 0.924987
0.456916 0.600214 0.92108
0.565164 0.596368 0.908614
0.656626 0.589044 0.888411
0.733776 0.581857 0.864515
0.79968 0.577371 0.839994
0.852979 0.574334 0.814618
0.881086 0.567529 0.786389
0.316655 0.651286 0.905379
0.400977 0.658106 0.904585
0.485603 0.659449 0.898848
0.57818 0.657282 0.887617
0.662043 0.652033 0.871931
0.735424 0.646296 0.853925
0.801373 0.642939 0.833783
0.860182 0.639292 0.811948
0.893843 0.63122 0.786984
0.378561 0.705821 0.878584
0.44799 0.711376 0.878111
0.519768 0.713252 0.874098
0.59971 0.712795 0.866361
0.674052 0.709621 0.855604
0.741848 0.705394 0.841459
0.807889 0.701625 0.824674
0.871183 0.697093 0.806165
0.907835 0.688487 0.782773
0.439551 0.756848 0.853452
0.497795 0.76109 0.85478
0.555276 0.76286 0.852918
0.621042 0.763317 0.848936
0.687343 0.761944 0.841413
0.752285 0.758999 0.829221
0.817563 0.755352 0.813657
0.87982 0.75024 0.795163
0.924559 0.741695 0.771038
0.493462 0.806561 0.834684
0.53872 0.810468 0.836759
0.585504 0.812116 0.83653
0.64155 0.812802 0.834363
0.700526 0.812207 0.828779
0.757366 0.811109 0.819379
0.819547 0.808225 0.804425
0.887022 0.802899 0.784909
0.931441 0.793362 0.759152
0.535073 0.857618 0.820478
0.572122 0.861418 0.82327
0.611811 0.863218 0.823713
0.65919 0.864225 0.821576
0.711208 0.86389 0.820233
0.761456 0.86334 0.817548
0.812741 0.862318 0.804913
0.879118 0.858289 0.783337
0.937148 0.851164 0.751904
0.56051 0.90782 0.805356
0.591501 0.91223 0.808515
0.623957 0.914015 0.809277
0.665583 0.913924 0.807446
0.713451 0.913512 0.804211
0.76257 0.913115 0.80087
0.810269 0.912902 0.796902
0.863279 0.912276 0.781964
0.936355 0.909392 0.746883
0.173159 0.46598 0.903883
0.257282 0.482521 0.914046
0.376242 0.490333 0.922194
0.517479 0.490806 0.928481
0.636927 0.485237 0.931746
0.726284 0.477913 0.929107
0.794232 0.473487 0.916091
0.842313 0.472251 0.890623
0.864683 0.470359 0.856794
0.22472 0.556832 0.927611
0.314733 0.568643 0.933959
0.426444 0.572534 0.93872
0.549905 0.570687 0.94226
0.653544 0.562768 0.942916
0.734096 0.554299 0.936599
0.800427 0.549096 0.92108
0.852903 0.546517 0.897627
0.8766 0.54258 0.866896
0.28777 0.618585 0.940032
0.370123 0.626261 0.943816
0.463767 0.627649 0.946761
0.567422 0.624796 0.947967
0.658488 0.617258 0.944076
0.7337 0.610376 0.935241
0.799512 0.605356 0.918334
0.856168 0.602075 0.89543
0.8851 0.596963 0.868437
0.352407 0.672679 0.945541
0.422278 0.678065 0.947127
0.498344 0.678904 0.94728
0.585992 0.676707 0.945296
0.666117 0.671244 0.939193
0.73579 0.665858 0.928313
0.800275 0.661799 0.911833
0.860731 0.658228 0.891295
0.89395 0.652796 0.867521
0.412863 0.722393 0.942565
0.474662 0.726574 0.942473
0.537316 0.727535 0.941054
0.609125 0.726406 0.937591
0.678523 0.723461 0.930571
0.743008 0.7196 0.919097
0.805341 0.715953 0.904463
0.864347 0.7122 0.887678
0.903746 0.706142 0.86685
0.471 0.769512 0.928481
0.521096 0.773297 0.930434
0.571984 0.774441 0.928969
0.630686 0.774502 0.92549
0.692775 0.773251 0.918593
0.754437 0.770581 0.908431
0.813657 0.766735 0.896864
0.873152 0.763073 0.883009
0.913939 0.756329 0.863828
0.515709 0.815488 0.910231
0.557229 0.819028 0.912566
0.598672 0.820661 0.912276
0.650767 0.821241 0.910231
0.707073 0.820752 0.906203
0.764294 0.818982 0.899657
0.822889 0.816495 0.890028
0.88336 0.812863 0.877531
0.924971 0.805539 0.857206
0.553353 0.864302 0.895689
0.587762 0.868132 0.898787
0.623774 0.869902 0.899458
0.66949 0.870848 0.898711
0.720012 0.871015 0.896483
0.772442 0.870283 0.892012
0.825544 0.868849 0.883955
0.886915 0.865934 0.869169
0.934661 0.858686 0.845457
0.576989 0.913542 0.880568
0.603586 0.914626 0.883543
0.63447 0.915541 0.884489
0.675364 0.916472 0.883986
0.722515 0.917662 0.882109
0.773968 0.919097 0.879408
0.825528 0.919585 0.876173
0.877104 0.91809 0.865019
0.937285 0.914015 0.837812
0.160388 0.527626 0.917311
0.225101 0.539071 0.92401
0.328252 0.545586 0.930327
0.4766 0.546624 0.936294
0.607019 0.538125 0.939071
0.706859 0.527382 0.940261
0.78558 0.520256 0.941527
0.845136 0.517098 0.941588
0.872618 0.516182 0.933257
0.211215 0.592889 0.933059
0.285939 0.60119 0.937499
0.389853 0.60473 0.941711
0.515557 0.602838 0.94548
0.626657 0.595087 0.947188
0.716426 0.586374 0.947814
0.792309 0.580255 0.94847
0.85362 0.57644 0.947601
0.88217 0.574289 0.940887
0.283238 0.641688 0.943008
0.355962 0.647379 0.945983
0.442878 0.648249 0.948806
0.54435 0.645716 0.951476
0.638804 0.639704 0.952773
0.720699 0.63299 0.953094
0.793408 0.62739 0.952926
0.855756 0.623072 0.950774
0.889082 0.61976 0.942855
0.360678 0.68867 0.950607
0.424308 0.693584 0.952941
0.49427 0.694087 0.955169
0.576242 0.692592 0.957397
0.655741 0.688655 0.958373
0.728588 0.683696 0.958068
0.797436 0.67866 0.957153
0.858366 0.674495 0.953185
0.896788 0.669779 0.942916
0.432212 0.735775 0.956802
0.485405 0.739635 0.958633
0.542077 0.74078 0.960388
0.606943 0.740215 0.962234
0.674296 0.737972 0.962875
0.740398 0.733867 0.961715
0.803296 0.729229 0.959838
0.863188 0.72491 0.955261
0.904295 0.719295 0.944533
0.488396 0.781308 0.960998
0.531304 0.784848 0.962325
0.575845 0.785885 0.963531
0.631983 0.78587 0.964813
0.692699 0.784314 0.965347
0.753262 0.781308 0.964446
0.812543 0.7776 0.962249
0.873045 0.773907 0.95819
0.911376 0.768673 0.947204
0.533059 0.826078 0.962203
0.569009 0.829511 0.96347
0.608347 0.830945 0.96463
0.656748 0.831434 0.965835
0.710262 0.830915 0.966628
0.765911 0.829526 0.966308
0.82266 0.826642 0.964309
0.88011 0.823072 0.960906
0.920287 0.817578 0.950347
0.568307 0.873137 0.959823
0.599496 0.876799 0.962768
0.632914 0.87866 0.964981
0.675303 0.879652 0.966964
0.723537 0.879988 0.966812
0.775555 0.879377 0.965469
0.831281 0.877577 0.962707
0.890318 0.874601 0.957977
0.931579 0.86865 0.947265
0.586603 0.914839 0.95494
0.613565 0.91696 0.957855
0.642496 0.918822 0.958724
0.682582 0.920943 0.959518
0.728603 0.922118 0.959731
0.779355 0.923217 0.959228
0.83505 0.92369 0.957504
0.895277 0.923064 0.953811
0.943053 0.921035 0.938659
