LUT预设1/iPhone专用lut合集3/iPhone合集3标准版（709）/FAKE理光负片709.cube
TITLE "Generated by Resolve"
LUT_3D_SIZE 9
0.0133516 0.0305638 0.063859
0.226566 0.0243839 0.0606088
0.484947 0.0215915 0.0586252
0.637186 0.0221714 0.0601053
0.737408 0.0243839 0.0623941
0.80943 0.0306401 0.0657969
0.85481 0.0402838 0.0689708
0.872648 0.0540322 0.0710155
0.878721 0.0691386 0.0722515
0.0154116 0.150774 0.068452
0.114473 0.160006 0.0686351
0.383459 0.159747 0.064271
0.572732 0.164706 0.0624399
0.703777 0.175158 0.0647746
0.797482 0.181247 0.0664225
0.865904 0.1953 0.0700847
0.908751 0.204822 0.072221
0.916075 0.216037 0.0728008
0.057496 0.366934 0.102281
0.163409 0.375509 0.105608
0.356207 0.41062 0.113725
0.586191 0.422354 0.110658
0.719844 0.418158 0.0996872
0.803525 0.423606 0.0939193
0.869795 0.417197 0.0887617
0.921935 0.412024 0.083772
0.940841 0.401175 0.080827
0.161639 0.557229 0.148623
0.277134 0.565744 0.153155
0.40296 0.567727 0.153429
0.54522 0.577417 0.155398
0.692882 0.581247 0.155123
0.791241 0.570367 0.144823
0.856382 0.568872 0.138369
0.907881 0.565255 0.131762
0.943145 0.558312 0.126055
0.273747 0.673091 0.18146
0.368231 0.676417 0.185519
0.4636 0.673838 0.191623
0.558846 0.667994 0.189502
0.655985 0.667506 0.182025
0.758862 0.669291 0.180056
0.843458 0.661036 0.179095
0.898177 0.656626 0.171481
0.942061 0.653864 0.16466
0.358144 0.750057 0.222187
0.437552 0.750652 0.223819
0.512963 0.749996 0.22742
0.587564 0.743206 0.232212
0.657023 0.73608 0.222751
0.729458 0.733364 0.210178
0.809369 0.733043 0.207416
0.890333 0.727733 0.207965
0.937575 0.721187 0.200549
0.425757 0.809796 0.267933
0.488075 0.809827 0.265843
0.546624 0.809796 0.266743
0.611078 0.80705 0.271778
0.668635 0.799802 0.274281
0.723552 0.79234 0.263081
0.782742 0.788998 0.244358
0.855207 0.787488 0.234455
0.928054 0.782635 0.23241
0.472084 0.861631 0.314336
0.525154 0.861097 0.310903
0.573632 0.860929 0.308461
0.624918 0.860426 0.308064
0.675792 0.857282 0.31075
0.725872 0.851194 0.310948
0.773617 0.843061 0.302144
0.823423 0.837461 0.273396
0.898436 0.837308 0.255283
0.495598 0.896635 0.347646
0.538903 0.895582 0.343969
0.581109 0.894835 0.341375
0.627634 0.894148 0.337865
0.673854 0.8934 0.335821
0.721248 0.891905 0.337087
0.768994 0.889845 0.337514
0.817273 0.887999 0.329824
0.867536 0.885496 0.295598
0.0139925 0.0367132 0.244038
0.144701 0.034165 0.19733
0.378958 0.0343175 0.173404
0.558175 0.0341192 0.160571
0.680201 0.0390784 0.151461
0.772229 0.04654 0.145892
0.83801 0.057969 0.144106
0.871977 0.0711681 0.137118
0.883574 0.0871748 0.124483
0.0198672 0.165194 0.21857
0.140902 0.17229 0.196368
0.380331 0.171771 0.167803
0.570077 0.175051 0.150942
0.693553 0.18056 0.144503
0.785626 0.190417 0.137881
0.855558 0.202564 0.133272
0.903685 0.214511 0.130526
0.916106 0.226459 0.125383
0.0580606 0.367208 0.260273
0.198184 0.398428 0.27042
0.401617 0.423972 0.242802
0.599252 0.425223 0.207279
0.725109 0.4159 0.16994
0.807691 0.406104 0.151919
0.872374 0.402152 0.143832
0.921981 0.398611 0.134478
0.939818 0.392355 0.127993
0.145083 0.564767 0.31986
0.301472 0.580835 0.322927
0.434867 0.587732 0.326177
0.574441 0.590173 0.278996
0.704952 0.583032 0.257328
0.790784 0.575036 0.224735
0.859113 0.565774 0.195758
0.913069 0.555306 0.177066
0.946395 0.544411 0.167788
0.259297 0.681697 0.35967
0.381323 0.684749 0.35494
0.485115 0.684596 0.365148
0.577234 0.682597 0.355886
0.672465 0.67924 0.308339
0.773098 0.674052 0.288701
0.842206 0.667384 0.270695
0.899336 0.66006 0.239536
0.944015 0.650965 0.208362
0.349828 0.757168 0.393805
0.442588 0.757229 0.386221
0.524666 0.755978 0.390997
0.595285 0.753613 0.396292
0.663325 0.748669 0.38146
0.739818 0.743923 0.340902
0.821225 0.739834 0.310201
0.891356 0.733471 0.308263
0.936843 0.726986 0.273167
0.41767 0.816098 0.424231
0.489616 0.815213 0.418326
0.557977 0.814008 0.415351
0.616648 0.812696 0.41677
0.671229 0.808408 0.423133
0.725597 0.802533 0.405478
0.790005 0.798016 0.365713
0.863066 0.793652 0.335348
0.933059 0.787823 0.324819
0.466041 0.866514 0.453452
0.523812 0.865599 0.446601
0.57789 0.864424 0.441627
0.629267 0.863767 0.438636
0.679408 0.861891 0.440589
0.727535 0.857176 0.440665
0.775616 0.850416 0.427909
0.831052 0.845319 0.384497
0.906508 0.841901 0.34696
0.491402 0.902724 0.469245
0.538155 0.901884 0.46511
0.583566 0.900923 0.460792
0.632486 0.90016 0.45626
0.679362 0.899565 0.452308
0.725048 0.89865 0.449851
0.772717 0.897108 0.447791
0.820706 0.894926 0.436271
0.87129 0.890471 0.392905
0.0197452 0.0540169 0.452293
0.122972 0.0529793 0.409812
0.296498 0.0672313 0.390509
0.456474 0.0903334 0.380209
0.583474 0.113863 0.372549
0.687388 0.136049 0.365911
0.773007 0.157488 0.359457
0.834333 0.172244 0.345037
0.860243 0.180743 0.324102
0.0343023 0.205875 0.439414
0.124712 0.222568 0.43418
0.296452 0.255924 0.443793
0.48893 0.279835 0.442451
0.627024 0.295369 0.428641
0.732967 0.306752 0.4112
0.815961 0.312978 0.390173
0.878477 0.317556 0.361547
0.902373 0.315053 0.332906
0.0706188 0.40708 0.491524
0.175494 0.442756 0.506096
0.354696 0.477836 0.515358
0.547906 0.485542 0.488655
0.682048 0.481178 0.452384
0.773831 0.47538 0.418891
0.848707 0.470924 0.387533
0.904036 0.463554 0.358328
0.932799 0.45359 0.326589
0.139818 0.583993 0.540078
0.26331 0.602579 0.546639
0.414755 0.613581 0.545571
0.557076 0.618585 0.515862
0.681758 0.612299 0.477577
0.775601 0.603723 0.438758
0.84976 0.593713 0.405875
0.909285 0.583139 0.374777
0.944198 0.571801 0.342138
0.246937 0.690425 0.557961
0.358846 0.697032 0.555261
0.472908 0.69926 0.558389
0.568063 0.700587 0.557855
0.662684 0.69987 0.513298
0.757565 0.692592 0.482734
0.831769 0.684855 0.440146
0.894514 0.676371 0.401251
0.943175 0.665415 0.367758
0.342626 0.763256 0.567651
0.429023 0.765179 0.56202
0.516228 0.764843 0.559808
0.593133 0.763424 0.562219
0.65951 0.761288 0.550347
0.733639 0.758297 0.512581
0.818998 0.753399 0.483192
0.881498 0.747082 0.457786
0.933944 0.738521 0.402289
0.411765 0.820981 0.577615
0.4804 0.820951 0.570871
0.551278 0.819898 0.564569
0.616999 0.818006 0.566171
0.670314 0.816281 0.567498
0.723934 0.812131 0.552834
0.789517 0.80798 0.514778
0.86247 0.803265 0.481773
0.930434 0.797101 0.460975
0.464286 0.869917 0.582589
0.518502 0.869444 0.577279
0.576043 0.868391 0.571725
0.6309 0.86714 0.569238
0.68101 0.866209 0.568246
0.72874 0.863127 0.570764
0.775433 0.857862 0.556573
0.83444 0.853498 0.512032
0.908766 0.848966 0.475731
0.489952 0.907149 0.5888
0.535134 0.907134 0.584787
0.583078 0.906645 0.579171
0.63418 0.906142 0.574197
0.682704 0.905913 0.56791
0.728405 0.905318 0.564416
0.775143 0.903853 0.560571
0.822858 0.901427 0.548272
0.876966 0.895415 0.500908
0.0333867 0.0948501 0.59736
0.123812 0.0972 0.575738
0.275349 0.117159 0.575219
0.446342 0.145495 0.575677
0.571084 0.179812 0.575494
0.667552 0.213596 0.574594
0.745907 0.249226 0.573068
0.808621 0.276768 0.565606
0.835859 0.293492 0.547524
0.0548562 0.26421 0.620447
0.137072 0.288228 0.627756
0.287587 0.324346 0.64152
0.468284 0.355367 0.646021
0.603235 0.379553 0.641032
0.696971 0.398138 0.631388
0.773983 0.413199 0.618662
0.835889 0.422141 0.60293
0.869795 0.421271 0.574639
0.0938735 0.456626 0.668452
0.192096 0.487236 0.678645
0.345418 0.513207 0.685893
0.513176 0.528145 0.680186
0.633036 0.533501 0.665812
0.72488 0.536706 0.648173
0.801144 0.536507 0.627222
0.862669 0.534096 0.604273
0.90164 0.529274 0.577295
0.166262 0.606073 0.68838
0.280354 0.619745 0.691447
0.418799 0.630823 0.69192
0.549477 0.635996 0.684199
0.656077 0.635462 0.66656
0.745754 0.631434 0.645701
0.819013 0.62742 0.622415
0.880674 0.62237 0.595636
0.925902 0.615 0.567254
0.271778 0.699382 0.693385
0.371618 0.705638 0.693324
0.474998 0.70988 0.69485
0.575326 0.711604 0.688807
0.65803 0.712108 0.670436
0.743099 0.707546 0.645808
0.817853 0.701839 0.618418
0.884031 0.695109 0.590356
0.932738 0.685802 0.563958
0.357153 0.767849 0.693996
0.435492 0.770169 0.692164
0.517678 0.77113 0.688899
0.598489 0.770413 0.688472
0.663203 0.770397 0.684276
0.728954 0.769848 0.655482
0.808103 0.763699 0.637461
0.87245 0.75787 0.59913
0.928069 0.749416 0.565408
0.42475 0.823194 0.692653
0.487007 0.823697 0.689006
0.552102 0.82356 0.684825
0.618128 0.8224 0.682857
0.67483 0.820874 0.683986
0.726604 0.819242 0.674128
0.788296 0.816373 0.649775
0.860487 0.812131 0.622095
0.92256 0.806104 0.596674
0.473579 0.871733 0.692103
0.522606 0.871611 0.689464
0.575616 0.871443 0.685588
0.634012 0.870436 0.679973
0.688365 0.868971 0.679866
0.733852 0.868193 0.678508
0.778729 0.864424 0.668956
0.837812 0.860853 0.63566
0.908644 0.85594 0.606043
0.498634 0.909514 0.687053
0.540383 0.910109 0.683635
0.587976 0.910765 0.678813
0.638804 0.910964 0.673854
0.689189 0.910964 0.670542
0.735424 0.910689 0.667399
0.780453 0.909636 0.666835
0.825666 0.905333 0.654292
0.88336 0.900649 0.614237
0.0537423 0.153719 0.712551
0.132616 0.163622 0.71046
0.276768 0.191577 0.719265
0.447379 0.223056 0.724926
0.581949 0.258701 0.723186
0.678737 0.290822 0.720638
0.754955 0.324865 0.715373
0.813382 0.354543 0.706966
0.841688 0.373953 0.691798
0.0797589 0.334966 0.754192
0.162509 0.364736 0.76347
0.300206 0.397253 0.774243
0.477119 0.421286 0.773892
0.605127 0.436332 0.765301
0.696269 0.452674 0.754604
0.770169 0.469139 0.741924
0.826932 0.480552 0.727535
0.863264 0.48864 0.710002
0.123293 0.507195 0.789166
0.220264 0.529961 0.794507
0.363653 0.549859 0.796353
0.515084 0.56112 0.791638
0.624048 0.564324 0.779721
0.710567 0.568582 0.764446
0.781735 0.573785 0.74995
0.84155 0.577539 0.735576
0.883192 0.575998 0.717281
0.202731 0.630442 0.797101
0.313252 0.640543 0.797345
0.436759 0.648386 0.79617
0.552438 0.653071 0.790997
0.646494 0.654307 0.780056
0.725261 0.653284 0.765621
0.79472 0.652155 0.74966
0.856764 0.650324 0.732387
0.903609 0.645914 0.713512
0.304677 0.712123 0.791516
0.393393 0.716075 0.78999
0.486183 0.71931 0.787793
0.579751 0.721355 0.781903
0.661967 0.721508 0.772412
0.735805 0.71928 0.758389
0.805982 0.715602 0.742992
0.86891 0.711849 0.726253
0.916075 0.705867 0.706004
0.382284 0.773724 0.783169
0.454826 0.775357 0.781888
0.529824 0.776715 0.779522
0.606439 0.777646 0.778164
0.675334 0.777234 0.772366
0.734356 0.776623 0.759014
0.802808 0.772519 0.740017
0.867201 0.767285 0.720851
0.923537 0.760937 0.696757
0.442939 0.826825 0.778759
0.500984 0.8271 0.777447
0.559609 0.827222 0.775433
0.623575 0.826749 0.772503
0.683864 0.825452 0.770184
0.735592 0.824842 0.764614
0.791241 0.823468 0.744991
0.860945 0.818708 0.729427
0.916457 0.81384 0.695033
0.487373 0.874403 0.773602
0.533883 0.87422 0.772183
0.583307 0.87396 0.769177
0.639017 0.873243 0.765118
0.693767 0.872175 0.761379
0.742 0.870665 0.761913
0.786419 0.869413 0.754788
0.841947 0.866453 0.733257
0.910735 0.862119 0.708278
0.513436 0.912062 0.76524
0.55227 0.913085 0.763516
0.596368 0.91426 0.761761
0.646174 0.915267 0.758938
0.697078 0.91516 0.754849
0.745022 0.913466 0.752178
0.788525 0.911803 0.749249
0.831724 0.908751 0.741939
0.889891 0.905776 0.711391
0.0788891 0.234897 0.801724
0.151507 0.256199 0.814633
0.2869 0.287861 0.832044
0.462196 0.319173 0.841321
0.595407 0.343679 0.837446
0.688716 0.370077 0.82919
0.763333 0.395483 0.817136
0.82002 0.418158 0.804562
0.854032 0.436301 0.789425
0.107012 0.411032 0.851438
0.189059 0.438148 0.861646
0.325261 0.464561 0.869307
0.49279 0.48191 0.86836
0.610361 0.491112 0.859388
0.698634 0.500435 0.84448
0.771374 0.511162 0.830335
0.83035 0.523384 0.81677
0.869398 0.530114 0.799359
0.155917 0.554574 0.878248
0.250416 0.570306 0.879591
0.388495 0.582574 0.87863
0.523934 0.589578 0.873991
0.627146 0.592782 0.863233
0.708766 0.595407 0.849317
0.778714 0.598795 0.835828
0.838193 0.60264 0.821347
0.881025 0.604181 0.804608
0.249805 0.655879 0.881437
0.349371 0.662745 0.880339
0.453941 0.66804 0.878279
0.55761 0.670832 0.871366
0.646357 0.6701 0.860731
0.720592 0.668742 0.849058
0.786236 0.6692 0.835966
0.847105 0.670054 0.821546
0.892607 0.668925 0.806088
0.337346 0.72636 0.8719
0.41619 0.728817 0.869749
0.500755 0.731029 0.8663
0.588113 0.732403 0.861509
0.665843 0.732265 0.854566
0.733104 0.730755 0.844572
0.795575 0.728923 0.832639
0.854917 0.726848 0.818708
0.903197 0.723156 0.802518
0.410574 0.782834 0.860563
0.47451 0.783612 0.858503
0.542107 0.784237 0.855985
0.612512 0.784741 0.852781
0.679118 0.784253 0.847257
0.741283 0.782773 0.837537
0.8009 0.780499 0.824979
0.86096 0.777142 0.811383
0.915816 0.772137 0.795254
0.463081 0.831769 0.849821
0.515602 0.831769 0.848264
0.572137 0.831739 0.846708
0.631601 0.831693 0.843656
0.691249 0.831037 0.84004
0.747295 0.82974 0.834485
0.796658 0.829328 0.822797
0.86009 0.825132 0.806668
0.915145 0.819181 0.788952
0.502663 0.877607 0.842527
0.547311 0.877501 0.841657
0.593606 0.877195 0.839689
0.646006 0.876921 0.836973
0.699733 0.876112 0.834409
0.750866 0.874907 0.831952
0.796933 0.873762 0.827268
0.847562 0.87187 0.810513
0.914687 0.86714 0.792248
0.526238 0.916304 0.833295
0.564752 0.917601 0.832578
0.60531 0.917861 0.831449
0.653162 0.917372 0.829358
0.703105 0.91632 0.82504
0.753491 0.915084 0.820081
0.798505 0.91397 0.818616
0.841199 0.912902 0.812406
0.896544 0.911269 0.790036
0.103532 0.325322 0.853925
0.175677 0.350713 0.872038
0.302159 0.381552 0.892439
0.473304 0.406332 0.908614
0.60029 0.422507 0.912657
0.693324 0.438819 0.906691
0.768734 0.454765 0.89691
0.82739 0.470954 0.884688
0.8654 0.486488 0.868421
0.134279 0.477852 0.902831
0.216037 0.499046 0.913283
0.349935 0.517464 0.921736
0.499519 0.52987 0.926329
0.613886 0.536934 0.924681
0.701946 0.542855 0.916472
0.773861 0.547768 0.90454
0.83357 0.555825 0.890333
0.874449 0.563561 0.873503
0.191165 0.59144 0.926574
0.290959 0.603159 0.930617
0.412146 0.612528 0.933608
0.532677 0.618845 0.933562
0.631586 0.619425 0.927504
0.711482 0.61886 0.919142
0.77818 0.6206 0.906966
0.838544 0.624094 0.892271
0.882033 0.626764 0.876249
0.290684 0.677409 0.936095
0.374548 0.681788 0.935775
0.465965 0.685374 0.9346
0.564446 0.687297 0.931411
0.651087 0.68629 0.925856
0.721904 0.6851 0.917403
0.784237 0.685389 0.90576
0.842786 0.685344 0.892103
0.889113 0.684245 0.877195
0.370535 0.741115 0.933883
0.441825 0.742779 0.932982
0.519265 0.744488 0.931441
0.598688 0.745235 0.929122
0.669627 0.744335 0.923827
0.732876 0.742382 0.914107
0.791608 0.740307 0.903044
0.847959 0.738674 0.89131
0.89839 0.736584 0.87776
0.436042 0.79324 0.927565
0.493751 0.793286 0.925475
0.553277 0.793408 0.923293
0.618509 0.793393 0.920272
0.68246 0.792935 0.914885
0.74316 0.791257 0.907408
0.799664 0.7888 0.898589
0.854887 0.786847 0.889006
0.904936 0.783276 0.876295
0.483467 0.838865 0.916045
0.530663 0.838529 0.914595
0.582025 0.838453 0.912856
0.639323 0.838407 0.910231
0.696712 0.837919 0.906538
0.751827 0.836286 0.901167
0.805753 0.833906 0.893263
0.859541 0.831617 0.882734
0.912856 0.827298 0.868391
0.518914 0.882475 0.906249
0.558892 0.882368 0.905074
0.604532 0.882246 0.903655
0.654139 0.881895 0.901717
0.705638 0.881315 0.898894
0.757351 0.880323 0.894713
0.807187 0.878828 0.889479
0.854536 0.877607 0.877836
0.914611 0.872892 0.8607
0.538293 0.917433 0.89427
0.574426 0.917723 0.893751
0.613367 0.917739 0.892958
0.659617 0.917693 0.891325
0.708721 0.917845 0.888792
0.758816 0.918105 0.885451
0.808347 0.918288 0.882216
0.854063 0.918471 0.87892
0.904936 0.918166 0.858213
0.125841 0.408988 0.883772
0.197589 0.431952 0.897704
0.319905 0.455665 0.912169
0.471763 0.473991 0.923903
0.595041 0.485588 0.930907
0.692058 0.493828 0.934874
0.768444 0.504067 0.937942
0.831968 0.517494 0.939574
0.870573 0.526253 0.933547
0.158785 0.52987 0.918257
0.24239 0.546319 0.927123
0.364492 0.560433 0.93489
0.498772 0.569039 0.940719
0.611688 0.573175 0.944045
0.700465 0.575113 0.945953
0.771618 0.58024 0.94699
0.834836 0.585184 0.943679
0.877089 0.588907 0.935927
0.230457 0.621698 0.938491
0.318242 0.629435 0.942718
0.419654 0.635981 0.946685
0.530434 0.640604 0.950683
0.629648 0.641352 0.953002
0.708507 0.640894 0.95375
0.776181 0.642618 0.954467
0.837751 0.643122 0.947875
0.883558 0.644053 0.937697
0.315419 0.694789 0.94995
0.390616 0.698512 0.952468
0.477516 0.701595 0.955245
0.569955 0.703563 0.958358
0.652064 0.702998 0.959854
0.720394 0.70135 0.95848
0.783536 0.699855 0.95552
0.842176 0.698634 0.949462
0.890425 0.697475 0.939086
0.396841 0.754238 0.957107
0.460533 0.755184 0.958556
0.527977 0.756054 0.960052
0.599756 0.756481 0.96141
0.668437 0.75581 0.961379
0.732708 0.75375 0.95903
0.792035 0.751125 0.955398
0.847822 0.749142 0.950591
0.897398 0.747295 0.941863
0.455863 0.803006 0.960098
0.506859 0.803052 0.960754
0.562371 0.803098 0.961517
0.623972 0.803098 0.962173
0.686366 0.802563 0.961944
0.74551 0.800778 0.960388
0.800671 0.798199 0.957031
0.853895 0.795361 0.95169
0.901305 0.792416 0.942779
0.50164 0.847242 0.96051
0.545068 0.846983 0.960662
0.59147 0.846571 0.96083
0.64477 0.846143 0.960952
0.699886 0.84538 0.960494
0.753765 0.8439 0.958694
0.806577 0.841794 0.95491
0.859571 0.839124 0.949676
0.911742 0.836164 0.9411
0.534478 0.889265 0.960082
0.571893 0.889036 0.960204
0.613046 0.888731 0.960464
0.661112 0.888472 0.960678
0.710933 0.888045 0.959197
0.76144 0.887129 0.955612
0.812497 0.885145 0.950683
0.865324 0.88249 0.943847
0.915282 0.879194 0.933211
0.549233 0.917632 0.950896
0.582147 0.918029 0.950454
0.62179 0.918654 0.950011
0.666194 0.91957 0.948867
0.714549 0.920729 0.947494
0.764691 0.922271 0.94548
0.816159 0.923873 0.942824
0.867842 0.923186 0.938384
0.916136 0.920195 0.92639
0.143267 0.48011 0.905104
0.211749 0.498329 0.915251
0.322148 0.515602 0.925048
0.462776 0.529351 0.933303
0.586572 0.537301 0.938674
0.683391 0.540398 0.941466
0.761456 0.545281 0.94403
0.828351 0.551476 0.946578
0.873381 0.558679 0.949447
0.186191 0.572625 0.928405
0.265522 0.584085 0.934386
0.370352 0.594247 0.939834
0.493446 0.601984 0.944915
0.60293 0.60528 0.948135
0.690059 0.605127 0.949538
0.764157 0.606867 0.950988
0.830747 0.608087 0.95256
0.879988 0.611505 0.95465
0.253742 0.646525 0.942657
0.32517 0.652934 0.945891
0.417899 0.658305 0.949264
0.525109 0.662211 0.953079
0.619944 0.66247 0.955428
0.698817 0.661234 0.955962
0.769696 0.660334 0.956466
0.834226 0.659861 0.957778
0.886152 0.660304 0.959152
0.336248 0.711376 0.952132
0.404791 0.713954 0.954345
0.481086 0.715999 0.956786
0.564202 0.717403 0.959457
0.641779 0.717327 0.961379
0.712627 0.715373 0.9617
0.777447 0.712963 0.961837
0.838193 0.711406 0.962798
0.890776 0.709331 0.963546
0.41265 0.765454 0.958648
0.468009 0.766201 0.96022
0.528237 0.766918 0.961975
0.594919 0.767437 0.964385
0.663325 0.766827 0.96643
0.727825 0.764553 0.967208
0.787472 0.761776 0.967193
0.844907 0.759045 0.967651
0.895598 0.756176 0.967819
0.467582 0.812238 0.963272
0.513863 0.812451 0.964446
0.564645 0.812528 0.966049
0.623316 0.812345 0.968231
0.683406 0.811475 0.970535
0.740688 0.809522 0.971954
0.796109 0.806836 0.972457
0.851118 0.803464 0.972595
0.902098 0.800595 0.972869
0.512306 0.855222 0.967407
0.55082 0.854902 0.96849
0.595163 0.854582 0.969818
0.645319 0.853864 0.971725
0.69781 0.853132 0.97377
0.751141 0.851926 0.975525
0.804669 0.849577 0.976562
0.858274 0.846586 0.97731
0.907988 0.843519 0.978027
0.545373 0.897032 0.972168
0.580133 0.896635 0.972915
0.617853 0.895964 0.973892
0.662547 0.895201 0.975143
0.710674 0.894499 0.976577
0.760357 0.893507 0.977752
0.811719 0.891752 0.978576
0.865568 0.889494 0.979568
0.918837 0.88632 0.980697
0.556252 0.918944 0.974334
0.58938 0.919814 0.975174
0.625971 0.921035 0.97615
0.670649 0.922866 0.977401
0.717296 0.924498 0.978393
0.766232 0.925505 0.979034
0.817487 0.925643 0.979294
0.871885 0.924453 0.97937
0.924468 0.922606 0.978332
