LUT预设1/iPhone专用lut合集3/iPhone合集3标准版（709）/FAKE胶片1980-709.cube
TITLE "Generated by Resolve"
LUT_3D_SIZE 5
0.000366217 0.0543221 0.0688792
0.201709 0.0608988 0.0405432
0.398154 0.0734569 0.0326543
0.517143 0.0948959 0.0303807
0.596765 0.121889 0.030869
0.0136721 0.223453 0.142092
0.378408 0.372793 0.166125
0.726864 0.407492 0.1626
0.833967 0.397391 0.143664
0.877531 0.390036 0.129122
0.209461 0.492973 0.303136
0.489006 0.586297 0.340566
0.781231 0.680781 0.385092
0.960525 0.710033 0.404959
0.995697 0.70486 0.38584
0.586465 0.716411 0.451698
0.717037 0.757565 0.490089
0.854154 0.800473 0.529946
0.968917 0.821653 0.536065
1 0.820325 0.535424
0.730129 0.789136 0.546822
0.805371 0.807782 0.565164
0.904097 0.827726 0.581338
0.985458 0.837156 0.580941
0.999847 0.833463 0.56997
1.5259e-05 0.0436255 0.140063
0.20354 0.047303 0.209018
0.422309 0.0628214 0.200855
0.502068 0.0693217 0.120409
0.570413 0.0873274 0.0790265
0.016022 0.342763 0.414282
0.370779 0.418814 0.41294
0.686091 0.420386 0.341924
0.781338 0.36733 0.248737
0.82649 0.373816 0.218006
0.197345 0.581308 0.504311
0.482246 0.632151 0.49723
0.745464 0.687236 0.507988
0.936004 0.706035 0.494148
0.983627 0.711696 0.477333
0.521737 0.736736 0.574029
0.659022 0.761761 0.580163
0.813901 0.794553 0.597772
0.9561 0.822644 0.600763
0.997513 0.829664 0.607767
0.644923 0.790829 0.651789
0.747478 0.809018 0.653315
0.877516 0.83331 0.662745
0.95816 0.847242 0.670542
0.98967 0.849424 0.669261
0 0.10399 0.325994
0.177478 0.138277 0.383795
0.443015 0.135042 0.414206
0.582773 0.124865 0.401114
0.671672 0.158572 0.388937
0.023682 0.412421 0.567849
0.226276 0.471595 0.585397
0.570108 0.489906 0.588617
0.751873 0.483314 0.563912
0.824155 0.509056 0.547585
0.221439 0.639796 0.664225
0.432914 0.675258 0.669337
0.676829 0.696559 0.668299
0.849973 0.700618 0.643046
0.919417 0.704906 0.620218
0.486091 0.767926 0.724071
0.599237 0.778408 0.719753
0.744503 0.786526 0.701717
0.877348 0.803494 0.693217
0.964187 0.817029 0.694606
0.6607 0.817044 0.777859
0.731014 0.824262 0.770123
0.819455 0.832853 0.749935
0.886 0.840925 0.7346
0.947951 0.85243 0.754253
0.00453193 0.26157 0.513542
0.114137 0.30219 0.539422
0.404974 0.318807 0.575204
0.595941 0.349432 0.61117
0.680079 0.418967 0.64123
0.0581826 0.488594 0.657084
0.298817 0.575662 0.688609
0.605936 0.621927 0.70724
0.735088 0.631464 0.712749
0.808774 0.681254 0.736202
0.371557 0.707927 0.746471
0.548959 0.736248 0.759793
0.715816 0.749096 0.765866
0.808133 0.74403 0.757626
0.87657 0.762646 0.758862
0.571786 0.791501 0.785245
0.651255 0.796643 0.787015
0.739193 0.799558 0.784054
0.837919 0.802915 0.777142
0.915694 0.806806 0.766567
0.701152 0.826566 0.806134
0.744244 0.8309 0.804364
0.786313 0.83386 0.795926
0.842817 0.838346 0.785031
0.921996 0.849424 0.787976
0.0314183 0.406531 0.615656
0.214771 0.474617 0.643717
0.529778 0.52958 0.672648
0.692485 0.555047 0.690776
0.752941 0.609964 0.712993
0.236774 0.618006 0.717922
0.487343 0.67866 0.741878
0.722805 0.716014 0.758587
0.80557 0.72372 0.760906
0.849622 0.752117 0.772747
0.511315 0.757504 0.777035
0.642206 0.773907 0.787869
0.771115 0.783276 0.794736
0.846494 0.784543 0.793256
0.881086 0.793866 0.792508
0.631617 0.802441 0.799969
0.695338 0.807233 0.804654
0.767575 0.810849 0.808637
0.846876 0.815869 0.811139
0.903044 0.822416 0.808957
0.715618 0.828595 0.81413
0.75108 0.832532 0.817136
0.791943 0.837201 0.820783
0.851682 0.843061 0.825025
0.919234 0.85069 0.828962
