LUT预设1/iPhone专用lut合集3/iPhone合集3标准版（709）/FAKE胶片1980-709.cube
TITLE "Generated by Resolve"
LUT_3D_SIZE 33
0.000366217 0.0543221 0.0688792
0.0117952 0.0549477 0.0675822
0.0313878 0.0551308 0.0647135
0.0558633 0.0558022 0.0604257
0.0855726 0.0581216 0.055436
0.116213 0.0598001 0.0504921
0.145251 0.0603342 0.0463264
0.173556 0.0605936 0.0431067
0.201709 0.0608988 0.0405432
0.230213 0.0615549 0.0388647
0.256962 0.0620584 0.0373541
0.283452 0.0633555 0.036347
0.309483 0.0649729 0.0354009
0.333639 0.0665904 0.0346227
0.356359 0.0682689 0.033875
0.377005 0.0700847 0.0331884
0.398154 0.0734569 0.0326543
0.417121 0.0763104 0.0321202
0.435721 0.0784619 0.0315404
0.451789 0.0812238 0.0312505
0.467308 0.084123 0.0310216
0.481331 0.0864118 0.0307622
0.493538 0.0887617 0.0305638
0.505638 0.0919509 0.0304875
0.517143 0.0948959 0.0303807
0.52784 0.0976272 0.0302739
0.538109 0.100053 0.0301061
0.54815 0.103761 0.0301976
0.558038 0.107591 0.0303044
0.567269 0.110704 0.0303197
0.576455 0.113329 0.0303197
0.586038 0.116411 0.0303655
0.596765 0.121889 0.030869
0.00184634 0.0707866 0.0780957
0.0162051 0.0763867 0.0768902
0.0453956 0.0811475 0.0743877
0.0867018 0.085771 0.0701762
0.133181 0.0897688 0.0646677
0.180453 0.092195 0.058793
0.222232 0.0940108 0.0527962
0.260914 0.0959335 0.0486763
0.298894 0.0976425 0.044831
0.334096 0.0986648 0.0417182
0.366186 0.0995804 0.0392615
0.396109 0.099733 0.0369116
0.420005 0.102403 0.0363165
0.443412 0.104326 0.0352941
0.463203 0.105943 0.0344396
0.482216 0.1066 0.033463
0.498268 0.106996 0.0326848
0.510918 0.109606 0.0327916
0.5243 0.111147 0.0323796
0.535531 0.112596 0.0321202
0.547097 0.112871 0.0315404
0.557275 0.113466 0.0311284
0.565942 0.116442 0.0314183
0.574624 0.117906 0.0312657
0.58233 0.119982 0.0312047
0.589929 0.121935 0.0310826
0.597452 0.123323 0.0308232
0.605371 0.128634 0.0315862
0.613336 0.133135 0.0321813
0.62179 0.136965 0.0324559
0.63032 0.140978 0.0327611
0.639139 0.144747 0.032929
0.648051 0.148699 0.0331731
0.00102235 0.0874952 0.0872206
0.0125277 0.0962997 0.08748
0.0361639 0.107027 0.0866102
0.0928359 0.117906 0.0849012
0.149905 0.127169 0.081651
0.207874 0.1346 0.0770886
0.263447 0.140337 0.071809
0.311131 0.14406 0.0662394
0.353506 0.146029 0.0610361
0.392706 0.14609 0.0552224
0.424079 0.14432 0.0503548
0.452308 0.144472 0.0469368
0.474937 0.144717 0.0453346
0.497658 0.144366 0.0428779
0.514427 0.143694 0.0413977
0.531716 0.142428 0.0393072
0.545846 0.140902 0.0376745
0.558663 0.141436 0.0374456
0.570947 0.14197 0.0369268
0.58114 0.142199 0.0364843
0.591714 0.141009 0.0353094
0.599908 0.140093 0.0344854
0.607095 0.138888 0.0336919
0.61474 0.140047 0.033753
0.621103 0.144183 0.0345922
0.628016 0.147555 0.0349432
0.635416 0.149996 0.0348058
0.642237 0.152834 0.0349889
0.649653 0.155108 0.0348516
0.657603 0.158419 0.0351873
0.66598 0.164706 0.0367132
0.674601 0.170733 0.0379339
0.68246 0.176043 0.0388952
4.57771e-05 0.103639 0.0958572
0.0125277 0.115007 0.0965286
0.0394903 0.128634 0.0971084
0.0799268 0.142596 0.0970321
0.145617 0.157214 0.0958877
0.211017 0.168627 0.0923323
0.273823 0.178073 0.0881361
0.333394 0.184314 0.0833143
0.379065 0.187335 0.0779583
0.420203 0.1906 0.0730755
0.453056 0.189288 0.067689
0.484321 0.187472 0.0623636
0.507668 0.185458 0.058854
0.530861 0.184771 0.0560616
0.548302 0.183062 0.0539712
0.566491 0.181201 0.051133
0.580133 0.17908 0.0489815
0.593561 0.17615 0.0461891
0.605737 0.172595 0.0433661
0.615518 0.171206 0.0428779
0.624903 0.169833 0.0421607
0.631998 0.170336 0.0420844
0.638697 0.170138 0.0414435
0.645991 0.169497 0.0401923
0.652201 0.170855 0.039826
0.658778 0.17113 0.0389868
0.666087 0.173159 0.039353
0.673533 0.177737 0.0406958
0.681331 0.181674 0.0413977
0.689296 0.185641 0.0418402
0.696773 0.190402 0.0426184
0.704234 0.194751 0.0431373
0.71075 0.198505 0.0435187
0.000396735 0.121584 0.104631
0.0138705 0.135531 0.105882
0.0399634 0.150637 0.107774
0.0793011 0.166659 0.108461
0.132189 0.184176 0.108293
0.204089 0.202167 0.106493
0.273564 0.214359 0.103059
0.339559 0.225345 0.0994583
0.392676 0.229755 0.094728
0.439979 0.232502 0.0904555
0.475776 0.233265 0.0863813
0.508049 0.233997 0.0828412
0.53608 0.233234 0.0792554
0.561471 0.23154 0.0753796
0.580621 0.227832 0.0712749
0.600229 0.225513 0.0679789
0.61413 0.222553 0.0655985
0.628733 0.219928 0.0629282
0.639704 0.216358 0.0603952
0.648417 0.212222 0.057496
0.657359 0.208103 0.0539712
0.663676 0.20499 0.0517128
0.671565 0.204562 0.0513619
0.679759 0.204791 0.0509499
0.686748 0.206378 0.0513619
0.69369 0.206806 0.050782
0.700679 0.20737 0.0499275
0.7075 0.209476 0.0497139
0.714656 0.211124 0.0489815
0.721767 0.213413 0.0484321
0.728878 0.219272 0.0507973
0.735897 0.22472 0.0528115
0.742611 0.230381 0.0547341
3.0518e-05 0.141588 0.113649
0.0205692 0.159594 0.11545
0.0476997 0.175235 0.117418
0.0803388 0.190997 0.119142
0.131441 0.211322 0.119265
0.191135 0.23241 0.11899
0.266529 0.251011 0.117235
0.334188 0.263264 0.114733
0.396689 0.270649 0.111574
0.446281 0.27538 0.1084
0.492073 0.278248 0.105165
0.528603 0.278569 0.102052
0.561318 0.278111 0.0991226
0.587961 0.277348 0.0963912
0.611246 0.276585 0.0937819
0.633341 0.275868 0.0911421
0.647745 0.270451 0.0869154
0.662165 0.266239 0.0834669
0.67277 0.26247 0.0807202
0.683101 0.258961 0.0780194
0.693889 0.256016 0.0753948
0.701732 0.253513 0.0732433
0.709392 0.250294 0.0703441
0.716136 0.247105 0.0675212
0.722469 0.245136 0.0653239
0.728923 0.242771 0.0626688
0.736492 0.244572 0.0630503
0.743984 0.247807 0.0640726
0.751736 0.250721 0.0644846
0.758144 0.253819 0.0652476
0.764263 0.257618 0.0662089
0.770459 0.261051 0.0666056
0.776104 0.264988 0.0673228
0.00241093 0.165408 0.121569
0.0273747 0.18558 0.123827
0.0596628 0.203296 0.126741
0.0930495 0.219593 0.128939
0.139055 0.239765 0.130877
0.194873 0.260456 0.131548
0.25452 0.281773 0.13164
0.323171 0.298741 0.130251
0.390585 0.314519 0.128908
0.448478 0.317037 0.126162
0.503792 0.321889 0.124254
0.541497 0.322408 0.122103
0.581552 0.323384 0.120073
0.609964 0.322713 0.118242
0.636591 0.321477 0.116579
0.658244 0.319707 0.114534
0.675731 0.31783 0.112123
0.694514 0.317632 0.110216
0.707118 0.313985 0.106737
0.720394 0.309773 0.102602
0.731533 0.305516 0.0986191
0.73817 0.301198 0.0954757
0.746151 0.297765 0.092546
0.753902 0.295476 0.0903944
0.760967 0.29366 0.0885481
0.768795 0.292134 0.0864576
0.775799 0.291966 0.0850538
0.782269 0.292409 0.0840467
0.788464 0.29218 0.0823987
0.794003 0.293492 0.0816052
0.799374 0.296147 0.0818494
0.805264 0.299855 0.0829328
0.810391 0.30428 0.0846876
0.00451667 0.192447 0.130907
0.0395972 0.215808 0.135073
0.0717937 0.23331 0.138582
0.109789 0.250553 0.141161
0.150744 0.268589 0.143618
0.204303 0.28925 0.145174
0.259998 0.309316 0.146181
0.320684 0.32871 0.145968
0.37995 0.344839 0.145724
0.440421 0.357031 0.145327
0.497414 0.365408 0.144808
0.549905 0.366003 0.143557
0.599603 0.366308 0.142596
0.627405 0.365209 0.141817
0.657465 0.365148 0.140993
0.680385 0.365026 0.139391
0.702174 0.36492 0.137514
0.723018 0.364019 0.135149
0.736843 0.360769 0.131914
0.751125 0.35874 0.129335
0.763287 0.356558 0.126619
0.773236 0.353109 0.123293
0.784222 0.350164 0.119951
0.79292 0.347173 0.116747
0.800366 0.343389 0.112978
0.80763 0.340475 0.109819
0.813123 0.33994 0.108766
0.819043 0.340398 0.10808
0.825071 0.339956 0.106569
0.830411 0.34168 0.106538
0.835752 0.343343 0.106264
0.84126 0.344442 0.105333
0.84593 0.34728 0.105852
0.0136721 0.223453 0.142092
0.0550546 0.247517 0.146944
0.0919203 0.26537 0.150805
0.125032 0.280735 0.154238
0.168841 0.298863 0.157229
0.214847 0.317769 0.160296
0.26743 0.33753 0.162509
0.320546 0.357168 0.164645
0.378408 0.372793 0.166125
0.435447 0.387869 0.16759
0.489509 0.395987 0.168032
0.54139 0.402502 0.168246
0.588037 0.40676 0.167895
0.631022 0.407721 0.166751
0.674418 0.409018 0.165621
0.700603 0.408148 0.163775
0.726864 0.407492 0.1626
0.748501 0.407507 0.161257
0.765286 0.408209 0.159609
0.78233 0.409277 0.157961
0.794858 0.406806 0.15491
0.806149 0.404013 0.15172
0.818173 0.402518 0.14902
0.826032 0.399954 0.146334
0.833967 0.397391 0.143664
0.842924 0.395483 0.141009
0.849042 0.393942 0.138994
0.855436 0.392126 0.136522
0.861967 0.389838 0.133455
0.867048 0.38967 0.131884
0.871885 0.388586 0.129488
0.875471 0.388052 0.128038
0.877531 0.390036 0.129122
0.0266423 0.256703 0.156878
0.069688 0.279789 0.162936
0.107912 0.297108 0.168368
0.142809 0.3122 0.172488
0.181949 0.32842 0.176394
0.225666 0.345617 0.179995
0.274983 0.36405 0.183124
0.325246 0.381781 0.185931
0.378058 0.399237 0.188235
0.430304 0.415534 0.190478
0.484154 0.427283 0.191394
0.536706 0.439429 0.192508
0.587457 0.443427 0.192096
0.636316 0.447059 0.192218
0.678279 0.450004 0.192004
0.710521 0.450797 0.191257
0.744305 0.452537 0.190738
0.767086 0.453132 0.189334
0.786862 0.453407 0.187625
0.807355 0.454124 0.186069
0.820737 0.453773 0.183902
0.834424 0.454231 0.182284
0.848203 0.455268 0.180865
0.858061 0.453361 0.178149
0.868482 0.451286 0.175051
0.877455 0.448585 0.171862
0.882277 0.445182 0.168963
0.887556 0.442344 0.165972
0.892912 0.440742 0.163455
0.89601 0.439185 0.161578
0.899306 0.437491 0.159564
0.902388 0.436194 0.157824
0.904555 0.436454 0.157626
0.0407721 0.290471 0.175799
0.0883955 0.313176 0.182879
0.124331 0.328984 0.187961
0.158663 0.342901 0.192187
0.195407 0.357656 0.196689
0.241276 0.374258 0.200488
0.286671 0.390723 0.20444
0.336263 0.407721 0.207568
0.385809 0.424643 0.210925
0.435233 0.439841 0.213611
0.4851 0.454383 0.215808
0.534157 0.467628 0.217731
0.584512 0.476875 0.218555
0.635019 0.487175 0.219547
0.679469 0.491829 0.219486
0.722499 0.494423 0.219211
0.764569 0.496635 0.218769
0.786297 0.496818 0.217456
0.807919 0.497108 0.216403
0.828305 0.49839 0.216007
0.843091 0.499931 0.215228
0.858473 0.501228 0.214359
0.871763 0.500984 0.212711
0.881544 0.498985 0.209888
0.891783 0.498009 0.207355
0.90045 0.496925 0.204746
0.90692 0.495308 0.201907
0.91371 0.49369 0.19913
0.919158 0.491691 0.196414
0.922896 0.488838 0.193393
0.926741 0.485679 0.190005
0.929824 0.483238 0.18735
0.93193 0.4822 0.186267
0.0618143 0.325536 0.197086
0.104814 0.345754 0.203342
0.143267 0.360952 0.209049
0.175158 0.373434 0.213703
0.215198 0.3879 0.218326
0.257404 0.402899 0.223178
0.301701 0.418601 0.227604
0.34789 0.434928 0.231266
0.394034 0.45124 0.23508
0.441581 0.467018 0.237583
0.488258 0.482551 0.240238
0.537438 0.496178 0.242237
0.588296 0.508705 0.243671
0.637186 0.520699 0.245243
0.682002 0.525734 0.245518
0.725673 0.531594 0.246387
0.762509 0.536309 0.247257
0.791272 0.537804 0.247333
0.820874 0.540398 0.24831
0.843626 0.541909 0.248234
0.860945 0.542565 0.24744
0.878676 0.543267 0.246693
0.892042 0.543908 0.245182
0.903578 0.545037 0.243198
0.915526 0.547127 0.241443
0.924575 0.547234 0.239246
0.930938 0.544518 0.236286
0.936843 0.541176 0.233051
0.940185 0.537087 0.229801
0.942519 0.533303 0.226825
0.945129 0.5299 0.223682
0.946502 0.527871 0.22211
0.947478 0.526223 0.220844
0.0819104 0.359976 0.219974
0.131777 0.379873 0.226322
0.1673 0.393408 0.230854
0.201602 0.405814 0.235218
0.238956 0.419043 0.239933
0.277821 0.432898 0.244831
0.320668 0.447776 0.248905
0.363775 0.462882 0.253407
0.407935 0.478233 0.25713
0.45301 0.493828 0.260456
0.49752 0.509178 0.26389
0.545724 0.523262 0.266133
0.592493 0.53753 0.268788
0.638437 0.549676 0.271015
0.684199 0.559945 0.272862
0.728954 0.571099 0.275288
0.76704 0.576394 0.277028
0.802502 0.579187 0.27866
0.83711 0.581918 0.280415
0.856443 0.582116 0.280018
0.875425 0.582712 0.279774
0.895354 0.583734 0.279789
0.907057 0.584665 0.278508
0.918471 0.58529 0.277317
0.930037 0.585672 0.276143
0.936568 0.583413 0.273442
0.943038 0.58146 0.27071
0.949599 0.57995 0.267994
0.953124 0.577676 0.265171
0.956725 0.575906 0.262364
0.960479 0.573922 0.259007
0.962325 0.57232 0.257191
0.963912 0.570275 0.255451
0.108873 0.394537 0.24242
0.159838 0.413291 0.247791
0.19617 0.426413 0.252323
0.228077 0.437736 0.256458
0.262242 0.449928 0.260884
0.301045 0.463249 0.265675
0.340764 0.476921 0.270542
0.38172 0.491218 0.275349
0.424216 0.506142 0.279286
0.467048 0.521096 0.283345
0.511162 0.53576 0.286854
0.556573 0.550347 0.289952
0.600748 0.564828 0.293462
0.645518 0.576806 0.296361
0.689891 0.588479 0.299214
0.732647 0.599512 0.302388
0.76849 0.605005 0.305043
0.804532 0.611231 0.307942
0.836973 0.616678 0.310384
0.860136 0.617975 0.311009
0.884245 0.619898 0.312169
0.905699 0.6215 0.313069
0.917922 0.621576 0.312322
0.930419 0.621561 0.311757
0.941894 0.621271 0.310933
0.948806 0.620569 0.308476
0.9561 0.620859 0.30631
0.963119 0.621576 0.304173
0.966812 0.619547 0.300984
0.97023 0.616632 0.297368
0.973236 0.613657 0.29424
0.97406 0.610651 0.292226
0.975082 0.608194 0.290227
0.139528 0.428244 0.26389
0.189258 0.445853 0.269108
0.225956 0.458534 0.273594
0.257481 0.469154 0.277287
0.291493 0.480873 0.281529
0.327626 0.493278 0.286183
0.364538 0.505913 0.290883
0.403983 0.519539 0.295369
0.444358 0.533471 0.300099
0.48452 0.547356 0.304814
0.527337 0.561791 0.308934
0.569558 0.575952 0.313222
0.611856 0.589807 0.317647
0.65388 0.602426 0.321401
0.695705 0.615457 0.325597
0.734279 0.626062 0.329458
0.771298 0.635431 0.33341
0.807889 0.64535 0.337728
0.839414 0.650919 0.340581
0.866865 0.652827 0.342473
0.894163 0.654948 0.344625
0.912627 0.655299 0.345281
0.925429 0.654612 0.345129
0.939071 0.6542 0.345098
0.949676 0.653651 0.343908
0.956939 0.653025 0.341512
0.964431 0.652125 0.33875
0.970352 0.650584 0.336004
0.973877 0.648341 0.332967
0.977569 0.646586 0.33019
0.980346 0.644968 0.327581
0.981979 0.644144 0.325841
0.98381 0.643717 0.323919
0.1673 0.460258 0.283909
0.220844 0.477913 0.28954
0.257328 0.489799 0.293202
0.287739 0.499931 0.296986
0.320104 0.510887 0.301259
0.354299 0.52256 0.305913
0.39028 0.534783 0.310658
0.427131 0.547356 0.315648
0.464134 0.560098 0.320806
0.503838 0.573556 0.325734
0.543801 0.587137 0.330755
0.583429 0.600565 0.335882
0.623896 0.613489 0.340536
0.663859 0.626154 0.345266
0.703136 0.638651 0.35021
0.740124 0.648722 0.35465
0.776059 0.658656 0.359289
0.811887 0.668696 0.364096
0.839506 0.672862 0.367178
0.867048 0.677394 0.370565
0.894377 0.682414 0.374197
0.911498 0.683055 0.375143
0.92845 0.683192 0.375708
0.945983 0.684092 0.376989
0.955688 0.68307 0.375143
0.963851 0.681895 0.372961
0.972305 0.680354 0.370382
0.977569 0.679469 0.3682
0.981521 0.678706 0.365606
0.985672 0.678798 0.363424
0.988647 0.679515 0.361624
0.990753 0.679805 0.359442
0.992493 0.679271 0.356771
0.209461 0.492973 0.303136
0.2598 0.509026 0.307149
0.293446 0.520241 0.311742
0.32221 0.529702 0.315648
0.354192 0.540276 0.320027
0.386694 0.551141 0.32462
0.419867 0.562615 0.329809
0.453758 0.574289 0.335134
0.489006 0.586297 0.340566
0.525963 0.598764 0.346044
0.562631 0.611093 0.351598
0.599817 0.623468 0.357305
0.637919 0.635752 0.36286
0.675288 0.648035 0.36878
0.711696 0.659403 0.374289
0.746792 0.670024 0.379538
0.781231 0.680781 0.385092
0.812863 0.689769 0.390097
0.840803 0.69662 0.394476
0.868528 0.704128 0.399283
0.894133 0.709804 0.403067
0.91397 0.710826 0.404685
0.933883 0.711864 0.406546
0.952148 0.712108 0.407568
0.960525 0.710033 0.404959
0.969497 0.708202 0.402518
0.978973 0.7066 0.400092
0.982773 0.705699 0.397223
0.986755 0.705104 0.394491
0.990875 0.70457 0.391669
0.992645 0.704433 0.389532
0.994171 0.704448 0.387533
0.995697 0.70486 0.38584
0.248081 0.524178 0.321828
0.295445 0.539254 0.327016
0.328237 0.549615 0.331121
0.357198 0.55874 0.334691
0.386419 0.568414 0.338979
0.416251 0.578714 0.344198
0.446906 0.589258 0.349599
0.47892 0.600366 0.355459
0.512398 0.611551 0.361151
0.54667 0.623056 0.367163
0.580743 0.634516 0.373342
0.616724 0.646204 0.379507
0.652415 0.657801 0.385794
0.687785 0.669429 0.392309
0.721401 0.680171 0.398199
0.754345 0.690517 0.403891
0.787381 0.700999 0.409918
0.81561 0.708782 0.414816
0.842969 0.716243 0.41973
0.870344 0.723781 0.424765
0.893126 0.727596 0.427848
0.913649 0.729702 0.429862
0.934051 0.732357 0.432273
0.950042 0.733257 0.432441
0.961227 0.732067 0.430304
0.972915 0.73106 0.428305
0.982498 0.730373 0.426246
0.98674 0.729381 0.423392
0.991135 0.728847 0.420935
0.994888 0.728374 0.41857
0.99617 0.72903 0.417609
0.997436 0.730205 0.417166
0.998474 0.731792 0.417136
0.293385 0.554849 0.340169
0.338567 0.56875 0.34522
0.369512 0.578256 0.348623
0.39501 0.586587 0.35256
0.421424 0.59556 0.357519
0.449546 0.605142 0.362814
0.479347 0.615259 0.368444
0.509773 0.625513 0.374502
0.540856 0.635904 0.380789
0.572198 0.646433 0.387381
0.604562 0.657084 0.393942
0.637095 0.66775 0.400549
0.669734 0.678447 0.40734
0.701671 0.688869 0.413977
0.732509 0.698711 0.420157
0.763546 0.708659 0.426612
0.792981 0.718029 0.432883
0.819669 0.725734 0.438025
0.846281 0.733669 0.443519
0.872465 0.741604 0.449165
0.893355 0.74548 0.451774
0.914656 0.749905 0.454612
0.936202 0.754681 0.457527
0.950591 0.755169 0.456748
0.964355 0.754681 0.454948
0.978759 0.754513 0.453468
0.98674 0.753872 0.451408
0.990784 0.752361 0.448905
0.994965 0.751034 0.446601
0.997543 0.75079 0.445151
0.998367 0.751507 0.444389
0.999191 0.75227 0.443671
0.999619 0.753185 0.44332
0.338918 0.584268 0.358083
0.380529 0.596948 0.362325
0.407401 0.605859 0.367178
0.430259 0.613443 0.371618
0.455329 0.621942 0.376593
0.482124 0.630793 0.381735
0.509499 0.639948 0.387854
0.537697 0.649332 0.394354
0.56669 0.659083 0.40119
0.596048 0.668849 0.408026
0.625666 0.678553 0.414786
0.655436 0.688457 0.421866
0.684947 0.698283 0.428992
0.71429 0.707774 0.435676
0.743099 0.717144 0.44239
0.772519 0.72665 0.44921
0.799512 0.735042 0.454994
0.82533 0.743084 0.460578
0.851408 0.75108 0.466117
0.874952 0.757549 0.47039
0.896254 0.762432 0.47306
0.917739 0.767529 0.475929
0.937392 0.771344 0.477745
0.951507 0.771191 0.476326
0.965789 0.771252 0.475196
0.97995 0.771771 0.474525
0.98526 0.770336 0.472038
0.990692 0.769162 0.469856
0.99646 0.768063 0.467643
0.998062 0.768475 0.466987
0.99884 0.768978 0.466468
0.999619 0.76965 0.466102
0.999802 0.770718 0.466285
0.385245 0.612879 0.376059
0.42182 0.624552 0.38233
0.446876 0.632532 0.38703
0.469306 0.639765 0.391302
0.493858 0.647608 0.39588
0.518349 0.655543 0.401465
0.54406 0.663996 0.407645
0.570504 0.672663 0.414038
0.598032 0.68162 0.420645
0.624964 0.690425 0.427344
0.652461 0.699397 0.434226
0.679759 0.708324 0.441215
0.70695 0.717189 0.447974
0.733684 0.725856 0.454582
0.760525 0.734569 0.461357
0.786664 0.743053 0.467887
0.810925 0.750484 0.473289
0.835401 0.758114 0.47892
0.860075 0.765896 0.484718
0.880659 0.771054 0.487846
0.900816 0.776135 0.490944
0.920943 0.781292 0.494087
0.93756 0.784024 0.495003
0.951904 0.785473 0.49482
0.966567 0.787213 0.494728
0.978393 0.788098 0.49395
0.985046 0.787015 0.491829
0.991897 0.785992 0.489784
0.998001 0.785336 0.488167
0.998718 0.785733 0.488014
0.999405 0.78613 0.487953
0.999985 0.786618 0.488045
1 0.787762 0.488396
0.435019 0.640833 0.395468
0.469032 0.65153 0.401846
0.492699 0.658869 0.406256
0.513756 0.665476 0.410147
0.534325 0.672175 0.415244
0.55671 0.679408 0.420691
0.580697 0.687236 0.426688
0.605631 0.695247 0.432807
0.629999 0.703288 0.439384
0.654215 0.711223 0.446143
0.679088 0.719448 0.453117
0.703899 0.727657 0.460166
0.72813 0.735515 0.466606
0.752194 0.743496 0.473304
0.776196 0.751415 0.480095
0.799146 0.758587 0.485847
0.82182 0.765713 0.491463
0.844404 0.772717 0.497047
0.865827 0.779156 0.501884
0.8851 0.784573 0.505318
0.904372 0.789975 0.508721
0.923674 0.795422 0.512093
0.93843 0.797528 0.511849
0.953231 0.799664 0.51162
0.968215 0.801923 0.511452
0.977707 0.801389 0.509499
0.985351 0.8 0.507057
0.993088 0.798795 0.504753
0.997345 0.798016 0.503304
0.998291 0.797665 0.502739
0.999359 0.79733 0.502281
1 0.79736 0.502022
1 0.797971 0.502495
0.483284 0.667643 0.414893
0.515145 0.677333 0.42063
0.536767 0.684047 0.425116
0.554345 0.68957 0.429389
0.573861 0.695796 0.434272
0.594751 0.702403 0.43946
0.616999 0.709438 0.444984
0.638621 0.716442 0.45124
0.660151 0.72343 0.45774
0.6822 0.730587 0.464439
0.704555 0.737865 0.471214
0.726223 0.744823 0.477378
0.747921 0.751797 0.48368
0.769497 0.75874 0.489891
0.791058 0.765576 0.495811
0.812055 0.771954 0.500908
0.833173 0.778378 0.50602
0.854139 0.784833 0.511131
0.872633 0.789776 0.514229
0.891035 0.794675 0.517128
0.909331 0.799588 0.520027
0.925948 0.80322 0.521523
0.940429 0.805508 0.521447
0.954925 0.807828 0.521416
0.968856 0.809812 0.52105
0.97702 0.809171 0.519127
0.985336 0.808728 0.517266
0.993866 0.808408 0.515373
0.996262 0.807935 0.515007
0.997864 0.807446 0.515175
0.999588 0.806958 0.51545
1 0.807355 0.516304
1 0.808042 0.517525
0.539544 0.693492 0.433402
0.565194 0.701335 0.439063
0.582956 0.706935 0.443717
0.598444 0.711772 0.447807
0.615442 0.717113 0.452247
0.634012 0.722911 0.457115
0.652033 0.728664 0.462531
0.670558 0.734691 0.468299
0.689784 0.740826 0.47422
0.709728 0.747341 0.480522
0.729015 0.753521 0.486351
0.748211 0.759762 0.49221
0.767819 0.76614 0.498253
0.787335 0.772488 0.504295
0.806332 0.778302 0.50901
0.82536 0.784054 0.513695
0.844251 0.789853 0.518471
0.862516 0.795178 0.522393
0.879637 0.799634 0.525078
0.89691 0.804181 0.527779
0.914107 0.808682 0.53048
0.928496 0.8112 0.530724
0.942641 0.813657 0.5308
0.956832 0.816068 0.53077
0.968231 0.817288 0.530022
0.976944 0.817563 0.528878
0.986099 0.817899 0.527657
0.993545 0.818097 0.526802
0.995682 0.817243 0.526986
0.997925 0.816205 0.527031
1 0.815366 0.527199
1 0.815549 0.528069
1 0.815702 0.528969
0.586465 0.716411 0.451698
0.608408 0.723171 0.457542
0.62388 0.727993 0.461723
0.637308 0.732113 0.465293
0.652384 0.736797 0.469352
0.667338 0.741527 0.474098
0.683268 0.746715 0.47921
0.69955 0.751934 0.484474
0.717037 0.757565 0.490089
0.734188 0.763119 0.495644
0.751263 0.768673 0.501137
0.768856 0.774441 0.506828
0.786343 0.780224 0.512673
0.803616 0.785626 0.51754
0.820325 0.790524 0.52163
0.837186 0.795483 0.52575
0.854154 0.800473 0.529946
0.870344 0.80441 0.532296
0.886458 0.808255 0.534463
0.902525 0.8121 0.536629
0.917586 0.815152 0.537911
0.931441 0.817212 0.537758
0.945373 0.819303 0.537621
0.959594 0.821408 0.537423
0.968917 0.821653 0.536065
0.978225 0.821851 0.534615
0.987716 0.82211 0.533181
0.992813 0.821729 0.532647
0.995575 0.820981 0.532647
0.998459 0.820325 0.532662
1 0.820066 0.53312
1 0.820203 0.534264
1 0.820325 0.535424
0.627039 0.735561 0.468269
0.646006 0.741314 0.473426
0.658991 0.745235 0.477028
0.670634 0.748775 0.480369
0.682841 0.752621 0.484352
0.695933 0.756695 0.488594
0.709911 0.761074 0.493141
0.725032 0.76582 0.498009
0.740063 0.77052 0.502907
0.754864 0.775189 0.507713
0.770123 0.780041 0.512718
0.785718 0.784924 0.5178
0.801266 0.789715 0.522545
0.81648 0.794079 0.526375
0.831601 0.798383 0.530266
0.846647 0.802686 0.534264
0.861875 0.806531 0.537194
0.876936 0.809934 0.539162
0.892256 0.813413 0.541222
0.907652 0.816876 0.543221
0.92137 0.819013 0.543267
0.935195 0.821057 0.542992
0.949065 0.823117 0.542763
0.961288 0.824521 0.542168
0.970565 0.824933 0.540978
0.980026 0.825376 0.539757
0.989425 0.825833 0.538552
0.99266 0.825406 0.538384
0.996017 0.824979 0.538033
0.999512 0.824628 0.537591
0.999985 0.824613 0.538643
1 0.824704 0.540047
1 0.824842 0.541558
0.661143 0.751263 0.482658
0.677211 0.7561 0.487144
0.688075 0.759472 0.490745
0.698116 0.762615 0.494072
0.70901 0.765972 0.497642
0.720806 0.76965 0.501625
0.733486 0.773587 0.505898
0.746136 0.777508 0.510201
0.758618 0.781384 0.514473
0.771527 0.785351 0.518837
0.785077 0.789487 0.523354
0.798566 0.793576 0.52784
0.812085 0.79736 0.531502
0.825971 0.801221 0.535302
0.839826 0.805066 0.539101
0.853895 0.808835 0.542626
0.868284 0.811978 0.544396
0.882948 0.815167 0.546242
0.897871 0.818402 0.54818
0.912108 0.821073 0.549096
0.925551 0.823056 0.548882
0.939269 0.82504 0.548608
0.953201 0.827008 0.548348
0.963165 0.827649 0.547326
0.972732 0.828107 0.546151
0.982483 0.828595 0.544945
0.98938 0.828611 0.543877
0.993103 0.828122 0.542977
0.996918 0.827634 0.541909
0.999847 0.827192 0.541207
0.999893 0.826963 0.542107
0.999939 0.826795 0.543374
1 0.826764 0.544732
