LUT预设1/iPhone专用lut合集3/iPhone合集3标准版（709）/FAKE理光负片（暖）709.cube
TITLE "Generated by Resolve"
LUT_3D_SIZE 33
0.0128328 0.0293889 0.0630655
0.0345312 0.02916 0.0628367
0.0742199 0.0279698 0.0623636
0.137774 0.0259861 0.0615854
0.218814 0.0236667 0.0605631
0.301045 0.0219883 0.0594949
0.37641 0.0211032 0.058793
0.444129 0.0206912 0.0585641
0.503883 0.0205234 0.0586709
0.555703 0.0205692 0.0590066
0.600092 0.020676 0.0594949
0.640299 0.020737 0.0600443
0.67689 0.0207218 0.0606851
0.709819 0.0207065 0.0614481
0.740368 0.0206455 0.0621958
0.765545 0.0209201 0.0630503
0.788815 0.0211948 0.0638285
0.805982 0.0214084 0.0645304
0.823392 0.021561 0.0652171
0.8327 0.0224002 0.0657206
0.842283 0.0230411 0.0662394
0.84892 0.0235142 0.0666056
0.852613 0.0251316 0.0670176
0.857618 0.0263218 0.0674601
0.859083 0.0272679 0.0676738
0.860975 0.0290837 0.0679942
0.863386 0.0311284 0.0683604
0.864271 0.0327611 0.0686351
0.864912 0.033875 0.0688334
0.865843 0.0360571 0.0691081
0.86714 0.0392615 0.0694438
0.868147 0.0415503 0.0697185
0.868971 0.0431525 0.0699626
0.0105898 0.0430915 0.0632181
0.0293126 0.0435645 0.0630503
0.0661936 0.0418555 0.0626078
0.125109 0.0389105 0.0618601
0.199207 0.0356909 0.0609445
0.278202 0.0324407 0.0600137
0.353918 0.0296941 0.0592813
0.421881 0.0281834 0.0590677
0.481209 0.0271916 0.0591745
0.533059 0.0269474 0.0594339
0.577996 0.0273136 0.0598306
0.617533 0.0275731 0.0603494
0.654749 0.027451 0.0608682
0.686625 0.0276951 0.0615396
0.71577 0.0278477 0.0622416
0.741939 0.0294347 0.0631418
0.766003 0.0308995 0.0640726
0.787045 0.0319524 0.0650187
0.806745 0.0325628 0.0659037
0.820798 0.0336461 0.0666667
0.835798 0.0360723 0.0675517
0.845045 0.0381018 0.0681926
0.853071 0.0395361 0.0687572
0.861265 0.0403449 0.0693065
0.863874 0.041886 0.0695811
0.867262 0.0453956 0.0699626
0.870329 0.0481575 0.0703288
0.871229 0.0503548 0.0705577
0.872084 0.0518196 0.0707561
0.872816 0.0527657 0.0709544
0.873716 0.0555428 0.071107
0.874754 0.0590524 0.0712902
0.875608 0.0617838 0.0714427
0.0105135 0.0658274 0.063859
0.0217899 0.0688334 0.0638132
0.0492714 0.0691081 0.063508
0.0982986 0.0661631 0.0626078
0.162951 0.0634928 0.0616312
0.234775 0.0608835 0.0607614
0.307408 0.0584573 0.0601968
0.375921 0.0568246 0.0599832
0.438315 0.0561532 0.0601816
0.493935 0.0557259 0.0605325
0.544945 0.0553292 0.0609751
0.588602 0.0560464 0.0614328
0.628107 0.0580301 0.0619669
0.663157 0.0596933 0.062623
0.69456 0.0608072 0.0634775
0.723644 0.061326 0.0644541
0.749645 0.0614176 0.0654917
0.773739 0.0630655 0.0664988
0.795346 0.0659953 0.0674296
0.813993 0.0687877 0.0683757
0.832425 0.0706798 0.0693828
0.84448 0.072221 0.0701305
0.856458 0.0732586 0.0709392
0.866789 0.0736095 0.0716564
0.871321 0.0770275 0.0718395
0.876417 0.0801709 0.0721447
0.880049 0.082414 0.0724041
0.881163 0.0841993 0.0725109
0.882429 0.0853132 0.072694
0.883207 0.0857557 0.0728313
0.883299 0.0856641 0.0729076
0.883223 0.0849012 0.0729686
0.883528 0.0863813 0.0728313
0.011429 0.0963912 0.0649729
0.0201267 0.0978103 0.0650187
0.0439002 0.10074 0.0649424
0.0814069 0.101091 0.0644388
0.141314 0.0996414 0.0633097
0.21442 0.0967727 0.0621653
0.28629 0.0942702 0.0613718
0.355428 0.0922713 0.0608682
0.420096 0.0911116 0.0607767
0.476844 0.0912642 0.0610666
0.528588 0.0913405 0.0614176
0.574716 0.0917678 0.0618753
0.616373 0.0933852 0.0624704
0.654032 0.0949264 0.0630808
0.686351 0.0962387 0.0638895
0.716609 0.0968948 0.0647593
0.743282 0.097261 0.0657664
0.76791 0.0974289 0.0668498
0.790326 0.0972 0.0679637
0.810819 0.100221 0.0689097
0.83093 0.103258 0.0697948
0.844602 0.105928 0.0704814
0.858335 0.108232 0.0712596
0.870054 0.109606 0.0720073
0.875944 0.110597 0.0724651
0.882338 0.111009 0.0730144
0.886885 0.111086 0.0734722
0.888701 0.11426 0.0733806
0.890883 0.116625 0.0733654
0.892287 0.118593 0.0733654
0.892744 0.12018 0.0733501
0.893019 0.120912 0.0733959
0.893233 0.121477 0.0734569
0.0135348 0.136172 0.0674601
0.0224613 0.134646 0.0672618
0.0416571 0.138888 0.0675669
0.0753185 0.142321 0.0675517
0.127474 0.144732 0.0671244
0.196384 0.145769 0.0662852
0.274144 0.143908 0.0651865
0.347265 0.142046 0.0641489
0.415473 0.139925 0.0630503
0.473869 0.139376 0.062562
0.525368 0.138994 0.0623636
0.571176 0.139345 0.0623941
0.611078 0.139116 0.0628214
0.649897 0.140414 0.0634165
0.682719 0.140826 0.0642863
0.713573 0.141344 0.0650339
0.740444 0.141894 0.0658885
0.765591 0.142184 0.0666972
0.78851 0.141955 0.0675212
0.809216 0.141741 0.0684367
0.829602 0.141009 0.0693675
0.844526 0.140154 0.0703288
0.859312 0.140993 0.0712749
0.872328 0.142763 0.0719768
0.879606 0.144244 0.072343
0.887465 0.145541 0.0727245
0.893462 0.146304 0.0730144
0.895705 0.14667 0.0731212
0.898253 0.146792 0.0733196
0.899687 0.146502 0.0735027
0.899702 0.145998 0.0736095
0.899657 0.145403 0.0737316
0.89987 0.147173 0.0736095
0.0182345 0.183917 0.07187
0.0278935 0.179583 0.0713664
0.04654 0.184619 0.0720989
0.071809 0.190799 0.0728618
0.12224 0.197253 0.0733654
0.186267 0.202319 0.0735027
0.262303 0.2056 0.0732128
0.34078 0.204089 0.0716869
0.412055 0.202777 0.070161
0.476616 0.200336 0.0682231
0.529 0.198993 0.0669413
0.577249 0.197803 0.0656748
0.615991 0.197345 0.0654002
0.653056 0.196735 0.0650187
0.68394 0.195209 0.0652476
0.713787 0.194446 0.0656291
0.740307 0.193378 0.0664836
0.765072 0.192447 0.0672007
0.787915 0.191806 0.0679332
0.808728 0.191028 0.0686961
0.828855 0.190204 0.0692607
0.844877 0.189242 0.0699474
0.860304 0.188098 0.0705577
0.874708 0.186572 0.0710765
0.883619 0.184955 0.0715648
0.89276 0.183124 0.0720989
0.900084 0.181247 0.0726177
0.902571 0.180133 0.0729381
0.90547 0.180484 0.0731975
0.907347 0.180804 0.0732738
0.907362 0.180774 0.073228
0.907515 0.180377 0.0731823
0.907485 0.179843 0.0731518
0.0258183 0.239704 0.0792859
0.0378576 0.234257 0.078584
0.0590677 0.237766 0.0792554
0.0852216 0.24419 0.0804303
0.120668 0.252476 0.0818494
0.183185 0.261357 0.0831006
0.25272 0.26775 0.08365
0.331395 0.270924 0.0831922
0.404608 0.269825 0.0811627
0.474739 0.267643 0.0786908
0.529168 0.264714 0.0763714
0.580987 0.262348 0.0741741
0.620096 0.260731 0.0728618
0.657618 0.259602 0.0715343
0.687938 0.257893 0.0708934
0.717006 0.256306 0.0700999
0.742184 0.25359 0.0697948
0.766278 0.250721 0.0694285
0.788403 0.247776 0.0692149
0.808728 0.244221 0.0691997
0.828473 0.240787 0.0691997
0.845136 0.2383 0.0700236
0.861082 0.23592 0.0707103
0.876402 0.233646 0.0711986
0.886198 0.231571 0.0717937
0.896468 0.229664 0.072221
0.905272 0.227634 0.0724804
0.908812 0.225528 0.0725872
0.912825 0.223331 0.0726329
0.915465 0.22121 0.0726329
0.915526 0.218875 0.0726177
0.915618 0.216022 0.0726482
0.915328 0.213153 0.0727398
0.0373236 0.296864 0.0890516
0.0536812 0.294072 0.0888228
0.0758984 0.296834 0.0895399
0.103334 0.301228 0.0904097
0.138262 0.3075 0.0917372
0.182742 0.317693 0.0939345
0.247181 0.32697 0.0955215
0.317617 0.336141 0.0968795
0.395132 0.335348 0.0945754
0.466407 0.334447 0.0922866
0.52639 0.330205 0.0888533
0.579843 0.32665 0.0858625
0.620783 0.323751 0.0834211
0.659083 0.320531 0.081117
0.688838 0.317586 0.0796216
0.71783 0.314809 0.0780652
0.742382 0.311818 0.0771496
0.765789 0.308553 0.0760967
0.787518 0.305333 0.0752728
0.807553 0.301579 0.0746166
0.827054 0.298375 0.0738537
0.844022 0.294347 0.0734874
0.860365 0.290471 0.0731365
0.876554 0.286885 0.0726482
0.888045 0.282612 0.0725567
0.899855 0.278538 0.0723888
0.910597 0.274586 0.0721599
0.915297 0.269963 0.0720684
0.919707 0.266789 0.0724651
0.922545 0.263645 0.0728008
0.922408 0.260685 0.0730602
0.922713 0.257939 0.0731365
0.922499 0.255116 0.0731365
0.0529488 0.352544 0.0999771
0.0732128 0.352102 0.100313
0.100038 0.355169 0.101152
0.123598 0.357794 0.101839
0.158999 0.363836 0.103319
0.198459 0.370245 0.104845
0.253254 0.378866 0.106783
0.31284 0.38616 0.108141
0.381765 0.391073 0.1084
0.448371 0.392752 0.107271
0.512474 0.390646 0.10454
0.568383 0.387671 0.101488
0.615 0.382696 0.097734
0.656382 0.37847 0.094316
0.687495 0.374792 0.0913558
0.71722 0.371527 0.0884718
0.741314 0.368612 0.0861982
0.764584 0.365499 0.0838636
0.786221 0.361501 0.082002
0.805722 0.356832 0.0806592
0.825071 0.352255 0.0792554
0.842237 0.34728 0.0784466
0.858457 0.34258 0.0777905
0.874693 0.338079 0.076997
0.887007 0.333242 0.0767376
0.899351 0.328908 0.0763714
0.911055 0.324819 0.0758679
0.916625 0.320439 0.0756237
0.922652 0.315801 0.0751965
0.927138 0.311315 0.0747387
0.92813 0.306676 0.0743572
0.929488 0.301961 0.0738537
0.929702 0.297292 0.0734417
0.0696269 0.405188 0.111055
0.094316 0.405539 0.111589
0.123201 0.40853 0.112551
0.149752 0.411261 0.113436
0.179507 0.413779 0.114244
0.218097 0.419257 0.11577
0.260929 0.426093 0.117586
0.315709 0.432273 0.118898
0.374334 0.438209 0.119997
0.436088 0.439887 0.11928
0.497978 0.44004 0.117983
0.552087 0.437751 0.115526
0.601648 0.433463 0.112215
0.644327 0.429496 0.109026
0.678187 0.424598 0.105531
0.710796 0.420264 0.102266
0.735637 0.415946 0.0993515
0.759884 0.412161 0.0965896
0.781796 0.408652 0.0941939
0.801297 0.404898 0.0920424
0.820447 0.401266 0.0898451
0.837598 0.397177 0.0880446
0.854231 0.393011 0.0862898
0.870741 0.389395 0.0844587
0.884245 0.384695 0.0830396
0.897826 0.379583 0.0814832
0.910842 0.374701 0.079881
0.918288 0.36939 0.0787518
0.926146 0.363821 0.0774395
0.931502 0.357931 0.0770123
0.932937 0.352331 0.0770123
0.934813 0.346792 0.0767681
0.935073 0.341466 0.0766155
0.0927596 0.452659 0.122271
0.120134 0.454871 0.123125
0.150027 0.457664 0.124071
0.176318 0.459174 0.124605
0.204547 0.460685 0.125139
0.239124 0.463706 0.125994
0.275151 0.466484 0.126772
0.321798 0.471778 0.128176
0.367163 0.477058 0.12958
0.425284 0.480674 0.130266
0.482368 0.483879 0.130877
0.536583 0.482307 0.128985
0.588281 0.479545 0.126482
0.632898 0.475425 0.123262
0.669947 0.469886 0.119295
0.70547 0.464942 0.115541
0.730968 0.461006 0.112047
0.755352 0.457527 0.108843
0.777371 0.454108 0.105867
0.796643 0.450858 0.103151
0.815656 0.447593 0.10045
0.83299 0.443397 0.0980392
0.849683 0.438865 0.0957504
0.866163 0.43473 0.0935683
0.880156 0.429648 0.0919509
0.893965 0.424643 0.0903182
0.907271 0.419913 0.0887465
0.915694 0.41442 0.0875563
0.924529 0.409506 0.0862745
0.931472 0.404059 0.0849317
0.9346 0.39826 0.0838178
0.93814 0.392752 0.0825666
0.939239 0.386847 0.0814832
0.116304 0.494667 0.13225
0.142733 0.496834 0.133104
0.177188 0.499153 0.133944
0.20087 0.500526 0.134463
0.229053 0.501671 0.134829
0.259205 0.502525 0.135271
0.29395 0.504402 0.135958
0.332555 0.507469 0.136873
0.373953 0.510369 0.137667
0.423667 0.513237 0.138384
0.472328 0.51577 0.138979
0.522362 0.514687 0.137758
0.57113 0.51368 0.136599
0.614145 0.510765 0.134325
0.6533 0.506249 0.131243
0.690715 0.502037 0.128252
0.718578 0.497993 0.124926
0.746242 0.49398 0.12163
0.770153 0.490028 0.118441
0.790295 0.486473 0.115434
0.810193 0.483314 0.112581
0.827527 0.480217 0.110109
0.844038 0.477058 0.107698
0.860349 0.474418 0.105394
0.874739 0.470817 0.103273
0.888914 0.46772 0.101183
0.902708 0.464332 0.0989395
0.912993 0.459648 0.0967269
0.923629 0.454841 0.094316
0.932021 0.45008 0.0920882
0.936751 0.443549 0.0899672
0.941421 0.437095 0.0886244
0.942733 0.430152 0.0876326
0.142123 0.53051 0.141131
0.168994 0.533394 0.142031
0.201343 0.536767 0.143282
0.226093 0.537728 0.143771
0.251987 0.537743 0.143984
0.279332 0.537545 0.144137
0.311711 0.538277 0.144335
0.344396 0.538918 0.144442
0.381872 0.540154 0.144793
0.421988 0.54229 0.145418
0.463813 0.543984 0.145907
0.510536 0.545281 0.146258
0.556542 0.546349 0.146563
0.599542 0.544167 0.144991
0.640589 0.541176 0.142962
0.678996 0.53756 0.140536
0.70959 0.532815 0.137026
0.739712 0.52842 0.133654
0.76463 0.52491 0.13048
0.784726 0.521782 0.127443
0.805005 0.518746 0.124483
0.822095 0.516457 0.12195
0.838544 0.513832 0.119356
0.855238 0.511604 0.116899
0.86981 0.508171 0.114458
0.88455 0.504952 0.112062
0.898543 0.501457 0.109789
0.909697 0.496666 0.107607
0.921233 0.491936 0.105409
0.930053 0.487098 0.103502
0.935851 0.481514 0.101686
0.942046 0.475959 0.0997024
0.943984 0.469902 0.0980697
0.165286 0.562646 0.149065
0.193606 0.56585 0.150164
0.225284 0.568124 0.151049
0.249531 0.568231 0.151263
0.273213 0.568597 0.151537
0.299763 0.568246 0.151492
0.328573 0.567651 0.151278
0.357916 0.566766 0.150973
0.392767 0.567636 0.151247
0.427451 0.568276 0.151568
0.465522 0.569009 0.151919
0.506325 0.570062 0.152407
0.546365 0.571038 0.152758
0.586007 0.569268 0.151675
0.625055 0.567391 0.150546
0.661433 0.564996 0.148928
0.694087 0.561135 0.146273
0.725841 0.557702 0.143832
0.752087 0.554192 0.141054
0.775219 0.550912 0.138247
0.798108 0.548012 0.135622
0.816114 0.545357 0.133028
0.83386 0.542626 0.130373
0.851133 0.540139 0.127886
0.865705 0.537835 0.125719
0.88043 0.535927 0.123674
0.894347 0.533364 0.121508
0.906355 0.530526 0.119463
0.91873 0.52781 0.117311
0.92813 0.524392 0.11516
0.9355 0.519951 0.112749
0.943221 0.515938 0.110262
0.945632 0.510231 0.107851
0.191592 0.590677 0.156085
0.215717 0.593362 0.156954
0.249363 0.595209 0.157519
0.271931 0.596292 0.157855
0.29395 0.596521 0.158267
0.319402 0.595697 0.158328
0.346014 0.594537 0.158312
0.374487 0.593423 0.15816
0.404807 0.592813 0.157885
0.434958 0.591913 0.157427
0.468772 0.592172 0.157549
0.503029 0.592615 0.157733
0.537423 0.592935 0.157824
0.574746 0.592813 0.157855
0.611383 0.592996 0.157977
0.646952 0.591562 0.157107
0.681437 0.589059 0.15555
0.715709 0.586328 0.153918
0.742977 0.583032 0.151492
0.768399 0.579522 0.148882
0.793362 0.575998 0.146273
0.811612 0.573556 0.143771
0.82977 0.571206 0.141299
0.846952 0.569116 0.138949
0.861585 0.567422 0.136873
0.876371 0.56585 0.134829
0.890425 0.563897 0.132738
0.903212 0.561166 0.130465
0.916365 0.558343 0.12813
0.925933 0.554604 0.125856
0.934234 0.550469 0.123613
0.942489 0.546105 0.12134
0.945449 0.54049 0.11928
0.214282 0.617227 0.162432
0.24007 0.619226 0.163134
0.271366 0.621302 0.16405
0.292638 0.621988 0.164538
0.31429 0.621225 0.164645
0.337896 0.620035 0.164691
0.362844 0.619089 0.164782
0.389044 0.617563 0.164172
0.415991 0.615961 0.163455
0.443626 0.614649 0.162829
0.473503 0.614328 0.162737
0.503456 0.614008 0.16257
0.535317 0.613947 0.162661
0.569055 0.614328 0.163058
0.602548 0.614649 0.163455
0.636286 0.613199 0.162829
0.669398 0.611566 0.16199
0.702159 0.609995 0.161135
0.729839 0.606653 0.159014
0.757076 0.603632 0.157046
0.78265 0.600717 0.155047
0.802945 0.598047 0.152728
0.823194 0.595422 0.150484
0.841749 0.593179 0.148348
0.857511 0.591104 0.146212
0.873304 0.589227 0.144167
0.887541 0.587259 0.142168
0.900481 0.585351 0.140261
0.91371 0.583612 0.138399
0.923476 0.581048 0.136568
0.93286 0.578317 0.134661
0.941421 0.57557 0.13283
0.945632 0.571191 0.130739
0.238544 0.639002 0.168017
0.262547 0.641001 0.168795
0.291218 0.642634 0.169482
0.313252 0.64271 0.16968
0.333181 0.642649 0.169802
0.355001 0.642405 0.169924
0.37821 0.641062 0.169497
0.402731 0.639445 0.168856
0.427771 0.637507 0.168139
0.454032 0.636316 0.167987
0.481102 0.635065 0.16788
0.507897 0.633936 0.167529
0.536843 0.633478 0.167651
0.566155 0.63328 0.167727
0.595102 0.633021 0.167605
0.626535 0.6327 0.16759
0.658091 0.632242 0.167529
0.688792 0.631708 0.1673
0.718318 0.629343 0.16611
0.747723 0.627192 0.165026
0.774075 0.62472 0.163546
0.796597 0.62182 0.161486
0.819242 0.61883 0.159396
0.838453 0.616159 0.157275
0.854765 0.614023 0.155322
0.871138 0.612207 0.153475
0.884932 0.61117 0.151934
0.897841 0.610056 0.150317
0.911116 0.608896 0.148653
0.921355 0.606577 0.146777
0.931762 0.604303 0.144915
0.940414 0.601236 0.142885
0.945647 0.597086 0.140734
0.26183 0.660166 0.173159
0.283574 0.662196 0.173724
0.313069 0.663432 0.173968
0.333547 0.664256 0.17409
0.351797 0.664897 0.174517
0.371893 0.664256 0.174762
0.393683 0.662547 0.174838
0.416403 0.660685 0.17496
0.439963 0.658839 0.175006
0.463813 0.656764 0.174365
0.488106 0.654795 0.173602
0.51281 0.653208 0.1729
0.538506 0.652552 0.172595
0.564126 0.651835 0.172122
0.591424 0.651438 0.171923
0.620935 0.651759 0.172305
0.650233 0.651987 0.172595
0.679744 0.651102 0.172381
0.709056 0.649531 0.171801
0.737682 0.648035 0.171267
0.763394 0.645609 0.170062
0.787411 0.642741 0.168627
0.811353 0.640162 0.167254
0.83032 0.637919 0.165591
0.848173 0.635676 0.16376
0.866468 0.633402 0.161898
0.88069 0.63183 0.160189
0.894865 0.630198 0.158434
0.908644 0.628443 0.156634
0.919539 0.626719 0.155016
0.930663 0.625299 0.153506
0.939223 0.622995 0.151843
0.945571 0.620752 0.150393
0.284153 0.6795 0.177569
0.305959 0.680827 0.178332
0.33228 0.682185 0.179156
0.350698 0.683055 0.17969
0.367834 0.682811 0.179995
0.387213 0.681895 0.180179
0.407645 0.680842 0.180362
0.429465 0.679774 0.180575
0.451728 0.677928 0.180026
0.474617 0.675898 0.179278
0.497658 0.673823 0.17847
0.521263 0.672251 0.177737
0.544991 0.670954 0.176974
0.568704 0.669383 0.176059
0.594141 0.668894 0.175891
0.619974 0.668437 0.17586
0.645533 0.668269 0.176242
0.672404 0.667704 0.176577
0.699351 0.667124 0.176791
0.726207 0.666789 0.176867
0.751904 0.665049 0.176242
0.777493 0.66305 0.175494
0.803571 0.661189 0.174777
0.823331 0.658808 0.17319
0.843259 0.656382 0.171588
0.862928 0.65388 0.169924
0.877714 0.651865 0.168154
0.89279 0.650019 0.166415
0.906569 0.648676 0.164935
0.918044 0.647837 0.163684
0.929976 0.647379 0.16257
0.938399 0.645869 0.161242
0.946029 0.643961 0.159808
0.306249 0.69749 0.182574
0.325719 0.698878 0.1832
0.350057 0.700282 0.18378
0.368475 0.700481 0.184009
0.385504 0.700389 0.184207
0.403479 0.700236 0.18436
0.423239 0.699901 0.184512
0.443534 0.698772 0.184298
0.464775 0.696742 0.183825
0.486412 0.694652 0.183368
0.508293 0.692515 0.182864
0.52987 0.690684 0.183032
0.551598 0.688548 0.18291
0.573434 0.686824 0.182742
0.595376 0.685969 0.182666
0.617212 0.685222 0.182208
0.639841 0.68481 0.181704
0.665339 0.68513 0.182086
0.690684 0.685496 0.182193
0.716457 0.685298 0.18201
0.742962 0.683711 0.181674
0.769558 0.682261 0.181292
0.794079 0.680537 0.180621
0.815366 0.677913 0.179294
0.837186 0.675471 0.178073
0.856596 0.673213 0.176745
0.872648 0.671305 0.17525
0.889311 0.669398 0.174044
0.903365 0.667887 0.172793
0.916228 0.666438 0.171359
0.929534 0.665187 0.169863
0.937804 0.663554 0.168566
0.946548 0.662013 0.167239
0.327062 0.714992 0.186587
0.345296 0.716091 0.186999
0.369253 0.716838 0.187304
0.38706 0.717311 0.187518
0.402838 0.717494 0.187671
0.419318 0.71783 0.18851
0.437201 0.717205 0.189425
0.45623 0.715831 0.190127
0.476463 0.714214 0.190829
0.497475 0.712779 0.191577
0.517662 0.710643 0.191394
0.538201 0.708583 0.191119
0.559213 0.706264 0.1906
0.579675 0.704707 0.189929
0.60032 0.703243 0.18883
0.620951 0.701686 0.187533
0.642481 0.70106 0.18677
0.664881 0.700679 0.186236
0.687144 0.700343 0.185473
0.710536 0.699779 0.185061
0.734844 0.69926 0.185046
0.758846 0.698833 0.185016
0.782376 0.697612 0.18471
0.805615 0.695949 0.184726
0.829419 0.694453 0.184878
0.849454 0.6925 0.184268
0.867994 0.690288 0.1832
0.887114 0.688121 0.182086
0.901335 0.686275 0.180636
0.91548 0.68455 0.179034
0.928634 0.682902 0.177462
0.937911 0.681849 0.176272
0.947601 0.681071 0.175113
0.347082 0.730663 0.190356
0.364645 0.731792 0.191409
0.386725 0.733043 0.193133
0.403235 0.733761 0.194293
0.417258 0.734386 0.195132
0.433112 0.734234 0.195743
0.450767 0.733455 0.196353
0.469551 0.732479 0.196887
0.489311 0.731716 0.19736
0.508461 0.73019 0.197436
0.528023 0.727993 0.197192
0.547646 0.725948 0.196902
0.567361 0.723873 0.196399
0.586252 0.721798 0.195148
0.605219 0.719661 0.193652
0.624277 0.717647 0.192081
0.643626 0.716777 0.190982
0.662913 0.715953 0.189685
0.681834 0.715114 0.188373
0.704051 0.71545 0.189502
0.72607 0.71603 0.190311
0.748501 0.71664 0.190677
0.773404 0.715679 0.191272
0.798611 0.714366 0.191653
0.823529 0.713191 0.191882
0.843091 0.710796 0.190967
0.863203 0.708583 0.190112
0.882856 0.706432 0.18912
0.897673 0.704402 0.187503
0.913359 0.702296 0.185809
0.92639 0.700679 0.184344
0.936858 0.699351 0.183001
0.947631 0.697963 0.181613
0.366049 0.74699 0.196857
0.382437 0.748318 0.198047
0.402945 0.74963 0.198962
0.419028 0.750454 0.199557
0.433555 0.750256 0.200031
0.44918 0.749935 0.200458
0.465644 0.749798 0.200839
0.483406 0.749554 0.201129
0.501335 0.748547 0.201282
0.519295 0.746532 0.201358
0.53756 0.744686 0.201404
0.556542 0.742779 0.201434
0.574212 0.740536 0.200366
0.591959 0.73843 0.199725
0.609888 0.736217 0.19971
0.627787 0.734661 0.199466
0.645411 0.733318 0.198795
0.663157 0.731991 0.197833
0.681971 0.731121 0.197086
0.702129 0.731151 0.196902
0.722042 0.731044 0.196292
0.742809 0.730678 0.195636
0.765835 0.730098 0.195789
0.788556 0.729549 0.195712
0.810971 0.72874 0.195453
0.832959 0.727199 0.195178
0.855558 0.725811 0.194949
0.875517 0.724132 0.194232
0.893172 0.721996 0.192996
0.911421 0.719951 0.191806
0.9243 0.718105 0.190829
0.936507 0.716121 0.189837
0.946899 0.714153 0.188708
0.38558 0.76199 0.20235
0.401175 0.763043 0.203021
0.421118 0.763912 0.203494
0.43679 0.764279 0.203815
0.449729 0.764706 0.204044
0.463996 0.764843 0.20415
0.479072 0.765194 0.204166
0.49485 0.764767 0.204608
0.511162 0.763592 0.205921
0.528252 0.762402 0.207233
0.546075 0.761212 0.20853
0.563272 0.759731 0.209232
0.580209 0.757656 0.209445
0.597604 0.75552 0.20972
0.614954 0.753567 0.209735
0.631403 0.751781 0.20885
0.648295 0.749691 0.207645
0.664958 0.747845 0.206287
0.68246 0.746914 0.205035
0.699672 0.746227 0.203449
0.717189 0.745235 0.201312
0.736629 0.745251 0.200504
0.757519 0.745449 0.200046
0.778271 0.745861 0.199329
0.801144 0.745418 0.199252
0.82562 0.744595 0.199542
0.850477 0.743999 0.200107
0.870359 0.741909 0.200107
0.889799 0.739574 0.199924
0.908629 0.737499 0.199573
0.921706 0.735271 0.198474
0.935744 0.732967 0.197208
0.945647 0.731228 0.195987
0.405112 0.776455 0.205936
0.42002 0.7776 0.206104
0.438178 0.778698 0.207218
0.452186 0.779614 0.208682
0.463828 0.780407 0.209918
0.476509 0.781079 0.210819
0.490303 0.780911 0.211856
0.505287 0.780423 0.213001
0.52105 0.779812 0.214023
0.537789 0.779339 0.215076
0.55433 0.778256 0.215915
0.570352 0.776257 0.216587
0.58674 0.774395 0.217212
0.603449 0.772366 0.217807
0.619562 0.77023 0.217243
0.635218 0.768017 0.216144
0.651347 0.765713 0.214954
0.667353 0.763928 0.213382
0.683299 0.762554 0.211048
0.699123 0.761227 0.208469
0.715785 0.760006 0.205951
0.734493 0.760006 0.204837
0.753201 0.760067 0.20415
0.772213 0.759976 0.203555
0.794507 0.759594 0.204471
0.816754 0.759365 0.205035
0.838682 0.75877 0.205203
0.859602 0.757397 0.205447
0.881376 0.756222 0.205646
0.90071 0.75462 0.205325
0.917525 0.752438 0.204501
0.935332 0.750149 0.203586
0.944717 0.748012 0.202319
0.422705 0.791302 0.212055
0.435874 0.792432 0.214176
0.452308 0.793652 0.215808
0.465782 0.7944 0.216876
0.47689 0.795041 0.217685
0.488869 0.794965 0.218601
0.501808 0.794903 0.219409
0.515648 0.794873 0.22002
0.530495 0.79469 0.220523
0.545708 0.7944 0.220935
0.560983 0.792889 0.221485
0.576608 0.791531 0.221912
0.59295 0.790143 0.222324
0.609155 0.788449 0.222309
0.624491 0.786328 0.221439
0.640223 0.784146 0.220508
0.656352 0.781903 0.219501
0.671 0.780255 0.218372
0.685863 0.778561 0.217533
0.701076 0.776684 0.216388
0.716762 0.775662 0.215335
0.732799 0.775113 0.213993
0.748898 0.774258 0.211978
0.766964 0.773999 0.210895
0.786496 0.774426 0.210636
0.806638 0.774716 0.209827
0.828275 0.774594 0.209689
0.851575 0.774273 0.210178
0.876448 0.773754 0.210559
0.896254 0.771908 0.210346
0.91548 0.769528 0.209934
0.932509 0.766995 0.209201
0.943694 0.764309 0.207904
0.438193 0.805493 0.220172
0.450599 0.806683 0.221424
0.466285 0.807828 0.222278
0.479103 0.808347 0.222797
0.489586 0.808774 0.223255
0.500648 0.809262 0.223438
0.512489 0.809613 0.223468
0.525505 0.809995 0.223346
0.539376 0.810086 0.223209
0.553765 0.809201 0.22359
0.568994 0.808133 0.224018
0.584558 0.807279 0.225177
0.600504 0.806332 0.226825
0.615091 0.804654 0.22768
0.630152 0.802762 0.228763
0.645304 0.800824 0.229694
0.659846 0.798886 0.229892
0.673777 0.796796 0.229236
0.688197 0.794644 0.22855
0.702708 0.79263 0.227375
0.717083 0.791547 0.225116
0.731685 0.790173 0.222446
