LUT预设1/iPhone专用lut合集3/iPhone合集3标准版（709）/FAKE胶片复古709.cube
TITLE "Generated by Resolve"
LUT_3D_SIZE 9
0.0189517 0.0492256 0.0827344
0.105577 0.0485542 0.07364
0.291997 0.04477 0.0648661
0.46656 0.0446326 0.0624399
0.59823 0.0509957 0.062501
0.704005 0.0588388 0.0640879
0.789914 0.0695201 0.0682231
0.858671 0.0883192 0.0719463
0.887907 0.112474 0.07393
0.0261082 0.114839 0.0905318
0.110903 0.128664 0.08365
0.315541 0.134188 0.0716716
0.506737 0.143023 0.0680858
0.651606 0.158465 0.067216
0.755962 0.173846 0.0682841
0.8392 0.198444 0.0703899
0.899092 0.227222 0.0720073
0.924315 0.257786 0.0724651
0.0682689 0.243442 0.123735
0.190311 0.288258 0.128283
0.385229 0.3234 0.120607
0.585458 0.341665 0.108873
0.712489 0.35877 0.0991379
0.806424 0.375692 0.0881971
0.877501 0.388785 0.0864881
0.923842 0.406332 0.08925
0.943404 0.424979 0.0899062
0.194903 0.446662 0.195987
0.344121 0.486915 0.202777
0.489982 0.514672 0.198154
0.625025 0.530587 0.187411
0.739513 0.538277 0.176974
0.824948 0.544106 0.1664
0.885756 0.554223 0.151553
0.934493 0.561151 0.143709
0.954055 0.569635 0.143786
0.359564 0.609537 0.271153
0.472862 0.62565 0.272084
0.572 0.638498 0.267445
0.662364 0.647807 0.254536
0.746487 0.654231 0.241917
0.827329 0.657481 0.234821
0.893278 0.661738 0.232563
0.939986 0.667903 0.222324
0.958282 0.673259 0.208835
0.485069 0.707073 0.336965
0.559213 0.71577 0.339193
0.628595 0.723583 0.338201
0.695567 0.73077 0.331853
0.762692 0.73669 0.317098
0.827024 0.741085 0.299657
0.890135 0.743358 0.297688
0.939803 0.746075 0.304936
0.963317 0.748196 0.295537
0.573892 0.778027 0.404578
0.62414 0.783078 0.409262
0.675975 0.788113 0.408469
0.727642 0.793622 0.403449
0.780819 0.798795 0.393194
0.834546 0.802884 0.377874
0.887068 0.805982 0.363302
0.93933 0.808545 0.357565
0.967514 0.810605 0.383932
0.637705 0.832822 0.466621
0.674723 0.83682 0.471489
0.716274 0.840574 0.472404
0.757977 0.844816 0.471443
0.800198 0.849271 0.465888
0.844022 0.853605 0.453864
0.888914 0.857343 0.436851
0.933425 0.860121 0.421668
0.965011 0.861692 0.4215
0.688777 0.880034 0.523354
0.718761 0.883467 0.528878
0.753292 0.886595 0.529686
0.787762 0.890517 0.52958
0.821866 0.893889 0.525856
0.856107 0.895506 0.51783
0.893339 0.897093 0.505135
0.933654 0.899062 0.48661
0.965911 0.901091 0.468864
0.0191348 0.0640116 0.155047
0.0893873 0.0661936 0.143389
0.268742 0.0670939 0.127886
0.458564 0.0656748 0.11313
0.599161 0.0718395 0.105318
0.707012 0.0825971 0.101671
0.794675 0.101076 0.0993515
0.861021 0.119341 0.0969711
0.896742 0.151858 0.0945602
0.0286259 0.142412 0.172641
0.123552 0.160693 0.167773
0.33547 0.175875 0.151232
0.52604 0.186755 0.136049
0.663081 0.201053 0.12343
0.76434 0.222339 0.11696
0.845121 0.247135 0.111955
0.90338 0.276127 0.109743
0.929305 0.305974 0.108476
0.0733349 0.292332 0.236713
0.212299 0.344671 0.248493
0.415076 0.38265 0.238865
0.605356 0.400198 0.214023
0.726711 0.41004 0.182452
0.815656 0.417914 0.165301
0.879789 0.43154 0.157412
0.925963 0.447425 0.152682
0.946746 0.465782 0.148623
0.183902 0.496666 0.336172
0.351995 0.53489 0.340032
0.502876 0.55845 0.33637
0.630961 0.570352 0.31548
0.742199 0.573968 0.294606
0.821683 0.578775 0.264469
0.888426 0.581933 0.240818
0.937331 0.587732 0.226093
0.955764 0.594842 0.222492
0.336965 0.64097 0.41297
0.468193 0.655238 0.410468
0.574197 0.666331 0.406531
0.659632 0.674388 0.391852
0.745037 0.67924 0.372229
0.825223 0.681666 0.357412
0.889906 0.685206 0.344869
0.936385 0.689067 0.316487
0.958099 0.6907 0.302525
0.467506 0.72987 0.468193
0.553719 0.736202 0.46482
0.629313 0.74255 0.463981
0.694377 0.749477 0.459815
0.759457 0.754925 0.441245
0.824048 0.757931 0.421103
0.887144 0.759655 0.416815
0.937087 0.761898 0.410437
0.961685 0.76347 0.392782
0.559075 0.793835 0.51957
0.617456 0.797528 0.518608
0.67393 0.801511 0.515419
0.727169 0.806363 0.51104
0.778897 0.811032 0.501686
0.830961 0.81474 0.485878
0.883497 0.817731 0.468055
0.938506 0.820356 0.460456
0.964004 0.82179 0.479683
0.62797 0.844282 0.56112
0.6701 0.847288 0.561028
0.714565 0.85034 0.560143
0.758938 0.853773 0.558541
0.800076 0.857939 0.554223
0.842145 0.861967 0.542779
0.88603 0.865538 0.525734
0.931838 0.868391 0.510582
0.96376 0.869703 0.506737
0.683192 0.888426 0.601099
0.715221 0.891295 0.601617
0.75169 0.894087 0.600137
0.789563 0.897307 0.598032
0.823117 0.89929 0.594858
0.855772 0.90074 0.589593
0.892073 0.902358 0.577752
0.932113 0.904372 0.561349
0.964858 0.906264 0.545724
0.0262913 0.0894026 0.267491
0.0872053 0.0941939 0.263249
0.234363 0.107576 0.259831
0.415534 0.122713 0.255436
0.572244 0.134325 0.245731
0.694835 0.151263 0.238849
0.793332 0.165484 0.224781
0.864637 0.189609 0.213886
0.903899 0.213519 0.200931
0.0401312 0.185306 0.306142
0.121355 0.215457 0.317372
0.297093 0.254612 0.329366
0.503105 0.280598 0.317754
0.651072 0.299504 0.299535
0.760815 0.317006 0.281407
0.844602 0.336126 0.262089
0.902831 0.357931 0.243885
0.93286 0.380743 0.227039
0.0806439 0.35227 0.393317
0.1953 0.409079 0.421302
0.397238 0.458045 0.431373
0.586618 0.478614 0.40856
0.712474 0.484642 0.371328
0.80325 0.489723 0.337942
0.871061 0.499199 0.316838
0.923232 0.511101 0.296513
0.948608 0.522713 0.281865
0.16817 0.541512 0.495903
0.315389 0.578042 0.50782
0.488914 0.6 0.504662
0.617853 0.611673 0.484611
0.728054 0.615747 0.457923
0.813443 0.617166 0.424933
0.880659 0.62089 0.39884
0.932906 0.626307 0.378332
0.95407 0.631373 0.363424
0.318944 0.66685 0.555962
0.445335 0.681819 0.555673
0.563775 0.691402 0.549401
0.655695 0.699397 0.541009
0.736233 0.704814 0.523827
0.816358 0.70695 0.505745
0.879713 0.710002 0.476005
0.931273 0.71165 0.453422
0.95436 0.713481 0.437583
0.448493 0.748455 0.595087
0.540612 0.756024 0.593515
0.627253 0.760647 0.588586
0.695705 0.766064 0.584024
0.755093 0.771496 0.57145
0.81799 0.774227 0.554665
0.879545 0.775631 0.541894
0.931746 0.777478 0.52636
0.957259 0.779232 0.50251
0.546029 0.807172 0.623652
0.610208 0.811109 0.620279
0.670909 0.814359 0.61622
0.728023 0.818219 0.613687
0.778393 0.822553 0.608377
0.827359 0.826535 0.596582
0.878676 0.829999 0.579019
0.932692 0.831418 0.577539
0.958709 0.832532 0.574166
0.617243 0.855314 0.650889
0.663874 0.858045 0.649882
0.712337 0.860243 0.646998
0.760342 0.862943 0.643748
0.802579 0.866545 0.639384
0.841962 0.870344 0.631342
0.883162 0.873899 0.618158
0.928969 0.876631 0.604929
0.960739 0.877867 0.599817
0.675883 0.896803 0.674525
0.710246 0.899535 0.673411
0.748089 0.901854 0.670771
0.788724 0.903685 0.667201
0.825086 0.904463 0.664836
0.856718 0.905867 0.661814
0.891173 0.907423 0.653346
0.929808 0.909911 0.640452
0.962341 0.910597 0.626566
0.0388952 0.128618 0.397192
0.100404 0.139879 0.40209
0.230335 0.164157 0.420981
0.404181 0.199573 0.44477
0.550042 0.231601 0.455558
0.666255 0.261677 0.457847
0.76585 0.289189 0.45301
0.840833 0.312642 0.44271
0.88307 0.337041 0.42533
0.0585184 0.245319 0.455909
0.132662 0.285847 0.482078
0.289769 0.339666 0.513924
0.480171 0.380896 0.528786
0.623865 0.40708 0.526833
0.732769 0.427375 0.513588
0.815854 0.444221 0.497093
0.880522 0.460517 0.47686
0.920394 0.476661 0.451438
0.103624 0.421454 0.54873
0.205646 0.473167 0.576776
0.380789 0.515816 0.594812
0.553429 0.538354 0.591592
0.677562 0.550469 0.575082
0.77171 0.558999 0.552865
0.848676 0.567666 0.530022
0.908003 0.57438 0.505669
0.937285 0.581292 0.481209
0.194873 0.583581 0.621698
0.326787 0.612177 0.633844
0.483497 0.632929 0.636683
0.613001 0.643397 0.628595
0.712398 0.649088 0.610925
0.79704 0.652995 0.586633
0.866011 0.657191 0.562066
0.919188 0.661936 0.541909
0.945647 0.666758 0.522011
0.334737 0.688823 0.66212
0.443915 0.7028 0.665141
0.557702 0.713207 0.662806
0.655695 0.720409 0.656962
0.733562 0.725765 0.643458
0.809522 0.728099 0.626352
0.873304 0.730175 0.606165
0.922271 0.732738 0.588586
0.948028 0.735393 0.572045
0.456016 0.763531 0.687358
0.536034 0.77084 0.688502
0.618585 0.776425 0.68574
0.694713 0.780758 0.679652
0.756466 0.784741 0.672526
0.814954 0.788159 0.661448
0.874342 0.789837 0.647745
0.926223 0.792126 0.630823
0.951064 0.793454 0.61149
0.544228 0.818967 0.70753
0.603876 0.823468 0.70692
0.667185 0.826856 0.702998
0.731533 0.829129 0.69865
0.782818 0.832868 0.695583
0.826886 0.837385 0.688533
0.876387 0.840864 0.674067
0.925826 0.841337 0.671016
0.952712 0.842634 0.656748
0.614588 0.864546 0.725353
0.659968 0.867552 0.724529
0.7093 0.869642 0.721187
0.759731 0.871931 0.716945
0.804746 0.874754 0.713283
0.843793 0.878355 0.708675
0.882322 0.881971 0.699886
0.925933 0.884733 0.689464
0.957061 0.885695 0.685679
0.671473 0.905043 0.742061
0.705959 0.908156 0.740917
0.743969 0.909148 0.737118
0.786053 0.909392 0.732631
0.826062 0.909316 0.729564
0.86009 0.91043 0.727535
0.892424 0.912566 0.722896
0.928649 0.914672 0.713054
0.957839 0.914412 0.701762
0.0602121 0.189319 0.531579
0.124849 0.211139 0.550027
0.255421 0.248493 0.580911
0.42948 0.291493 0.606638
0.570474 0.327169 0.622126
0.678248 0.359396 0.630991
0.76318 0.388296 0.633158
0.827848 0.413397 0.63035
0.865629 0.43624 0.619867
0.0856489 0.326665 0.600549
0.166842 0.37261 0.628504
0.318547 0.422217 0.65658
0.495674 0.456779 0.670985
0.626383 0.479454 0.672145
0.721828 0.499275 0.667964
0.798733 0.517906 0.66128
0.860594 0.532891 0.651881
0.895979 0.545037 0.638407
0.135012 0.489601 0.670268
0.244297 0.529503 0.689128
0.409476 0.562356 0.701946
0.558267 0.581903 0.703532
0.666606 0.594141 0.698207
0.754437 0.603677 0.689189
0.827436 0.612024 0.678294
0.886748 0.619547 0.664912
0.919402 0.626703 0.648829
0.235233 0.621439 0.714824
0.361654 0.643046 0.72343
0.496971 0.659068 0.726406
0.610513 0.670039 0.724178
0.704631 0.676402 0.715434
0.783795 0.681376 0.702541
0.850721 0.687037 0.688716
0.903883 0.691981 0.675074
0.932769 0.695827 0.659159
0.364782 0.710781 0.739849
0.4636 0.722438 0.743313
0.565774 0.732418 0.744366
0.658412 0.740124 0.741573
0.737026 0.742992 0.732418
0.804288 0.746105 0.721477
0.864393 0.749203 0.707317
0.914351 0.7523 0.692943
0.940932 0.755169 0.678416
0.47364 0.77763 0.757458
0.544411 0.784146 0.75935
0.620722 0.789914 0.757977
0.694392 0.794064 0.754131
0.759625 0.797299 0.748913
0.816693 0.800397 0.739681
0.871748 0.802747 0.729198
0.923537 0.804852 0.713497
0.944533 0.8065 0.704051
0.557076 0.82974 0.772869
0.60795 0.833967 0.773465
0.666499 0.837415 0.771984
0.728878 0.840345 0.76846
0.786175 0.842954 0.763378
0.832166 0.846387 0.758404
0.8766 0.849653 0.750103
0.921263 0.850935 0.742367
0.946975 0.851987 0.730297
0.619608 0.873213 0.787198
0.660258 0.876265 0.787335
0.707637 0.878935 0.785275
0.757748 0.88101 0.780148
0.806165 0.883009 0.775769
0.846845 0.885863 0.773053
0.88365 0.889418 0.767391
0.923308 0.892287 0.757763
0.951965 0.893202 0.757794
0.671702 0.912306 0.8009
0.704067 0.914244 0.799863
0.740795 0.914214 0.796323
0.782467 0.913863 0.791867
0.824872 0.914015 0.787564
0.86305 0.915099 0.784772
0.895842 0.917128 0.782422
0.928313 0.918395 0.775921
0.95346 0.917784 0.766552
0.0905928 0.278141 0.662089
0.158526 0.313726 0.684733
0.295781 0.356558 0.711147
0.46772 0.390921 0.729732
0.601328 0.41706 0.738827
0.700038 0.441581 0.742931
0.77644 0.464744 0.743893
0.835203 0.48278 0.740963
0.8692 0.502144 0.735195
0.121233 0.416129 0.720073
0.214557 0.45774 0.740978
0.370642 0.495705 0.758343
0.529473 0.521263 0.765774
0.641398 0.538293 0.765698
0.729107 0.551797 0.763851
0.801389 0.565103 0.761212
0.859083 0.578668 0.756176
0.888747 0.591424 0.74818
0.177951 0.553124 0.764553
0.296132 0.582498 0.776745
0.452781 0.605615 0.783886
0.576394 0.618296 0.784222
0.67364 0.626444 0.781155
0.754879 0.634607 0.775937
0.82327 0.643809 0.769787
0.878355 0.652857 0.762798
0.908354 0.658854 0.753185
0.292073 0.655634 0.789563
0.402762 0.671458 0.794446
0.520302 0.684474 0.796689
0.622843 0.694102 0.795468
0.707408 0.699947 0.789685
0.779797 0.70518 0.782132
0.842176 0.710597 0.775097
0.893202 0.71574 0.766537
0.922988 0.720043 0.755901
0.402518 0.731914 0.803174
0.48954 0.741344 0.805936
0.580896 0.749538 0.807248
0.664271 0.756039 0.805829
0.735103 0.760006 0.800748
0.799832 0.763516 0.793729
0.857359 0.766903 0.784466
0.907897 0.77052 0.77438
0.933989 0.773571 0.762646
0.494148 0.791318 0.815198
0.561639 0.797406 0.817151
0.63032 0.802777 0.817197
0.697383 0.806943 0.815579
0.761151 0.809964 0.811551
0.818555 0.81265 0.804456
0.871504 0.815259 0.795727
0.916487 0.817563 0.786694
0.938903 0.818936 0.777508
0.568811 0.840192 0.827329
0.617548 0.844388 0.828901
0.671534 0.847654 0.828962
0.728954 0.850828 0.826673
0.784054 0.853422 0.822049
0.83444 0.855619 0.816434
0.878492 0.858076 0.809995
0.920317 0.859831 0.802869
0.943633 0.861067 0.793057
0.629145 0.881666 0.839887
0.666056 0.884886 0.840375
0.70956 0.887709 0.838834
0.757137 0.890394 0.835416
0.805051 0.892149 0.831052
0.849561 0.893767 0.826749
0.88719 0.89662 0.823529
0.922988 0.89926 0.816083
0.948562 0.899641 0.812192
0.677775 0.916564 0.850294
0.706004 0.917082 0.85005
0.741527 0.917769 0.8486
0.780728 0.918502 0.845212
0.822858 0.919188 0.840909
0.863752 0.920058 0.83714
0.899611 0.921019 0.834897
0.929305 0.92134 0.831098
0.951385 0.921172 0.822828
0.130053 0.385016 0.776135
0.216129 0.421241 0.795529
0.36144 0.455222 0.812879
0.518654 0.480735 0.822477
0.629999 0.495644 0.823194
0.718074 0.509209 0.82269
0.790509 0.524483 0.822293
0.848295 0.541115 0.820493
0.877623 0.554116 0.81529
0.168734 0.504234 0.815335
0.272328 0.535836 0.828687
0.428489 0.560311 0.836683
0.560571 0.574655 0.838849
0.660273 0.583551 0.837736
0.741588 0.593423 0.835935
0.81059 0.605249 0.834028
0.8636 0.615915 0.830503
0.89247 0.624949 0.824323
0.246601 0.605447 0.838819
0.361074 0.624949 0.845365
0.489769 0.640345 0.849149
0.60029 0.649836 0.849485
0.688289 0.656474 0.846876
0.761685 0.663722 0.843259
0.824704 0.671382 0.839628
0.876768 0.678752 0.835264
0.904692 0.685389 0.828885
0.350332 0.687434 0.85214
0.447761 0.699504 0.85539
0.550988 0.709606 0.856901
0.640208 0.71664 0.856168
0.715282 0.721309 0.852506
0.780163 0.726131 0.848676
0.83856 0.73135 0.844114
0.887831 0.736919 0.838712
0.91812 0.741451 0.831357
0.444007 0.752438 0.859968
0.518761 0.759701 0.862074
0.597528 0.766384 0.862882
0.672587 0.772107 0.861936
0.739086 0.776287 0.859205
0.798856 0.779904 0.854505
0.852277 0.784115 0.8486
0.90222 0.787991 0.841459
0.925673 0.789883 0.832746
0.521675 0.805646 0.867018
0.5776 0.810773 0.868589
0.640803 0.815518 0.869276
0.704479 0.819684 0.868833
0.763272 0.822736 0.86537
0.816678 0.825574 0.860487
0.866896 0.828183 0.855711
0.90988 0.830121 0.849546
0.934005 0.831678 0.84152
0.584131 0.850721 0.875776
0.630152 0.854383 0.877379
0.681788 0.857847 0.877913
0.733471 0.86099 0.876051
0.784298 0.863752 0.873228
0.83328 0.865797 0.869291
0.878981 0.867582 0.86424
0.920531 0.869429 0.858228
0.94139 0.870741 0.852293
0.638834 0.890455 0.886091
0.675639 0.893797 0.887236
0.714656 0.896742 0.886519
0.759304 0.899519 0.884779
0.804364 0.901732 0.882139
0.848585 0.902815 0.877867
0.891707 0.903502 0.87335
0.925124 0.905211 0.868544
0.94638 0.905516 0.862898
0.682933 0.918669 0.894347
0.711269 0.919875 0.895323
0.744671 0.921248 0.894987
0.783307 0.923018 0.893294
0.823301 0.924163 0.890059
0.863981 0.924498 0.885985
0.903578 0.924163 0.882765
0.931456 0.924071 0.88072
0.950256 0.923766 0.874357
0.186969 0.486946 0.868666
0.285451 0.513924 0.880034
0.426902 0.535302 0.887358
0.556435 0.549661 0.890318
0.655909 0.559228 0.890059
0.735378 0.567086 0.888685
0.803098 0.576394 0.887037
0.856367 0.587915 0.884718
0.885771 0.599634 0.880446
0.237934 0.575219 0.888701
0.352438 0.594079 0.894636
0.480064 0.609064 0.898772
0.592798 0.618936 0.899962
0.681819 0.625101 0.89839
0.754299 0.631968 0.895994
0.81677 0.639979 0.89366
0.869322 0.64918 0.890883
0.89752 0.657572 0.88658
0.320439 0.649805 0.899947
0.421393 0.663127 0.904112
0.531853 0.673671 0.906233
0.625803 0.680369 0.905608
0.703624 0.685267 0.90312
0.769589 0.690745 0.900618
0.828321 0.697261 0.897932
0.878401 0.703914 0.894575
0.907195 0.709819 0.890272
0.407523 0.716121 0.906889
0.488838 0.72462 0.908934
0.574914 0.731929 0.909957
0.655818 0.737682 0.909621
0.726101 0.742184 0.907774
0.786603 0.746471 0.904738
0.840223 0.751125 0.90135
0.88835 0.756115 0.897719
0.914763 0.759426 0.892897
0.480522 0.771878 0.910597
0.545464 0.778012 0.912123
0.617365 0.78407 0.913008
0.686244 0.789258 0.913298
0.748028 0.793103 0.911833
0.802701 0.795941 0.907912
0.851804 0.799023 0.904753
0.896025 0.802136 0.901946
0.920485 0.80444 0.897444
0.545922 0.820356 0.915251
0.598459 0.824735 0.917235
0.654078 0.828702 0.918593
0.712444 0.832334 0.918395
0.766934 0.835218 0.916457
0.817319 0.837751 0.913848
0.86424 0.840345 0.910887
0.907546 0.842924 0.906661
0.930282 0.844587 0.900908
0.603265 0.861662 0.922042
0.64358 0.865171 0.923796
0.689967 0.868482 0.924178
0.739513 0.871626 0.922957
0.788098 0.874128 0.921065
0.833875 0.876341 0.918807
0.878874 0.878264 0.916106
0.918242 0.879942 0.911772
0.938338 0.881178 0.906035
0.652033 0.899931 0.929229
0.684092 0.902953 0.930236
0.723095 0.905531 0.930495
0.764263 0.907485 0.930053
0.806912 0.909209 0.928527
0.849775 0.910491 0.925856
0.891615 0.911147 0.922362
0.926604 0.911513 0.918379
0.945205 0.911757 0.913222
0.691279 0.921386 0.935851
0.7196 0.922881 0.937041
0.750149 0.924544 0.936645
0.786801 0.926238 0.935622
0.826246 0.927672 0.934096
0.864622 0.92784 0.931823
0.904463 0.92665 0.928557
0.934752 0.926162 0.926101
0.949157 0.926192 0.922393
0.259525 0.565942 0.923796
0.367468 0.582925 0.930831
0.486946 0.594446 0.936538
0.594797 0.602396 0.939239
0.680964 0.608087 0.939239
0.750637 0.614725 0.937957
0.81236 0.621592 0.937377
0.863981 0.629679 0.937682
0.892805 0.637736 0.936339
0.323171 0.627848 0.937285
0.419669 0.639551 0.941848
0.527199 0.649439 0.944869
0.621744 0.656229 0.94551
0.69958 0.661463 0.9449
0.76556 0.667414 0.944732
0.824506 0.673747 0.945205
0.875578 0.680079 0.944137
0.902876 0.685939 0.941115
0.389609 0.686168 0.943755
0.475166 0.695323 0.946166
0.563165 0.702876 0.948623
0.645792 0.708766 0.950484
0.717647 0.713268 0.950683
0.779706 0.717937 0.94995
0.834806 0.722225 0.948165
0.883116 0.726513 0.946197
0.910094 0.730816 0.944091
0.457832 0.741756 0.950011
0.526421 0.748699 0.952651
0.603403 0.755093 0.955062
0.674372 0.760082 0.955123
0.738598 0.763622 0.953994
0.79501 0.766476 0.952483
0.84506 0.769421 0.951034
0.889921 0.773129 0.949294
0.914275 0.776196 0.946731
0.51548 0.791653 0.952377
0.571801 0.796933 0.95404
0.633097 0.801419 0.956069
0.696773 0.80557 0.957748
0.755001 0.808591 0.95758
0.807462 0.81059 0.955993
0.855421 0.81294 0.954223
0.896925 0.81593 0.952667
0.921553 0.81828 0.95079
0.569543 0.834745 0.956451
0.614954 0.838529 0.958328
0.669749 0.842359 0.959854
0.722408 0.845502 0.960143
0.773022 0.848005 0.960235
0.821591 0.85005 0.960266
0.866438 0.852323 0.96054
0.909895 0.854856 0.960388
0.928817 0.856321 0.956985
0.618952 0.873106 0.960555
0.658259 0.87657 0.963317
0.699214 0.879561 0.965164
0.745418 0.88249 0.96611
0.792081 0.884901 0.965484
0.83653 0.886503 0.963699
0.879652 0.888304 0.962554
0.916579 0.890028 0.960891
0.937194 0.891173 0.958114
0.662989 0.908095 0.965118
0.693263 0.910201 0.966171
0.729549 0.912154 0.966659
0.770336 0.914137 0.966903
0.81091 0.915785 0.966995
0.852308 0.917235 0.967086
0.892775 0.917784 0.966506
0.926772 0.91812 0.96466
0.944869 0.918837 0.961212
0.700633 0.9243 0.97052
0.724743 0.92575 0.971115
0.755947 0.927337 0.971313
0.790341 0.928389 0.970748
0.827573 0.928969 0.969985
0.865309 0.928862 0.969238
0.902754 0.928603 0.968612
0.93283 0.928603 0.967865
0.948287 0.928832 0.966339
