LUT预设1/iPhone专用lut合集3/iPhone合集3标准版（709）/odd街头709.cube
TITLE "Generated by Resolve"
LUT_3D_SIZE 33
0.0185245 0.0215 0.0203098
0.0364691 0.019852 0.0192264
0.0598306 0.0193484 0.0186923
0.0875715 0.0197452 0.0186618
0.120058 0.020325 0.0194705
0.15465 0.0211337 0.0206302
0.189914 0.0220188 0.0220188
0.234409 0.0246128 0.0247044
0.277821 0.027451 0.0275731
0.324086 0.0305638 0.0315557
0.368765 0.0339361 0.0355993
0.414588 0.0378882 0.04065
0.459419 0.0422065 0.0457923
0.50663 0.0479744 0.0522927
0.551385 0.0535439 0.0583505
0.592813 0.0617227 0.0670939
0.632624 0.0699474 0.0755627
0.669093 0.0787366 0.0849317
0.701625 0.0885481 0.0959487
0.732998 0.0986801 0.10631
0.760891 0.110231 0.119188
0.787427 0.121889 0.132189
0.813733 0.133135 0.14461
0.835142 0.147494 0.161959
0.856443 0.161593 0.178607
0.877379 0.176181 0.194766
0.89276 0.193515 0.214908
0.909087 0.210788 0.234546
0.92575 0.227466 0.253269
0.934401 0.244465 0.271733
0.944335 0.261448 0.290471
0.954787 0.278431 0.309224
0.954971 0.295872 0.327642
0.0145876 0.0352178 0.0225223
0.0302434 0.0334783 0.0211643
0.0543832 0.033753 0.0214694
0.0801556 0.0340734 0.0218662
0.107378 0.0346075 0.0223697
0.139239 0.0357519 0.0232242
0.173342 0.0375372 0.0245365
0.215274 0.0403754 0.0268254
0.258412 0.0432593 0.029633
0.302235 0.0463417 0.0331579
0.347295 0.0498207 0.0373999
0.392966 0.0536812 0.042298
0.437629 0.0584573 0.0475166
0.482017 0.0642252 0.053254
0.5243 0.0703288 0.0591287
0.565637 0.0784009 0.0669871
0.605005 0.0862593 0.0741741
0.641169 0.0952773 0.0834363
0.674968 0.104692 0.0935836
0.708339 0.113878 0.103288
0.736873 0.125429 0.116533
0.765408 0.136828 0.12929
0.792508 0.148592 0.142443
0.814786 0.162905 0.158572
0.8374 0.17705 0.174121
0.858671 0.191775 0.190433
0.87689 0.208408 0.2094
0.89546 0.224567 0.227512
0.912154 0.240757 0.245609
0.923537 0.257816 0.264897
0.936156 0.274968 0.283909
0.946563 0.291966 0.303517
0.949737 0.309529 0.324498
0.0129854 0.0530709 0.0249027
0.0291752 0.0514687 0.0240177
0.0496834 0.0503548 0.0244602
0.0742962 0.0502327 0.0250401
0.10042 0.0506447 0.0257115
0.129824 0.0520027 0.0265965
0.165148 0.0536812 0.0278782
0.203922 0.0556497 0.0293278
0.246036 0.0581369 0.0320439
0.287968 0.0608225 0.0350195
0.33196 0.0643168 0.0390936
0.375296 0.0679484 0.0433356
0.419089 0.0727703 0.0484932
0.462562 0.078233 0.0541543
0.50425 0.0845045 0.0602274
0.545663 0.0921798 0.0673838
0.585962 0.099733 0.0742351
0.622477 0.108797 0.083772
0.657557 0.117845 0.0934768
0.691661 0.127169 0.103609
0.721386 0.138201 0.116091
0.751171 0.148928 0.128328
0.778408 0.161181 0.141543
0.801434 0.175341 0.15671
0.824277 0.188922 0.171435
0.845685 0.203601 0.187915
0.865431 0.219516 0.206348
0.885786 0.234943 0.22417
0.902907 0.250874 0.242771
0.916411 0.267674 0.262455
0.93022 0.284703 0.281575
0.940246 0.30222 0.301579
0.945922 0.319509 0.322377
0.0102846 0.071809 0.027924
0.0297093 0.0694743 0.0278935
0.0489052 0.0681926 0.0280613
0.0708476 0.0675212 0.0285039
0.0962997 0.0678264 0.0291447
0.122881 0.0686961 0.0298924
0.158801 0.0698863 0.0310826
0.194766 0.0714733 0.0322881
0.235538 0.0737621 0.0348058
0.274083 0.0761578 0.0372778
0.317525 0.0795453 0.041001
0.358602 0.0829786 0.0444495
0.401877 0.0879988 0.0498054
0.444694 0.0932326 0.0552529
0.486656 0.0994888 0.061387
0.52874 0.106371 0.0682383
0.569223 0.113146 0.0747997
0.60647 0.121904 0.0844739
0.642893 0.130999 0.0937362
0.676783 0.140917 0.103838
0.707698 0.151995 0.115618
0.737987 0.162875 0.126635
0.764706 0.175174 0.139681
0.788693 0.188098 0.154604
0.812451 0.200565 0.169207
0.83444 0.214801 0.185992
0.855741 0.230121 0.203815
0.876982 0.246006 0.221241
0.893812 0.262547 0.240085
0.908476 0.279454 0.259602
0.923751 0.295766 0.278538
0.934524 0.312367 0.298833
0.943313 0.329122 0.320317
0.0124514 0.0903487 0.032517
0.0289921 0.0873426 0.0319219
0.0483864 0.0861219 0.0319066
0.0681926 0.0851148 0.0319219
0.0932174 0.0852522 0.0324559
0.12018 0.0858015 0.0331579
0.154314 0.0871443 0.0345617
0.188785 0.0887465 0.0362554
0.225788 0.0906539 0.0383917
0.263127 0.0929122 0.0408789
0.304158 0.0958114 0.043946
0.34406 0.0995804 0.0471046
0.38793 0.104784 0.0522774
0.429725 0.109804 0.0569467
0.472557 0.116258 0.0630808
0.513893 0.122988 0.0694133
0.554086 0.130022 0.0763714
0.591608 0.138705 0.0854047
0.627909 0.147051 0.0939498
0.66183 0.15671 0.103746
0.693553 0.167254 0.114305
0.724987 0.177737 0.124315
0.751705 0.190021 0.138415
0.776196 0.202792 0.15317
0.800702 0.215244 0.16733
0.82324 0.230304 0.184375
0.845243 0.245426 0.20177
0.867414 0.260243 0.218769
0.884306 0.27602 0.237476
0.900679 0.29192 0.256809
0.917723 0.307469 0.275776
0.929702 0.32369 0.296635
0.941283 0.339864 0.318151
0.0147402 0.109499 0.0370947
0.0305943 0.107332 0.0358892
0.0478218 0.106203 0.0354314
0.0681926 0.10573 0.0354772
0.0903487 0.105776 0.035996
0.118776 0.106752 0.0373846
0.149416 0.108034 0.039292
0.183001 0.109712 0.0411841
0.217243 0.111604 0.0431373
0.254902 0.114153 0.0454566
0.294759 0.11696 0.0478981
0.335241 0.120455 0.0509346
0.377874 0.12459 0.0551461
0.418296 0.12874 0.0590066
0.460319 0.134737 0.0651865
0.500572 0.140566 0.0711376
0.539315 0.148074 0.0783093
0.576989 0.156847 0.086656
0.613794 0.165499 0.0945602
0.647623 0.175677 0.104463
0.680278 0.185962 0.114916
0.712795 0.195972 0.125063
0.73904 0.208209 0.139116
0.764767 0.220295 0.153048
0.790188 0.232273 0.166461
0.812848 0.246754 0.183505
0.835645 0.260899 0.200412
0.858259 0.275059 0.21677
0.875792 0.290501 0.235935
0.893767 0.305974 0.25507
0.912093 0.320836 0.273762
0.925414 0.3364 0.294987
0.939467 0.351904 0.316197
0.0139315 0.135882 0.0399786
0.0325628 0.133822 0.0399939
0.0486 0.131991 0.040116
0.0678721 0.131029 0.0406195
0.0885786 0.130098 0.0412909
0.116548 0.130343 0.0429389
0.14432 0.131136 0.0445869
0.177768 0.132616 0.0462959
0.209842 0.134356 0.0479438
0.249012 0.136889 0.0499886
0.287388 0.13933 0.0520943
0.327642 0.142855 0.0553902
0.367803 0.146975 0.0590677
0.407538 0.151507 0.0632029
0.4477 0.157473 0.0688182
0.486168 0.163409 0.0741894
0.524926 0.17084 0.0813458
0.562676 0.178836 0.0890974
0.600046 0.186603 0.0966354
0.634333 0.196124 0.106844
0.668574 0.205356 0.116793
0.701396 0.21471 0.127123
0.72784 0.226764 0.140597
0.754192 0.238529 0.15375
0.780209 0.250645 0.167269
0.803677 0.264546 0.18407
0.826963 0.27808 0.200275
0.849607 0.291691 0.216632
0.868269 0.306294 0.235569
0.887327 0.320516 0.254353
0.90663 0.334691 0.273136
0.92166 0.349401 0.293767
0.938109 0.364065 0.314397
0.0187686 0.164355 0.0452583
0.0342412 0.161257 0.0454261
0.0503395 0.159777 0.0461433
0.0665599 0.157961 0.0466316
0.0892195 0.157534 0.0476997
0.114199 0.157595 0.0488746
0.14287 0.158129 0.0501564
0.174624 0.158877 0.051545
0.207691 0.160021 0.0531624
0.245029 0.161776 0.0551156
0.280797 0.163394 0.0570535
0.320638 0.166873 0.0605478
0.358511 0.170459 0.063798
0.397314 0.175204 0.0682689
0.435935 0.180941 0.0735637
0.473396 0.186679 0.0785992
0.512276 0.194186 0.085832
0.550301 0.201678 0.0929427
0.587625 0.209293 0.100618
0.623117 0.217899 0.110338
0.657938 0.226322 0.11989
0.690471 0.235752 0.130449
0.717784 0.246952 0.14316
0.745281 0.257984 0.155627
0.771359 0.269718 0.16936
0.795209 0.282628 0.18526
0.819013 0.295247 0.201114
0.841489 0.308049 0.217868
0.860792 0.321675 0.236072
0.880217 0.334813 0.253651
0.899321 0.348089 0.271611
0.916228 0.362325 0.291402
0.933898 0.37644 0.310765
0.0219272 0.191409 0.0514076
0.0367895 0.188815 0.0521248
0.0500343 0.186892 0.0528267
0.0662852 0.18555 0.0534218
0.0891737 0.185382 0.0541695
0.112673 0.185138 0.0547189
0.143023 0.185534 0.0560159
0.173404 0.185794 0.0572824
0.206989 0.18674 0.0589914
0.24126 0.187808 0.0610666
0.275853 0.189914 0.0637675
0.313085 0.193408 0.0671397
0.34902 0.19678 0.0705119
0.386847 0.201785 0.0750439
0.424369 0.206668 0.0795758
0.462074 0.212009 0.084535
0.501015 0.218677 0.0911574
0.539605 0.225177 0.0977188
0.576791 0.232273 0.105394
0.613352 0.239734 0.114717
0.64947 0.247257 0.123629
0.680934 0.256687 0.134493
0.708354 0.267277 0.146441
0.735744 0.277546 0.158297
0.761074 0.28893 0.172213
0.784497 0.300679 0.187304
0.808362 0.312169 0.202289
0.830182 0.324178 0.218204
0.850919 0.336751 0.235538
0.871778 0.348898 0.252293
0.891783 0.361761 0.270069
0.910933 0.375586 0.289296
0.930739 0.389258 0.30811
0.0234836 0.221393 0.0587625
0.0366674 0.218708 0.0595712
0.048249 0.216602 0.0601511
0.0688029 0.215839 0.0603799
0.090013 0.214939 0.0606394
0.116167 0.214389 0.0616617
0.145037 0.213962 0.0631876
0.174838 0.213596 0.0647593
0.20621 0.214069 0.0666972
0.236698 0.214496 0.0685435
0.271199 0.216953 0.071397
0.305928 0.219852 0.074464
0.341344 0.22327 0.0777447
0.379141 0.228031 0.0818189
0.416175 0.232532 0.0859998
0.454719 0.237964 0.0913252
0.49369 0.244114 0.0975204
0.531579 0.24976 0.1037
0.568307 0.256458 0.111772
0.604212 0.263478 0.120302
0.63949 0.270283 0.128725
0.668421 0.279316 0.13959
0.696284 0.288594 0.150896
0.724117 0.297719 0.161822
0.748913 0.308095 0.175463
0.773465 0.318791 0.189761
0.797909 0.329076 0.203464
0.820005 0.340215 0.219089
0.842054 0.351904 0.235508
0.864164 0.363363 0.251575
0.884657 0.376455 0.269368
0.90486 0.390295 0.288243
0.924956 0.403998 0.306828
0.0248569 0.251621 0.0663615
0.0357061 0.248814 0.0671397
0.0537881 0.24802 0.0676127
0.0719921 0.246876 0.0678874
0.0927291 0.24593 0.0682689
0.119493 0.24538 0.0694438
0.146136 0.244785 0.0705272
0.174441 0.245014 0.0720378
0.203387 0.24538 0.0736095
0.233677 0.246082 0.0753796
0.268864 0.248554 0.0782635
0.303471 0.250843 0.0811933
0.339696 0.254002 0.0847944
0.377111 0.257328 0.0888685
0.413489 0.260868 0.0930037
0.451438 0.26537 0.0987411
0.488258 0.270207 0.104555
0.524468 0.274678 0.110445
0.560098 0.280842 0.118639
0.595102 0.286824 0.126726
0.628458 0.292973 0.134768
0.656794 0.301381 0.145327
0.68484 0.309743 0.155459
0.712886 0.31812 0.165728
0.737987 0.328267 0.179278
0.762829 0.338277 0.192248
0.788342 0.347951 0.20528
0.811017 0.359335 0.221042
0.833432 0.370474 0.236561
0.856321 0.381521 0.252155
0.876982 0.394369 0.270298
0.897246 0.407233 0.288609
0.917784 0.419959 0.306935
0.0278935 0.284062 0.0737621
0.0440528 0.282063 0.0743877
0.0587778 0.280934 0.074815
0.073518 0.279393 0.0749218
0.0972305 0.278599 0.0759289
0.121263 0.277928 0.0768292
0.146456 0.277134 0.0778058
0.17377 0.276921 0.079118
0.200961 0.276844 0.080354
0.2336 0.277592 0.0827039
0.26807 0.279011 0.0855116
0.302541 0.280522 0.0882887
0.339635 0.283009 0.0923934
0.375723 0.285618 0.096437
0.411276 0.28867 0.100954
0.446967 0.292638 0.106569
0.482017 0.296437 0.112032
0.51632 0.300755 0.118196
0.550942 0.306416 0.125673
0.584649 0.31191 0.132891
0.616556 0.318334 0.140978
0.645609 0.325826 0.15082
0.674159 0.333471 0.160372
0.702205 0.341299 0.170809
0.727947 0.350423 0.183322
0.753872 0.35935 0.195605
0.779385 0.368429 0.20827
0.802472 0.379004 0.223346
0.826017 0.389502 0.238621
0.84918 0.399847 0.253849
0.869612 0.411856 0.271946
0.890242 0.42388 0.28986
0.910948 0.436042 0.307805
0.0339055 0.315908 0.0814069
0.047776 0.314214 0.0818494
0.0587625 0.312642 0.0821698
0.0782635 0.31191 0.0830091
0.0998093 0.310796 0.0837262
0.122011 0.309819 0.0844739
0.147555 0.309392 0.085771
0.173709 0.308568 0.0869154
0.201297 0.308232 0.0884108
0.235065 0.309026 0.0910811
0.268788 0.309728 0.0939803
0.302693 0.31107 0.0973373
0.337911 0.312978 0.10135
0.372686 0.314794 0.105257
0.406989 0.317449 0.10988
0.440787 0.320424 0.114794
0.473976 0.323293 0.119707
0.507652 0.327626 0.125887
0.542046 0.332265 0.132647
0.57525 0.337179 0.139254
0.606012 0.343084 0.147463
0.635599 0.349752 0.156725
0.665354 0.356252 0.165728
0.693095 0.363821 0.176303
0.719463 0.372137 0.187884
0.746426 0.380468 0.199527
0.771878 0.38938 0.212482
0.795865 0.399451 0.22739
0.82002 0.409171 0.242176
0.843046 0.419409 0.257664
0.863767 0.43093 0.275151
0.884855 0.442145 0.292546
0.903471 0.453468 0.310246
0.0359197 0.347402 0.0889143
0.0453956 0.345129 0.0892348
0.0627604 0.344427 0.0903029
0.0816815 0.343664 0.0912642
0.101961 0.342382 0.0923171
0.124697 0.341421 0.0936751
0.148943 0.340414 0.0951553
0.17377 0.339284 0.0965744
0.204257 0.339086 0.0989395
0.236881 0.339055 0.101488
0.269047 0.339178 0.103975
0.303349 0.340261 0.1075
0.337011 0.341436 0.111192
0.370474 0.342763 0.114809
0.402823 0.345098 0.119127
0.434607 0.347356 0.123445
0.465782 0.349798 0.12755
0.499672 0.354147 0.133822
0.53286 0.358328 0.139757
0.566155 0.362387 0.145739
0.59707 0.36846 0.154421
0.627863 0.374395 0.163149
0.658442 0.380362 0.17174
0.686687 0.387701 0.182834
0.714107 0.3953 0.194095
0.741329 0.40267 0.205264
0.766522 0.411429 0.218433
0.791119 0.420478 0.232731
0.815351 0.429465 0.246693
0.837873 0.439277 0.262409
0.858854 0.449866 0.279164
0.879789 0.460212 0.295735
0.89749 0.470817 0.313573
0.0322881 0.377356 0.0970932
0.0509194 0.376242 0.0990463
0.06804 0.375265 0.100664
0.0852216 0.37438 0.1019
0.105394 0.373114 0.103273
0.128023 0.371801 0.104814
0.151263 0.370367 0.106264
0.17763 0.369482 0.107988
0.207889 0.369177 0.110109
0.238804 0.368704 0.112169
0.269886 0.36875 0.114763
0.30193 0.369726 0.117937
0.333425 0.370642 0.120989
0.364401 0.371847 0.124269
0.395315 0.373388 0.128008
0.425589 0.375082 0.131624
0.457465 0.377539 0.136156
0.491295 0.381048 0.141649
0.52462 0.384665 0.147143
0.557855 0.388556 0.153811
0.589822 0.393759 0.162158
0.621912 0.399069 0.170535
0.653712 0.404349 0.179263
0.681544 0.411215 0.190158
0.709911 0.417945 0.200916
0.737926 0.424674 0.211582
0.762417 0.432868 0.225025
0.78706 0.441199 0.238682
0.811505 0.449409 0.252003
0.832654 0.458869 0.267445
0.853666 0.468467 0.283558
0.874525 0.478019 0.299275
0.891203 0.488228 0.316548
0.0385138 0.408133 0.108522
0.0572671 0.406882 0.110689
0.0723278 0.405676 0.112428
0.0896468 0.404425 0.113893
0.110353 0.403052 0.115251
0.131609 0.401572 0.116701
0.154604 0.399908 0.117937
0.182788 0.399084 0.119753
0.211124 0.398428 0.121508
0.239887 0.397406 0.123186
0.269825 0.397833 0.12578
0.299123 0.39852 0.128313
0.328817 0.398871 0.130892
0.358419 0.399908 0.133989
0.388266 0.400671 0.137072
0.417365 0.401862 0.140307
0.450599 0.404349 0.14522
0.48484 0.407355 0.150484
0.51928 0.410391 0.155795
0.552834 0.414481 0.163104
0.586465 0.419074 0.171313
0.618967 0.423758 0.179278
0.649638 0.42916 0.188525
0.677882 0.435248 0.198779
0.705608 0.441352 0.209094
0.732845 0.447547 0.219913
0.757259 0.454978 0.232486
0.781613 0.462348 0.244923
0.806149 0.469474 0.257511
0.826749 0.478447 0.272663
0.847608 0.487327 0.287724
0.868544 0.49601 0.30277
0.885344 0.505592 0.319844
0.0449989 0.437491 0.120943
0.0618143 0.435691 0.12311
0.0779736 0.434791 0.124636
0.0960708 0.433356 0.126009
0.115114 0.431922 0.127108
0.135195 0.430259 0.128099
0.159899 0.429297 0.129381
0.186145 0.428321 0.130846
0.212741 0.427222 0.132082
0.240513 0.426764 0.133867
0.269169 0.427024 0.136324
0.298116 0.426947 0.138766
0.32752 0.427314 0.141451
0.357626 0.428214 0.144686
0.388098 0.428824 0.147906
0.419257 0.430045 0.151568
0.453727 0.43241 0.156588
0.487816 0.434684 0.161685
0.521324 0.437186 0.166842
0.554116 0.441108 0.174548
0.586252 0.445151 0.182101
0.618265 0.449149 0.189715
0.646372 0.454322 0.198901
0.674235 0.459388 0.208423
0.70193 0.464515 0.217792
0.727779 0.470283 0.228489
0.752163 0.476616 0.239918
0.77705 0.482536 0.251255
0.800183 0.489189 0.263416
0.820798 0.497292 0.277882
0.841764 0.505318 0.29218
0.862242 0.513634 0.307027
0.880644 0.522805 0.323568
0.0520943 0.46627 0.13106
0.0692302 0.464805 0.13315
0.0851301 0.463706 0.134539
0.100908 0.462562 0.135866
0.118029 0.460807 0.136995
0.139528 0.459739 0.138399
0.16321 0.458671 0.139849
0.187778 0.457145 0.141024
0.213489 0.456092 0.142626
0.241642 0.455879 0.145052
0.270161 0.455879 0.147677
0.299397 0.455512 0.150103
0.329885 0.45594 0.153262
0.360265 0.456367 0.156435
0.391272 0.456748 0.159777
0.424186 0.457954 0.163928
0.457725 0.459724 0.168612
0.490913 0.461158 0.17319
0.523262 0.4636 0.178882
0.554925 0.467277 0.186175
0.586191 0.470634 0.193332
0.616205 0.474296 0.200626
0.64358 0.478752 0.209552
0.670832 0.483177 0.218036
0.698085 0.48748 0.226551
0.722835 0.492821 0.23682
0.747051 0.498085 0.246952
0.772015 0.503273 0.257191
0.793973 0.509926 0.269566
0.814954 0.517617 0.283192
0.836133 0.524941 0.296834
0.856413 0.532921 0.311757
0.875547 0.541405 0.327642
0.0592203 0.494392 0.14197
0.0759899 0.493141 0.144198
0.0896925 0.492103 0.145708
0.103655 0.490639 0.146944
0.122499 0.489662 0.148379
0.143954 0.488243 0.14963
0.1664 0.486671 0.150973
0.189395 0.485206 0.152071
0.21677 0.48484 0.15465
0.244862 0.484154 0.157229
0.27332 0.483665 0.159808
0.302922 0.483711 0.162646
0.333867 0.48368 0.165652
0.364813 0.483909 0.168826
0.396292 0.484047 0.172183
0.428748 0.485206 0.176287
0.461051 0.48658 0.180331
0.493477 0.487663 0.184466
0.523629 0.490547 0.190692
0.553872 0.493599 0.197147
0.584024 0.49659 0.203494
0.612284 0.499947 0.210986
0.639261 0.503594 0.219059
0.666163 0.507332 0.226902
0.692897 0.511223 0.235065
0.717311 0.515755 0.244678
0.742031 0.520394 0.253986
0.7673 0.524727 0.263401
0.788373 0.531441 0.276371
0.809903 0.538216 0.289479
0.83154 0.544808 0.302388
0.851316 0.552361 0.317067
0.871199 0.559976 0.332387
0.0677043 0.521111 0.15346
0.0826276 0.51989 0.155367
0.0951095 0.518822 0.156786
0.111574 0.518181 0.158373
0.129641 0.516991 0.15967
0.148852 0.515572 0.160876
0.168856 0.514031 0.162203
0.19379 0.513405 0.164416
0.220935 0.512612 0.166934
0.248875 0.512001 0.169665
0.277714 0.511131 0.172229
0.3075 0.51104 0.175204
0.338125 0.511116 0.178164
0.368566 0.510933 0.181094
0.399969 0.511345 0.18468
0.43183 0.5122 0.188251
0.463157 0.513039 0.191989
0.493996 0.514412 0.196567
0.522759 0.517067 0.202731
0.55201 0.519387 0.208606
0.581048 0.521859 0.214511
0.607706 0.524941 0.221622
0.63505 0.528008 0.228962
0.662135 0.530938 0.235889
0.687678 0.534569 0.243977
0.712901 0.538537 0.252949
0.737881 0.542367 0.261677
0.762097 0.546731 0.271534
0.783536 0.552636 0.283833
0.80528 0.558679 0.296223
0.827222 0.56466 0.308705
0.846983 0.571649 0.323171
0.867323 0.578592 0.337652
0.0758831 0.54696 0.164691
0.0903182 0.546014 0.166766
0.104601 0.545495 0.168658
0.119142 0.544625 0.170275
0.134768 0.543511 0.171618
0.151415 0.542199 0.172869
0.174029 0.541253 0.175036
0.199664 0.540658 0.177462
0.22681 0.539651 0.180087
0.254353 0.538842 0.182742
0.283345 0.538308 0.185641
0.313115 0.538064 0.188479
0.342794 0.53782 0.191562
0.373068 0.537728 0.194476
0.403357 0.53817 0.198093
0.433539 0.538811 0.201404
0.464317 0.539147 0.204639
0.492851 0.540841 0.209598
0.521218 0.542718 0.214862
0.549187 0.544503 0.220005
0.576913 0.546731 0.225772
0.603937 0.54934 0.232197
0.631281 0.551644 0.238743
0.658671 0.554116 0.245212
0.683894 0.55761 0.253468
0.709545 0.560891 0.262013
0.735195 0.564309 0.270436
0.758114 0.568826 0.280766
0.779873 0.57406 0.29247
0.801984 0.579156 0.304097
0.823148 0.584558 0.316335
0.843107 0.590829 0.330037
0.8636 0.597025 0.343755
0.0832532 0.572793 0.176913
0.0985122 0.572106 0.1794
0.110918 0.571313 0.18114
0.123079 0.570764 0.18265
0.136294 0.569741 0.184085
0.157092 0.568566 0.186526
0.180682 0.567987 0.189517
0.205402 0.566979 0.192172
0.231418 0.56585 0.194995
0.258747 0.565042 0.19765
0.286702 0.564736 0.199969
0.315251 0.564126 0.20238
0.344076 0.56376 0.204913
0.373404 0.563897 0.207553
0.403174 0.564095 0.210391
0.43299 0.564294 0.213138
0.461891 0.565072 0.216419
0.489632 0.566308 0.221134
0.51722 0.567727 0.225971
0.544854 0.569039 0.230533
0.572625 0.570916 0.236469
0.599954 0.573114 0.242771
0.628412 0.575006 0.248936
0.655482 0.577371 0.255756
0.681392 0.580285 0.2636
0.707027 0.583108 0.271473
0.733471 0.585916 0.279606
0.755016 0.590448 0.290303
0.776699 0.594903 0.301198
0.798993 0.599268 0.31191
0.81944 0.604318 0.324086
0.839628 0.609674 0.33698
0.860365 0.614954 0.350134
0.0895552 0.597726 0.190478
0.102083 0.596948 0.193408
0.111833 0.596597 0.195651
0.121736 0.595926 0.197787
0.141146 0.595224 0.200275
0.162615 0.594385 0.202762
0.185809 0.593362 0.205432
0.209979 0.592187 0.207767
0.23566 0.591196 0.209888
0.261997 0.590661 0.211994
0.289265 0.590036 0.213748
0.316762 0.589639 0.215656
0.344991 0.589258 0.2177
0.373602 0.589395 0.219928
0.402686 0.589502 0.222065
0.431785 0.589624 0.224308
0.459205 0.590372 0.228351
0.486458 0.591409 0.232731
0.513542 0.592126 0.237064
0.541436 0.593179 0.241779
0.569436 0.594812 0.247745
0.598032 0.596353 0.253513
0.626657 0.598062 0.259419
0.653422 0.600168 0.266499
0.679622 0.602686 0.274159
0.705882 0.605081 0.281422
0.730739 0.607858 0.289647
0.752178 0.61149 0.299687
0.773892 0.61503 0.309651
0.795636 0.618723 0.319753
0.815396 0.623453 0.331777
0.835782 0.628153 0.344076
0.856565 0.632761 0.356176
0.0904707 0.622248 0.206348
0.100282 0.62179 0.209186
0.111345 0.621225 0.211582
0.129091 0.620661 0.214191
0.148653 0.619867 0.21648
0.169574 0.618891 0.218677
0.191836 0.617746 0.220798
0.215488 0.616709 0.222705
0.24007 0.61622 0.224216
0.265507 0.615656 0.225635
0.291676 0.614984 0.2271
0.318135 0.614557 0.228321
0.346075 0.614298 0.230137
0.373953 0.614267 0.231724
0.402533 0.614023 0.233494
0.430442 0.614191 0.236194
0.456718 0.614847 0.240436
0.483726 0.615198 0.244465
0.511208 0.615503 0.248737
0.539284 0.616556 0.253925
0.567666 0.617746 0.259449
0.596567 0.618891 0.26511
0.625376 0.620142 0.270695
0.651301 0.622034 0.27747
0.677562 0.624063 0.284123
0.704051 0.625834 0.290639
0.726879 0.628595 0.299107
0.747921 0.631632 0.308431
0.769512 0.634607 0.317571
0.790295 0.638117 0.327596
0.810742 0.64213 0.339223
0.831739 0.646296 0.350912
0.852552 0.650706 0.363485
0.0896773 0.644862 0.220035
0.106371 0.643992 0.223072
0.12253 0.643473 0.225284
0.138262 0.642771 0.227436
0.156085 0.641566 0.229252
0.174823 0.640421 0.23093
0.195102 0.639414 0.232502
0.217807 0.638987 0.233707
0.241337 0.638529 0.235111
0.265736 0.638025 0.236469
0.290562 0.637507 0.237797
0.31783 0.637278 0.239582
0.345068 0.637324 0.241398
0.37351 0.637095 0.243442
0.401907 0.637079 0.245274
0.428443 0.637293 0.249393
0.455116 0.637491 0.253468
0.48188 0.63769 0.257496
0.509804 0.638025 0.261982
0.53785 0.639002 0.266789
0.566995 0.639719 0.271778
0.596094 0.640635 0.276661
0.623438 0.641932 0.282216
0.649516 0.643427 0.288319
0.676066 0.644846 0.294118
0.702281 0.646525 0.300343
0.722927 0.649088 0.308919
0.743832 0.651591 0.317403
0.764981 0.654002 0.32578
0.785916 0.657267 0.336324
0.806973 0.660792 0.347311
0.828305 0.664424 0.358419
0.848814 0.668681 0.371176
0.100114 0.665324 0.232395
0.117159 0.664454 0.235096
0.130785 0.663996 0.237293
0.144472 0.663233 0.238926
0.15906 0.662318 0.240467
0.176654 0.661448 0.242008
0.197192 0.661265 0.243381
0.218967 0.661051 0.244953
0.241627 0.660761 0.246265
0.265034 0.660456 0.247852
0.290761 0.660227 0.249897
0.31754 0.659998 0.252079
0.345388 0.659693 0.254292
0.373663 0.659556 0.256504
0.400793 0.659388 0.259678
0.427222 0.659556 0.263371
0.453758 0.659739 0.267262
0.481285 0.659861 0.271153
0.509392 0.660349 0.27541
0.537987 0.661128 0.279728
0.56669 0.661585 0.284092
0.595758 0.662181 0.288228
0.621378 0.663203 0.293507
0.647929 0.664179 0.298802
0.675029 0.66508 0.304097
0.698405 0.666499 0.310643
0.718868 0.668544 0.318547
0.739483 0.670375 0.32636
0.76051 0.672496 0.334478
0.781582 0.675578 0.3449
0.803265 0.678813 0.355352
0.825788 0.681849 0.365927
0.845701 0.685954 0.378836
0.108568 0.685527 0.244419
0.122515 0.684901 0.24683
0.133562 0.684153 0.248646
0.144381 0.683391 0.249928
0.16025 0.683223 0.25127
0.178439 0.683192 0.252995
0.198215 0.682826 0.25449
0.219104 0.682567 0.255924
0.240833 0.682246 0.257618
0.264775 0.68188 0.259388
0.290379 0.681483 0.261601
0.316976 0.68101 0.263569
0.343999 0.680491 0.265766
0.370626 0.680247 0.26833
0.397116 0.680049 0.271778
0.42359 0.680034 0.275181
0.451148 0.679973 0.278599
0.478843 0.680064 0.282353
0.506996 0.680385 0.286076
0.535653 0.680705 0.290028
0.564202 0.681208 0.293889
0.592065 0.681697 0.298619
0.618601 0.682475 0.303487
0.64567 0.683207 0.308568
