LUT预设1/iPhone专用lut合集3/iPhone合集3标准版（709）/odd街头709.cube
TITLE "Generated by Resolve"
LUT_3D_SIZE 9
0.0185245 0.0215 0.0203098
0.120058 0.020325 0.0194705
0.277821 0.027451 0.0275731
0.459419 0.0422065 0.0457923
0.632624 0.0699474 0.0755627
0.760891 0.110231 0.119188
0.856443 0.161593 0.178607
0.92575 0.227466 0.253269
0.954971 0.295872 0.327642
0.0124514 0.0903487 0.032517
0.0932174 0.0852522 0.0324559
0.225788 0.0906539 0.0383917
0.38793 0.104784 0.0522774
0.554086 0.130022 0.0763714
0.693553 0.167254 0.114305
0.800702 0.215244 0.16733
0.884306 0.27602 0.237476
0.941283 0.339864 0.318151
0.0219272 0.191409 0.0514076
0.0891737 0.185382 0.0541695
0.206989 0.18674 0.0589914
0.34902 0.19678 0.0705119
0.501015 0.218677 0.0911574
0.64947 0.247257 0.123629
0.761074 0.28893 0.172213
0.850919 0.336751 0.235538
0.930739 0.389258 0.30811
0.0339055 0.315908 0.0814069
0.0998093 0.310796 0.0837262
0.201297 0.308232 0.0884108
0.337911 0.312978 0.10135
0.473976 0.323293 0.119707
0.606012 0.343084 0.147463
0.719463 0.372137 0.187884
0.82002 0.409171 0.242176
0.903471 0.453468 0.310246
0.0449989 0.437491 0.120943
0.115114 0.431922 0.127108
0.212741 0.427222 0.132082
0.32752 0.427314 0.141451
0.453727 0.43241 0.156588
0.586252 0.445151 0.182101
0.70193 0.464515 0.217792
0.800183 0.489189 0.263416
0.880644 0.522805 0.323568
0.0758831 0.54696 0.164691
0.134768 0.543511 0.171618
0.22681 0.539651 0.180087
0.342794 0.53782 0.191562
0.464317 0.539147 0.204639
0.576913 0.546731 0.225772
0.683894 0.55761 0.253468
0.779873 0.57406 0.29247
0.8636 0.597025 0.343755
0.0896773 0.644862 0.220035
0.156085 0.641566 0.229252
0.241337 0.638529 0.235111
0.345068 0.637324 0.241398
0.455116 0.637491 0.253468
0.566995 0.639719 0.271778
0.676066 0.644846 0.294118
0.764981 0.654002 0.32578
0.848814 0.668681 0.371176
0.101244 0.722606 0.261067
0.162158 0.722972 0.27097
0.240284 0.721874 0.279088
0.336278 0.720241 0.28838
0.44741 0.719432 0.301167
0.558816 0.720134 0.314961
0.662211 0.722179 0.333989
0.748592 0.727855 0.361944
0.838361 0.737224 0.400534
0.105791 0.796292 0.300252
0.152529 0.796841 0.310399
0.217319 0.795804 0.31693
0.320882 0.794385 0.324514
0.426459 0.794018 0.337392
0.5402 0.794079 0.352789
0.64332 0.795575 0.372412
0.740444 0.79852 0.396017
0.828183 0.803555 0.425772
0.0153658 0.0323796 0.0779583
0.106172 0.028336 0.0773632
0.256626 0.0353704 0.0849012
0.425834 0.0481422 0.101884
0.586313 0.0732891 0.130236
0.719646 0.109071 0.171252
0.82063 0.157519 0.226429
0.900801 0.216541 0.291539
0.946578 0.284123 0.362127
0.0135195 0.109148 0.111101
0.0883345 0.101747 0.106004
0.216236 0.104936 0.108324
0.377783 0.117189 0.120806
0.536889 0.140078 0.143023
0.673823 0.173938 0.176959
0.781826 0.218753 0.227543
0.867704 0.273396 0.28954
0.931228 0.334844 0.358175
0.019379 0.220935 0.149004
0.0875715 0.211246 0.14168
0.20557 0.209491 0.139376
0.349004 0.216098 0.147707
0.499504 0.233341 0.166583
0.639963 0.259739 0.194919
0.747387 0.295995 0.239445
0.838849 0.339178 0.292973
0.920424 0.388861 0.35639
0.0319829 0.343099 0.183825
0.0960708 0.335698 0.179171
0.202472 0.330419 0.178653
0.339178 0.331121 0.185824
0.472084 0.338949 0.198062
0.602396 0.356512 0.223285
0.716854 0.38291 0.259983
0.815946 0.415732 0.305592
0.895506 0.456214 0.363134
0.0465858 0.459388 0.225101
0.109407 0.451606 0.222782
0.21033 0.445533 0.223377
0.329046 0.444755 0.228229
0.45948 0.448157 0.239673
0.587686 0.458625 0.261082
0.699138 0.474754 0.288685
0.795254 0.496239 0.32491
0.87718 0.528145 0.376913
0.0694133 0.564599 0.269322
0.124239 0.560235 0.270924
0.2224 0.555169 0.273136
0.341192 0.551949 0.276967
0.462699 0.552056 0.284443
0.574746 0.557458 0.300282
0.684001 0.566979 0.322301
0.779568 0.582071 0.354147
0.863188 0.603067 0.398169
0.0843214 0.656413 0.31284
0.151751 0.652598 0.31426
0.236637 0.649134 0.316152
0.342229 0.646479 0.32047
0.454047 0.645869 0.329595
0.56875 0.647929 0.342626
0.677333 0.652476 0.35964
0.763104 0.660975 0.38468
0.847791 0.674754 0.423407
0.101015 0.731502 0.348974
0.157244 0.731212 0.353948
0.231312 0.729641 0.357961
0.328084 0.727489 0.362112
0.442985 0.726604 0.36907
0.55581 0.726955 0.379431
0.659403 0.728725 0.39443
0.749157 0.734081 0.417395
0.839857 0.742763 0.450584
0.0991989 0.803449 0.382467
0.144244 0.803174 0.385534
0.210269 0.801694 0.388022
0.314488 0.799985 0.392035
0.422293 0.799542 0.402823
0.539925 0.799512 0.415641
0.64509 0.800671 0.431373
0.742168 0.803357 0.450233
0.829404 0.808743 0.476005
0.0193027 0.0512856 0.157153
0.102312 0.0477302 0.151751
0.243626 0.0512245 0.160357
0.403403 0.0636759 0.174563
0.562325 0.0841688 0.201083
0.69398 0.117388 0.23917
0.794644 0.159686 0.284977
0.878935 0.213504 0.339162
0.934585 0.277974 0.400351
0.0145266 0.135653 0.207233
0.0898909 0.129015 0.199832
0.212528 0.12842 0.198306
0.371374 0.135821 0.208484
0.524025 0.156176 0.228382
0.656321 0.186969 0.25742
0.763287 0.226337 0.296925
0.850996 0.276814 0.345983
0.920073 0.333211 0.403479
0.0157168 0.250401 0.260761
0.0877241 0.239857 0.251453
0.202609 0.233402 0.244968
0.345785 0.237781 0.24509
0.493736 0.250538 0.256306
0.626429 0.272923 0.2804
0.734371 0.305516 0.314733
0.827268 0.343954 0.355795
0.907897 0.39115 0.408438
0.0301671 0.370748 0.306004
0.094255 0.361044 0.294484
0.202365 0.353613 0.28632
0.335882 0.353063 0.286122
0.468544 0.358099 0.293156
0.597192 0.373114 0.31191
0.710307 0.394858 0.338628
0.807797 0.422522 0.371862
0.886015 0.460685 0.419486
0.0492103 0.481392 0.341955
0.102571 0.47396 0.335683
0.205493 0.467674 0.331106
0.329488 0.464332 0.329686
0.461616 0.465583 0.334417
0.586145 0.473091 0.346868
0.695811 0.485771 0.365377
0.789792 0.506645 0.395621
0.872969 0.535439 0.437079
0.0656901 0.583795 0.381796
0.117296 0.578134 0.376623
0.220706 0.571405 0.370764
0.338399 0.567361 0.369482
0.459113 0.566476 0.373373
0.572625 0.570352 0.383978
0.682689 0.578119 0.399374
0.77615 0.591196 0.423682
0.858763 0.609888 0.458274
0.0858015 0.667948 0.410574
0.144686 0.664439 0.409018
0.224521 0.661677 0.409613
0.333257 0.658198 0.410666
0.448173 0.65687 0.414725
0.566384 0.658198 0.421942
0.673915 0.662348 0.433371
0.758785 0.669703 0.451469
0.845914 0.682033 0.482414
0.0991989 0.742519 0.44625
0.145129 0.741451 0.447181
0.217762 0.738857 0.445701
0.318212 0.736202 0.444846
0.436744 0.735042 0.446952
0.551888 0.734905 0.453712
0.656504 0.7364 0.464973
0.750149 0.74107 0.483497
0.841398 0.749187 0.510063
0.0973526 0.810941 0.468833
0.134188 0.810575 0.46952
0.202136 0.809232 0.470497
0.303151 0.807645 0.473091
0.414466 0.80679 0.480293
0.537652 0.805707 0.488762
0.645548 0.806607 0.500237
0.741054 0.809964 0.514443
0.829129 0.815427 0.535088
0.0248417 0.0801099 0.252613
0.108263 0.0744335 0.250858
0.234974 0.0745861 0.256535
0.395087 0.0851301 0.268284
0.549035 0.102525 0.291096
0.67364 0.132586 0.317113
0.776165 0.171313 0.352178
0.860624 0.218723 0.396155
0.921736 0.281209 0.448722
0.0220645 0.168063 0.311864
0.0906539 0.160937 0.303319
0.215396 0.15903 0.301732
0.364263 0.165255 0.307408
0.511696 0.180499 0.319982
0.642298 0.205112 0.341405
0.748363 0.241016 0.3729
0.836347 0.284977 0.410071
0.910445 0.336049 0.45594
0.0253452 0.282933 0.368734
0.0880446 0.272694 0.355459
0.198062 0.26717 0.346838
0.339681 0.267308 0.344625
0.484703 0.274968 0.352071
0.614328 0.292775 0.368933
0.724102 0.319249 0.392508
0.816281 0.354116 0.424674
0.894682 0.396963 0.467247
0.0370184 0.398856 0.412268
0.0933852 0.389456 0.402655
0.200168 0.381231 0.394354
0.331884 0.377066 0.389639
0.466392 0.37969 0.391119
0.593576 0.391485 0.401175
0.705257 0.409018 0.418769
0.798535 0.433875 0.446159
0.877012 0.467567 0.482628
0.0475166 0.504387 0.455909
0.103685 0.49836 0.446784
0.204471 0.491264 0.436194
0.330877 0.485512 0.428458
0.46096 0.485115 0.428519
0.58172 0.490059 0.436133
0.690486 0.500938 0.4495
0.783413 0.518593 0.470985
0.866651 0.543175 0.50193
0.0666972 0.600458 0.484794
0.121202 0.595453 0.478462
0.21387 0.589426 0.471626
0.329244 0.58526 0.467781
0.45095 0.58323 0.46772
0.569162 0.585122 0.471733
0.679545 0.590936 0.480552
0.771786 0.601434 0.497292
0.854353 0.618128 0.523201
0.0866865 0.681208 0.514763
0.135164 0.679072 0.512718
0.205081 0.675776 0.508003
0.323217 0.671443 0.503914
0.443122 0.669535 0.502327
0.564218 0.670283 0.50428
0.668833 0.673533 0.510231
0.755261 0.679179 0.523903
0.844694 0.690394 0.54876
0.0969863 0.753323 0.542885
0.134737 0.751736 0.539452
0.202914 0.749096 0.534401
0.307958 0.74641 0.531151
0.427512 0.744595 0.531304
0.546426 0.744213 0.534951
0.653025 0.745388 0.542779
0.750927 0.749615 0.556359
0.841398 0.756634 0.573968
0.0927291 0.819745 0.561318
0.114672 0.819745 0.561212
0.186709 0.818753 0.561105
0.283085 0.81706 0.561334
0.39942 0.815106 0.562997
0.530251 0.813535 0.566049
0.640467 0.814725 0.572122
0.738689 0.817548 0.581323
0.828748 0.822568 0.596765
0.0379797 0.11635 0.361837
0.112612 0.109758 0.355184
0.238117 0.108095 0.356924
0.38761 0.114794 0.366079
0.531624 0.130419 0.379705
0.657267 0.154788 0.399268
0.7608 0.189944 0.427817
0.844587 0.23534 0.461479
0.911955 0.290532 0.502815
0.0341497 0.209033 0.413001
0.100938 0.201266 0.405035
0.217212 0.196582 0.402152
0.357336 0.199115 0.402655
0.501747 0.209506 0.411536
0.629191 0.229938 0.427756
0.735714 0.260349 0.449409
0.823911 0.299519 0.478569
0.900969 0.346044 0.516075
0.0325475 0.317159 0.462593
0.0889754 0.309407 0.452476
0.199237 0.302464 0.44509
0.338582 0.29839 0.442359
0.477378 0.302449 0.44715
0.604837 0.317845 0.455329
0.716976 0.339818 0.471733
0.807736 0.36936 0.497673
0.884489 0.406806 0.530327
0.0407111 0.425803 0.510185
0.0981765 0.41828 0.502113
0.201007 0.410788 0.491661
0.328054 0.405966 0.484215
0.462242 0.406607 0.483406
0.589258 0.413794 0.489296
0.701381 0.426154 0.501198
0.791165 0.448203 0.520729
0.870771 0.47715 0.546624
0.0449531 0.527855 0.548577
0.108888 0.522759 0.5402
0.202564 0.515572 0.529885
0.330037 0.50927 0.522026
0.456962 0.506798 0.522057
0.577722 0.508904 0.524788
0.687099 0.517143 0.531014
0.779004 0.532067 0.544808
0.862562 0.552834 0.566552
0.0658885 0.616098 0.577661
0.121309 0.612207 0.573434
0.20737 0.607095 0.566995
0.321157 0.602426 0.56083
0.444511 0.599802 0.556497
0.567712 0.600031 0.55555
0.677333 0.604334 0.559167
0.768475 0.612894 0.570169
0.851148 0.627985 0.589837
0.082536 0.69456 0.606973
0.125139 0.692805 0.603235
0.196979 0.689021 0.596689
0.315801 0.68571 0.58999
0.438148 0.683589 0.585657
0.558251 0.682918 0.585138
0.66244 0.684916 0.58909
0.754391 0.68957 0.598383
0.845258 0.699031 0.615167
0.0928359 0.762814 0.627924
0.131151 0.76173 0.625437
0.186862 0.759075 0.620401
0.297673 0.756619 0.617182
0.417029 0.754772 0.615442
0.5411 0.753994 0.616434
0.651301 0.755291 0.619425
0.752194 0.759319 0.626245
0.839078 0.765393 0.637629
0.0771038 0.82945 0.65066
0.099382 0.829755 0.649577
0.168276 0.828382 0.646189
0.263279 0.825757 0.641718
0.385779 0.823011 0.638453
0.520348 0.821683 0.638117
0.633082 0.823026 0.641169
0.736477 0.825498 0.647608
0.829099 0.829923 0.658488
0.0496834 0.158953 0.467247
0.12636 0.152224 0.461875
0.245167 0.148165 0.46186
0.380926 0.152468 0.463554
0.518868 0.16524 0.471015
0.641947 0.185657 0.486244
0.74522 0.215351 0.505852
0.830594 0.256352 0.531594
0.905257 0.304997 0.564446
0.043183 0.250858 0.510628
0.112367 0.244282 0.503166
0.21828 0.239734 0.496788
0.353506 0.238148 0.493919
0.493004 0.243687 0.503151
0.618265 0.259983 0.513771
0.726894 0.285634 0.527993
0.815747 0.318959 0.551888
0.891707 0.358419 0.578744
0.0304723 0.350637 0.552666
0.0991226 0.345266 0.544594
0.204837 0.338216 0.537652
0.338567 0.333959 0.534264
0.472007 0.336889 0.535714
0.600061 0.346502 0.540856
0.71223 0.362127 0.552209
0.800229 0.386954 0.571756
0.877501 0.418936 0.592889
0.0540017 0.454551 0.592004
0.110307 0.448997 0.585214
0.201663 0.441764 0.576165
0.324544 0.436515 0.570138
0.457801 0.434531 0.569253
0.587198 0.436942 0.573312
0.695857 0.447089 0.580179
0.78497 0.465156 0.592386
0.867201 0.489052 0.609705
0.0638743 0.550515 0.626551
0.115633 0.546319 0.62121
0.199939 0.539544 0.613733
0.324727 0.532952 0.607706
0.45005 0.529885 0.604349
0.571878 0.53051 0.603174
0.680842 0.535851 0.605905
0.773922 0.54699 0.614679
0.8589 0.564202 0.630396
0.0758068 0.632624 0.654612
0.116655 0.629999 0.650599
0.197726 0.625162 0.64358
0.312947 0.6206 0.63769
0.435813 0.618006 0.633051
0.563897 0.616892 0.630945
0.67306 0.619181 0.633051
0.76466 0.625681 0.640757
0.848646 0.638132 0.653284
0.0817884 0.707607 0.678569
0.107607 0.705486 0.674769
0.195148 0.702174 0.67042
0.307713 0.69894 0.665492
0.429313 0.696422 0.661418
0.551644 0.695003 0.659571
0.658412 0.695872 0.661082
0.755749 0.700114 0.665232
0.845151 0.708659 0.675029
0.0919203 0.772198 0.70071
0.125856 0.771618 0.699168
0.184665 0.769665 0.695476
0.284672 0.767666 0.690761
0.406409 0.765774 0.686107
0.536995 0.765087 0.684443
0.650141 0.766308 0.684749
0.752453 0.769299 0.688609
0.8374 0.774838 0.69688
0.0592813 0.836851 0.720897
0.103258 0.836362 0.718181
0.155016 0.834791 0.71313
0.247089 0.832227 0.70782
0.370153 0.829877 0.703792
0.501442 0.829068 0.702495
0.621424 0.830137 0.704234
0.732769 0.832456 0.708461
0.828016 0.836072 0.715251
0.0660105 0.207462 0.569497
0.140246 0.202579 0.564508
0.245472 0.198672 0.558923
0.374975 0.198337 0.556924
0.506889 0.206287 0.563897
0.627024 0.222324 0.571862
0.731792 0.246326 0.583078
0.819501 0.279637 0.602014
0.895354 0.32224 0.624598
0.0569009 0.293751 0.598932
0.117311 0.290059 0.590478
0.222751 0.283436 0.586618
0.355978 0.280354 0.588006
0.486213 0.284169 0.591379
0.612192 0.294408 0.595728
0.720653 0.312718 0.605829
0.806943 0.340612 0.621347
0.883299 0.375738 0.638605
0.0566873 0.387549 0.633768
0.1187 0.382361 0.628672
0.216571 0.375906 0.622751
0.339223 0.371771 0.618677
0.468956 0.371435 0.617929
0.59852 0.375082 0.62118
0.704417 0.387823 0.629221
0.791852 0.407736 0.639597
0.872709 0.434134 0.653758
0.0683299 0.482933 0.664485
0.116716 0.478416 0.659358
0.203235 0.472145 0.652445
0.327626 0.466682 0.649104
0.457572 0.463142 0.648325
0.580606 0.463981 0.64918
0.68687 0.470527 0.652155
0.779065 0.483345 0.6598
0.863416 0.502373 0.671336
0.071809 0.571771 0.694377
0.112078 0.5682 0.689693
0.202731 0.562402 0.684123
0.318532 0.557183 0.6795
0.440665 0.553857 0.676219
0.563577 0.55285 0.673671
0.672953 0.555657 0.675013
0.770489 0.56231 0.680461
0.853773 0.57673 0.691173
0.0717937 0.650736 0.717357
0.120302 0.648203 0.713817
0.194049 0.644038 0.709087
0.303471 0.64033 0.705638
0.428046 0.636683 0.702419
0.557244 0.63386 0.70013
0.665934 0.634775 0.701244
0.761273 0.639536 0.704311
0.846723 0.650462 0.711666
0.070222 0.719921 0.740429
0.108797 0.718273 0.738491
0.192142 0.715419 0.735821
0.296941 0.712306 0.732021
0.419425 0.709712 0.727718
0.541909 0.708736 0.725139
0.652522 0.709606 0.724437
0.75581 0.712505 0.726452
0.844099 0.719966 0.732296
0.0920729 0.782834 0.761852
0.112856 0.782635 0.760906
0.178943 0.781353 0.757687
0.270802 0.779431 0.753063
0.390051 0.777737 0.748745
0.523995 0.77702 0.746654
0.642618 0.777371 0.74725
0.74873 0.779187 0.749874
0.836225 0.783642 0.754681
0.0784772 0.839734 0.77435
0.10692 0.839475 0.772732
0.151476 0.838193 0.769909
0.220645 0.836591 0.766094
0.344915 0.835401 0.76257
0.475792 0.834943 0.76083
0.607645 0.835355 0.760525
0.727398 0.837842 0.761227
0.823209 0.839857 0.763912
0.083711 0.26128 0.66067
0.147662 0.257053 0.653803
0.248142 0.250797 0.648768
0.370184 0.248127 0.648386
0.492775 0.251453 0.649195
0.615549 0.262348 0.649805
0.722179 0.279728 0.658045
0.80911 0.305684 0.670359
0.884703 0.340658 0.683055
0.0708019 0.338964 0.683146
0.136492 0.333501 0.679103
0.23682 0.327642 0.674678
0.355276 0.324666 0.671092
0.481651 0.324819 0.668681
0.608026 0.330877 0.669627
0.710369 0.343618 0.678492
0.796643 0.365255 0.687358
0.876478 0.393729 0.698009
0.0760204 0.422202 0.707729
0.126574 0.417945 0.702968
0.22298 0.412375 0.696818
0.339803 0.407767 0.692454
0.46804 0.404944 0.690593
0.590723 0.406348 0.692576
0.693416 0.414908 0.697429
0.784283 0.42974 0.703273
0.868788 0.450416 0.713298
0.0724193 0.509972 0.729198
0.124193 0.506844 0.725887
0.211063 0.500954 0.721447
0.327504 0.494957 0.717494
0.451911 0.491249 0.715419
0.570901 0.49099 0.715175
0.678828 0.494163 0.717342
0.775799 0.501961 0.722652
0.858869 0.517891 0.730602
0.0727092 0.592706 0.752819
0.117067 0.589883 0.75021
0.201755 0.585092 0.746136
0.307607 0.580743 0.742092
0.43035 0.578195 0.739376
0.555322 0.574746 0.737835
0.666896 0.574914 0.738872
0.764996 0.579446 0.742519
0.848844 0.591882 0.748135
0.082002 0.666773 0.774762
0.11487 0.664897 0.772625
0.190402 0.661845 0.769985
0.294408 0.658045 0.76669
0.418753 0.654139 0.76347
0.54403 0.651865 0.761181
0.656016 0.652415 0.760464
0.756374 0.656214 0.761151
0.84361 0.664195 0.76582
0.0669871 0.732692 0.79501
0.116991 0.732052 0.794308
0.182818 0.730114 0.791928
0.273991 0.727352 0.788174
0.402838 0.725414 0.783932
0.525948 0.724285 0.781765
0.643656 0.724483 0.780957
0.754574 0.725948 0.782498
0.840345 0.730205 0.787808
0.0839246 0.792309 0.81239
0.114733 0.792508 0.81178
0.163424 0.791318 0.809628
0.250355 0.78909 0.806577
0.365667 0.786725 0.803601
0.501137 0.785092 0.801389
0.629404 0.785168 0.800671
0.740734 0.786908 0.801907
0.832227 0.789715 0.803418
0.0838788 0.841199 0.821469
0.0980392 0.841306 0.82063
0.134066 0.840513 0.818479
0.196094 0.83917 0.815244
0.306355 0.837552 0.811399
0.442985 0.837247 0.809262
0.586999 0.837598 0.80766
0.710735 0.840085 0.80763
0.811368 0.841688 0.809537
0.0942092 0.31046 0.738888
0.154528 0.305867 0.734859
0.251133 0.300633 0.731563
0.360632 0.298222 0.728069
0.484474 0.298085 0.725628
0.607248 0.302205 0.725917
0.709957 0.312001 0.731929
0.796551 0.332815 0.737011
0.875257 0.362097 0.744137
0.0869154 0.378256 0.757153
0.1458 0.374563 0.753582
0.2392 0.37023 0.748821
0.351751 0.366461 0.744274
0.477104 0.364446 0.742718
0.595773 0.366217 0.745449
0.696147 0.375036 0.748669
0.786664 0.390326 0.751751
0.869673 0.412924 0.759609
0.0771038 0.454658 0.772961
0.138521 0.451896 0.769696
0.226596 0.446693 0.765255
0.338964 0.441215 0.761822
0.462211 0.437217 0.761257
0.576776 0.438025 0.762066
0.681712 0.443076 0.76289
0.778668 0.451774 0.766506
0.862013 0.468605 0.774243
0.0831922 0.536095 0.791226
0.129366 0.533303 0.789334
0.21146 0.527703 0.785626
0.320424 0.522759 0.781567
0.439155 0.519448 0.779644
0.55903 0.517601 0.778592
0.67158 0.518059 0.77998
0.769482 0.52285 0.784436
0.851682 0.53608 0.789212
0.0755474 0.613245 0.810132
0.125628 0.611124 0.808347
0.197665 0.607126 0.805142
0.295476 0.603433 0.802136
0.416342 0.600198 0.8
0.54229 0.596429 0.799207
0.65745 0.595178 0.800122
0.756664 0.598413 0.801938
0.842512 0.607965 0.804761
0.078172 0.68278 0.82919
0.117327 0.68162 0.828382
0.176577 0.678965 0.826062
0.278935 0.675776 0.823621
0.402106 0.672755 0.821225
0.526299 0.670909 0.819196
0.644831 0.670848 0.817868
0.749569 0.67335 0.819318
0.838834 0.677882 0.823606
0.082887 0.744854 0.846632
0.108873 0.744823 0.846296
0.159884 0.743282 0.844465
0.24686 0.74165 0.841856
0.373465 0.740246 0.839216
0.502632 0.73817 0.837201
0.63122 0.736797 0.836622
0.740642 0.737408 0.837903
0.830839 0.739025 0.839216
0.08365 0.796368 0.858976
0.105211 0.796353 0.858595
0.144579 0.795483 0.856947
0.207111 0.793988 0.854688
0.329778 0.792142 0.851942
0.466896 0.79089 0.849653
0.604334 0.790814 0.848569
0.718471 0.791928 0.8486
0.819867 0.793683 0.848859
0.0757305 0.841291 0.864195
0.0871901 0.84152 0.863783
0.100496 0.84094 0.861952
0.167163 0.839872 0.859464
0.261463 0.838788 0.856718
0.391241 0.837736 0.854276
0.54226 0.837629 0.852796
0.675639 0.839673 0.853727
0.794415 0.841169 0.855131
