LUT预设1/iPhone专用lut合集3/iPhone合集3标准版（709）/odd街头709.cube
TITLE "Generated by Resolve"
LUT_3D_SIZE 5
0.0185245 0.0215 0.0203098
0.277821 0.027451 0.0275731
0.632624 0.0699474 0.0755627
0.856443 0.161593 0.178607
0.954971 0.295872 0.327642
0.0219272 0.191409 0.0514076
0.206989 0.18674 0.0589914
0.501015 0.218677 0.0911574
0.761074 0.28893 0.172213
0.930739 0.389258 0.30811
0.0449989 0.437491 0.120943
0.212741 0.427222 0.132082
0.453727 0.43241 0.156588
0.70193 0.464515 0.217792
0.880644 0.522805 0.323568
0.0896773 0.644862 0.220035
0.241337 0.638529 0.235111
0.455116 0.637491 0.253468
0.676066 0.644846 0.294118
0.848814 0.668681 0.371176
0.105791 0.796292 0.300252
0.217319 0.795804 0.31693
0.426459 0.794018 0.337392
0.64332 0.795575 0.372412
0.828183 0.803555 0.425772
0.0193027 0.0512856 0.157153
0.243626 0.0512245 0.160357
0.562325 0.0841688 0.201083
0.794644 0.159686 0.284977
0.934585 0.277974 0.400351
0.0157168 0.250401 0.260761
0.202609 0.233402 0.244968
0.493736 0.250538 0.256306
0.734371 0.305516 0.314733
0.907897 0.39115 0.408438
0.0492103 0.481392 0.341955
0.205493 0.467674 0.331106
0.461616 0.465583 0.334417
0.695811 0.485771 0.365377
0.872969 0.535439 0.437079
0.0858015 0.667948 0.410574
0.224521 0.661677 0.409613
0.448173 0.65687 0.414725
0.673915 0.662348 0.433371
0.845914 0.682033 0.482414
0.0973526 0.810941 0.468833
0.202136 0.809232 0.470497
0.414466 0.80679 0.480293
0.645548 0.806607 0.500237
0.829129 0.815427 0.535088
0.0379797 0.11635 0.361837
0.238117 0.108095 0.356924
0.531624 0.130419 0.379705
0.7608 0.189944 0.427817
0.911955 0.290532 0.502815
0.0325475 0.317159 0.462593
0.199237 0.302464 0.44509
0.477378 0.302449 0.44715
0.716976 0.339818 0.471733
0.884489 0.406806 0.530327
0.0449531 0.527855 0.548577
0.202564 0.515572 0.529885
0.456962 0.506798 0.522057
0.687099 0.517143 0.531014
0.862562 0.552834 0.566552
0.082536 0.69456 0.606973
0.196979 0.689021 0.596689
0.438148 0.683589 0.585657
0.66244 0.684916 0.58909
0.845258 0.699031 0.615167
0.0771038 0.82945 0.65066
0.168276 0.828382 0.646189
0.385779 0.823011 0.638453
0.633082 0.823026 0.641169
0.829099 0.829923 0.658488
0.0660105 0.207462 0.569497
0.245472 0.198672 0.558923
0.506889 0.206287 0.563897
0.731792 0.246326 0.583078
0.895354 0.32224 0.624598
0.0566873 0.387549 0.633768
0.216571 0.375906 0.622751
0.468956 0.371435 0.617929
0.704417 0.387823 0.629221
0.872709 0.434134 0.653758
0.071809 0.571771 0.694377
0.202731 0.562402 0.684123
0.440665 0.553857 0.676219
0.672953 0.555657 0.675013
0.853773 0.57673 0.691173
0.070222 0.719921 0.740429
0.192142 0.715419 0.735821
0.419425 0.709712 0.727718
0.652522 0.709606 0.724437
0.844099 0.719966 0.732296
0.0784772 0.839734 0.77435
0.151476 0.838193 0.769909
0.344915 0.835401 0.76257
0.607645 0.835355 0.760525
0.823209 0.839857 0.763912
0.0942092 0.31046 0.738888
0.251133 0.300633 0.731563
0.484474 0.298085 0.725628
0.709957 0.312001 0.731929
0.875257 0.362097 0.744137
0.0771038 0.454658 0.772961
0.226596 0.446693 0.765255
0.462211 0.437217 0.761257
0.681712 0.443076 0.76289
0.862013 0.468605 0.774243
0.0755474 0.613245 0.810132
0.197665 0.607126 0.805142
0.416342 0.600198 0.8
0.65745 0.595178 0.800122
0.842512 0.607965 0.804761
0.082887 0.744854 0.846632
0.159884 0.743282 0.844465
0.373465 0.740246 0.839216
0.63122 0.736797 0.836622
0.830839 0.739025 0.839216
0.0757305 0.841291 0.864195
0.100496 0.84094 0.861952
0.261463 0.838788 0.856718
0.54226 0.837629 0.852796
0.794415 0.841169 0.855131
