LUT预设1/iPhone专用lut合集3/iPhone合集3标准版（709）/默片时代709.cube
TITLE "Generated by Resolve"
LUT_3D_SIZE 5
0.00367742 0.00578317 0.00865187
0.0289769 0.032166 0.0354772
0.0822614 0.0882429 0.0899977
0.153353 0.160983 0.158968
0.23624 0.244221 0.238132
0.168948 0.176532 0.173983
0.224903 0.232624 0.227558
0.286046 0.293645 0.284413
0.353079 0.358434 0.34638
0.422843 0.426032 0.411948
0.395605 0.399542 0.386145
0.441337 0.444114 0.429496
0.491676 0.493797 0.477836
0.543709 0.545434 0.528145
0.596643 0.598001 0.578744
0.59736 0.598749 0.5794
0.6271 0.628489 0.608042
0.663706 0.665141 0.643305
0.703029 0.704738 0.681712
0.744137 0.74609 0.72282
0.765393 0.767361 0.74464
0.784649 0.786679 0.764462
0.809827 0.811749 0.791241
0.838209 0.839719 0.821881
0.867536 0.868727 0.854353
0.0423896 0.0460517 0.0493019
0.0923476 0.0988174 0.100008
0.151843 0.159457 0.157534
0.221698 0.229618 0.224552
0.304616 0.311849 0.301488
0.232563 0.240345 0.234775
0.286107 0.293782 0.284367
0.34696 0.352544 0.340719
0.409491 0.413016 0.399329
0.472984 0.475425 0.459953
0.447379 0.45008 0.435294
0.487907 0.490135 0.474296
0.534295 0.53608 0.51902
0.58233 0.583749 0.565118
0.631739 0.633127 0.61239
0.632197 0.6336 0.61294
0.659113 0.660548 0.63888
0.692897 0.694514 0.671717
0.729625 0.731517 0.708202
0.768261 0.770245 0.74757
0.788525 0.790463 0.768536
0.805905 0.807858 0.786999
0.829282 0.83093 0.812268
0.855375 0.856672 0.840772
0.882887 0.883848 0.871351
0.130694 0.138033 0.137285
0.178927 0.186389 0.183749
0.237369 0.245289 0.239246
0.308156 0.315206 0.304677
0.385977 0.390143 0.377172
0.308782 0.315816 0.305226
0.357885 0.363088 0.350988
0.413169 0.416602 0.402716
0.470008 0.472465 0.457084
0.528923 0.530739 0.513878
0.50425 0.50634 0.490181
0.539284 0.540932 0.523705
0.581735 0.583093 0.564553
0.62565 0.627024 0.606546
0.671275 0.672816 0.650752
0.672572 0.674067 0.651896
0.69662 0.698253 0.675334
0.727611 0.729473 0.706142
0.761532 0.763546 0.74049
0.797055 0.798978 0.777813
0.816739 0.818601 0.798749
0.832151 0.833753 0.815457
0.853208 0.85452 0.838422
0.876677 0.877806 0.864515
0.902663 0.903304 0.893126
0.234409 0.242359 0.236454
0.280217 0.287907 0.279026
0.338979 0.344869 0.333349
0.403769 0.407477 0.393896
0.470924 0.473381 0.457969
0.396628 0.400519 0.387198
0.436408 0.439445 0.424887
0.48426 0.486473 0.47071
0.535485 0.537301 0.520348
0.589426 0.590829 0.571832
0.565835 0.567315 0.549218
0.595163 0.596567 0.577447
0.63209 0.633478 0.612818
0.672267 0.673823 0.651652
0.714946 0.71667 0.693477
0.717235 0.71899 0.695583
0.737957 0.739895 0.716396
0.765103 0.767208 0.744198
0.795666 0.797589 0.776394
0.828428 0.830045 0.811337
0.847913 0.849287 0.832761
0.861402 0.862593 0.847547
0.879652 0.880735 0.867796
0.901167 0.901854 0.891478
0.925322 0.92578 0.918044
0.353155 0.35848 0.34641
0.392477 0.39646 0.383276
0.442374 0.445304 0.430579
0.497444 0.499489 0.48336
0.555932 0.557565 0.539879
0.485512 0.487785 0.471992
0.517555 0.519417 0.5028
0.558953 0.560555 0.542779
0.604593 0.605905 0.586389
0.652735 0.654185 0.6327
0.630167 0.63154 0.610986
0.654337 0.655741 0.634272
0.686442 0.688029 0.665415
0.722622 0.724468 0.701213
0.761807 0.763836 0.740887
0.764263 0.766278 0.743481
0.781643 0.783658 0.761501
0.805356 0.807263 0.786755
0.833112 0.834623 0.816312
0.862623 0.863844 0.848859
0.881193 0.882185 0.869459
0.892287 0.893187 0.881758
0.90869 0.909331 0.899779
0.928374 0.928786 0.92137
0.951049 0.951232 0.946059
