LUT预设1/iPhone专用lut合集3/iPhone合集3标准版（709）/默片时代709.cube
TITLE "Generated by Resolve"
LUT_3D_SIZE 9
0.00367742 0.00578317 0.00865187
0.0144656 0.0171206 0.0205539
0.0289769 0.032166 0.0354772
0.0522011 0.0563516 0.0593729
0.0822614 0.0882429 0.0899977
0.116091 0.123308 0.123262
0.153353 0.160983 0.158968
0.193362 0.201068 0.19762
0.23624 0.244221 0.238132
0.0713054 0.0766155 0.0789654
0.0999466 0.106691 0.107485
0.126177 0.133547 0.132967
0.154009 0.16144 0.159701
0.184131 0.19176 0.188632
0.216022 0.223865 0.21915
0.251347 0.259312 0.252338
0.289631 0.297139 0.287755
0.330175 0.336431 0.325307
0.168948 0.176532 0.173983
0.19762 0.205097 0.201694
0.224903 0.232624 0.227558
0.254398 0.262364 0.254994
0.286046 0.293645 0.284413
0.318898 0.325567 0.314855
0.353079 0.358434 0.34638
0.387762 0.391959 0.378836
0.422843 0.426032 0.411948
0.279103 0.2869 0.277928
0.306584 0.31371 0.303273
0.334524 0.340627 0.329381
0.363958 0.368948 0.356558
0.393378 0.397375 0.384131
0.423041 0.42623 0.412146
0.452583 0.455283 0.440299
0.482368 0.484642 0.468894
0.512627 0.514549 0.498054
0.395605 0.399542 0.386145
0.417945 0.42118 0.407202
0.441337 0.444114 0.429496
0.46627 0.468788 0.453452
0.491676 0.493797 0.477836
0.517464 0.519341 0.502724
0.543709 0.545434 0.528145
0.570169 0.571664 0.553506
0.596643 0.598001 0.578744
0.501183 0.503243 0.487053
0.518837 0.520684 0.504036
0.538109 0.539864 0.522713
0.559503 0.56109 0.543297
0.581827 0.583246 0.564569
0.604456 0.605844 0.586206
0.627039 0.628428 0.607935
0.650126 0.651545 0.630259
0.673518 0.675013 0.652873
0.59736 0.598749 0.5794
0.611276 0.61268 0.592798
0.6271 0.628489 0.608042
0.644846 0.64622 0.625116
0.663706 0.665141 0.643305
0.683101 0.684642 0.66212
0.703029 0.704738 0.681712
0.723323 0.72517 0.701915
0.744137 0.74609 0.72282
0.684596 0.686183 0.663584
0.695705 0.697383 0.67451
0.708522 0.710277 0.687175
0.723339 0.725155 0.70193
0.739513 0.741405 0.718166
0.756069 0.758053 0.735119
0.773327 0.775265 0.752911
0.791089 0.793011 0.771374
0.80911 0.811063 0.790494
0.765393 0.767361 0.74464
0.774197 0.776196 0.753689
0.784649 0.786679 0.764462
0.796704 0.798688 0.777157
0.809827 0.811749 0.791241
0.82385 0.82562 0.806394
0.838209 0.839719 0.821881
0.852811 0.854139 0.837903
0.867536 0.868727 0.854353
0.0176089 0.0203555 0.0237583
0.0337835 0.037171 0.0404364
0.0571603 0.0615854 0.0644694
0.0850996 0.0912337 0.0928359
0.116365 0.123583 0.123522
0.150561 0.158175 0.156329
0.187274 0.194965 0.191775
0.225986 0.233967 0.228611
0.269734 0.277592 0.269261
0.10312 0.109957 0.110613
0.131044 0.138506 0.137652
0.157671 0.165072 0.16321
0.186099 0.193713 0.190539
0.215747 0.223621 0.218891
0.24799 0.255985 0.249271
0.283726 0.291341 0.282338
0.321218 0.327825 0.317006
0.360281 0.365393 0.35314
0.201053 0.208606 0.204944
0.228428 0.236179 0.230884
0.255726 0.263691 0.25626
0.285725 0.293355 0.284123
0.316777 0.323522 0.312886
0.349081 0.354589 0.342672
0.381674 0.386069 0.373114
0.414649 0.418036 0.404211
0.448127 0.450843 0.436027
0.310658 0.317632 0.307012
0.336858 0.34287 0.331518
0.363455 0.36846 0.356085
0.391409 0.395499 0.382284
0.419486 0.422766 0.408789
0.447745 0.450523 0.435691
0.475944 0.478294 0.462684
0.504402 0.506401 0.490105
0.533654 0.535409 0.518364
0.421485 0.424674 0.41059
0.44271 0.445472 0.430808
0.464668 0.467216 0.451926
0.488685 0.490867 0.474983
0.513268 0.515175 0.498634
0.538033 0.539788 0.522652
0.563058 0.56463 0.546715
0.588342 0.589731 0.570825
0.61416 0.615564 0.595499
0.522286 0.524086 0.507332
0.538918 0.540673 0.523476
0.557549 0.559167 0.541482
0.577981 0.579416 0.560922
0.599115 0.600504 0.581094
0.621118 0.622522 0.602228
0.642756 0.64416 0.623117
0.66482 0.666239 0.644419
0.687633 0.689204 0.66659
0.614206 0.615595 0.59559
0.627604 0.629007 0.60853
0.642634 0.644038 0.623011
0.659648 0.661082 0.639414
0.677867 0.679393 0.657038
0.69662 0.698268 0.67538
0.715908 0.717708 0.694499
0.735592 0.737499 0.714199
0.755764 0.757748 0.734691
0.698314 0.699977 0.677073
0.708812 0.710552 0.68748
0.721233 0.723064 0.699855
0.73547 0.737377 0.714107
0.751125 0.753033 0.729961
0.767239 0.769223 0.746654
0.783993 0.785962 0.763973
0.801114 0.803037 0.781933
0.818311 0.820127 0.800443
0.776333 0.778271 0.755886
0.78468 0.786694 0.764553
0.79472 0.796857 0.775067
0.806287 0.808225 0.787396
0.819074 0.820874 0.801205
0.832395 0.834028 0.815641
0.846372 0.847791 0.830823
0.86038 0.861646 0.846326
0.874693 0.875776 0.862303
0.0423896 0.0460517 0.0493019
0.0668956 0.0718547 0.0744182
0.0923476 0.0988174 0.100008
0.120729 0.127977 0.127718
0.151843 0.159457 0.157534
0.18584 0.19353 0.190372
0.221698 0.229618 0.224552
0.261936 0.269871 0.262104
0.304616 0.311849 0.301488
0.135866 0.143297 0.142229
0.162799 0.170306 0.168231
0.189166 0.196628 0.193469
0.216785 0.224643 0.219883
0.247379 0.255375 0.248631
0.280827 0.288487 0.279637
0.315953 0.322744 0.312154
0.352987 0.358358 0.346334
0.39057 0.39469 0.38143
0.232563 0.240345 0.234775
0.258762 0.266728 0.259068
0.286107 0.293782 0.284367
0.315862 0.322683 0.312062
0.34696 0.352544 0.340719
0.378042 0.382559 0.36968
0.409491 0.413016 0.399329
0.440955 0.443793 0.429175
0.472984 0.475425 0.459953
0.341497 0.347326 0.33579
0.365957 0.370886 0.358465
0.391135 0.395224 0.381994
0.417807 0.421118 0.407172
0.444709 0.447486 0.432761
0.471687 0.474144 0.458656
0.498863 0.500923 0.484779
0.526574 0.528374 0.511513
0.554879 0.556497 0.538842
0.447379 0.45008 0.435294
0.466911 0.469413 0.454093
0.487907 0.490135 0.474296
0.510842 0.512764 0.496315
0.534295 0.53608 0.51902
0.55816 0.559762 0.542031
0.58233 0.583749 0.565118
0.606928 0.608286 0.588571
0.631739 0.633127 0.61239
0.543694 0.545373 0.528038
0.559609 0.561273 0.543511
0.577401 0.57879 0.560327
0.59678 0.598169 0.578836
0.616983 0.618372 0.59823
0.63798 0.639384 0.618494
0.658991 0.660426 0.638804
0.680552 0.682063 0.659678
0.702449 0.704112 0.681086
0.632197 0.6336 0.61294
0.644694 0.646067 0.624964
0.659113 0.660548 0.63888
0.675502 0.677012 0.654749
0.692897 0.694514 0.671717
0.710994 0.712734 0.689601
0.729625 0.731517 0.708202
0.748714 0.750698 0.727459
0.768261 0.770245 0.74757
0.713146 0.714931 0.691783
0.723095 0.724926 0.701701
0.735042 0.736934 0.713695
0.748714 0.750683 0.72755
0.763561 0.765576 0.742824
0.779217 0.781125 0.758999
0.795361 0.79733 0.775891
0.811658 0.813565 0.793256
0.828519 0.830182 0.811505
0.788525 0.790463 0.768536
0.796445 0.798398 0.776898
0.805905 0.807858 0.786999
0.817029 0.818906 0.799069
0.829282 0.83093 0.812268
0.842222 0.843656 0.826307
0.855375 0.856672 0.840772
0.868803 0.869993 0.855741
0.882887 0.883848 0.871351
0.0831769 0.0893263 0.090959
0.10808 0.115114 0.115465
0.133608 0.140948 0.140154
0.161456 0.169009 0.166735
0.192813 0.200427 0.197024
0.22565 0.233585 0.228244
0.262837 0.270771 0.262852
0.302373 0.309697 0.299382
0.344213 0.349905 0.338262
0.173327 0.181033 0.178378
0.19881 0.206058 0.202808
0.224338 0.232136 0.227008
0.253132 0.261112 0.253834
0.284291 0.291951 0.28275
0.317296 0.324102 0.313405
0.352193 0.357595 0.345663
0.387366 0.391592 0.378439
0.423209 0.426383 0.412207
0.267964 0.275944 0.267704
0.293446 0.30106 0.291051
0.320668 0.327337 0.316457
0.349523 0.355032 0.343175
0.379156 0.383642 0.370733
0.408865 0.412406 0.398718
0.439048 0.441871 0.427329
0.469306 0.471794 0.456413
0.500328 0.502449 0.48632
0.374685 0.379294 0.366613
0.397131 0.401053 0.38761
0.420768 0.423957 0.409903
0.44564 0.448356 0.433631
0.471412 0.473869 0.458427
0.497475 0.49958 0.483497
0.523766 0.525582 0.508782
0.550546 0.552178 0.534646
0.577844 0.579309 0.560891
0.475059 0.477455 0.461952
0.493141 0.495308 0.479362
0.512932 0.514839 0.49836
0.534585 0.536309 0.519219
0.557382 0.559014 0.541299
0.580392 0.581811 0.563272
0.603647 0.60499 0.585428
0.627085 0.628489 0.607935
0.651026 0.652461 0.631067
0.567514 0.569055 0.550973
0.582315 0.583719 0.565118
0.598703 0.600061 0.580697
0.61706 0.618433 0.598291
0.636591 0.637995 0.617136
0.656489 0.657938 0.636393
0.676921 0.678431 0.656199
0.697688 0.699321 0.676387
0.719249 0.72105 0.697688
0.651698 0.653117 0.631724
0.663539 0.664973 0.643153
0.677195 0.678691 0.656382
0.692805 0.694423 0.671626
0.709529 0.711284 0.688136
0.727108 0.728969 0.705669
0.745052 0.747021 0.72372
0.763317 0.765362 0.742458
0.782528 0.784527 0.762463
0.729641 0.731533 0.708263
0.7393 0.741253 0.717968
0.750469 0.752422 0.729305
0.76376 0.765728 0.742977
0.778012 0.780011 0.757778
0.792874 0.794781 0.773236
0.80798 0.809842 0.789303
0.823651 0.825406 0.806271
0.839811 0.841321 0.82385
0.802182 0.804181 0.783001
0.809689 0.811551 0.791028
0.818616 0.820386 0.800702
0.829084 0.830777 0.812146
0.840925 0.842405 0.824918
0.853208 0.854505 0.838346
0.86566 0.86688 0.852247
0.878614 0.879652 0.866636
0.89218 0.893004 0.881605
0.130694 0.138033 0.137285
0.153994 0.161608 0.159731
0.178927 0.186389 0.183749
0.206729 0.214084 0.210361
0.237369 0.245289 0.239246
0.271122 0.279057 0.27042
0.308156 0.315206 0.304677
0.346548 0.352132 0.340368
0.385977 0.390143 0.377172
0.215656 0.223301 0.218753
0.239261 0.247135 0.241093
0.264546 0.272526 0.264439
0.293294 0.300923 0.290913
0.324742 0.331243 0.320241
0.357137 0.362356 0.350301
0.390082 0.394202 0.380972
0.423514 0.426764 0.412558
0.457374 0.459937 0.444862
0.308782 0.315816 0.305226
0.332708 0.338888 0.32755
0.357885 0.363088 0.350988
0.385214 0.389502 0.37641
0.413169 0.416602 0.402716
0.441474 0.444251 0.429633
0.470008 0.472465 0.457084
0.499107 0.501259 0.485161
0.528923 0.530739 0.513878
0.409766 0.413336 0.399481
0.429984 0.433005 0.418677
0.45156 0.4542 0.439307
0.475151 0.477562 0.462043
0.499519 0.50164 0.485527
0.52459 0.52639 0.509606
0.550011 0.551629 0.534096
0.57586 0.57731 0.558968
0.60209 0.603433 0.58407
0.50425 0.50634 0.490181
0.520989 0.522835 0.506157
0.539284 0.540932 0.523705
0.559792 0.561395 0.543572
0.581735 0.583093 0.564553
0.60354 0.604898 0.585382
0.62565 0.627024 0.606546
0.64828 0.649729 0.628397
0.671275 0.672816 0.650752
0.592218 0.59353 0.574533
0.605631 0.607004 0.587366
0.621012 0.622415 0.602121
0.638483 0.639887 0.618952
0.657023 0.658488 0.636912
0.676097 0.677623 0.655406
0.695857 0.697459 0.674617
0.716106 0.717876 0.69453
0.736751 0.738689 0.71516
0.672572 0.674067 0.651896
0.683726 0.685267 0.66273
0.69662 0.698253 0.675334
0.71136 0.713115 0.689891
0.727611 0.729473 0.706142
0.744228 0.746273 0.722835
0.761532 0.763546 0.74049
0.779187 0.781155 0.758923
0.797055 0.798978 0.777813
0.747555 0.749538 0.726329
0.756497 0.758511 0.735454
0.767056 0.76907 0.746365
0.779553 0.781491 0.75935
0.793042 0.794934 0.773465
0.807141 0.809018 0.788418
0.821515 0.82327 0.803891
0.836561 0.838117 0.820325
0.852094 0.853407 0.837278
0.816739 0.818601 0.798749
0.823743 0.825513 0.806363
0.832151 0.833753 0.815457
0.842222 0.843671 0.826413
0.853208 0.85452 0.838422
0.864897 0.866087 0.851316
0.876677 0.877806 0.864515
0.889418 0.890272 0.878553
0.902663 0.903304 0.893126
0.181201 0.188815 0.185794
0.203311 0.211002 0.207065
0.227451 0.235218 0.229938
0.254948 0.262974 0.255863
0.286625 0.29424 0.284901
0.320516 0.327092 0.316136
0.355734 0.360937 0.348791
0.391943 0.395972 0.382803
0.428305 0.431418 0.417166
0.261479 0.269398 0.261891
0.284474 0.292119 0.282994
0.309819 0.316777 0.306233
0.338155 0.344091 0.33254
0.367742 0.372519 0.360128
0.398306 0.402136 0.388708
0.429023 0.432197 0.417838
0.460502 0.46305 0.447868
0.492638 0.494743 0.478721
0.352331 0.357687 0.345724
0.373663 0.378241 0.365652
0.396796 0.400687 0.387228
0.421973 0.425223 0.411063
0.448341 0.451026 0.43621
0.474937 0.477302 0.461784
0.502174 0.504295 0.488167
0.530129 0.531945 0.515129
0.558877 0.560388 0.54258
0.445823 0.4486 0.433814
0.463935 0.466407 0.451194
0.483619 0.485908 0.470207
0.505913 0.507988 0.491783
0.52903 0.530816 0.513954
0.553079 0.55462 0.537011
0.577173 0.578637 0.560204
0.601846 0.603204 0.583841
0.626932 0.628275 0.607874
0.534524 0.536263 0.519249
0.549752 0.551324 0.533806
0.566735 0.568246 0.550179
0.586282 0.587701 0.568994
0.606348 0.607675 0.588098
0.627039 0.628428 0.607935
0.648356 0.649805 0.628489
0.670268 0.671778 0.649729
0.692607 0.694224 0.671565
0.617563 0.618936 0.598856
0.629908 0.631312 0.610666
0.644343 0.645792 0.624613
0.660639 0.66212 0.640391
0.67834 0.679881 0.657588
0.69659 0.698207 0.675349
0.715816 0.717586 0.694179
0.735286 0.737179 0.713588
0.755413 0.757488 0.734005
0.69456 0.696162 0.673274
0.704738 0.706432 0.683314
0.716747 0.718547 0.695216
0.730709 0.732616 0.709194
0.745998 0.748012 0.724636
0.76202 0.764096 0.740917
0.778378 0.780438 0.758129
0.79501 0.796872 0.775616
0.812497 0.814237 0.794186
0.766094 0.768048 0.745327
0.774334 0.776333 0.753964
0.784115 0.786145 0.764248
0.79585 0.797711 0.776425
0.80856 0.810376 0.789929
0.822034 0.823789 0.804486
0.836027 0.837598 0.81973
0.850263 0.851591 0.835309
0.864988 0.866133 0.851499
0.832059 0.833707 0.815442
0.838499 0.840055 0.822477
0.846448 0.847852 0.831083
0.855848 0.85713 0.841382
0.866072 0.867247 0.852674
0.877134 0.878218 0.864973
0.888533 0.889464 0.877623
0.900801 0.901503 0.891112
0.913634 0.914168 0.90518
0.234409 0.242359 0.236454
0.25594 0.26389 0.256489
0.280217 0.287907 0.279026
0.308293 0.315343 0.305089
0.338979 0.344869 0.333349
0.370962 0.375692 0.363058
0.403769 0.407477 0.393896
0.437049 0.439857 0.425361
0.470924 0.473381 0.457969
0.312383 0.319295 0.308843
0.333959 0.340017 0.328603
0.357549 0.362692 0.350469
0.383673 0.38793 0.375021
0.411215 0.414755 0.400992
0.439582 0.442557 0.427924
0.468833 0.47126 0.455863
0.498329 0.500359 0.484199
0.528695 0.530495 0.513558
0.396628 0.400519 0.387198
0.415427 0.418891 0.404959
0.436408 0.439445 0.424887
0.459724 0.462272 0.44712
0.48426 0.486473 0.47071
0.50956 0.511574 0.495277
0.535485 0.537301 0.520348
0.562142 0.563699 0.5458
0.589426 0.590829 0.571832
0.482628 0.484855 0.469123
0.498756 0.500893 0.484825
0.517006 0.51899 0.502571
0.537713 0.539452 0.522408
0.559716 0.561181 0.543359
0.58201 0.583459 0.564782
0.605142 0.606531 0.586984
0.628656 0.63003 0.609552
0.652659 0.654063 0.632639
0.565835 0.567315 0.549218
0.579553 0.581048 0.562478
0.595163 0.596567 0.577447
0.613016 0.614374 0.594522
0.63209 0.633478 0.612818
0.651789 0.653239 0.6318
0.672267 0.673823 0.651652
0.693202 0.694835 0.672084
0.714946 0.71667 0.693477
0.643885 0.645304 0.624155
0.655253 0.656703 0.635126
0.668452 0.669963 0.647944
0.683864 0.68545 0.662959
0.700847 0.702464 0.6795
0.718273 0.720058 0.69659
0.736599 0.738521 0.714763
0.755047 0.757107 0.7337
0.773892 0.775952 0.753262
0.717235 0.71899 0.695583
0.726833 0.728679 0.705165
0.737957 0.739895 0.716396
0.750835 0.752926 0.729503
0.765103 0.767208 0.744198
0.780087 0.782071 0.759869
0.795666 0.797589 0.776394
0.811719 0.813474 0.793408
0.828428 0.830045 0.811337
0.785077 0.78703 0.765194
0.792859 0.794766 0.773373
0.802075 0.803937 0.783093
0.813031 0.814847 0.79469
0.82501 0.826703 0.80763
0.837491 0.839033 0.821317
0.850767 0.852094 0.835904
0.864408 0.865538 0.850874
0.878401 0.879423 0.866392
0.847913 0.849287 0.832761
0.854017 0.855299 0.839429
0.861402 0.862593 0.847547
0.869932 0.871061 0.856977
0.879652 0.880735 0.867796
0.890059 0.891005 0.879316
0.901167 0.901854 0.891478
0.912764 0.913329 0.904265
0.925322 0.92578 0.918044
0.292317 0.299901 0.289998
0.313039 0.319982 0.309209
0.336355 0.342412 0.330999
0.36286 0.36788 0.355612
0.391226 0.3953 0.38204
0.420874 0.424125 0.409995
0.450996 0.453635 0.438743
0.481758 0.484031 0.468345
0.513512 0.515511 0.499092
0.365103 0.370047 0.357626
0.384146 0.388464 0.375418
0.40557 0.409216 0.39559
0.429511 0.432547 0.418265
0.454887 0.457542 0.442527
0.481529 0.483864 0.468177
0.508782 0.51075 0.494347
0.536675 0.538384 0.521233
0.565698 0.567193 0.549172
0.440818 0.443717 0.429084
0.457664 0.460319 0.445197
0.476722 0.478996 0.463371
0.498222 0.500221 0.484062
0.52108 0.522942 0.506279
0.54519 0.546929 0.529641
0.569696 0.571206 0.553033
0.594995 0.596368 0.577188
0.620783 0.622156 0.601831
0.51986 0.521782 0.505196
0.534539 0.536355 0.519402
0.551461 0.553109 0.535592
0.570504 0.571954 0.553704
0.590829 0.592248 0.57319
0.612116 0.613519 0.593637
0.633967 0.63534 0.614633
0.656443 0.657877 0.636316
0.679484 0.68101 0.658625
0.597452 0.598886 0.579599
0.609918 0.611337 0.591623
0.624292 0.62562 0.605341
0.640879 0.642252 0.621271
0.658793 0.660258 0.63856
0.677791 0.679332 0.656977
0.697063 0.698756 0.675853
0.717189 0.718975 0.69575
0.737804 0.739696 0.716381
0.671077 0.672602 0.650431
0.681529 0.683101 0.660624
0.693843 0.695476 0.672663
0.708202 0.709895 0.686717
0.724086 0.725872 0.702388
0.740505 0.742473 0.718868
0.757641 0.759609 0.736446
0.775174 0.777249 0.754665
0.793408 0.795392 0.773846
0.740383 0.742336 0.718929
0.74905 0.751034 0.727779
0.759472 0.761471 0.73846
0.771466 0.773526 0.750835
0.784726 0.78674 0.764797
0.798962 0.800855 0.779889
0.813657 0.815412 0.795529
0.829206 0.830839 0.812177
0.845151 0.846616 0.829602
0.805066 0.806882 0.786221
0.812284 0.813977 0.793774
0.820615 0.822309 0.802808
0.83061 0.832258 0.813703
0.84184 0.843366 0.826062
0.853788 0.8551 0.839231
0.866178 0.867262 0.852903
0.879057 0.880018 0.867109
0.892271 0.893233 0.881819
0.864469 0.865599 0.85098
0.869947 0.871015 0.857023
0.876524 0.877562 0.864302
0.884596 0.885573 0.873228
0.893706 0.894621 0.883345
0.903609 0.904341 0.894224
0.914229 0.914763 0.905837
0.925551 0.925978 0.918273
0.937697 0.938064 0.931563
0.353155 0.35848 0.34641
0.371542 0.376165 0.363622
0.392477 0.39646 0.383276
0.416709 0.420142 0.406165
0.442374 0.445304 0.430579
0.46949 0.471885 0.456489
0.497444 0.499489 0.48336
0.526238 0.528069 0.511254
0.555932 0.557565 0.539879
0.417563 0.420935 0.406882
0.434272 0.437232 0.422782
0.453391 0.455985 0.441047
0.475151 0.477531 0.462013
0.498726 0.500893 0.484825
0.523522 0.525399 0.508705
0.549172 0.550774 0.533303
0.57528 0.576715 0.558328
0.602365 0.603754 0.584329
0.485512 0.487785 0.471992
0.500389 0.502464 0.48629
0.517555 0.519417 0.5028
0.537377 0.539101 0.521935
0.558953 0.560555 0.542779
0.581537 0.582956 0.564401
0.604593 0.605905 0.586389
0.628199 0.629572 0.609003
0.652735 0.654185 0.6327
0.558114 0.559731 0.541985
0.571328 0.572778 0.554559
0.58645 0.587854 0.568994
0.604028 0.605417 0.585809
0.623148 0.624537 0.604181
0.643183 0.644602 0.623499
0.663645 0.665095 0.64332
0.684871 0.686442 0.663981
0.706996 0.708705 0.685695
0.630167 0.63154 0.610986
0.641215 0.642603 0.621622
0.654337 0.655741 0.634272
0.669871 0.671351 0.649271
0.686442 0.688029 0.665415
0.704417 0.706142 0.683101
0.722622 0.724468 0.701213
0.741878 0.743801 0.720516
0.761807 0.763836 0.740887
0.698878 0.700542 0.677607
0.708492 0.710201 0.687099
0.719661 0.721431 0.698161
0.733257 0.735119 0.711727
0.748028 0.749966 0.726665
0.763439 0.765454 0.742535
0.779553 0.781537 0.759274
0.796262 0.798199 0.776898
0.813504 0.815366 0.795422
0.764263 0.766278 0.743481
0.772229 0.774289 0.75169
0.781643 0.783658 0.761501
0.792966 0.794873 0.773419
0.805356 0.807263 0.786755
0.818799 0.820539 0.801038
0.833112 0.834623 0.816312
0.847562 0.849012 0.832197
0.862623 0.863844 0.848859
0.82594 0.827604 0.808377
0.832242 0.833844 0.81529
0.840085 0.841596 0.823926
0.849363 0.850752 0.834241
0.859556 0.860761 0.845533
0.870558 0.871595 0.85774
0.881895 0.882841 0.870268
0.893874 0.894728 0.883497
0.906706 0.907439 0.897642
0.881193 0.882185 0.869459
0.886183 0.887129 0.874968
0.892287 0.893187 0.881758
0.899931 0.90074 0.890196
0.90869 0.909331 0.899779
0.91812 0.918639 0.91014
0.928374 0.928786 0.92137
0.939452 0.939757 0.93344
0.951049 0.951232 0.946059
