LUT预设1/iPhone专用lut合集3/iPhone合集3标准版（709）/默片时代709.cube
TITLE "Generated by Resolve"
LUT_3D_SIZE 33
0.00367742 0.00578317 0.00865187
0.00701915 0.00949111 0.0128481
0.00985733 0.0124819 0.0159304
0.0121767 0.0148013 0.0182345
0.0144656 0.0171206 0.0205539
0.0171054 0.019852 0.0232547
0.0206149 0.0234836 0.0268711
0.0245975 0.0276188 0.0309758
0.0289769 0.032166 0.0354772
0.033875 0.0372473 0.0405432
0.0390936 0.0426947 0.0459297
0.0454261 0.0492866 0.0524453
0.0522011 0.0563516 0.0593729
0.059266 0.0638285 0.0666361
0.0666361 0.0716259 0.0741741
0.0742046 0.0796979 0.0819104
0.0822614 0.0882429 0.0899977
0.0906691 0.0970474 0.0983291
0.0989853 0.105699 0.106538
0.107454 0.114443 0.114839
0.116091 0.123308 0.123262
0.125368 0.132677 0.132189
0.134661 0.142046 0.141085
0.144015 0.151507 0.150027
0.153353 0.160983 0.158968
0.162661 0.170459 0.167895
0.1729 0.180636 0.177829
0.183261 0.190951 0.187869
0.193362 0.201068 0.19762
0.203616 0.211353 0.207431
0.214054 0.221881 0.217334
0.224704 0.232654 0.227375
0.23624 0.244221 0.238132
0.0158083 0.0185092 0.0219272
0.0204623 0.023331 0.0267033
0.0248569 0.0278935 0.0312505
0.0294652 0.0326696 0.0360113
0.0345312 0.0379187 0.0412146
0.0400549 0.0436408 0.0469062
0.0459144 0.0496834 0.052903
0.0520485 0.0561379 0.0592508
0.0584726 0.0629587 0.0658427
0.0651255 0.0700389 0.0726177
0.0718547 0.0771954 0.0794537
0.078706 0.0844587 0.0863813
0.0856336 0.0917983 0.09337
0.0927138 0.0992905 0.100465
0.10013 0.107042 0.107805
0.108034 0.115099 0.11545
0.116014 0.123201 0.123171
0.123995 0.131273 0.130892
0.132219 0.139544 0.138811
0.140551 0.14789 0.146822
0.148928 0.156329 0.154833
0.157885 0.165331 0.163409
0.166903 0.174334 0.172061
0.176074 0.183505 0.180911
0.185336 0.192721 0.189837
0.194537 0.201862 0.198688
0.203845 0.2112 0.207645
0.213626 0.221225 0.216953
0.223545 0.231327 0.226322
0.233799 0.241718 0.23595
0.244465 0.25243 0.245869
0.255039 0.26302 0.255665
0.265827 0.273777 0.265614
0.0310216 0.034287 0.0375982
0.0389105 0.0424506 0.0457313
0.0449378 0.0487068 0.0519265
0.0505531 0.054612 0.0577249
0.0563516 0.0607462 0.0636912
0.0622568 0.0669871 0.0697185
0.0683604 0.0735027 0.0759594
0.0746014 0.0801862 0.0823072
0.081178 0.0871443 0.0889143
0.0879072 0.0941939 0.0955978
0.0948653 0.101411 0.10248
0.101808 0.108598 0.1093
0.108919 0.115908 0.116243
0.116091 0.123293 0.123201
0.123323 0.130694 0.130205
0.130831 0.138277 0.137469
0.138735 0.146227 0.145083
0.146899 0.154421 0.152926
0.155016 0.162554 0.160754
0.163378 0.170932 0.168841
0.171832 0.179355 0.176959
0.180423 0.187854 0.185229
0.189166 0.19646 0.193652
0.198123 0.205432 0.202182
0.207279 0.214694 0.21088
0.216449 0.223987 0.219593
0.225879 0.2336 0.228519
0.235492 0.243366 0.237598
0.245167 0.253147 0.246693
0.255177 0.263188 0.255985
0.265568 0.273533 0.265553
0.276478 0.28426 0.275563
0.287327 0.294881 0.285557
0.0500649 0.0540932 0.0572213
0.059266 0.063798 0.0666361
0.0655985 0.0705577 0.073106
0.0714427 0.0767834 0.0790417
0.0775006 0.083238 0.0851759
0.083711 0.0897841 0.0914321
0.0900893 0.0964828 0.0978103
0.0965286 0.103212 0.104219
0.10309 0.109987 0.110658
0.109834 0.116915 0.11722
0.116793 0.12398 0.123934
0.123888 0.131151 0.13077
0.13106 0.138399 0.137652
0.138338 0.145754 0.144625
0.145647 0.15314 0.151614
0.153155 0.160739 0.158831
0.160647 0.168338 0.166049
0.168475 0.176226 0.173632
0.176455 0.184192 0.181384
0.184985 0.192691 0.189639
0.193484 0.201099 0.197742
0.202136 0.209735 0.205966
0.210803 0.218433 0.214191
0.21944 0.227161 0.222385
0.228305 0.236133 0.230808
0.237354 0.245274 0.239414
0.246494 0.254536 0.248035
0.256352 0.264347 0.257145
0.266423 0.274311 0.266423
0.276753 0.284474 0.275898
0.28719 0.294697 0.285512
0.297658 0.304921 0.295171
0.30811 0.315084 0.304829
0.0713054 0.0766155 0.0789654
0.0809949 0.0869459 0.088716
0.0875105 0.0937972 0.0952163
0.0935988 0.10013 0.101228
0.0999466 0.106691 0.107485
0.106386 0.113298 0.113756
0.112902 0.120012 0.120104
0.119417 0.126696 0.126406
0.126177 0.133547 0.132967
0.132921 0.140337 0.139498
0.139971 0.147372 0.146288
0.14699 0.15436 0.153033
0.154009 0.16144 0.159701
0.161349 0.168826 0.16669
0.168841 0.176364 0.173892
0.176486 0.18407 0.181262
0.184131 0.19176 0.188632
0.19205 0.199695 0.196277
0.199954 0.20766 0.203876
0.208026 0.215808 0.211566
0.216022 0.223865 0.21915
0.224277 0.232212 0.226963
0.232868 0.240894 0.235065
0.241978 0.249989 0.243595
0.251347 0.259312 0.252338
0.260624 0.268544 0.26096
0.270191 0.278004 0.269795
0.279866 0.287541 0.278721
0.289631 0.297139 0.287755
0.299519 0.306798 0.296895
0.30959 0.316594 0.306218
0.319692 0.32639 0.315618
0.330175 0.336431 0.325307
0.0939803 0.100633 0.101717
0.103975 0.110918 0.111589
0.110643 0.117708 0.118029
0.116838 0.123995 0.12398
0.123156 0.130388 0.130037
0.129717 0.137041 0.136324
0.136294 0.14374 0.142626
0.143053 0.150576 0.149142
0.149935 0.157519 0.155795
0.156802 0.164416 0.162432
0.163897 0.171481 0.169314
0.171069 0.178607 0.176242
0.178378 0.18584 0.183215
0.185824 0.193194 0.190372
0.19321 0.200565 0.197452
0.200549 0.207904 0.204471
0.208057 0.215457 0.211643
0.215946 0.223575 0.21912
0.223941 0.231754 0.226658
0.232029 0.239963 0.234241
0.240528 0.248508 0.242161
0.249165 0.25716 0.250156
0.257847 0.265812 0.258198
0.266743 0.274647 0.266438
0.275853 0.28368 0.274861
0.285069 0.292775 0.283375
0.294331 0.301854 0.291936
0.303792 0.311055 0.300725
0.31342 0.320333 0.309682
0.323262 0.329793 0.318837
0.333257 0.339406 0.328145
0.343099 0.348867 0.337301
0.353185 0.358541 0.346639
0.118471 0.125658 0.12546
0.128176 0.135576 0.134859
0.134768 0.142229 0.141253
0.140932 0.148363 0.147189
0.147265 0.154635 0.153277
0.153857 0.161273 0.159548
0.160357 0.167819 0.165698
0.167041 0.174655 0.172152
0.173816 0.181582 0.178714
0.181003 0.188739 0.185687
0.188281 0.195972 0.192752
0.195682 0.203326 0.199847
0.203067 0.210636 0.206851
0.210605 0.218143 0.213993
0.218051 0.225666 0.221057
0.225681 0.233387 0.228305
0.23331 0.241123 0.235523
0.241138 0.249042 0.242863
0.249042 0.257023 0.250248
0.257298 0.265309 0.257877
0.265629 0.27361 0.265507
0.274006 0.281956 0.273152
0.283009 0.290761 0.281422
0.292149 0.299672 0.289876
0.301305 0.308568 0.298344
0.310445 0.317388 0.306798
0.319753 0.326375 0.315465
0.328908 0.33518 0.323964
0.338262 0.344182 0.332677
0.347707 0.353262 0.341466
0.357168 0.362371 0.350286
0.366613 0.37145 0.359106
0.376333 0.380804 0.368139
0.143465 0.150942 0.149493
0.153094 0.160693 0.158831
0.15964 0.167254 0.165194
0.165866 0.173404 0.171206
0.172351 0.179828 0.177432
0.179065 0.186481 0.18381
0.18587 0.193256 0.190295
0.192523 0.200031 0.196704
0.19942 0.207034 0.203326
0.206317 0.214023 0.209903
0.213321 0.221149 0.216556
0.220493 0.228382 0.223362
0.227817 0.235737 0.230274
0.235279 0.243259 0.237354
0.242832 0.250843 0.244511
0.250843 0.258839 0.252033
0.258869 0.266819 0.259464
0.266926 0.2748 0.266896
0.275242 0.283024 0.274556
0.283742 0.291356 0.282353
0.292332 0.299748 0.290227
0.300954 0.308141 0.298161
0.309636 0.316548 0.306157
0.318486 0.325093 0.314305
0.327352 0.333639 0.322469
0.336217 0.342168 0.330663
0.344961 0.350576 0.338781
0.354025 0.359289 0.347204
0.36286 0.367819 0.355474
0.372015 0.376669 0.36408
0.381399 0.385748 0.3729
0.390555 0.394614 0.381521
0.399649 0.403464 0.390082
0.168948 0.176532 0.173983
0.178195 0.185992 0.183017
0.184741 0.192447 0.18938
0.190951 0.198566 0.195377
0.19762 0.205097 0.201694
0.204501 0.211841 0.208194
0.21117 0.218616 0.214557
0.21796 0.225528 0.221012
0.224903 0.232624 0.227558
0.232029 0.239902 0.234226
0.239246 0.247227 0.24094
0.24683 0.25481 0.24799
0.254398 0.262364 0.254994
0.262211 0.270115 0.262257
0.270146 0.277989 0.269642
0.277897 0.285649 0.27686
0.286046 0.293645 0.284413
0.294011 0.301442 0.291814
0.302327 0.309545 0.299535
0.310506 0.317464 0.307088
0.318898 0.325567 0.314855
0.327337 0.333684 0.322637
0.335988 0.342 0.330602
0.344472 0.350149 0.338415
0.353079 0.358434 0.34638
0.361807 0.366857 0.354513
0.370291 0.375051 0.362448
0.379034 0.38352 0.370626
0.387762 0.391959 0.378836
0.396475 0.400397 0.387045
0.405234 0.408881 0.395315
0.414237 0.417624 0.4038
0.422843 0.426032 0.411948
0.195682 0.203296 0.199756
0.204852 0.212589 0.208515
0.211109 0.218906 0.214435
0.217197 0.224994 0.220203
0.223621 0.231403 0.226307
0.23032 0.238132 0.23267
0.23711 0.244953 0.239094
0.244083 0.251972 0.245686
0.25124 0.259205 0.252308
0.258442 0.266453 0.25893
0.265888 0.273869 0.265751
0.273579 0.281498 0.27274
0.28101 0.288853 0.2795
0.289021 0.296712 0.286931
0.297047 0.304524 0.294392
0.305028 0.312245 0.301808
0.31313 0.320043 0.309392
0.321157 0.327779 0.316899
0.329397 0.335683 0.324559
0.337407 0.343389 0.332006
0.345785 0.351446 0.339773
0.353948 0.359304 0.347341
0.362158 0.367208 0.354955
0.370413 0.375174 0.3626
0.378805 0.383291 0.370413
0.386923 0.391165 0.378027
0.395239 0.399222 0.385824
0.403586 0.407324 0.393668
0.412146 0.41561 0.40174
0.420447 0.423651 0.409583
0.429007 0.431998 0.417716
0.437446 0.440269 0.425772
0.445823 0.448539 0.433799
0.222446 0.230213 0.225254
0.231342 0.239277 0.233524
0.237552 0.245548 0.239353
0.243732 0.251728 0.245167
0.250187 0.258183 0.251225
0.257053 0.264988 0.257664
0.264195 0.272053 0.264332
0.271397 0.279194 0.271
0.278782 0.286473 0.27779
0.286183 0.293782 0.284611
0.293843 0.301228 0.2916
0.301518 0.308705 0.298604
0.309331 0.316274 0.305776
0.317098 0.323781 0.312963
0.324773 0.331182 0.320073
0.332753 0.338872 0.327504
0.340459 0.346288 0.334707
0.348363 0.353887 0.342092
0.356191 0.361425 0.349386
0.364218 0.369146 0.356863
0.372 0.376654 0.364126
0.380102 0.384482 0.371664
0.387869 0.39202 0.378912
0.395895 0.399832 0.38645
0.403861 0.407599 0.393942
0.411795 0.415335 0.40145
0.419928 0.423285 0.409171
0.427802 0.430991 0.416648
0.435904 0.438895 0.424353
0.444129 0.446937 0.432197
0.452216 0.454841 0.439902
0.460151 0.462654 0.447501
0.468391 0.470802 0.455436
0.250645 0.25861 0.251606
0.259495 0.267445 0.259709
0.265721 0.27364 0.265476
0.271763 0.279637 0.271077
0.27837 0.286137 0.277211
0.285084 0.292729 0.283467
0.292134 0.299626 0.290013
0.299184 0.306493 0.29659
0.306493 0.313573 0.30341
0.313878 0.320714 0.310216
0.321462 0.328008 0.317159
0.329213 0.335454 0.324254
0.336645 0.342596 0.33109
0.344244 0.349889 0.338109
0.351904 0.357259 0.34522
0.359594 0.364675 0.352422
0.367117 0.371939 0.359487
0.374884 0.379431 0.366766
0.382528 0.386847 0.373968
0.390066 0.394156 0.381064
0.397864 0.401709 0.388388
0.405509 0.409171 0.39559
0.413016 0.416526 0.402686
0.420722 0.424079 0.409979
0.428489 0.431678 0.41735
0.43621 0.439246 0.424704
0.4439 0.446799 0.432013
0.451759 0.454505 0.439521
0.459342 0.461921 0.446738
0.467094 0.46952 0.454139
0.475059 0.477333 0.461753
0.482826 0.485023 0.46923
0.490776 0.492882 0.476921
0.279103 0.2869 0.277928
0.287999 0.295613 0.286076
0.29427 0.301762 0.291829
0.300175 0.3075 0.297292
0.306584 0.31371 0.303273
0.313313 0.320226 0.309545
0.320226 0.326879 0.315999
0.327413 0.333791 0.322728
0.334524 0.340627 0.329381
0.341924 0.347723 0.336187
0.349279 0.354803 0.342962
0.356558 0.361822 0.349691
0.363958 0.368948 0.356558
0.371267 0.376013 0.363363
0.378653 0.383154 0.370275
0.386053 0.390311 0.377234
0.393378 0.397375 0.384131
0.400809 0.404578 0.391135
0.40824 0.411795 0.398138
0.415747 0.419104 0.405249
0.423041 0.42623 0.412146
0.430396 0.433433 0.419135
0.437827 0.440757 0.426215
0.445106 0.447929 0.433173
0.452583 0.455283 0.440299
0.460044 0.462638 0.447425
0.467521 0.470008 0.454612
0.475105 0.47747 0.461906
0.482368 0.484642 0.468894
0.489876 0.492027 0.476097
0.497398 0.499443 0.48333
0.505135 0.507103 0.490806
0.512627 0.514549 0.498054
0.308965 0.315892 0.305547
0.31754 0.324193 0.31339
0.323461 0.329915 0.318853
0.329213 0.335454 0.324208
0.335424 0.341436 0.329992
0.341863 0.347631 0.336004
0.348394 0.353918 0.342123
0.355428 0.360693 0.348699
0.362264 0.367269 0.355062
0.369238 0.374014 0.361547
0.376242 0.380804 0.368063
0.383383 0.387717 0.374716
0.390433 0.394553 0.381308
0.397696 0.401587 0.388098
0.404807 0.408469 0.394797
0.411902 0.415351 0.401495
0.419104 0.422354 0.408331
0.426276 0.429358 0.415137
0.433356 0.436286 0.421881
0.440421 0.443198 0.428626
0.447578 0.450248 0.435477
0.454566 0.457176 0.442191
0.461753 0.464302 0.449134
0.468757 0.471244 0.455894
0.475929 0.47834 0.462806
0.483192 0.485512 0.469825
0.49041 0.492653 0.476799
0.497704 0.49984 0.483818
0.504967 0.507012 0.490791
0.51223 0.514183 0.497765
0.519585 0.521431 0.504829
0.526864 0.528649 0.511833
0.534386 0.536095 0.519051
0.338247 0.344137 0.332586
0.346319 0.351904 0.340017
0.352026 0.357397 0.345357
0.35758 0.362753 0.350561
0.363394 0.368353 0.355993
0.369665 0.374411 0.361883
0.376074 0.380575 0.36791
0.38265 0.386938 0.37409
0.389319 0.393439 0.380346
0.395941 0.399878 0.386557
0.402762 0.406531 0.392981
0.409537 0.413153 0.399374
0.416449 0.419898 0.405905
0.423301 0.426596 0.41239
0.430152 0.433265 0.418891
0.437095 0.440055 0.425498
0.444038 0.44683 0.432105
0.450813 0.453468 0.438575
0.457603 0.460151 0.445075
0.46453 0.466957 0.451698
0.471305 0.473671 0.458244
0.478096 0.4804 0.46482
0.485023 0.487282 0.47155
0.491936 0.494148 0.478264
0.499001 0.501137 0.485115
0.505943 0.508019 0.491859
0.513146 0.515145 0.498863
0.519951 0.521874 0.505394
0.527047 0.528893 0.5122
0.534142 0.535882 0.51899
0.541375 0.543038 0.525887
0.548348 0.54995 0.532525
0.555566 0.557122 0.539406
0.367361 0.372229 0.359686
0.374868 0.379477 0.36672
0.380102 0.384543 0.371633
0.385382 0.389639 0.376593
0.391043 0.395117 0.381933
0.396857 0.400732 0.387411
0.403052 0.406729 0.393256
0.409216 0.412741 0.399069
0.415625 0.419028 0.405142
0.42208 0.42533 0.411246
0.428458 0.431601 0.417304
0.43508 0.438117 0.423621
0.441688 0.444617 0.429908
0.448218 0.451026 0.436133
0.454871 0.457527 0.442466
0.46154 0.464057 0.448814
0.468116 0.470497 0.4551
0.474769 0.477058 0.461494
0.481392 0.483589 0.467857
0.487999 0.49012 0.47422
0.49453 0.496605 0.480583
0.501213 0.503258 0.487098
0.507912 0.509911 0.493629
0.514687 0.516655 0.500221
0.521431 0.523339 0.506752
0.528344 0.530205 0.513451
0.535195 0.537011 0.520073
0.541985 0.543725 0.526543
0.548821 0.550484 0.533074
0.555627 0.557214 0.539559
0.562478 0.564019 0.54609
0.569436 0.570916 0.552712
0.576318 0.577752 0.559274
0.395605 0.399542 0.386145
0.402625 0.406348 0.392737
0.407553 0.411109 0.397375
0.412558 0.415961 0.402106
0.417945 0.42118 0.407202
0.423529 0.426612 0.412512
0.429419 0.43238 0.418112
0.43537 0.438254 0.423789
0.441337 0.444114 0.429496
0.447349 0.450065 0.435264
0.453559 0.456199 0.441215
0.460014 0.462608 0.44744
0.46627 0.468788 0.453452
0.472633 0.475044 0.459556
0.478935 0.481254 0.465614
0.485466 0.487663 0.47187
0.491676 0.493797 0.477836
0.4981 0.500145 0.484016
0.504662 0.506615 0.490318
0.510948 0.512856 0.496406
0.517464 0.519341 0.502724
0.52398 0.525826 0.509041
0.530449 0.53225 0.515312
0.537072 0.538842 0.521721
0.543709 0.545434 0.528145
0.550301 0.551995 0.534508
0.556893 0.558526 0.540825
0.563424 0.564981 0.547051
0.570169 0.571664 0.553506
0.576898 0.578347 0.55993
0.583459 0.584878 0.566186
0.590066 0.59144 0.572473
0.596643 0.598001 0.578744
0.423011 0.426276 0.412085
0.429694 0.432792 0.418418
0.434409 0.437385 0.422904
0.439063 0.441932 0.427329
0.444038 0.446799 0.432074
0.449363 0.452018 0.437171
0.454734 0.457328 0.442329
0.460441 0.462959 0.447822
0.466239 0.468696 0.453407
0.472084 0.474495 0.459068
0.477943 0.480308 0.464759
0.484016 0.48632 0.470649
0.490272 0.492515 0.476692
0.496345 0.498512 0.482536
0.502632 0.504707 0.488579
0.508843 0.510842 0.494545
0.514961 0.516869 0.500389
0.521279 0.52311 0.506416
0.527398 0.529152 0.512276
0.533639 0.535332 0.518288
0.540078 0.541756 0.524498
0.546288 0.547921 0.53048
0.552743 0.554345 0.536706
0.559075 0.560647 0.542824
0.565377 0.566918 0.548913
0.571939 0.573434 0.55523
0.578225 0.579675 0.561242
0.584604 0.586023 0.56733
0.590997 0.592371 0.573449
0.597269 0.598642 0.579446
0.603677 0.605035 0.585565
0.609934 0.611292 0.591546
0.616419 0.617777 0.597742
0.449729 0.452461 0.437491
0.456046 0.45864 0.443519
0.460304 0.462821 0.447608
0.464729 0.467155 0.451835
0.469612 0.471946 0.456519
0.474403 0.476707 0.461173
0.479606 0.481865 0.466224
0.484932 0.487144 0.471397
0.490517 0.492683 0.476829
0.496178 0.498299 0.482368
0.5019 0.50399 0.487953
0.50779 0.50985 0.493706
0.513787 0.515785 0.499474
0.519783 0.521721 0.505257
0.525811 0.527703 0.511055
0.531884 0.533669 0.516808
0.537881 0.53959 0.522499
0.543908 0.545525 0.528222
0.549874 0.551446 0.533913
0.556008 0.557549 0.539788
0.562066 0.563592 0.545617
0.56817 0.56968 0.551492
0.574182 0.575677 0.557275
0.580179 0.581659 0.563043
0.586343 0.587808 0.568978
0.592477 0.593912 0.574868
0.598642 0.600061 0.580774
0.604929 0.606317 0.586816
0.611017 0.61239 0.59266
0.617182 0.618555 0.598566
0.623362 0.62472 0.604471
0.629526 0.630884 0.610376
0.635767 0.63714 0.616358
0.475883 0.478202 0.462562
0.481605 0.483833 0.468055
0.485847 0.487999 0.472145
0.490074 0.49218 0.476219
0.494438 0.496513 0.480461
0.499077 0.501106 0.484962
0.504082 0.506081 0.48983
0.509224 0.511193 0.494835
0.514427 0.516381 0.499931
0.519905 0.521813 0.505257
0.525429 0.527321 0.510643
0.53106 0.532906 0.51606
0.536919 0.538705 0.521675
0.542519 0.544244 0.527031
0.548318 0.549981 0.53257
0.554223 0.555825 0.538186
0.559884 0.561425 0.543557
0.565728 0.567224 0.549111
0.571557 0.573037 0.554711
0.577386 0.578851 0.560296
0.583398 0.584848 0.566049
0.589151 0.5906 0.571588
0.59501 0.596445 0.577218
0.6009 0.602335 0.582879
0.606958 0.608362 0.588693
0.612741 0.614145 0.594278
0.618799 0.620188 0.600092
0.624842 0.626215 0.605905
0.630884 0.632258 0.611719
0.636713 0.638086 0.617319
0.642847 0.644221 0.623209
0.648707 0.650095 0.628855
0.654887 0.656291 0.634791
0.501183 0.503243 0.487053
0.506813 0.508782 0.492439
0.510628 0.512566 0.496117
0.514626 0.516518 0.499962
0.518837 0.520684 0.504036
0.523354 0.525154 0.508385
0.52813 0.5299 0.513008
0.533043 0.534813 0.517784
0.538109 0.539864 0.522713
0.543252 0.545007 0.527718
0.548608 0.550317 0.532876
0.55407 0.555718 0.538109
0.559503 0.56109 0.543297
0.565209 0.56672 0.54873
0.57055 0.57203 0.553811
0.576104 0.577554 0.559121
0.581827 0.583246 0.564569
0.587381 0.588785 0.569863
0.593042 0.594446 0.575296
0.598764 0.600168 0.580774
0.604456 0.605844 0.586206
0.610086 0.611475 0.591623
0.615793 0.617166 0.597101
0.621363 0.622751 0.602472
0.627039 0.628428 0.607935
0.632746 0.634134 0.613443
0.638605 0.640009 0.61912
0.644282 0.645701 0.624598
0.650126 0.651545 0.630259
0.655863 0.657313 0.635798
0.661662 0.663111 0.641398
0.667521 0.668986 0.647059
0.673518 0.675013 0.652873
0.526345 0.528145 0.51133
0.531456 0.533196 0.516213
0.535088 0.536797 0.519707
0.538933 0.540597 0.523384
0.542824 0.544442 0.527123
0.547311 0.548898 0.531441
0.551705 0.553307 0.535714
0.556435 0.558038 0.540307
0.561364 0.562966 0.545083
0.566278 0.567864 0.549828
0.571237 0.572763 0.554559
0.576471 0.577935 0.559533
0.581765 0.583169 0.564584
0.586999 0.588357 0.569574
0.592325 0.593683 0.574655
0.597513 0.598871 0.579614
0.602853 0.604212 0.584726
0.608377 0.609751 0.590021
0.613733 0.615122 0.595148
0.619257 0.62063 0.600443
0.624613 0.626001 0.60557
0.629969 0.631357 0.610742
0.635584 0.636988 0.616159
0.640955 0.642374 0.621332
0.646555 0.647974 0.626734
0.652125 0.653574 0.632136
0.65771 0.65919 0.637552
0.663249 0.664759 0.642939
0.668818 0.670344 0.648341
0.674495 0.676036 0.653849
0.68014 0.681682 0.659312
0.685908 0.687449 0.664912
0.691722 0.693294 0.670573
0.550393 0.55198 0.534386
0.555276 0.556832 0.539071
0.558877 0.560433 0.542519
0.562387 0.563912 0.545892
0.566232 0.567758 0.549584
0.570291 0.571817 0.553521
0.574472 0.575998 0.557549
0.578851 0.580377 0.561791
0.583535 0.585061 0.566323
0.588281 0.589761 0.570855
0.593256 0.59469 0.575616
0.598108 0.599496 0.580255
0.603204 0.604562 0.585122
0.608179 0.609537 0.589883
0.61323 0.614588 0.59472
0.618463 0.619821 0.599741
0.623514 0.624887 0.604593
0.628687 0.63006 0.609552
0.63389 0.635264 0.614527
0.639277 0.640681 0.619715
0.64445 0.645869 0.624689
0.649744 0.651164 0.629786
0.65507 0.656504 0.634928
0.66041 0.661845 0.640055
0.665675 0.667155 0.645182
0.671092 0.672618 0.650462
0.676539 0.678126 0.655772
0.681971 0.683619 0.661082
0.68748 0.689113 0.666423
0.693004 0.694621 0.671794
0.69865 0.700252 0.677287
0.704356 0.705989 0.682857
0.710002 0.711681 0.68838
0.574166 0.575631 0.557183
0.57879 0.580255 0.561608
0.582055 0.58352 0.564752
0.58529 0.586755 0.567864
0.588952 0.590417 0.571389
0.592859 0.594324 0.575174
0.596872 0.598337 0.579034
0.601114 0.602564 0.583139
0.60557 0.606989 0.587396
0.610117 0.611521 0.59176
0.614755 0.616129 0.596216
0.61944 0.620798 0.600702
0.624292 0.625635 0.605356
0.629191 0.630533 0.610056
0.634073 0.635416 0.614755
0.638987 0.64033 0.619471
0.643885 0.645243 0.62417
0.648875 0.650263 0.628977
0.653956 0.655375 0.63386
0.659052 0.660487 0.638758
0.66424 0.66569 0.643748
0.669306 0.670771 0.648646
0.674434 0.675914 0.653605
0.679652 0.681163 0.658671
0.684703 0.686275 0.663645
0.689799 0.691432 0.668666
0.694911 0.696605 0.673716
0.700252 0.701991 0.678996
0.705577 0.707301 0.68423
0.710948 0.712688 0.68954
0.716381 0.71812 0.694896
0.721645 0.72343 0.700145
0.727123 0.728954 0.705623
0.59736 0.598749 0.5794
0.601648 0.603052 0.583505
0.6047 0.606119 0.586465
0.60795 0.609354 0.589593
0.611276 0.61268 0.592798
0.614954 0.616358 0.596353
0.618845 0.620249 0.600092
0.622858 0.624262 0.603967
0.6271 0.628489 0.608042
0.631312 0.632685 0.612085
0.635767 0.637125 0.616373
0.640391 0.641749 0.620829
0.644846 0.64622 0.625116
0.649561 0.65095 0.629664
0.654322 0.655711 0.634241
0.659037 0.660456 0.638804
0.663706 0.665141 0.643305
0.668574 0.670039 0.64802
0.673304 0.6748 0.652613
0.678187 0.679713 0.657343
0.683101 0.684642 0.66212
0.688167 0.689754 0.667063
0.693065 0.694682 0.671839
0.698039 0.699702 0.676753
0.703029 0.704738 0.681712
0.708034 0.709789 0.686687
0.713085 0.714885 0.691722
0.71809 0.719905 0.696696
0.723323 0.72517 0.701915
0.728511 0.730388 0.707103
0.733776 0.735683 0.712367
0.738964 0.740887 0.717586
0.744137 0.74609 0.72282
0.619883 0.621271 0.601022
0.623774 0.625177 0.604776
0.626703 0.628107 0.607584
0.629801 0.63122 0.610574
0.632959 0.634379 0.613626
0.636515 0.637934 0.617044
0.640208 0.641642 0.620615
0.643992 0.645411 0.624247
0.647929 0.649363 0.628061
0.65214 0.653574 0.63212
0.656458 0.657893 0.636286
0.6607 0.66215 0.640391
0.665034 0.666484 0.644572
0.669535 0.671016 0.648951
0.673945 0.675441 0.653208
0.678523 0.680034 0.657649
0.683055 0.684581 0.662074
0.687892 0.689448 0.666789
0.692531 0.694102 0.671305
0.697246 0.698878 0.675944
0.701961 0.703639 0.680568
0.706752 0.708476 0.685267
0.711498 0.713268 0.689952
0.716396 0.718196 0.694865
0.721294 0.723125 0.699763
0.726192 0.728038 0.704677
0.731167 0.733043 0.709682
0.736004 0.737942 0.714565
0.740917 0.742901 0.719509
0.745998 0.748028 0.724651
0.750957 0.753017 0.729686
0.755993 0.758068 0.734844
0.761074 0.763149 0.740078
0.641886 0.64329 0.622156
0.645701 0.647105 0.625818
0.648539 0.649958 0.628565
0.651301 0.652735 0.63122
0.654337 0.655787 0.63415
0.657679 0.659144 0.637369
0.661204 0.662669 0.640787
0.664866 0.666346 0.644327
0.668696 0.670192 0.648035
0.672755 0.674281 0.651972
0.676814 0.678355 0.655909
0.680858 0.682414 0.659846
0.685008 0.686564 0.663874
0.689235 0.690806 0.667979
0.693675 0.695262 0.672312
0.6981 0.699718 0.676661
0.702556 0.704189 0.681041
0.707118 0.708766 0.685512
0.711543 0.713237 0.689876
0.716075 0.71783 0.694408
0.720668 0.722484 0.699001
0.725261 0.727123 0.703593
0.729793 0.731685 0.708171
0.734356 0.736248 0.712825
0.739086 0.740993 0.717662
0.743679 0.745602 0.722347
0.748333 0.750286 0.727108
0.753048 0.755032 0.731929
0.757931 0.759945 0.73695
0.762661 0.764691 0.741817
0.767498 0.769543 0.746838
0.772213 0.774258 0.75172
0.777157 0.779202 0.756863
0.663584 0.665034 0.643076
