LUT预设1/LUT全系打包/电影感系列lut/709电影感系列（正常色彩素材用这个）/cine-lite低饱和电影感709.cube
TITLE "Generated by Resolve"
LUT_3D_SIZE 33
0.0691844 0.0716411 0.0757916
0.0906081 0.0702525 0.0734569
0.112184 0.0688182 0.0711986
0.131136 0.0686046 0.0695659
0.152071 0.0680858 0.0677958
0.178515 0.0666209 0.0659648
0.201114 0.0675822 0.0662699
0.220737 0.0695506 0.0675212
0.239826 0.0724804 0.0696117
0.25832 0.0754864 0.0718242
0.277424 0.0791333 0.0747387
0.295964 0.0828565 0.0777142
0.315267 0.0868086 0.0811475
0.334096 0.0907912 0.0846113
0.353414 0.0949569 0.0882887
0.372625 0.0991379 0.0920424
0.391974 0.10341 0.0959182
0.41149 0.108186 0.100267
0.430869 0.113024 0.104662
0.450614 0.118135 0.109316
0.470146 0.123293 0.114015
0.489982 0.128801 0.119081
0.509972 0.134585 0.124514
0.529992 0.14052 0.130083
0.550027 0.14638 0.135592
0.56997 0.152361 0.141207
0.589868 0.158343 0.146868
0.609781 0.164401 0.152758
0.629496 0.170336 0.158556
0.649119 0.176455 0.164569
0.669032 0.1832 0.171252
0.689006 0.190082 0.178088
0.708843 0.197208 0.185199
0.0708476 0.0921035 0.0800183
0.0933242 0.08925 0.0779126
0.114946 0.0874189 0.0756695
0.13753 0.0858167 0.0726787
0.159091 0.0852522 0.0715801
0.18645 0.0840162 0.0701305
0.209476 0.0850843 0.0706951
0.22974 0.0874952 0.0724498
0.24918 0.090486 0.0746166
0.268345 0.093904 0.0772412
0.287144 0.0975662 0.0801251
0.306325 0.101488 0.08336
0.325689 0.105669 0.0869306
0.344701 0.10988 0.0905165
0.364248 0.114458 0.0946212
0.383658 0.118914 0.0987259
0.403342 0.123842 0.103212
0.423026 0.128725 0.107652
0.442588 0.133715 0.112184
0.462501 0.139101 0.117098
0.482475 0.144549 0.122103
0.50251 0.150317 0.127489
0.522484 0.156283 0.133013
0.542275 0.162448 0.138567
0.56228 0.168688 0.144167
0.582055 0.174914 0.149767
0.601755 0.181323 0.155581
0.621454 0.187655 0.16144
0.641169 0.194141 0.167712
0.661006 0.200763 0.174258
0.681071 0.207736 0.181186
0.700969 0.214572 0.187991
0.720913 0.221988 0.195483
0.0717174 0.111955 0.0839246
0.0926833 0.109697 0.0821241
0.115404 0.107774 0.0795605
0.140185 0.105257 0.0766003
0.163409 0.104768 0.0752422
0.193622 0.103288 0.0734112
0.21738 0.104372 0.0744945
0.238346 0.107027 0.0767071
0.257771 0.109834 0.0790417
0.277516 0.113436 0.082063
0.296483 0.117052 0.0850996
0.315923 0.121187 0.0886854
0.334905 0.125322 0.0924392
0.354376 0.129793 0.0965438
0.374166 0.134554 0.100862
0.393759 0.139467 0.105211
0.413855 0.144808 0.10985
0.433646 0.150164 0.114504
0.453696 0.155825 0.119463
0.473762 0.161654 0.12459
0.49369 0.167544 0.129809
0.513802 0.173831 0.135424
0.533669 0.180102 0.141024
0.553429 0.186252 0.146502
0.573083 0.192554 0.152117
0.592721 0.198871 0.157763
0.612299 0.205219 0.163806
0.631968 0.211627 0.169986
0.651759 0.21828 0.176303
0.671992 0.225635 0.183398
0.692042 0.232853 0.190356
0.712093 0.240208 0.197498
0.731884 0.247791 0.205005
0.0700236 0.133501 0.0864576
0.0907759 0.131426 0.0848402
0.115557 0.128374 0.0825818
0.140902 0.125978 0.0802472
0.166659 0.125093 0.0780194
0.199207 0.123583 0.0764782
0.224399 0.124559 0.0777447
0.245716 0.127138 0.0801709
0.265873 0.13022 0.0829175
0.285725 0.133898 0.0861219
0.305165 0.137865 0.0896468
0.32488 0.142306 0.0935988
0.343969 0.146807 0.0975967
0.363958 0.15172 0.101976
0.383474 0.156756 0.106447
0.403372 0.16202 0.111086
0.423682 0.167514 0.115892
0.443458 0.172946 0.120775
0.463722 0.179034 0.126009
0.483772 0.185122 0.13138
0.503624 0.191394 0.136812
0.523461 0.197864 0.142351
0.543267 0.204532 0.148028
0.563073 0.211078 0.153674
0.582696 0.217594 0.159548
0.602213 0.224292 0.165499
0.621973 0.231083 0.171801
0.641733 0.237751 0.178103
0.66157 0.24477 0.184588
0.681819 0.252094 0.191623
0.701656 0.259373 0.198611
0.721569 0.266835 0.205951
0.741115 0.274296 0.213428
0.0686198 0.152926 0.0892042
0.0890364 0.151781 0.0879072
0.112078 0.150317 0.0859541
0.136843 0.149187 0.0838788
0.164813 0.148013 0.0815747
0.200931 0.145632 0.0791333
0.228962 0.146044 0.0796674
0.251179 0.148394 0.0823377
0.272114 0.151659 0.0856184
0.292378 0.15552 0.0892195
0.312169 0.159655 0.0930343
0.331991 0.164385 0.0972
0.351659 0.169146 0.101381
0.371588 0.174456 0.105959
0.391196 0.179767 0.110552
0.411322 0.185534 0.115465
0.431571 0.19147 0.1205
0.451682 0.197528 0.125628
0.471778 0.203937 0.131106
0.491661 0.210498 0.136706
0.511528 0.217014 0.142275
0.531258 0.223743 0.147967
0.550958 0.230503 0.153704
0.570565 0.237171 0.159564
0.589944 0.243931 0.165682
0.609491 0.250629 0.171756
0.629404 0.257618 0.178042
0.649317 0.264836 0.184573
0.669398 0.272114 0.191348
0.689555 0.279728 0.198535
0.709484 0.287175 0.20557
0.729335 0.294835 0.213092
0.748608 0.302358 0.220569
0.0627146 0.175067 0.0877241
0.0807813 0.175219 0.0875257
0.101762 0.174945 0.086656
0.124941 0.174502 0.0854353
0.152224 0.173663 0.0834363
0.190661 0.171481 0.0797284
0.222049 0.171603 0.0784924
0.246906 0.173571 0.0800183
0.269673 0.176318 0.0822003
0.2907 0.180331 0.0858473
0.311406 0.184527 0.0896315
0.331548 0.189364 0.0941634
0.351461 0.194339 0.0986648
0.371618 0.199771 0.103532
0.391546 0.205402 0.108568
0.411505 0.211398 0.113664
0.431434 0.217548 0.118853
0.451408 0.223957 0.124071
0.471366 0.230732 0.129686
0.491279 0.237552 0.135363
0.511116 0.244572 0.141085
0.530861 0.251545 0.14699
0.550408 0.258701 0.152926
0.570108 0.265904 0.158846
0.589746 0.272953 0.164874
0.609384 0.280171 0.17113
0.629129 0.287617 0.177707
0.649042 0.294987 0.18439
0.668635 0.302327 0.191241
0.688716 0.309865 0.198398
0.708583 0.317388 0.205509
0.728283 0.325048 0.212741
0.747341 0.332311 0.220142
0.0608682 0.19527 0.0887465
0.0780652 0.196155 0.0893873
0.0977493 0.196689 0.0895857
0.119646 0.196857 0.0892348
0.145708 0.196674 0.0876631
0.184634 0.195392 0.0836042
0.21767 0.195895 0.0815595
0.244938 0.197818 0.0818799
0.269657 0.200473 0.0832685
0.29218 0.204425 0.0866865
0.313863 0.208713 0.0901045
0.334844 0.213855 0.0946365
0.355276 0.21886 0.0991073
0.375937 0.22475 0.104112
0.396124 0.230518 0.109133
0.416403 0.236713 0.114397
0.43653 0.243229 0.119936
0.456535 0.249943 0.125414
0.476356 0.256764 0.131258
0.496178 0.263798 0.137179
0.515694 0.270878 0.143114
0.535485 0.278386 0.149279
0.554879 0.28574 0.155352
0.574701 0.293141 0.161624
0.594583 0.300771 0.167865
0.614176 0.308324 0.17435
0.63418 0.315969 0.181231
0.653971 0.32343 0.188144
0.67364 0.331075 0.195117
0.693568 0.33872 0.202365
0.713222 0.346349 0.209613
0.732448 0.353841 0.216846
0.751324 0.361273 0.224155
0.0637217 0.214725 0.0914321
0.0807813 0.215793 0.092546
0.0993515 0.216831 0.0935683
0.120699 0.217685 0.093904
0.145296 0.218173 0.0936294
0.182925 0.217304 0.0900587
0.215778 0.218372 0.0881666
0.244541 0.221149 0.0879683
0.270939 0.224704 0.0890059
0.295949 0.228321 0.0909438
0.319478 0.232578 0.0937362
0.341299 0.237675 0.0980392
0.362722 0.242756 0.102327
0.383749 0.24889 0.107652
0.40444 0.2551 0.112825
0.424903 0.261555 0.118349
0.445319 0.268406 0.123934
0.465415 0.275212 0.129717
0.485588 0.282567 0.135698
0.505364 0.289708 0.141726
0.525109 0.297169 0.147845
0.544686 0.304723 0.154223
0.564218 0.312306 0.160662
0.583978 0.319951 0.167285
0.60383 0.32781 0.174029
0.623484 0.335485 0.18088
0.643351 0.343221 0.188022
0.663279 0.351202 0.195132
0.682979 0.359014 0.202335
0.702434 0.36643 0.209537
0.721859 0.374044 0.2168
0.740749 0.381399 0.223896
0.759289 0.38851 0.231067
0.0677348 0.234028 0.0952163
0.0845502 0.235554 0.0969711
0.10219 0.236851 0.098497
0.123171 0.238209 0.0995499
0.146807 0.239399 0.100435
0.183703 0.238865 0.0975204
0.216632 0.240482 0.0958267
0.245396 0.243626 0.0954452
0.272801 0.247578 0.0963302
0.298985 0.251835 0.0975814
0.323415 0.25687 0.100496
0.347097 0.262074 0.10399
0.370047 0.267643 0.107988
0.391989 0.273838 0.113008
0.41355 0.279927 0.117922
0.434577 0.286671 0.123537
0.455528 0.293584 0.129274
0.47599 0.300511 0.135073
0.496193 0.30808 0.14136
0.516228 0.315526 0.147539
0.535912 0.32311 0.154025
0.555444 0.330846 0.160662
0.574945 0.338567 0.167391
0.594858 0.346441 0.174334
0.614801 0.354376 0.181338
0.634501 0.362234 0.188357
0.654383 0.370092 0.195529
0.674235 0.378134 0.202899
0.693553 0.385718 0.210101
0.712978 0.39324 0.217411
0.731945 0.400854 0.224796
0.750332 0.408026 0.232074
0.76849 0.414923 0.23917
0.0730907 0.254261 0.10074
0.0893416 0.255467 0.102144
0.106889 0.256794 0.103655
0.127153 0.258671 0.105776
0.150286 0.260273 0.107271
0.18613 0.260471 0.105669
0.218631 0.262318 0.104112
0.246357 0.265156 0.103578
0.27509 0.270375 0.10425
0.302602 0.275685 0.105058
0.328725 0.280888 0.107683
0.354055 0.286213 0.110414
0.377676 0.292241 0.114687
0.400412 0.298451 0.119417
0.42298 0.305028 0.124468
0.444572 0.311986 0.130144
0.46598 0.318883 0.135729
0.486763 0.32636 0.141863
0.507301 0.333898 0.148104
0.527459 0.341375 0.154345
0.547356 0.349096 0.161105
0.566873 0.35671 0.167895
0.586831 0.364691 0.174975
0.606912 0.372808 0.182177
0.62681 0.380774 0.189258
0.646815 0.38883 0.196643
0.666606 0.396796 0.204059
0.686213 0.404685 0.211429
0.705257 0.412085 0.21886
0.7243 0.419684 0.226215
0.742916 0.426978 0.233494
0.760891 0.433738 0.24062
0.778622 0.440604 0.247852
0.0790265 0.274571 0.106645
0.0953689 0.275807 0.108095
0.113222 0.27747 0.109957
0.132876 0.279332 0.112169
0.156161 0.281285 0.113954
0.190509 0.282063 0.114015
0.222461 0.284138 0.112871
0.250278 0.287648 0.112886
0.278294 0.292363 0.113268
0.305272 0.297551 0.114382
0.332311 0.303746 0.116564
0.35874 0.31014 0.118914
0.383856 0.316686 0.123018
0.408637 0.323339 0.127108
0.431998 0.330358 0.132052
0.454688 0.337301 0.137514
0.476982 0.344564 0.143053
0.497887 0.351919 0.149264
0.518791 0.359274 0.155505
0.53904 0.366949 0.162219
0.559197 0.374792 0.169192
0.579095 0.382544 0.176043
0.599466 0.390799 0.183261
0.61944 0.398795 0.190539
0.63949 0.406973 0.197818
0.659342 0.414801 0.205341
0.679286 0.422843 0.212955
0.698787 0.430655 0.220401
0.717601 0.438056 0.227863
0.736385 0.445487 0.235355
0.754498 0.452506 0.242832
0.772015 0.45919 0.250034
0.789487 0.465858 0.257267
0.0858167 0.294987 0.113054
0.102174 0.296223 0.114321
0.119982 0.297948 0.116472
0.138827 0.299519 0.118486
0.162066 0.302251 0.121263
0.195773 0.303761 0.122454
0.226444 0.306004 0.122118
0.254612 0.309834 0.122087
0.281361 0.314015 0.122255
0.309331 0.319982 0.123552
0.337118 0.326802 0.125322
0.363989 0.333654 0.128069
0.390326 0.340627 0.131792
0.416251 0.347662 0.135637
0.439994 0.355138 0.140963
0.46363 0.362448 0.146212
0.48629 0.369985 0.152056
0.507973 0.377478 0.158175
0.529656 0.384909 0.164355
0.550423 0.392767 0.171038
0.571298 0.400443 0.177844
0.591882 0.408316 0.184771
0.612192 0.416434 0.192096
0.632364 0.424674 0.199451
0.652567 0.432715 0.207004
0.672557 0.440665 0.214801
0.692363 0.448692 0.222477
0.71136 0.455985 0.230106
0.730007 0.463294 0.237675
0.748699 0.470619 0.245151
0.76614 0.477165 0.252415
0.783658 0.483696 0.259754
0.800824 0.490059 0.267018
0.0932326 0.315801 0.120058
0.109895 0.317128 0.121538
0.127825 0.318959 0.123507
0.14728 0.320653 0.125643
0.169833 0.323568 0.128969
0.203281 0.325444 0.130678
0.232929 0.328328 0.131975
0.260899 0.332113 0.131884
0.286702 0.336187 0.132311
0.314504 0.342336 0.133532
0.3411 0.348318 0.134936
0.36875 0.356023 0.137911
0.396002 0.363836 0.141283
0.422461 0.371923 0.145464
0.447944 0.379843 0.15053
0.473289 0.387747 0.15552
0.496101 0.395239 0.16144
0.518822 0.402808 0.167544
0.540825 0.410422 0.173861
0.561944 0.418235 0.180529
0.583337 0.425925 0.187304
0.604242 0.433982 0.194476
0.624918 0.442008 0.201877
0.645563 0.449973 0.209232
0.665736 0.457923 0.217044
0.685725 0.465843 0.224826
0.705272 0.473533 0.232685
0.72398 0.480827 0.240192
0.742687 0.487968 0.247715
0.760754 0.494865 0.255268
0.778073 0.501137 0.262669
0.795224 0.507546 0.269932
0.811902 0.51368 0.277226
0.101137 0.336248 0.126955
0.118227 0.337804 0.128679
0.136278 0.33962 0.130541
0.155871 0.342061 0.133333
0.177722 0.345068 0.136919
0.210788 0.347341 0.139574
0.240146 0.350515 0.141421
0.26714 0.354253 0.141787
0.293339 0.358938 0.142718
0.320073 0.364446 0.143816
0.346303 0.370428 0.145418
0.374792 0.378561 0.148486
0.402029 0.386282 0.151522
0.428702 0.394705 0.156146
0.454795 0.403037 0.160876
0.480003 0.411353 0.166125
0.503838 0.419486 0.172091
0.527794 0.427527 0.17789
0.550576 0.435523 0.184405
0.57319 0.443473 0.190997
0.595376 0.451301 0.197772
0.616846 0.459312 0.204974
0.638239 0.467033 0.212222
0.659037 0.474937 0.219623
0.679042 0.482856 0.227497
0.69894 0.490669 0.235431
0.717861 0.497841 0.243061
0.736614 0.504799 0.250706
0.754986 0.511818 0.258442
0.772396 0.51809 0.265858
0.789639 0.524239 0.273381
0.80676 0.530541 0.280766
0.822797 0.536095 0.288045
0.109209 0.357565 0.135149
0.126299 0.359655 0.137469
0.144396 0.361547 0.139605
0.16437 0.364569 0.143038
0.186435 0.367163 0.146273
0.218982 0.369818 0.149783
0.248478 0.37322 0.151858
0.274754 0.377234 0.153506
0.301259 0.381888 0.154482
0.326772 0.386709 0.155215
0.353735 0.393164 0.157046
0.380865 0.400412 0.159442
0.407523 0.407996 0.162356
0.434836 0.417273 0.166873
0.46183 0.426551 0.171466
0.487617 0.43537 0.177035
0.512718 0.443793 0.182818
0.537148 0.452232 0.18883
0.560342 0.460075 0.195407
0.583871 0.468223 0.201938
0.606226 0.476112 0.208911
0.62826 0.483894 0.216205
0.650141 0.491768 0.223331
0.670756 0.49929 0.231037
0.691188 0.506798 0.23859
0.711315 0.514107 0.246189
0.730083 0.52108 0.253956
0.748669 0.528023 0.261707
0.766918 0.534752 0.269413
0.784024 0.540871 0.276844
0.801373 0.547066 0.284367
0.817945 0.552941 0.291859
0.834165 0.558679 0.299214
0.116976 0.379446 0.14464
0.134508 0.381552 0.14696
0.153185 0.383841 0.149508
0.173465 0.386587 0.152712
0.195911 0.389502 0.156161
0.22739 0.392355 0.160388
0.257099 0.396078 0.162966
0.283024 0.400229 0.165454
0.309163 0.404608 0.166079
0.333944 0.409201 0.167193
0.361288 0.415778 0.168933
0.387137 0.421927 0.170825
0.414633 0.430137 0.174273
0.44181 0.438895 0.178347
0.468421 0.447593 0.182757
0.494118 0.456977 0.188357
0.519326 0.466392 0.194034
0.54403 0.475181 0.200305
0.568994 0.483879 0.207019
0.593591 0.492653 0.213642
0.616556 0.500603 0.220737
0.639506 0.508476 0.227817
0.661921 0.516091 0.235035
0.682887 0.52314 0.242451
0.703883 0.530266 0.249744
0.723262 0.537072 0.257465
0.742 0.543984 0.265202
0.760555 0.550713 0.272923
0.778332 0.557 0.280613
0.795453 0.563088 0.288197
0.812604 0.569238 0.295827
0.828901 0.574899 0.303319
0.844923 0.580499 0.310903
0.125795 0.401602 0.154696
0.143679 0.40351 0.156802
0.162783 0.406073 0.159762
0.183154 0.408713 0.162768
0.206043 0.412131 0.166674
0.238193 0.415 0.170489
0.266911 0.418906 0.174212
0.292668 0.423362 0.176883
0.317968 0.427619 0.178378
0.343175 0.432639 0.179904
0.368978 0.437919 0.18117
0.3944 0.443671 0.182773
0.422019 0.451774 0.186114
0.448722 0.45948 0.18941
0.474937 0.469001 0.194141
0.500572 0.479164 0.19971
0.526192 0.489021 0.205402
0.551843 0.498024 0.212024
0.577096 0.507149 0.218814
0.601343 0.515572 0.22565
0.62504 0.523613 0.232792
0.648859 0.531731 0.239811
0.671 0.539025 0.247135
0.692607 0.54609 0.25452
0.714244 0.55314 0.26183
0.733715 0.559808 0.269352
0.753185 0.566186 0.276875
0.772305 0.572625 0.284321
0.789639 0.578683 0.292088
0.806851 0.584894 0.299855
0.823728 0.590921 0.307561
0.839841 0.596628 0.315145
0.85597 0.602396 0.322789
0.13521 0.423499 0.164767
0.153216 0.425238 0.166751
0.17261 0.428138 0.16994
0.193286 0.430854 0.173007
0.216495 0.434669 0.177218
0.248829 0.437736 0.181201
0.276463 0.441871 0.185946
0.302327 0.446204 0.188525
0.326787 0.450629 0.191028
0.352193 0.455283 0.192386
0.377096 0.46009 0.193561
0.403113 0.466239 0.195697
0.429297 0.473121 0.198428
0.455146 0.480522 0.201541
0.481437 0.489998 0.206546
0.507454 0.499504 0.211612
0.533181 0.509133 0.217548
0.55819 0.519142 0.224109
0.582879 0.529183 0.230655
0.608087 0.537713 0.237751
0.633082 0.546242 0.244968
0.657542 0.554543 0.252125
0.680278 0.561852 0.259373
0.703029 0.569116 0.266606
0.724285 0.575784 0.273915
0.744305 0.581994 0.281254
0.76434 0.588266 0.288685
0.782406 0.594568 0.2963
0.800092 0.600641 0.303929
0.817884 0.606775 0.311589
0.834501 0.612711 0.319463
0.850797 0.618494 0.327337
0.867109 0.624445 0.335149
0.144976 0.445136 0.174914
0.163577 0.447333 0.177478
0.183139 0.450202 0.180423
0.204181 0.453407 0.183917
0.22739 0.457115 0.188052
0.259907 0.460212 0.192096
0.287617 0.464317 0.196536
0.312612 0.468894 0.200275
0.336522 0.473472 0.203586
0.361532 0.477852 0.204944
0.385336 0.482246 0.206561
0.411093 0.488411 0.208713
0.435599 0.494163 0.210849
0.461448 0.501808 0.214374
0.488334 0.510613 0.218692
0.514443 0.519371 0.223316
0.5393 0.529931 0.229664
0.564004 0.540337 0.236042
0.589166 0.549676 0.24271
0.614984 0.558679 0.249866
0.640391 0.567956 0.257023
0.663951 0.575677 0.264195
0.687449 0.583398 0.271656
0.710826 0.590997 0.279118
0.731929 0.597574 0.286488
0.752819 0.60415 0.293782
0.773358 0.610788 0.301183
0.791943 0.616678 0.308598
0.810849 0.622538 0.315969
0.828901 0.628473 0.323659
0.845441 0.634348 0.331655
0.861921 0.640421 0.339818
0.878187 0.646448 0.348379
0.154986 0.466377 0.185107
0.173877 0.469444 0.188357
0.193744 0.472328 0.191409
0.214817 0.475975 0.195254
0.238087 0.479423 0.199252
0.270649 0.482673 0.203342
0.298482 0.486854 0.207889
0.322652 0.491524 0.212589
0.346639 0.496239 0.215717
0.370581 0.50071 0.218128
0.394415 0.505684 0.220447
0.418875 0.510948 0.222187
0.442664 0.516182 0.224308
0.468956 0.524025 0.228077
0.494179 0.53138 0.231632
0.519371 0.540139 0.2365
0.544976 0.549813 0.242176
0.570443 0.559289 0.247745
0.596094 0.569055 0.254765
0.621103 0.578988 0.261738
0.645747 0.588449 0.268849
0.670542 0.59678 0.276402
0.695338 0.605371 0.284062
0.718318 0.612848 0.291554
0.740368 0.619699 0.298955
0.76199 0.626474 0.306279
0.781903 0.632486 0.313619
0.80116 0.638224 0.320943
0.820462 0.644038 0.328252
0.837797 0.649973 0.336294
0.855131 0.656077 0.344457
0.872435 0.661952 0.352605
0.889143 0.668574 0.362036
0.164797 0.489082 0.196994
0.184085 0.491844 0.199878
0.204166 0.494591 0.202762
0.225589 0.498436 0.206821
0.249073 0.502037 0.210742
0.281621 0.505302 0.214832
0.309377 0.509514 0.219516
0.332784 0.514305 0.224659
0.356741 0.519158 0.22829
0.379171 0.524193 0.232197
0.403128 0.528756 0.234211
0.426688 0.533394 0.236011
0.45069 0.538933 0.238392
0.475029 0.545266 0.241199
0.498741 0.551354 0.243915
0.525231 0.560311 0.249073
0.551202 0.56907 0.254139
0.576669 0.578408 0.259922
0.601587 0.588632 0.266606
0.626322 0.598611 0.273259
0.651347 0.607431 0.280629
0.676402 0.616449 0.288304
0.700908 0.625284 0.295857
0.723644 0.632517 0.303243
0.746303 0.639979 0.310826
0.768399 0.647044 0.318379
0.788739 0.653284 0.325917
0.809171 0.659617 0.333349
0.828733 0.665827 0.341115
0.847135 0.671733 0.349401
0.865736 0.677623 0.357519
0.883711 0.684062 0.36643
0.900404 0.690806 0.376226
0.175051 0.511284 0.208499
0.194644 0.513802 0.211093
0.214954 0.517082 0.214435
0.236545 0.520684 0.218097
0.260227 0.524605 0.222293
0.292744 0.527871 0.226398
0.320211 0.53228 0.231434
0.343877 0.537179 0.236423
0.366598 0.542336 0.241154
0.388891 0.54728 0.245167
0.412222 0.551919 0.247608
0.43473 0.556527 0.250263
0.458656 0.561944 0.252552
0.481712 0.567224 0.254887
0.505989 0.573541 0.258106
0.530953 0.58114 0.262181
0.555322 0.588312 0.266117
0.580758 0.597757 0.272145
0.606348 0.607156 0.278202
0.631571 0.616358 0.28455
0.656657 0.625986 0.292165
0.681514 0.635721 0.299748
0.705623 0.644495 0.307347
0.729534 0.652598 0.315084
0.753368 0.660914 0.323018
0.774945 0.667613 0.330587
0.795895 0.674189 0.338369
0.817197 0.681041 0.346349
0.836591 0.687053 0.354559
0.856031 0.693294 0.363134
0.875578 0.699687 0.371771
0.892836 0.706477 0.381689
0.910307 0.713069 0.391409
0.185885 0.53344 0.219837
0.20557 0.535912 0.222431
0.226215 0.539635 0.226032
0.248188 0.543099 0.229404
0.271733 0.547356 0.233845
0.30425 0.550713 0.238117
0.331533 0.5552 0.243259
0.355077 0.560265 0.248493
0.376974 0.565591 0.253864
0.399237 0.570474 0.257862
0.420996 0.57525 0.261479
0.443229 0.57995 0.264485
0.465873 0.584268 0.266316
0.488121 0.588342 0.26807
0.51223 0.594614 0.271153
0.535653 0.600534 0.274067
0.559823 0.607828 0.278355
0.585397 0.616632 0.284062
0.610422 0.624979 0.289494
0.635599 0.634409 0.296376
0.660639 0.644144 0.3037
0.685496 0.653498 0.310735
0.709667 0.661982 0.318547
0.733974 0.670665 0.326436
0.757336 0.679118 0.334356
0.779629 0.686503 0.342718
0.802258 0.694316 0.351171
0.823804 0.701595 0.359854
0.844175 0.708431 0.368826
0.864897 0.71548 0.377798
0.884459 0.722301 0.387198
0.9028 0.728725 0.39675
0.921431 0.735103 0.406241
0.197086 0.555795 0.231281
0.217044 0.55877 0.234318
0.237842 0.562264 0.237507
0.259892 0.566003 0.241184
0.283711 0.570169 0.24567
0.316197 0.573861 0.25005
0.343145 0.578363 0.255192
0.366018 0.583337 0.260716
0.387564 0.588647 0.266148
0.409339 0.593515 0.270527
0.430228 0.598444 0.275059
0.452308 0.602594 0.277501
0.473823 0.606577 0.279896
0.496025 0.611414 0.282551
0.51873 0.616358 0.2851
0.540917 0.621134 0.287526
0.565347 0.628458 0.291997
0.589792 0.635523 0.296483
0.613703 0.642924 0.301396
0.639155 0.652155 0.308034
0.664286 0.66125 0.314488
0.689204 0.670283 0.321782
0.713909 0.679728 0.329793
0.738491 0.689326 0.337697
0.762158 0.697948 0.346334
0.785763 0.706355 0.355428
0.809201 0.714931 0.364446
0.83064 0.722133 0.373648
0.85185 0.729519 0.383108
0.873152 0.736919 0.39263
0.892042 0.743374 0.402197
0.910903 0.749859 0.411826
0.929839 0.756405 0.421485
0.20882 0.578683 0.242985
0.228992 0.58201 0.246342
0.249912 0.585107 0.249271
0.271962 0.589288 0.253407
0.295949 0.593408 0.257527
0.328298 0.597009 0.261952
0.355016 0.60148 0.26714
0.377447 0.606516 0.272816
0.398779 0.611444 0.278172
0.419379 0.616373 0.283436
0.439628 0.621088 0.288075
0.460716 0.625147 0.291142
0.481178 0.629526 0.294713
0.503105 0.633494 0.296727
0.52459 0.637171 0.298482
0.546761 0.641764 0.301015
0.570184 0.647654 0.304479
0.593042 0.653346 0.307942
0.6177 0.661311 0.313436
0.642893 0.669734 0.319417
0.667582 0.677867 0.325292
0.692515 0.687343 0.33312
0.717418 0.69688 0.34107
0.742 0.706172 0.34931
0.766445 0.715373 0.358618
0.790539 0.724651 0.36791
0.813916 0.733455 0.377462
0.836057 0.741436 0.387274
0.858427 0.749615 0.39736
0.879286 0.757168 0.407218
0.899016 0.76405 0.41709
0.918776 0.770855 0.42678
0.937118 0.777295 0.436683
0.220325 0.602472 0.255787
0.240574 0.605539 0.258854
0.26157 0.608545 0.261875
0.283604 0.612833 0.266072
0.30782 0.61677 0.270085
0.339803 0.620295 0.274434
0.366262 0.624598 0.279606
0.388357 0.629297 0.285267
0.409308 0.633997 0.290761
0.429114 0.638773 0.296162
0.449454 0.643107 0.30045
0.469566 0.647181 0.304417
0.490059 0.651087 0.307668
0.511193 0.654597 0.309743
0.531701 0.658183 0.311986
0.553903 0.66276 0.314733
0.575906 0.667353 0.317418
0.598245 0.672618 0.320668
0.622644 0.67985 0.325811
0.646189 0.686732 0.330709
0.670832 0.694957 0.337072
0.695918 0.70428 0.344579
0.721111 0.713405 0.352148
0.746166 0.723278 0.361196
0.771191 0.733379 0.370825
0.796002 0.743709 0.380468
0.81915 0.752331 0.390738
0.842023 0.76083 0.400992
0.864881 0.769574 0.411307
0.885008 0.776425 0.421271
0.905104 0.783536 0.431159
0.925246 0.790585 0.44126
0.942931 0.796582 0.451087
0.232532 0.626566 0.268742
0.252689 0.629465 0.271748
0.27364 0.632715 0.27509
0.295872 0.636103 0.278569
0.319677 0.639872 0.282628
0.351644 0.643137 0.286687
0.377661 0.647196 0.29189
0.399558 0.651576 0.297398
0.420157 0.656046 0.302831
0.439734 0.66038 0.308019
0.45948 0.664561 0.312688
0.478569 0.668666 0.317372
0.498772 0.67216 0.320287
0.518761 0.675654 0.323095
0.538994 0.679194 0.325673
0.560082 0.682826 0.327749
0.580682 0.686168 0.329534
0.603372 0.691615 0.333318
0.626673 0.697551 0.337453
0.649332 0.703487 0.341802
0.674754 0.712489 0.349142
0.699931 0.721233 0.356344
0.72462 0.730129 0.36405
0.749981 0.740368 0.373663
0.775158 0.750469 0.382986
0.799756 0.760006 0.392889
0.823056 0.769146 0.403281
0.84651 0.778485 0.413718
0.868727 0.786892 0.424155
0.88983 0.794675 0.434577
0.910964 0.802457 0.445151
0.930541 0.809339 0.455375
