LUT预设1/LUT全系打包/电影感系列lut/709电影感系列（正常色彩素材用这个）/cine-lite低饱和电影感709.cube
TITLE "Generated by Resolve"
LUT_3D_SIZE 9
0.0691844 0.0716411 0.0757916
0.152071 0.0680858 0.0677958
0.239826 0.0724804 0.0696117
0.315267 0.0868086 0.0811475
0.391974 0.10341 0.0959182
0.470146 0.123293 0.114015
0.550027 0.14638 0.135592
0.629496 0.170336 0.158556
0.708843 0.197208 0.185199
0.0686198 0.152926 0.0892042
0.164813 0.148013 0.0815747
0.272114 0.151659 0.0856184
0.351659 0.169146 0.101381
0.431571 0.19147 0.1205
0.511528 0.217014 0.142275
0.589944 0.243931 0.165682
0.669398 0.272114 0.191348
0.748608 0.302358 0.220569
0.0677348 0.234028 0.0952163
0.146807 0.239399 0.100435
0.272801 0.247578 0.0963302
0.370047 0.267643 0.107988
0.455528 0.293584 0.129274
0.535912 0.32311 0.154025
0.614801 0.354376 0.181338
0.693553 0.385718 0.210101
0.76849 0.414923 0.23917
0.0932326 0.315801 0.120058
0.169833 0.323568 0.128969
0.286702 0.336187 0.132311
0.396002 0.363836 0.141283
0.496101 0.395239 0.16144
0.583337 0.425925 0.187304
0.665736 0.457923 0.217044
0.742687 0.487968 0.247715
0.811902 0.51368 0.277226
0.125795 0.401602 0.154696
0.206043 0.412131 0.166674
0.317968 0.427619 0.178378
0.422019 0.451774 0.186114
0.526192 0.489021 0.205402
0.62504 0.523613 0.232792
0.714244 0.55314 0.26183
0.789639 0.578683 0.292088
0.85597 0.602396 0.322789
0.164797 0.489082 0.196994
0.249073 0.502037 0.210742
0.356741 0.519158 0.22829
0.45069 0.538933 0.238392
0.551202 0.56907 0.254139
0.651347 0.607431 0.280629
0.746303 0.639979 0.310826
0.828733 0.665827 0.341115
0.900404 0.690806 0.376226
0.20882 0.578683 0.242985
0.295949 0.593408 0.257527
0.398779 0.611444 0.278172
0.481178 0.629526 0.294713
0.570184 0.647654 0.304479
0.667582 0.677867 0.325292
0.766445 0.715373 0.358618
0.858427 0.749615 0.39736
0.937118 0.777295 0.436683
0.257923 0.673548 0.294377
0.343587 0.684962 0.30721
0.441444 0.698268 0.325872
0.51667 0.712734 0.344335
0.595331 0.725963 0.356161
0.684031 0.747784 0.374228
0.782696 0.782864 0.407294
0.876661 0.820203 0.449241
0.95935 0.851209 0.492576
0.307759 0.76112 0.34374
0.388632 0.768383 0.354055
0.484703 0.776837 0.369375
0.558541 0.790829 0.390341
0.63209 0.805295 0.4103
0.710491 0.820127 0.428504
0.797147 0.84332 0.455512
0.888365 0.877348 0.494835
0.970275 0.909361 0.539895
0.0411231 0.0737774 0.139895
0.132906 0.0731975 0.128969
0.235264 0.0772564 0.123812
0.314763 0.0879988 0.133623
0.393423 0.103258 0.149279
0.472816 0.122759 0.170214
0.552773 0.144976 0.194995
0.63154 0.1682 0.221012
0.711345 0.196277 0.250599
0.0300298 0.16022 0.158541
0.144396 0.146242 0.150561
0.267826 0.150057 0.141619
0.350744 0.166873 0.155245
0.430701 0.187655 0.175051
0.508598 0.211276 0.19826
0.585855 0.23682 0.223468
0.66537 0.265309 0.252186
0.74255 0.294667 0.282017
0.0289464 0.250294 0.158358
0.121599 0.249714 0.15671
0.267185 0.248417 0.151278
0.369024 0.266423 0.16495
0.455756 0.291325 0.188327
0.535286 0.320073 0.215183
0.613336 0.350072 0.243305
0.690044 0.379538 0.272328
0.761685 0.40679 0.300343
0.0547646 0.332677 0.186374
0.144228 0.336965 0.189303
0.278431 0.345098 0.190997
0.392691 0.366964 0.201404
0.494362 0.395071 0.225086
0.583337 0.424201 0.253773
0.66511 0.45507 0.2851
0.740688 0.484199 0.316091
0.808438 0.509148 0.344503
0.0856641 0.420462 0.225971
0.182437 0.427527 0.232319
0.307713 0.441108 0.241932
0.41297 0.45977 0.249668
0.520928 0.49099 0.271214
0.621378 0.523293 0.301076
0.710857 0.55079 0.331426
0.78677 0.575708 0.361456
0.854002 0.600183 0.391806
0.125597 0.507881 0.270878
0.225528 0.517754 0.280064
0.34403 0.534051 0.295247
0.440497 0.551751 0.306401
0.539757 0.572671 0.318807
0.642847 0.606943 0.346319
0.739727 0.638148 0.377798
0.824613 0.664179 0.409186
0.89868 0.690684 0.444205
0.170077 0.597406 0.318502
0.272236 0.609644 0.329641
0.384604 0.626413 0.347372
0.470634 0.642512 0.362737
0.559457 0.654627 0.369757
0.655634 0.677516 0.387198
0.757931 0.714321 0.421775
0.853483 0.749783 0.461601
0.932982 0.777127 0.499123
0.223148 0.689189 0.368185
0.320958 0.699229 0.378592
0.426795 0.71104 0.393729
0.505821 0.724056 0.410117
0.586557 0.735424 0.421378
0.673808 0.751202 0.435355
0.772503 0.781643 0.465705
0.867765 0.818524 0.506325
0.951934 0.850233 0.547967
0.281147 0.77351 0.414115
0.37023 0.77998 0.422385
0.471824 0.788357 0.435615
0.549401 0.802121 0.455207
0.624659 0.815198 0.473716
0.70222 0.825559 0.487999
0.785428 0.841794 0.508568
0.875853 0.873304 0.545098
0.959915 0.905699 0.58793
0.0120241 0.073518 0.216068
0.0850385 0.0760052 0.216068
0.216724 0.0910964 0.209781
0.303471 0.105608 0.222919
0.388342 0.116884 0.241535
0.47187 0.130526 0.264561
0.553384 0.148241 0.290425
0.633997 0.171145 0.319341
0.713756 0.198734 0.349767
0.00178531 0.161868 0.243977
0.0742351 0.156603 0.255695
0.243824 0.162844 0.243961
0.338537 0.180911 0.25565
0.424063 0.197559 0.273442
0.504067 0.215518 0.295079
0.582498 0.236942 0.319142
0.660899 0.261479 0.345296
0.734783 0.287007 0.371237
0.00270085 0.259388 0.252491
0.0459907 0.270604 0.263767
0.233814 0.25507 0.259052
0.353902 0.267933 0.263691
0.443519 0.285832 0.278813
0.523339 0.311131 0.301778
0.600671 0.336782 0.326574
0.673701 0.361654 0.351232
0.741253 0.385489 0.375219
0.00428778 0.35584 0.285786
0.050309 0.371405 0.293233
0.235966 0.366705 0.290455
0.376989 0.368536 0.301534
0.479484 0.391196 0.321386
0.569787 0.416602 0.344015
0.650355 0.442039 0.369223
0.722362 0.465873 0.394125
0.786297 0.487236 0.41735
0.0129854 0.452552 0.330358
0.0915084 0.461784 0.333974
0.262989 0.467735 0.337209
0.388128 0.476661 0.347784
0.503838 0.490532 0.36585
0.604059 0.516823 0.389181
0.694118 0.540032 0.414542
0.770703 0.56202 0.440452
0.837812 0.585412 0.467765
0.0291752 0.542245 0.377417
0.138125 0.549218 0.380316
0.301656 0.560067 0.389029
0.412894 0.573907 0.400977
0.515908 0.58262 0.407752
0.621439 0.603784 0.427695
0.721218 0.63061 0.456046
0.80972 0.655772 0.487022
0.884581 0.680949 0.519432
0.0617533 0.631891 0.424399
0.201633 0.636103 0.425681
0.347005 0.647913 0.437797
0.443565 0.661936 0.451011
0.537835 0.669947 0.456382
0.632807 0.681041 0.466072
0.737591 0.710094 0.496208
0.835676 0.74258 0.533532
0.915358 0.76733 0.567605
0.116823 0.715297 0.467384
0.263264 0.719249 0.469459
0.393423 0.728191 0.479515
0.481102 0.740505 0.493584
0.568185 0.751965 0.505333
0.656199 0.760861 0.51519
0.751217 0.778622 0.535882
0.846769 0.810162 0.571817
0.931991 0.840162 0.610681
0.200198 0.792782 0.505699
0.322591 0.797223 0.510307
0.44445 0.804532 0.520409
0.529305 0.817197 0.537453
0.60798 0.82829 0.553841
0.687434 0.835477 0.566339
0.766705 0.842191 0.57908
0.853391 0.864713 0.607599
0.937194 0.894697 0.64593
0.00271611 0.0767071 0.273701
0.0491951 0.0799878 0.279927
0.20029 0.0943313 0.27631
0.297398 0.117311 0.293538
0.384207 0.137758 0.315709
0.468208 0.153887 0.340246
0.550698 0.169863 0.367117
0.633463 0.187732 0.396277
0.712596 0.211322 0.42475
0.00062562 0.167178 0.304356
0.0440375 0.167132 0.317159
0.223575 0.169314 0.317357
0.329442 0.195132 0.331731
0.418173 0.219074 0.351995
0.500496 0.238788 0.375601
0.580758 0.257725 0.399908
0.658198 0.277348 0.423301
0.731228 0.297444 0.444968
0.000534066 0.265995 0.318044
0.0187991 0.276936 0.333867
0.193668 0.264225 0.346517
0.335073 0.28011 0.35053
0.430686 0.304356 0.36257
0.513268 0.32575 0.381262
0.591333 0.346044 0.402167
0.66482 0.365911 0.421363
0.733043 0.38529 0.440055
0.000900282 0.364706 0.35639
0.00973526 0.3823 0.371344
0.175158 0.383627 0.381689
0.352575 0.378531 0.393439
0.46215 0.397253 0.401648
0.551369 0.417914 0.416709
0.630991 0.436606 0.433066
0.703441 0.454444 0.448783
0.768826 0.475532 0.468956
0.00173953 0.465064 0.40354
0.0227817 0.483635 0.41503
0.189151 0.494911 0.417105
0.35465 0.497505 0.427024
0.4851 0.49427 0.445487
0.583383 0.512108 0.459236
0.672297 0.530892 0.475135
0.75082 0.550347 0.4925
0.820386 0.572732 0.514961
0.00288396 0.561639 0.450782
0.0527962 0.576837 0.457374
0.234073 0.588266 0.459113
0.375967 0.596536 0.471412
0.494087 0.597192 0.481743
0.601251 0.602899 0.493645
0.703151 0.624369 0.514107
0.79469 0.648798 0.540322
0.869429 0.671794 0.566949
0.0126497 0.655406 0.495766
0.1075 0.663523 0.496696
0.292729 0.671061 0.501335
0.409964 0.68162 0.514412
0.515114 0.686336 0.522133
0.616297 0.691402 0.531273
0.721157 0.709255 0.551736
0.820584 0.737743 0.582437
0.899702 0.759258 0.613352
0.0392004 0.739406 0.53489
0.184039 0.741421 0.533165
0.354376 0.745693 0.539849
0.455802 0.757763 0.555474
0.55079 0.768353 0.567498
0.643122 0.775204 0.577096
0.73608 0.78323 0.590265
0.830503 0.806149 0.617975
0.916487 0.832975 0.653483
0.107469 0.815396 0.573083
0.26566 0.816663 0.574365
0.418524 0.820508 0.582101
0.511131 0.831769 0.598077
0.594354 0.841398 0.612772
0.676188 0.847288 0.623957
0.7561 0.850248 0.633677
0.838605 0.862837 0.653254
0.921584 0.888136 0.686427
0.000488289 0.0817273 0.330358
0.0189975 0.0844739 0.339651
0.17554 0.0971695 0.338277
0.290532 0.121431 0.357275
0.38265 0.146563 0.383459
0.467826 0.171344 0.410407
0.549416 0.194507 0.437812
0.629328 0.214633 0.465049
0.70605 0.23389 0.490593
0.000335698 0.174655 0.363653
0.021088 0.17879 0.375692
0.193103 0.176425 0.38172
0.31931 0.201724 0.398764
0.415396 0.229465 0.421683
0.498436 0.256947 0.44596
0.57792 0.281193 0.469627
0.65359 0.300725 0.491386
0.725277 0.316411 0.510521
0.000549325 0.277104 0.379309
0.00660716 0.285725 0.392157
0.159335 0.274968 0.411383
0.314199 0.287694 0.425681
0.41944 0.31931 0.437354
0.505776 0.345357 0.454398
0.583825 0.367498 0.472511
0.656458 0.38468 0.490089
0.725093 0.400015 0.505348
0.000854505 0.375845 0.418494
0.00518807 0.38793 0.430716
0.138018 0.391714 0.4542
0.310246 0.389746 0.477409
0.443763 0.409628 0.481147
0.536217 0.432944 0.486824
0.61532 0.448295 0.498268
0.687709 0.463294 0.511513
0.755093 0.479881 0.527138
0.00117494 0.473884 0.464424
0.00628672 0.489769 0.477775
0.126223 0.50576 0.493507
0.305562 0.506477 0.513741
0.456474 0.505165 0.522606
0.565148 0.517968 0.524376
0.648859 0.528511 0.532311
0.727214 0.544915 0.544381
0.799542 0.566705 0.563165
0.00163272 0.569772 0.512154
0.0116579 0.588037 0.523873
0.152331 0.60708 0.528908
0.323629 0.615564 0.539437
0.463661 0.611811 0.549859
0.580392 0.606332 0.560113
0.680507 0.618677 0.575616
0.769863 0.639109 0.591043
0.846647 0.660258 0.609216
0.00318914 0.665736 0.558267
0.0292515 0.680827 0.56492
0.210239 0.69276 0.562615
0.363272 0.702693 0.573037
0.485634 0.704692 0.584741
0.596887 0.703685 0.596246
0.702052 0.706935 0.611322
0.798749 0.728237 0.633555
0.879896 0.749157 0.656123
0.00556954 0.753552 0.596719
0.07953 0.762554 0.598917
0.286351 0.767758 0.597559
0.418372 0.779919 0.612177
0.5252 0.787457 0.626062
0.624445 0.790219 0.636667
0.719615 0.790433 0.645823
0.816007 0.802808 0.663859
0.900267 0.825177 0.692287
0.0340581 0.834684 0.636881
0.183734 0.839643 0.635889
0.378851 0.840116 0.637095
0.485405 0.848676 0.652461
0.575631 0.856046 0.666529
0.661585 0.860304 0.67718
0.744701 0.860548 0.684733
0.825666 0.864561 0.696086
0.907118 0.883268 0.722393
0.000228885 0.0881819 0.387564
0.00337224 0.0946975 0.397894
0.142672 0.101854 0.398535
0.278706 0.126299 0.417227
0.380056 0.15201 0.445624
0.469078 0.178943 0.474815
0.551064 0.207263 0.502953
0.627604 0.234379 0.527703
0.701183 0.255711 0.550088
0.000427253 0.183291 0.421897
0.00831617 0.189715 0.431922
0.15993 0.184543 0.440833
0.304875 0.208484 0.459159
0.41059 0.236957 0.482948
0.497841 0.265843 0.508751
0.576455 0.293935 0.531487
0.650141 0.319265 0.550713
0.719509 0.338918 0.568521
0.000656138 0.289189 0.43711
0.00114443 0.29781 0.447288
0.114824 0.289296 0.468116
0.290166 0.296468 0.487541
0.407706 0.326848 0.502678
0.499825 0.357412 0.519051
0.577371 0.383474 0.534829
0.649409 0.403189 0.550057
0.717357 0.419989 0.565118
0.000961318 0.390173 0.476661
0.00215152 0.398856 0.485863
0.112093 0.402411 0.509163
0.283146 0.399527 0.539178
0.424567 0.413855 0.552666
0.520821 0.442954 0.555108
0.602853 0.464378 0.561318
0.676143 0.480751 0.5729
0.745403 0.497246 0.588785
0.00122072 0.486259 0.521035
0.00260929 0.496788 0.531655
0.0941634 0.511589 0.553933
0.272938 0.511681 0.583047
0.423163 0.508553 0.601541
0.546151 0.521996 0.598199
0.63241 0.542473 0.59559
0.71136 0.558709 0.605325
0.782773 0.575219 0.619379
0.00144961 0.579324 0.568322
0.00289921 0.592523 0.579431
0.0901961 0.612222 0.593744
0.279347 0.619058 0.610727
0.423926 0.616815 0.626703
0.556344 0.61326 0.634028
0.664866 0.623941 0.635599
0.746471 0.638727 0.644358
0.821881 0.656092 0.655741
0.00175479 0.670481 0.613809
0.00523384 0.684153 0.622812
0.139803 0.701259 0.627115
0.309789 0.715618 0.636362
0.449226 0.721248 0.650004
0.57258 0.717998 0.661189
0.687663 0.709224 0.67187
0.776455 0.720302 0.685237
0.855467 0.738918 0.697337
0.00189212 0.756222 0.654917
0.0223087 0.770703 0.661677
0.209323 0.784573 0.660441
0.371237 0.8 0.668284
0.494636 0.807172 0.680873
0.60174 0.806836 0.692073
0.702464 0.800702 0.701396
0.801846 0.795666 0.714336
0.880888 0.816083 0.732311
0.00349432 0.840345 0.696483
0.106004 0.852125 0.698589
0.32343 0.858351 0.696284
0.449226 0.867063 0.704402
0.550622 0.87303 0.716564
0.643091 0.874922 0.726986
0.730022 0.872297 0.734585
0.811566 0.869627 0.741405
0.89247 0.879316 0.757961
0.000289921 0.0960861 0.443809
0.00109865 0.103624 0.454063
0.102846 0.106783 0.456855
0.260151 0.131319 0.474128
0.373083 0.157916 0.502495
0.467903 0.185473 0.532982
0.55288 0.214313 0.561776
0.628473 0.242649 0.586038
0.699245 0.269596 0.606806
0.000503548 0.192844 0.477989
0.00437934 0.200427 0.486992
0.121523 0.192523 0.496345
0.287083 0.215442 0.51516
0.403464 0.244892 0.539803
0.495384 0.273701 0.565911
0.574701 0.301564 0.588556
0.648051 0.328374 0.607752
0.716014 0.35494 0.624338
0.000762951 0.302373 0.492088
0.000793469 0.310674 0.499962
0.0794385 0.303807 0.518578
0.264515 0.30634 0.542962
0.393637 0.333761 0.561379
0.491798 0.364202 0.577417
0.572396 0.390814 0.592493
0.644129 0.414527 0.606867
0.711772 0.437278 0.62153
0.00103761 0.4047 0.531777
0.00135805 0.411826 0.539391
0.0814069 0.415 0.560204
0.25449 0.412634 0.592889
0.403082 0.416419 0.615183
0.505791 0.447105 0.618036
0.591409 0.473671 0.622736
0.667094 0.495308 0.632059
0.737652 0.515908 0.646754
0.00128176 0.500542 0.577493
0.00154116 0.506859 0.584665
0.0755474 0.519127 0.60592
0.247257 0.520287 0.636332
0.398215 0.513115 0.661997
0.526207 0.521431 0.664515
0.617121 0.551492 0.661845
0.699428 0.575448 0.666682
0.771084 0.593332 0.676966
0.00149538 0.590143 0.622644
0.00167849 0.598321 0.630716
0.0651408 0.614694 0.647593
0.253742 0.621912 0.668513
0.397147 0.618753 0.693217
0.528649 0.615763 0.710613
0.645457 0.631601 0.70547
0.73138 0.650935 0.703304
0.804517 0.666346 0.70811
0.00169375 0.676493 0.664714
0.00201419 0.685969 0.672831
0.113817 0.701701 0.681956
0.281224 0.717113 0.698375
0.420157 0.725139 0.717968
0.542489 0.72401 0.73344
0.668528 0.715984 0.73901
0.761227 0.72462 0.737484
0.83476 0.73814 0.742184
0.00189212 0.759075 0.704952
0.0124361 0.770779 0.7131
0.176608 0.787076 0.718929
0.336461 0.804944 0.731106
0.461631 0.816846 0.741909
0.574212 0.818982 0.750805
0.68336 0.813092 0.755932
0.788754 0.794369 0.76643
0.861784 0.809903 0.774136
0.00332647 0.841505 0.746639
0.0801251 0.853422 0.752529
0.292531 0.864515 0.753506
0.414466 0.878233 0.761013
0.522393 0.886854 0.767376
0.620569 0.888823 0.776272
0.712139 0.88455 0.782788
0.797833 0.877455 0.788373
0.879225 0.876554 0.796902
0.000350958 0.105379 0.498192
0.000427253 0.112886 0.508095
0.0656291 0.114214 0.511803
0.23473 0.136248 0.528786
0.364233 0.164645 0.557153
0.463996 0.193042 0.587762
0.550393 0.221607 0.615747
0.627817 0.249821 0.639658
0.699519 0.27866 0.660609
0.000579843 0.203189 0.53254
0.00120546 0.21146 0.5411
0.0769665 0.205158 0.549325
0.264073 0.2215 0.570214
0.392111 0.253162 0.595132
0.489097 0.282063 0.619837
0.570657 0.309041 0.641886
0.645991 0.335134 0.660975
0.714824 0.363958 0.678569
0.000839246 0.315908 0.545861
0.000869764 0.323735 0.553079
0.0547799 0.319448 0.567452
0.237736 0.318166 0.595789
0.376654 0.341772 0.616327
0.480934 0.37052 0.631693
0.565118 0.396689 0.646021
0.639887 0.420935 0.660304
0.709499 0.447059 0.676143
0.00108339 0.419181 0.586542
0.0012665 0.425299 0.59321
0.057847 0.427893 0.609903
0.224094 0.426322 0.642466
0.377203 0.426261 0.668452
0.489845 0.450034 0.674022
0.580789 0.477348 0.679164
0.660777 0.503761 0.688807
0.732525 0.528878 0.701793
0.00131228 0.514519 0.632944
0.00172427 0.51873 0.638239
0.0527047 0.527428 0.654749
0.221607 0.529809 0.682521
0.376699 0.522301 0.710384
0.506432 0.524483 0.722362
0.604486 0.55613 0.722957
0.689311 0.584344 0.725628
0.761852 0.606821 0.732052
0.0015259 0.601572 0.675547
0.00154116 0.606088 0.680583
0.0591897 0.618448 0.695125
0.234928 0.627482 0.715846
0.382803 0.625055 0.744167
0.511727 0.621851 0.767208
0.627298 0.635935 0.766949
0.71783 0.659586 0.762219
0.791775 0.679423 0.762646
0.00172427 0.683452 0.713771
0.00218204 0.689525 0.719707
0.0901198 0.703349 0.731029
0.270985 0.719402 0.749783
0.407675 0.726436 0.774563
0.525307 0.724941 0.796063
0.639887 0.720516 0.807416
0.744396 0.731106 0.79704
0.820813 0.74699 0.792065
0.00192264 0.764569 0.752895
0.010193 0.773281 0.760143
0.1691 0.78677 0.767697
0.333684 0.803326 0.782498
0.449378 0.815824 0.799283
0.554849 0.818692 0.813199
0.655314 0.813642 0.826307
0.770901 0.803082 0.8215
0.846632 0.811994 0.819409
0.00422675 0.844785 0.793072
0.0785229 0.852781 0.797787
0.292363 0.862196 0.801312
0.411002 0.876234 0.811688
0.508232 0.887922 0.821225
0.601251 0.894102 0.828305
0.691814 0.892485 0.834333
0.781872 0.88719 0.83476
0.866804 0.877333 0.840131
0.000396735 0.11548 0.552392
0.000411994 0.123049 0.561944
0.0395056 0.124681 0.565026
0.198444 0.143313 0.582864
0.352667 0.172229 0.611429
0.457465 0.201282 0.640848
0.545892 0.229541 0.667048
0.624811 0.257618 0.689967
0.698833 0.28925 0.711406
0.00062562 0.214038 0.586969
0.000640879 0.222675 0.595407
0.0474708 0.22005 0.602014
0.230411 0.23064 0.625055
0.375586 0.261021 0.649317
0.47924 0.290593 0.671534
0.563806 0.31693 0.691661
0.640894 0.343908 0.71043
0.713512 0.374472 0.729488
0.000885023 0.329458 0.60061
0.000900282 0.337331 0.607874
0.0349432 0.33521 0.617472
0.196796 0.333623 0.646754
0.356542 0.350515 0.668437
0.468193 0.376761 0.683085
0.556237 0.403021 0.695933
0.634638 0.428412 0.710658
0.706966 0.45626 0.727306
0.00114443 0.433845 0.641581
0.00115969 0.439567 0.647578
0.0243839 0.441016 0.659373
0.191394 0.439887 0.689204
0.353429 0.43827 0.715175
0.473808 0.454948 0.724453
0.570428 0.482612 0.731136
0.655024 0.510811 0.741146
0.72929 0.537026 0.752987
0.00135805 0.527062 0.686061
0.00141909 0.530373 0.690288
0.0378271 0.535195 0.700938
0.19408 0.539132 0.726436
0.35584 0.533257 0.754299
0.486763 0.534844 0.772198
0.592569 0.561303 0.776013
0.680278 0.589548 0.778714
0.755108 0.61474 0.783246
0.00155642 0.611978 0.725826
0.00157168 0.614481 0.728908
0.0379797 0.623362 0.740353
0.216678 0.634195 0.75906
0.372152 0.634745 0.788083
0.500343 0.631937 0.812573
0.61294 0.640467 0.819715
0.705989 0.664088 0.816129
0.781781 0.687144 0.813626
0.00175479 0.691463 0.761379
0.00195315 0.695491 0.765805
0.0802777 0.707393 0.776806
0.266651 0.723568 0.79527
0.405493 0.731121 0.819059
0.519356 0.729809 0.8421
0.627832 0.725963 0.855268
0.728817 0.734661 0.851667
0.80943 0.754299 0.842283
0.0019379 0.771954 0.799695
0.00935378 0.777584 0.805066
0.166125 0.788159 0.812222
0.336355 0.803037 0.826932
0.453162 0.815167 0.84387
0.551278 0.816938 0.862211
0.647883 0.812055 0.877897
0.745724 0.80705 0.881941
0.832471 0.816724 0.870008
0.00823987 0.848707 0.836759
0.0746166 0.853956 0.840101
0.296925 0.860548 0.843183
0.419272 0.872816 0.853941
0.513466 0.884215 0.864744
0.598337 0.891142 0.875334
0.681651 0.89131 0.88513
0.765377 0.886381 0.891463
0.852445 0.880461 0.887648
