LUT预设1/LUT全系打包/电影感系列lut/709电影感系列（正常色彩素材用这个）/cine3电影暗青-709.cube
TITLE "Generated by Resolve"
LUT_3D_SIZE 9
0.0121614 0.0699321 0.0670939
0.0641642 0.0763256 0.0708019
0.10602 0.0859998 0.0724041
0.168826 0.0942245 0.0688029
0.253101 0.0979629 0.0521553
0.346731 0.0946059 0.0236973
0.451453 0.0785992 0.00177005
0.547875 0.0409247 0.00030518
0.6309 0.0116732 0.00254826
0.0161593 0.101472 0.0813611
0.0621958 0.109255 0.0817884
0.117693 0.120348 0.078996
0.195697 0.130694 0.0710002
0.290043 0.137819 0.0503548
0.394125 0.139895 0.0270542
0.50248 0.132738 0.0145266
0.601907 0.108858 0.00442512
0.679744 0.0830091 0.0009308
0.00611887 0.139269 0.0887617
0.0507668 0.150072 0.0899214
0.126406 0.16437 0.0889754
0.222095 0.178332 0.0774548
0.329198 0.190448 0.0515145
0.444938 0.198398 0.0178225
0.563012 0.201007 0.0087129
0.661814 0.191913 0.00567636
0.736431 0.177707 0.000320439
0.000656138 0.192584 0.0999466
0.0211795 0.20679 0.0966964
0.12285 0.225971 0.0871595
0.245121 0.245914 0.0647135
0.368429 0.265843 0.0399634
0.495445 0.279591 0.0251011
0.617533 0.285756 0.0037995
0.72285 0.285237 0
0.795224 0.282673 0.000488289
0 0.257267 0.100725
0.00910964 0.277058 0.0953689
0.0942702 0.3028 0.0759136
0.258183 0.331151 0.049073
0.405814 0.360357 0.0193484
0.544991 0.382773 0.0145876
0.672816 0.394186 0.00927749
0.780041 0.396826 0.00111391
0.847776 0.396551 0
0 0.340246 0.0981003
0 0.365454 0.0806134
0.0430152 0.402747 0.0481575
0.254551 0.443473 0.0359655
0.435889 0.481849 0.0169375
0.59765 0.515282 0.0018616
0.737545 0.537316 1.5259e-05
0.843992 0.542977 4.57771e-05
0.914107 0.545708 0
0 0.424048 0.0810559
4.57771e-05 0.456748 0.0722057
0.0219577 0.501366 0.0440681
0.251484 0.551247 0.0144045
0.463172 0.601465 0.0136568
0.63888 0.64126 0.00469978
0.791302 0.669429 1.5259e-05
0.906828 0.685466 0
0.976257 0.694682 0
0 0.487907 0.0921798
6.10361e-05 0.523171 0.0616312
0.025864 0.576165 0.055375
0.212528 0.633448 0.0268254
0.472862 0.689982 0.00250248
0.670161 0.739483 0.00233463
0.827253 0.771893 0.000335698
0.948043 0.793957 0
0.99942 0.801236 0
0 0.530983 0.116182
0 0.56643 0.115099
0 0.614496 0.0594339
0.175051 0.674281 0.0456397
0.475639 0.734005 0.0269169
0.676493 0.784146 0.00395209
0.844495 0.824811 3.0518e-05
0.96228 0.849424 0.00340276
0.999054 0.852293 0.000900282
0.0108644 0.0725567 0.102876
0.0602426 0.0792554 0.105333
0.107759 0.0890822 0.107256
0.173754 0.0970474 0.106172
0.260761 0.100328 0.0985275
0.355673 0.0933547 0.0824598
0.457877 0.0591287 0.0594797
0.555703 0.0137331 0.0377203
0.641718 0.00556954 0.029221
0.0131838 0.10631 0.118029
0.0591592 0.114549 0.12076
0.117144 0.125856 0.122515
0.200656 0.136324 0.121187
0.298344 0.142351 0.111666
0.402564 0.140002 0.0910506
0.509804 0.12459 0.0695354
0.607935 0.0885481 0.0507057
0.684474 0.050782 0.0327306
0.00523384 0.147341 0.135271
0.0415198 0.158755 0.137377
0.122057 0.17319 0.137835
0.226642 0.187152 0.134401
0.337545 0.198138 0.122545
0.453101 0.200839 0.106065
0.566888 0.193896 0.0741588
0.666026 0.1785 0.045716
0.739498 0.158206 0.033753
4.57771e-05 0.204807 0.151446
0.00807202 0.219532 0.153429
0.109575 0.238972 0.152316
0.247395 0.25861 0.145006
0.374746 0.275013 0.123766
0.502739 0.284825 0.101381
0.623301 0.285512 0.075288
0.722454 0.275319 0.0468605
0.791699 0.267399 0.0199435
0 0.274479 0.164523
0.00302129 0.294972 0.164935
0.081239 0.320287 0.156771
0.253223 0.347234 0.146197
0.408591 0.370657 0.133333
0.547189 0.386862 0.0927443
0.675792 0.39617 0.0675822
0.782254 0.395666 0.0493629
0.844694 0.391653 0.0310521
0 0.3626 0.177722
7.62951e-05 0.388739 0.178134
0.0402686 0.424353 0.163394
0.232929 0.460945 0.135561
0.434318 0.496696 0.111498
0.598901 0.523705 0.0809339
0.733516 0.535637 0.0176242
0.841047 0.54316 0.0254673
0.911406 0.546853 0.0303349
0 0.449516 0.187457
0 0.482231 0.183642
0.00749218 0.525017 0.171969
0.220233 0.56733 0.146563
0.45391 0.612375 0.0970169
0.636576 0.65066 0.0781567
0.788327 0.674571 0.052842
0.898543 0.685252 0.00825513
0.966339 0.693217 0.00320439
0 0.514458 0.206867
0 0.550286 0.207797
0.0158083 0.599023 0.185061
0.193668 0.650935 0.155871
0.459113 0.699382 0.121004
0.65716 0.739849 0.0586404
0.818326 0.773571 0.0540932
0.937713 0.793439 0.0382849
0.99202 0.799756 0.0187533
0 0.556863 0.238605
0 0.59266 0.246098
0.00241093 0.640696 0.238773
0.147356 0.692134 0.200595
0.456245 0.745724 0.162188
0.665843 0.789746 0.144518
0.827161 0.819181 0.0852064
0.946685 0.84358 0.0619059
0.999115 0.853498 0.0796674
0.00805676 0.0746929 0.144625
0.0525673 0.0819104 0.149264
0.106813 0.091783 0.153903
0.17673 0.0996414 0.155627
0.267323 0.102373 0.151827
0.364187 0.0938125 0.142809
0.467262 0.0533303 0.129183
0.566598 0.0121767 0.119814
0.651926 0.00131228 0.111116
0.00729381 0.111223 0.167041
0.0471962 0.120241 0.170153
0.112383 0.132113 0.173892
0.202701 0.14226 0.175845
0.305196 0.14786 0.17229
0.411749 0.144442 0.163394
0.519081 0.124315 0.148684
0.615717 0.0816052 0.130175
0.691508 0.0340581 0.116838
0.00297551 0.156283 0.191592
0.030396 0.168414 0.196521
0.111208 0.182712 0.199573
0.22829 0.196689 0.199557
0.344823 0.208042 0.193378
0.46305 0.209445 0.181872
0.575952 0.199893 0.167056
0.673564 0.178393 0.148119
0.742367 0.149264 0.128466
1.5259e-05 0.218784 0.217044
0.00187686 0.234577 0.221256
0.0813916 0.25362 0.221485
0.243488 0.27335 0.221164
0.379355 0.289387 0.214694
0.51075 0.297093 0.201083
0.631006 0.295232 0.181689
0.729824 0.284092 0.165743
0.795163 0.271656 0.151034
0 0.293751 0.240391
0.000213626 0.314992 0.245258
0.0531472 0.341009 0.243214
0.246509 0.367712 0.239551
0.409964 0.391043 0.23299
0.553185 0.405264 0.217716
0.681071 0.409689 0.194873
0.783932 0.404715 0.172717
0.845136 0.400168 0.164889
0 0.387747 0.264759
0.000335698 0.415549 0.26952
0.0343175 0.451408 0.267872
0.206699 0.487221 0.259846
0.429923 0.52076 0.246357
0.60145 0.545953 0.228687
0.735439 0.554421 0.208972
0.838346 0.554284 0.177279
0.905013 0.556405 0.161257
0 0.478508 0.289998
0 0.512322 0.296651
0.00170901 0.555505 0.294911
0.174273 0.597299 0.283452
0.441978 0.638315 0.266865
0.63151 0.670863 0.241657
0.785397 0.692103 0.215808
0.891081 0.698116 0.198611
0.954833 0.70222 0.177859
0 0.544747 0.317525
0 0.581506 0.328038
0.00389105 0.63006 0.326863
0.159701 0.678096 0.312963
0.447089 0.725811 0.299123
0.647456 0.762036 0.28011
0.808911 0.787167 0.246189
0.926574 0.804288 0.210529
0.985183 0.813245 0.226062
0 0.584924 0.356191
0 0.621363 0.371618
0.00329595 0.669963 0.371633
0.12369 0.720226 0.360113
0.43064 0.769162 0.349126
0.656428 0.810437 0.335454
0.818433 0.838819 0.324163
0.935088 0.857343 0.30399
0.995361 0.866987 0.30013
0.00750744 0.0692149 0.200778
0.0450294 0.0807507 0.207279
0.102953 0.0913405 0.21416
0.178195 0.0987716 0.218723
0.272175 0.100801 0.217777
0.371084 0.0905165 0.211963
0.475792 0.0472419 0.201801
0.576974 0.0132296 0.195789
0.662745 0.000976577 0.191882
0.00248722 0.110719 0.230991
0.0270695 0.1234 0.236286
0.103853 0.136248 0.242679
0.202472 0.145663 0.247929
0.309483 0.151019 0.247593
0.418708 0.146822 0.241566
0.52752 0.12517 0.231098
0.624537 0.0809949 0.220691
0.700099 0.0307012 0.212528
0.000335698 0.161257 0.263249
0.0175326 0.175723 0.271153
0.0957351 0.190463 0.276463
0.225315 0.204547 0.280446
0.349325 0.216526 0.278676
0.468666 0.217395 0.271901
0.5832 0.206928 0.26157
0.682185 0.184604 0.250141
0.749172 0.155673 0.240497
0 0.23061 0.29836
0.000289921 0.247608 0.306188
0.060502 0.267414 0.308934
0.231159 0.287098 0.311437
0.380224 0.302968 0.310216
0.516106 0.310582 0.304387
0.637751 0.308125 0.294652
0.7364 0.296803 0.284245
0.801511 0.285069 0.275868
0 0.312551 0.331228
0 0.334478 0.340764
0.0271916 0.361669 0.343801
0.232929 0.388144 0.344656
0.406638 0.410742 0.343175
0.555611 0.425147 0.336339
0.685985 0.428885 0.326619
0.78764 0.423026 0.317067
0.84889 0.418479 0.315084
0 0.412177 0.3664
4.57771e-05 0.441413 0.376135
0.0230259 0.477928 0.380041
0.182925 0.514183 0.378729
0.419318 0.547311 0.375311
0.59852 0.570001 0.370169
0.736751 0.578805 0.359655
0.841337 0.579705 0.349371
0.905745 0.581949 0.348104
0 0.50721 0.400748
0 0.541787 0.413489
4.57771e-05 0.585611 0.420417
0.125719 0.626657 0.414069
0.421485 0.667201 0.408545
0.626795 0.699519 0.402274
0.780697 0.718029 0.393194
0.888228 0.725231 0.38703
0.952987 0.731517 0.388144
0 0.574365 0.434638
0 0.611811 0.450706
0 0.659922 0.45774
0.0980392 0.706447 0.453208
0.419867 0.753353 0.449577
0.636362 0.789914 0.443778
0.804318 0.816251 0.434775
0.919524 0.83183 0.429511
0.978851 0.840192 0.437125
0 0.612024 0.477119
0 0.648478 0.496284
0.000671397 0.697612 0.50103
0.10927 0.746914 0.498024
0.398123 0.794644 0.497292
0.64361 0.835386 0.498436
0.810391 0.864271 0.492943
0.928832 0.883955 0.488075
0.988235 0.89398 0.497063
0.00611887 0.0469673 0.271504
0.0369421 0.0674144 0.280415
0.0958877 0.0828412 0.289342
0.178393 0.0904097 0.296773
0.275105 0.092134 0.299184
0.37583 0.077821 0.29575
0.482353 0.0343786 0.289464
0.584909 0.0113527 0.286397
0.671519 0.000274662 0.285389
0.000717174 0.0991226 0.307607
0.00817884 0.120348 0.317021
0.0881361 0.135317 0.32578
0.199725 0.144411 0.333501
0.311055 0.149798 0.335943
0.422385 0.14403 0.332677
0.532982 0.120241 0.324483
0.630014 0.0755322 0.318471
0.705776 0.0245365 0.31516
0 0.159716 0.347433
0.0059205 0.177371 0.357198
0.0773175 0.194842 0.364813
0.216938 0.209628 0.372107
0.34844 0.22089 0.374609
0.470756 0.222126 0.371786
0.587045 0.211261 0.364965
0.687419 0.18735 0.357229
0.752758 0.159533 0.351766
0 0.238407 0.391363
0.00117494 0.255589 0.400717
0.0476844 0.278218 0.407599
0.213062 0.298558 0.411963
0.376211 0.314626 0.414527
0.517449 0.322362 0.413687
0.64033 0.319371 0.40882
0.739147 0.307713 0.40177
0.804746 0.296574 0.39733
0 0.326894 0.432074
0 0.350973 0.445472
0.00662242 0.380697 0.45301
0.193606 0.406683 0.455085
0.397406 0.428672 0.458167
0.553567 0.442679 0.457069
0.68716 0.44654 0.452796
0.788357 0.440436 0.447852
0.849607 0.436316 0.448508
0 0.433539 0.476738
0 0.464225 0.490959
0.0103761 0.502251 0.499184
0.152178 0.538842 0.500206
0.405127 0.571832 0.501244
0.589685 0.59205 0.501259
0.732982 0.600977 0.497719
0.841016 0.603601 0.493446
0.904036 0.607248 0.497688
0 0.533028 0.518273
0 0.568032 0.536065
0.00236515 0.61294 0.547814
0.102419 0.653696 0.54464
0.388754 0.693568 0.543374
0.616342 0.725917 0.544182
0.772702 0.743572 0.542977
0.882933 0.752499 0.542214
0.948592 0.760082 0.548012
0 0.60119 0.557412
0 0.638712 0.57528
0 0.686275 0.586664
0.0393072 0.732906 0.587152
0.379553 0.778225 0.587503
0.620951 0.815579 0.590249
0.796597 0.844053 0.590066
0.91078 0.859159 0.592401
0.970672 0.86775 0.60235
0 0.636118 0.598657
0 0.672923 0.619501
1.5259e-05 0.722332 0.628656
0.0726787 0.770886 0.628901
0.370123 0.818097 0.632593
0.626566 0.858686 0.640726
0.799664 0.888685 0.642222
0.92105 0.909255 0.645823
0.980743 0.920241 0.657115
0.0031281 0.0173037 0.348363
0.0269169 0.0391546 0.35787
0.0879377 0.0589303 0.368505
0.177111 0.0662394 0.378546
0.276753 0.068925 0.383825
0.379202 0.0453193 0.383963
0.48806 0.0200504 0.381048
0.591959 0.00715648 0.380194
0.678004 4.57771e-05 0.381933
0.000183108 0.0689708 0.385504
0.00259403 0.103914 0.398001
0.066041 0.128389 0.410132
0.194446 0.137926 0.421668
0.310643 0.142763 0.427802
0.424369 0.133745 0.427634
0.536309 0.108476 0.422004
0.63418 0.0617838 0.418418
0.71162 0.0204318 0.418616
0 0.146197 0.431678
0.00102235 0.170352 0.445411
0.0529335 0.195315 0.456764
0.208743 0.211902 0.467308
0.345602 0.222736 0.473274
0.470787 0.223301 0.474052
0.588632 0.211582 0.470558
0.690761 0.185443 0.466041
0.75555 0.15523 0.463706
0 0.235645 0.482704
0.000518807 0.259037 0.496742
0.0400397 0.28455 0.507027
0.192233 0.307256 0.514611
0.370291 0.323354 0.522301
0.515984 0.33109 0.525399
0.64033 0.327184 0.521996
0.740627 0.315694 0.517922
0.806851 0.304997 0.517128
0 0.335302 0.533333
0 0.360739 0.549294
0.000350958 0.392859 0.560357
0.154269 0.420661 0.562387
0.382818 0.443076 0.569619
0.548516 0.456992 0.573983
0.68571 0.460838 0.575372
0.787411 0.454749 0.574197
0.850874 0.451972 0.575235
0 0.449393 0.583337
0 0.482124 0.601678
0.00196841 0.522011 0.614343
0.109667 0.559365 0.617304
0.38883 0.592142 0.62182
0.578637 0.611292 0.625742
0.728695 0.621866 0.627573
0.841001 0.627375 0.630076
0.903029 0.630777 0.638224
0 0.5552 0.633799
0 0.589181 0.653086
0.000244144 0.634348 0.664805
0.0793011 0.676524 0.665309
0.351171 0.716777 0.668711
0.603265 0.748837 0.678325
0.764752 0.768246 0.681712
0.879271 0.779461 0.684352
0.946349 0.787106 0.690745
0 0.622065 0.670863
0 0.660655 0.691646
0 0.708354 0.70724
0.014313 0.754971 0.708171
0.32369 0.799008 0.709636
0.603586 0.838544 0.719265
0.788296 0.86862 0.72842
0.903929 0.885069 0.736294
0.966644 0.893996 0.743709
0 0.654597 0.708553
0 0.691569 0.728038
0 0.741344 0.740993
0.0123903 0.790021 0.744717
0.340581 0.837293 0.751614
0.608652 0.87863 0.762158
0.790555 0.91075 0.770016
0.91606 0.932311 0.779309
0.975235 0.943847 0.792966
0.000427253 0.0033875 0.428168
0.0135958 0.0142519 0.437461
0.0741283 0.026688 0.449271
0.174289 0.0253147 0.462333
0.278691 0.0206455 0.47039
0.3841 0.019089 0.474296
0.494514 0.0122072 0.474205
0.598596 0.00300603 0.47538
0.684871 0 0.479667
0 0.0199893 0.464057
0.00296025 0.0686046 0.476783
0.0536812 0.108034 0.492164
0.186755 0.12079 0.506767
0.309255 0.12401 0.516808
0.425269 0.116167 0.521508
0.538216 0.088777 0.5196
0.639033 0.0376745 0.518746
0.719097 0.0153964 0.52137
0 0.115846 0.510262
0.000183108 0.154849 0.528756
0.0307469 0.190707 0.544625
0.202533 0.211109 0.557733
0.3411 0.22089 0.567254
0.469108 0.220188 0.571099
0.589105 0.206607 0.571237
0.692134 0.178103 0.569741
0.758648 0.146899 0.570016
0 0.225757 0.568582
0.000350958 0.253544 0.584802
0.0298161 0.28574 0.598367
0.175433 0.312276 0.608377
0.362325 0.328939 0.619348
0.511406 0.335592 0.624857
0.638575 0.331655 0.625406
0.741573 0.32018 0.625177
0.808347 0.310292 0.626841
0 0.337774 0.624079
0 0.365789 0.64271
0 0.400244 0.656153
0.120485 0.430854 0.659678
0.364782 0.453941 0.669108
0.542473 0.467445 0.677028
0.682933 0.471504 0.681712
0.78703 0.466773 0.683528
0.853391 0.465965 0.687785
0 0.460609 0.679545
0 0.494026 0.698512
6.10361e-05 0.53579 0.714092
0.0493935 0.574319 0.716182
0.360082 0.60592 0.722393
0.566384 0.626444 0.732082
0.724392 0.639719 0.740429
0.840558 0.648203 0.748669
0.903563 0.65095 0.756176
0 0.569329 0.731548
0 0.602884 0.74934
0 0.649302 0.763378
0.0481727 0.692775 0.766217
0.308629 0.73373 0.772259
0.58851 0.76614 0.783551
0.756985 0.7879 0.793133
0.876799 0.801328 0.801419
0.944381 0.810254 0.811063
0 0.636469 0.765927
0 0.674418 0.786755
0 0.723003 0.801038
0.0186465 0.770047 0.804334
0.272679 0.814115 0.807492
0.587137 0.85684 0.82327
0.779126 0.887572 0.837781
0.898482 0.904524 0.845167
0.964584 0.915007 0.854658
0 0.666819 0.795163
0 0.703395 0.814099
0 0.753582 0.828412
0 0.802884 0.834302
0.294697 0.848768 0.836179
0.591424 0.892927 0.853803
0.78323 0.927443 0.868437
0.910506 0.950164 0.882231
0.971725 0.961547 0.8925
0 0.000137331 0.500618
0.0018616 0.00205997 0.51014
0.0541695 0.00593576 0.520058
0.165316 0.00364691 0.534615
0.277485 0.00720226 0.546532
0.386694 0.00994888 0.554635
0.499428 0.00569161 0.559136
0.605722 0.000381476 0.563607
0.692103 0 0.569039
0 0.00102235 0.534905
0.00187686 0.0310369 0.54612
0.0433967 0.0777752 0.562936
0.176684 0.0968338 0.580896
0.306264 0.103288 0.59324
0.424491 0.0967422 0.59997
0.540719 0.0601968 0.602823
0.644877 0.0251774 0.606775
0.727016 0.0099794 0.612192
0 0.0747997 0.577905
0 0.126787 0.595804
0.0165103 0.178637 0.613901
0.187808 0.206714 0.629038
0.334783 0.21474 0.641947
0.46688 0.213092 0.651194
0.589532 0.197391 0.657282
0.693278 0.163577 0.657359
0.762264 0.137118 0.657938
0 0.210086 0.635279
7.62951e-05 0.244038 0.655085
0.0196994 0.2822 0.672099
0.163043 0.31313 0.682155
0.353658 0.330556 0.692882
0.506691 0.337057 0.702403
0.636744 0.333242 0.708385
0.742992 0.322728 0.712993
0.810285 0.312779 0.717998
0 0.3355 0.696162
0 0.366018 0.714229
0.00341802 0.403189 0.729351
0.103593 0.437034 0.735073
0.345342 0.460746 0.745922
0.534874 0.473915 0.756268
0.679133 0.478004 0.763256
0.787625 0.477028 0.770321
0.856107 0.476982 0.776135
0 0.466255 0.751965
0 0.501091 0.773144
4.57771e-05 0.543191 0.787945
0.0148928 0.581872 0.788952
0.324804 0.613886 0.796475
0.555032 0.637034 0.810651
0.720867 0.653376 0.824994
0.839139 0.662608 0.835203
0.904402 0.664958 0.841642
0 0.57673 0.800336
0 0.61117 0.817502
0 0.657404 0.832853
0.0131991 0.702068 0.838682
0.289906 0.743267 0.842817
0.573953 0.777447 0.857114
0.750256 0.801205 0.871382
0.874647 0.816785 0.883589
0.942733 0.826505 0.895674
0 0.64506 0.832578
0 0.681346 0.849592
0 0.730205 0.863737
0.0226596 0.777707 0.867338
0.245838 0.823178 0.87248
0.573754 0.867674 0.891402
0.770642 0.898894 0.906538
0.894469 0.917159 0.917723
0.963439 0.928954 0.927611
0 0.672557 0.851164
0 0.709255 0.869352
0 0.759365 0.884443
0 0.808713 0.887022
0.238819 0.854917 0.889006
0.578775 0.901488 0.910628
0.777813 0.937545 0.929946
0.90605 0.960342 0.942306
0.969619 0.97171 0.95024
0 1.5259e-05 0.558709
1.5259e-05 7.62951e-05 0.567346
0.0239414 0.00106813 0.576669
0.152544 0.000106813 0.591562
0.272511 0.0047303 0.605615
0.385229 0.00555428 0.617319
0.501854 0.00105287 0.626978
0.610956 0 0.633906
0.698375 0 0.639948
0 0.000350958 0.590234
0.000274662 0.0113832 0.60058
0.0377661 0.0496223 0.615793
0.167178 0.0816358 0.633082
0.300694 0.0873274 0.646525
0.421363 0.0706035 0.656779
0.541268 0.0378424 0.664958
0.649287 0.0182345 0.673472
0.733211 0.00585946 0.681193
0 0.0431067 0.62536
0 0.0975052 0.64152
0.00991836 0.163653 0.661601
0.170092 0.200336 0.678065
0.326253 0.207401 0.692912
0.462501 0.20499 0.704555
0.588418 0.189685 0.712993
0.693446 0.155108 0.71725
0.764141 0.124254 0.72015
0 0.193851 0.679225
0 0.231724 0.700084
0.0138094 0.276036 0.716808
0.145449 0.311131 0.727047
0.34461 0.329946 0.740063
0.500206 0.337163 0.753613
0.634592 0.334524 0.764324
0.743572 0.323217 0.770535
0.810758 0.313268 0.774334
0 0.33077 0.738979
0 0.362554 0.75729
0.00411994 0.401419 0.773526
0.0962997 0.437537 0.780713
0.329793 0.463767 0.790173
0.529534 0.478431 0.8038
0.67538 0.482582 0.815152
0.786175 0.482979 0.824567
0.857359 0.482658 0.832944
0 0.467506 0.795514
0 0.502358 0.812757
3.0518e-05 0.545235 0.828397
0.00184634 0.585275 0.831296
0.292271 0.618814 0.839918
0.546227 0.643992 0.857679
0.71722 0.661418 0.872068
0.836728 0.670375 0.883589
0.904021 0.672297 0.891524
0 0.580072 0.839109
0 0.61445 0.855695
0 0.660563 0.870527
0.0052491 0.706462 0.874144
0.274266 0.747967 0.879332
0.561776 0.783093 0.897902
0.745693 0.809735 0.916091
0.874067 0.826474 0.929732
0.941482 0.835019 0.937316
0 0.648753 0.865187
0 0.682734 0.8804
0 0.732418 0.895506
0.0170901 0.78024 0.899825
0.232929 0.827497 0.904707
0.565545 0.872572 0.923323
0.764279 0.904799 0.941848
0.892119 0.924269 0.955291
0.963226 0.936736 0.965072
0 0.675761 0.879637
0 0.711315 0.894621
0 0.760616 0.907057
0 0.810681 0.911498
0.180255 0.85803 0.914946
0.570138 0.905608 0.93785
0.77499 0.941833 0.9561
0.902998 0.964828 0.969085
0.968505 0.976623 0.97731
