LUT预设1/LUT全系打包/电影感系列lut/709电影感系列（正常色彩素材用这个）/cine-lite低饱和电影感709.cube
TITLE "Generated by Resolve"
LUT_3D_SIZE 5
0.0691844 0.0716411 0.0757916
0.239826 0.0724804 0.0696117
0.391974 0.10341 0.0959182
0.550027 0.14638 0.135592
0.708843 0.197208 0.185199
0.0677348 0.234028 0.0952163
0.272801 0.247578 0.0963302
0.455528 0.293584 0.129274
0.614801 0.354376 0.181338
0.76849 0.414923 0.23917
0.125795 0.401602 0.154696
0.317968 0.427619 0.178378
0.526192 0.489021 0.205402
0.714244 0.55314 0.26183
0.85597 0.602396 0.322789
0.20882 0.578683 0.242985
0.398779 0.611444 0.278172
0.570184 0.647654 0.304479
0.766445 0.715373 0.358618
0.937118 0.777295 0.436683
0.307759 0.76112 0.34374
0.484703 0.776837 0.369375
0.63209 0.805295 0.4103
0.797147 0.84332 0.455512
0.970275 0.909361 0.539895
0.0120241 0.073518 0.216068
0.216724 0.0910964 0.209781
0.388342 0.116884 0.241535
0.553384 0.148241 0.290425
0.713756 0.198734 0.349767
0.00270085 0.259388 0.252491
0.233814 0.25507 0.259052
0.443519 0.285832 0.278813
0.600671 0.336782 0.326574
0.741253 0.385489 0.375219
0.0129854 0.452552 0.330358
0.262989 0.467735 0.337209
0.503838 0.490532 0.36585
0.694118 0.540032 0.414542
0.837812 0.585412 0.467765
0.0617533 0.631891 0.424399
0.347005 0.647913 0.437797
0.537835 0.669947 0.456382
0.737591 0.710094 0.496208
0.915358 0.76733 0.567605
0.200198 0.792782 0.505699
0.44445 0.804532 0.520409
0.60798 0.82829 0.553841
0.766705 0.842191 0.57908
0.937194 0.894697 0.64593
0.000488289 0.0817273 0.330358
0.17554 0.0971695 0.338277
0.38265 0.146563 0.383459
0.549416 0.194507 0.437812
0.70605 0.23389 0.490593
0.000549325 0.277104 0.379309
0.159335 0.274968 0.411383
0.41944 0.31931 0.437354
0.583825 0.367498 0.472511
0.725093 0.400015 0.505348
0.00117494 0.473884 0.464424
0.126223 0.50576 0.493507
0.456474 0.505165 0.522606
0.648859 0.528511 0.532311
0.799542 0.566705 0.563165
0.00318914 0.665736 0.558267
0.210239 0.69276 0.562615
0.485634 0.704692 0.584741
0.702052 0.706935 0.611322
0.879896 0.749157 0.656123
0.0340581 0.834684 0.636881
0.378851 0.840116 0.637095
0.575631 0.856046 0.666529
0.744701 0.860548 0.684733
0.907118 0.883268 0.722393
0.000289921 0.0960861 0.443809
0.102846 0.106783 0.456855
0.373083 0.157916 0.502495
0.55288 0.214313 0.561776
0.699245 0.269596 0.606806
0.000762951 0.302373 0.492088
0.0794385 0.303807 0.518578
0.393637 0.333761 0.561379
0.572396 0.390814 0.592493
0.711772 0.437278 0.62153
0.00128176 0.500542 0.577493
0.0755474 0.519127 0.60592
0.398215 0.513115 0.661997
0.617121 0.551492 0.661845
0.771084 0.593332 0.676966
0.00169375 0.676493 0.664714
0.113817 0.701701 0.681956
0.420157 0.725139 0.717968
0.668528 0.715984 0.73901
0.83476 0.73814 0.742184
0.00332647 0.841505 0.746639
0.292531 0.864515 0.753506
0.522393 0.886854 0.767376
0.712139 0.88455 0.782788
0.879225 0.876554 0.796902
0.000396735 0.11548 0.552392
0.0395056 0.124681 0.565026
0.352667 0.172229 0.611429
0.545892 0.229541 0.667048
0.698833 0.28925 0.711406
0.000885023 0.329458 0.60061
0.0349432 0.33521 0.617472
0.356542 0.350515 0.668437
0.556237 0.403021 0.695933
0.706966 0.45626 0.727306
0.00135805 0.527062 0.686061
0.0378271 0.535195 0.700938
0.35584 0.533257 0.754299
0.592569 0.561303 0.776013
0.755108 0.61474 0.783246
0.00175479 0.691463 0.761379
0.0802777 0.707393 0.776806
0.405493 0.731121 0.819059
0.627832 0.725963 0.855268
0.80943 0.754299 0.842283
0.00823987 0.848707 0.836759
0.296925 0.860548 0.843183
0.513466 0.884215 0.864744
0.681651 0.89131 0.88513
0.852445 0.880461 0.887648
