LUT预设1/LUT全系打包/电影感系列lut/709电影感系列（正常色彩素材用这个）/cine2电影709.cube
TITLE "Generated by Resolve"
LUT_3D_SIZE 9
0.0961318 0.0906386 0.0743267
0.233097 0.0825666 0.0642863
0.372152 0.0951858 0.0761883
0.481468 0.120287 0.103243
0.585489 0.148531 0.13341
0.692088 0.181567 0.165881
0.796841 0.220447 0.205463
0.893858 0.26836 0.254948
0.970336 0.320241 0.309148
0.0781567 0.215915 0.0856489
0.222416 0.210208 0.0803082
0.380911 0.211093 0.0874189
0.488594 0.230472 0.111147
0.59353 0.258289 0.137743
0.69662 0.288502 0.167254
0.798672 0.324758 0.207477
0.888991 0.362127 0.255283
0.961028 0.402197 0.307378
0.0759899 0.329534 0.0911574
0.178958 0.33286 0.105303
0.36701 0.352712 0.114885
0.513268 0.390509 0.135851
0.618448 0.418006 0.159289
0.705791 0.435035 0.176043
0.787671 0.450217 0.19794
0.863203 0.467155 0.22977
0.9337 0.489158 0.272755
0.111025 0.437293 0.132601
0.20795 0.438041 0.140551
0.364187 0.448875 0.156313
0.537789 0.510704 0.187045
0.677317 0.560632 0.21735
0.779583 0.58732 0.246632
0.853513 0.596643 0.268238
0.913359 0.598337 0.287449
0.965515 0.60116 0.319005
0.15349 0.540597 0.173327
0.248981 0.53904 0.179873
0.391897 0.548577 0.200977
0.536904 0.592782 0.229801
0.706127 0.668086 0.278508
0.8271 0.704097 0.309819
0.914137 0.721736 0.341344
0.977447 0.732555 0.379431
1 0.735088 0.413626
0.198352 0.638712 0.214511
0.294743 0.640314 0.223606
0.43418 0.651225 0.245441
0.543618 0.676448 0.275731
0.699916 0.736507 0.322515
0.848402 0.798856 0.373816
0.957717 0.831632 0.419409
1 0.851392 0.470695
1 0.861463 0.517052
0.255146 0.745007 0.266621
0.349325 0.74583 0.275624
0.479194 0.749096 0.290745
0.573754 0.763607 0.319097
0.688869 0.794018 0.353735
0.849958 0.866484 0.426444
0.969757 0.921202 0.495735
1 0.948531 0.553429
1 0.963272 0.604349
0.31899 0.841245 0.320531
0.405905 0.839933 0.327382
0.522148 0.836851 0.337362
0.615213 0.848112 0.36527
0.710506 0.866148 0.401129
0.837095 0.911406 0.461891
0.972473 0.978058 0.549844
1 1 0.622843
1 1 0.672312
0.390723 0.929595 0.378988
0.470039 0.927367 0.385519
0.573495 0.92137 0.393912
0.662638 0.928008 0.420264
0.745876 0.936522 0.453864
0.841749 0.95845 0.502388
0.969879 0.997345 0.584619
1 1 0.670542
1 1 0.716823
0.0448463 0.0915541 0.190997
0.198291 0.0905013 0.178347
0.366674 0.0995956 0.177264
0.482826 0.120714 0.203159
0.591592 0.149844 0.235538
0.698619 0.182895 0.268879
0.804044 0.225086 0.30869
0.897734 0.272938 0.351415
0.969421 0.326452 0.395483
0.0225071 0.22681 0.207675
0.177554 0.207401 0.198672
0.377737 0.205997 0.188434
0.491768 0.229603 0.211856
0.598047 0.258305 0.24065
0.703365 0.291112 0.273808
0.804364 0.327459 0.310964
0.891035 0.364538 0.349996
0.961471 0.40589 0.39295
0.0269322 0.34786 0.20174
0.137621 0.341741 0.193347
0.351461 0.345327 0.190204
0.497704 0.371969 0.211566
0.595697 0.389242 0.228733
0.686229 0.409369 0.250385
0.774258 0.432105 0.277562
0.855161 0.456275 0.310536
0.93048 0.485084 0.351263
0.0506752 0.455314 0.239033
0.169879 0.447211 0.229603
0.348806 0.453208 0.232288
0.520119 0.499763 0.262272
0.661433 0.543481 0.300114
0.759136 0.562234 0.322545
0.827451 0.565728 0.334493
0.885847 0.566949 0.34696
0.947662 0.581949 0.380453
0.0827344 0.559838 0.284077
0.213092 0.549722 0.273274
0.375891 0.557855 0.283497
0.516655 0.587716 0.303441
0.686732 0.654627 0.356588
0.817273 0.69482 0.397177
0.902205 0.708202 0.420859
0.960784 0.711284 0.441459
0.996231 0.707012 0.459022
0.129488 0.660365 0.328099
0.264439 0.652888 0.320439
0.418357 0.662043 0.331838
0.528252 0.680827 0.353719
0.676356 0.72285 0.388388
0.834699 0.791119 0.452522
0.954955 0.831785 0.504128
0.999664 0.845747 0.540871
1 0.846036 0.567178
0.196796 0.761028 0.37435
0.322377 0.756741 0.371496
0.463737 0.757946 0.377432
0.560998 0.770626 0.398871
0.669505 0.789532 0.421271
0.827466 0.853101 0.487709
0.963546 0.917769 0.564691
1 0.949279 0.620005
1 0.960235 0.659083
0.27715 0.852018 0.41944
0.382208 0.849332 0.419547
0.509117 0.844663 0.421561
0.605554 0.855604 0.443992
0.698222 0.868498 0.471138
0.812314 0.89807 0.513634
0.951797 0.966445 0.600076
1 0.999191 0.674769
1 1 0.720058
0.367895 0.937621 0.470161
0.45536 0.935515 0.472816
0.564324 0.92845 0.474128
0.654719 0.933165 0.493339
0.738415 0.939757 0.520012
0.825788 0.951675 0.553521
0.945434 0.995926 0.620371
1 1 0.707546
1 1 0.755108
0.0218509 0.0903639 0.309712
0.0975814 0.0918593 0.323644
0.334401 0.124483 0.327337
0.464347 0.149599 0.354925
0.582803 0.168307 0.384878
0.697429 0.191943 0.418479
0.803403 0.229816 0.453758
0.892683 0.276265 0.486229
0.963928 0.334173 0.520378
0.024506 0.22649 0.339284
0.0640879 0.224079 0.350561
0.34287 0.225132 0.356374
0.481056 0.251667 0.372915
0.595422 0.271214 0.396521
0.704143 0.296803 0.423575
0.802457 0.327596 0.452064
0.887541 0.365209 0.481544
0.958221 0.40972 0.514244
0.0113527 0.363897 0.351949
0.0273289 0.371374 0.358404
0.282307 0.352651 0.347097
0.471366 0.358999 0.349996
0.585336 0.377142 0.365316
0.684108 0.402457 0.388937
0.773266 0.426749 0.413184
0.853269 0.453422 0.440269
0.929274 0.486397 0.473808
0.0120241 0.486976 0.390005
0.0409857 0.490761 0.388312
0.274235 0.480659 0.369177
0.476936 0.486686 0.377569
0.617533 0.503166 0.397345
0.715587 0.512901 0.409674
0.791409 0.524849 0.426215
0.866575 0.545525 0.452033
0.938293 0.57438 0.488212
0.0158999 0.595682 0.431617
0.0737621 0.592172 0.424292
0.316899 0.583993 0.411551
0.474403 0.597864 0.418189
0.639796 0.628748 0.44828
0.771084 0.652903 0.47776
0.851316 0.65568 0.48983
0.90721 0.656443 0.500145
0.963607 0.670375 0.526406
0.019852 0.700023 0.479072
0.127703 0.691035 0.466758
0.365225 0.68423 0.455924
0.495384 0.697719 0.468772
0.624598 0.705867 0.473594
0.791699 0.762585 0.532952
0.917952 0.801373 0.58172
0.983307 0.804196 0.600427
0.999237 0.794461 0.606928
0.0479438 0.793423 0.520333
0.212116 0.781048 0.503075
0.4168 0.774502 0.495598
0.530144 0.785046 0.510094
0.640925 0.795361 0.523613
0.779629 0.825971 0.558709
0.931945 0.890349 0.633127
0.999329 0.92398 0.684016
1 0.926726 0.707103
0.136919 0.875059 0.553429
0.313649 0.865614 0.541756
0.475303 0.858747 0.536034
0.579919 0.867918 0.552041
0.676219 0.876661 0.571756
0.775967 0.884169 0.589654
0.912001 0.935195 0.653437
0.993088 0.985321 0.727718
1 0.997177 0.770001
0.290715 0.950652 0.590692
0.417792 0.946792 0.588235
0.542092 0.937804 0.582528
0.635676 0.940002 0.593469
0.721721 0.94435 0.612558
0.802823 0.947662 0.633158
0.899168 0.965881 0.66862
0.989654 1 0.748287
1 1 0.799115
0.0233616 0.0998398 0.395727
0.0416724 0.10135 0.418708
0.305486 0.126543 0.424857
0.453651 0.166415 0.459434
0.573037 0.203281 0.489769
0.685603 0.228946 0.519814
0.79028 0.255573 0.549004
0.883955 0.292027 0.576745
0.958221 0.348837 0.604608
0.0265965 0.236988 0.426307
0.0349279 0.239918 0.438605
0.302617 0.232532 0.458595
0.467247 0.26894 0.479957
0.586633 0.301015 0.504219
0.693935 0.323827 0.526604
0.792676 0.343191 0.547356
0.88014 0.376043 0.569986
0.95552 0.419684 0.596307
0.0147707 0.376974 0.448554
0.0180514 0.381949 0.453895
0.213016 0.363668 0.466468
0.441611 0.376455 0.475257
0.573007 0.403967 0.483833
0.67808 0.420783 0.499763
0.771099 0.436988 0.513649
0.853864 0.460441 0.532006
0.930892 0.494072 0.559365
0.0127565 0.500725 0.48867
0.0131228 0.503807 0.491096
0.155428 0.507057 0.494484
0.432029 0.496422 0.499001
0.593256 0.502968 0.501228
0.703334 0.513588 0.505959
0.790555 0.52932 0.520058
0.871 0.552239 0.542245
0.939788 0.581643 0.57174
0.0152743 0.615015 0.531685
0.0186007 0.618235 0.531304
0.175006 0.623316 0.518029
0.414954 0.626673 0.517586
0.599222 0.614649 0.528481
0.736736 0.628107 0.540795
0.821942 0.630137 0.547372
0.893141 0.645777 0.56788
0.955154 0.668162 0.596307
0.0180514 0.725826 0.575525
0.0357519 0.724132 0.569833
0.265904 0.712886 0.548592
0.445045 0.72047 0.554955
0.594141 0.722469 0.55877
0.755199 0.745892 0.589899
0.883009 0.773571 0.626795
0.938994 0.761822 0.628183
0.981048 0.764157 0.642573
0.0211795 0.818647 0.612757
0.0760052 0.812741 0.604257
0.351965 0.793896 0.580362
0.495796 0.802808 0.591409
0.61796 0.811734 0.603479
0.748547 0.822354 0.620035
0.895048 0.866026 0.674205
0.997421 0.895491 0.718669
1 0.885985 0.725734
0.0497597 0.899733 0.647745
0.204181 0.88896 0.633448
0.43418 0.875532 0.620371
0.556146 0.881209 0.630289
0.6589 0.887724 0.645426
0.759335 0.889952 0.657588
0.880796 0.916091 0.695125
0.984924 0.965896 0.759899
0.999939 0.987778 0.798718
0.220645 0.964462 0.67541
0.368612 0.958846 0.669856
0.520836 0.948913 0.661707
0.61915 0.948608 0.667247
0.708339 0.951293 0.681376
0.79173 0.952483 0.697139
0.878126 0.958144 0.717098
0.972351 0.989975 0.77644
1 1 0.825956
0.024506 0.112718 0.474586
0.0216678 0.116854 0.50132
0.254902 0.128801 0.508431
0.440848 0.171664 0.544961
0.569268 0.21236 0.578042
0.678523 0.251255 0.605493
0.776867 0.285817 0.62771
0.868894 0.324742 0.652522
0.948394 0.376547 0.678874
0.026688 0.250324 0.505684
0.0229801 0.255894 0.517922
0.248554 0.241199 0.540932
0.450477 0.276661 0.565591
0.579553 0.31339 0.592416
0.684428 0.345251 0.61207
0.77937 0.371679 0.628901
0.868711 0.40148 0.649287
0.948165 0.441245 0.672236
0.0210422 0.392981 0.527199
0.02121 0.396857 0.529519
0.155917 0.377813 0.542245
0.405737 0.383902 0.569528
0.555611 0.419242 0.579751
0.663218 0.444511 0.590616
0.757244 0.461799 0.602625
0.84622 0.479789 0.619333
0.92726 0.508003 0.638148
0.0157473 0.516243 0.571084
0.0163577 0.516289 0.571893
0.108888 0.514672 0.580789
0.369436 0.503075 0.605707
0.561578 0.517601 0.606867
0.683909 0.533883 0.603983
0.779507 0.548257 0.614633
0.864515 0.568261 0.630304
0.937499 0.592721 0.648966
0.0157168 0.62771 0.615259
0.0154726 0.626337 0.613596
0.0778515 0.636927 0.619165
0.329335 0.637568 0.628473
0.551415 0.621302 0.632486
0.706767 0.624964 0.628
0.80882 0.636332 0.632563
0.888609 0.654124 0.647211
0.952453 0.676081 0.66833
0.0183108 0.73463 0.658091
0.018204 0.73431 0.655085
0.10219 0.73962 0.645991
0.354726 0.745205 0.640375
0.548272 0.741573 0.647639
0.714595 0.734447 0.65861
0.841108 0.744152 0.672709
0.912276 0.74342 0.675761
0.969543 0.755978 0.694026
0.0207218 0.831357 0.694072
0.0307622 0.829847 0.689311
0.221942 0.821469 0.667292
0.433082 0.827039 0.669017
0.581979 0.83212 0.679606
0.719676 0.828946 0.687327
0.859846 0.847196 0.716731
0.961715 0.863218 0.744396
0.99118 0.851453 0.74519
0.0260319 0.919142 0.730861
0.0957046 0.913405 0.720272
0.365515 0.897597 0.697841
0.521096 0.897765 0.70132
0.635462 0.901183 0.713115
0.742214 0.900908 0.722179
0.853315 0.906752 0.738674
0.977661 0.943862 0.788861
0.999893 0.957656 0.817304
0.168887 0.979538 0.751308
0.297261 0.973342 0.743099
0.491447 0.961822 0.732876
0.600275 0.958785 0.734447
0.694224 0.959106 0.743236
0.780133 0.959136 0.755199
0.864607 0.959014 0.767865
0.962005 0.982651 0.804807
0.999527 0.998779 0.849546
0.0251164 0.127703 0.548943
0.018143 0.134218 0.578058
0.184039 0.136248 0.585687
0.420462 0.178637 0.621698
0.561013 0.219043 0.654917
0.673106 0.258824 0.681361
0.770916 0.301518 0.702342
0.860502 0.353109 0.724147
0.939284 0.409476 0.746731
0.0267033 0.264897 0.581598
0.0163272 0.272206 0.594003
0.178592 0.254582 0.617502
0.4224 0.284367 0.642969
0.566171 0.321324 0.667948
0.676127 0.35462 0.688121
0.771466 0.390433 0.705196
0.85832 0.429191 0.72195
0.934554 0.470985 0.7402
0.0269322 0.409903 0.599344
0.0245518 0.414023 0.60058
0.0992599 0.398672 0.608499
0.363073 0.393744 0.645487
0.533928 0.423957 0.659907
0.650568 0.453635 0.670253
0.746242 0.482551 0.681682
0.835508 0.507256 0.695567
0.915801 0.531487 0.711818
0.0214084 0.533516 0.647837
0.0230716 0.532372 0.646433
0.0792248 0.52694 0.647715
0.320912 0.513695 0.677684
0.528267 0.517037 0.696208
0.660746 0.546715 0.690837
0.764248 0.571603 0.697597
0.85095 0.591562 0.710307
0.927764 0.610941 0.722576
0.018143 0.641535 0.690913
0.0185702 0.638544 0.688716
0.0543679 0.640665 0.691768
0.291005 0.638987 0.705745
0.504967 0.623011 0.730739
0.680674 0.636057 0.72604
0.790295 0.656626 0.719905
0.875547 0.672236 0.726635
0.943999 0.689326 0.73872
0.018677 0.741207 0.72871
0.0184482 0.738552 0.725872
0.036408 0.743404 0.727001
0.290043 0.748714 0.728054
0.497459 0.749233 0.744503
0.676692 0.736904 0.750713
0.814237 0.738079 0.742504
0.898421 0.749416 0.745449
0.963455 0.76286 0.756695
0.0209049 0.835843 0.765621
0.0209506 0.834379 0.762768
0.120226 0.834882 0.752911
0.363272 0.84242 0.749172
0.533516 0.849943 0.756603
0.682795 0.840528 0.76199
0.824842 0.832868 0.767132
0.921218 0.832853 0.773114
0.978073 0.838087 0.7832
0.0248875 0.9243 0.802075
0.0471656 0.921569 0.796613
0.289982 0.91252 0.77496
0.470924 0.91606 0.772107
0.602182 0.918349 0.77612
0.718166 0.914366 0.784131
0.828229 0.907744 0.789166
0.949325 0.927077 0.819257
0.999847 0.92755 0.832334
0.162753 0.983032 0.817685
0.234409 0.980224 0.811383
0.452491 0.973312 0.79736
0.573877 0.971374 0.79585
0.676753 0.968765 0.800885
0.767468 0.966842 0.809445
0.851347 0.962966 0.816449
0.942916 0.97142 0.835401
0.999985 0.995377 0.872404
0.0250706 0.146578 0.623652
0.016968 0.152209 0.653834
0.120058 0.14905 0.663081
0.389548 0.187701 0.694377
0.546059 0.227924 0.72549
0.663447 0.268025 0.749462
0.767147 0.315679 0.771603
0.856077 0.372107 0.790448
0.933883 0.432654 0.80766
0.0267185 0.281743 0.657481
0.0161746 0.289326 0.669718
0.107225 0.274098 0.69192
0.381689 0.293523 0.715938
0.546883 0.329824 0.736934
0.664912 0.363622 0.75552
0.76492 0.403937 0.773617
0.85185 0.446525 0.788525
0.925612 0.493111 0.802121
0.0314031 0.428031 0.670741
0.0268101 0.432258 0.672267
0.0547646 0.421912 0.675837
0.312291 0.406271 0.714168
0.508019 0.429206 0.729671
0.635813 0.459571 0.738735
0.738354 0.492103 0.753246
0.826688 0.525292 0.766033
0.903304 0.55668 0.777569
0.0278325 0.549249 0.718227
0.0285801 0.54786 0.715053
0.0388647 0.541634 0.712154
0.26862 0.528161 0.737026
0.495155 0.519585 0.76585
0.641382 0.551797 0.765972
0.753811 0.58323 0.771725
0.839323 0.609934 0.779095
0.9149 0.632227 0.788037
0.0226596 0.65388 0.759838
0.0238041 0.650797 0.756909
0.0438239 0.645884 0.752605
0.255451 0.645029 0.763226
0.478233 0.631373 0.794888
0.650004 0.63772 0.806851
0.769772 0.668849 0.797162
0.859922 0.691432 0.797269
0.930938 0.707485 0.804044
0.0205234 0.748486 0.793439
0.020676 0.745663 0.791074
0.033463 0.743786 0.789364
0.269306 0.749813 0.795178
0.477409 0.749386 0.818051
0.642405 0.737621 0.838743
0.787396 0.7476 0.825559
0.881483 0.76379 0.816587
0.952056 0.776242 0.819501
0.0213169 0.84155 0.829358
0.0210269 0.839033 0.826993
0.0925917 0.834394 0.819165
0.343069 0.840146 0.819699
0.508629 0.849378 0.831144
0.648142 0.845319 0.842512
0.795316 0.831601 0.842023
0.901396 0.833494 0.833082
0.967956 0.84036 0.835111
0.0538033 0.922194 0.859052
0.0584268 0.920409 0.856291
0.262852 0.910719 0.840497
0.447944 0.91693 0.840436
0.571771 0.924529 0.84329
0.687709 0.925292 0.847257
0.802426 0.917372 0.847196
0.917388 0.909773 0.851484
0.98291 0.90901 0.858289
0.256672 0.976501 0.868833
0.269566 0.975235 0.866209
0.434592 0.971466 0.856703
0.552346 0.974975 0.857084
0.653971 0.977874 0.857572
0.749966 0.976272 0.861418
0.836515 0.971435 0.865431
0.920592 0.966415 0.869413
0.99826 0.980941 0.893385
0.0245975 0.167178 0.700404
0.0162509 0.173388 0.728725
0.0655375 0.1664 0.7402
0.337057 0.198245 0.763027
0.527062 0.238895 0.790356
0.650614 0.281712 0.812528
0.758801 0.335027 0.833768
0.850019 0.392432 0.849943
0.928954 0.453681 0.863279
0.0269474 0.300664 0.731365
0.0163272 0.307668 0.742763
0.0628977 0.295949 0.764233
0.33164 0.303868 0.783673
0.521355 0.3393 0.800671
0.650385 0.376501 0.817609
0.75584 0.419303 0.834836
0.845624 0.462486 0.847883
0.919585 0.509621 0.857298
0.0346227 0.444923 0.739345
0.0285039 0.448569 0.741375
0.0342718 0.44094 0.743221
0.245975 0.423453 0.776089
0.472862 0.436011 0.793179
0.617334 0.468849 0.802228
0.727443 0.502708 0.816449
0.820188 0.536568 0.828534
0.895735 0.571023 0.837003
0.033341 0.562188 0.780682
0.0324865 0.560876 0.777142
0.0292668 0.554269 0.770886
0.20885 0.544533 0.791379
0.46099 0.530571 0.823377
0.622889 0.55903 0.829786
0.740337 0.59144 0.834058
0.829679 0.620813 0.840497
0.905272 0.648219 0.846647
0.0280461 0.662654 0.819715
0.0295262 0.659586 0.815869
0.0294499 0.65333 0.808789
0.212497 0.653819 0.816297
0.456306 0.645335 0.846433
0.624659 0.646021 0.867903
0.752865 0.674525 0.861952
0.84712 0.70135 0.859022
0.919951 0.722515 0.861402
0.0240635 0.757595 0.854597
0.0248264 0.754131 0.851743
0.038529 0.747814 0.845823
0.253239 0.753094 0.850187
0.472953 0.753841 0.867964
0.627344 0.744244 0.889952
0.763928 0.752438 0.89044
0.865171 0.7738 0.879545
0.937835 0.790936 0.877226
0.0255283 0.846738 0.887098
0.0251621 0.84416 0.885039
0.0782635 0.836042 0.876692
0.33753 0.837568 0.876295
0.512139 0.844358 0.887541
0.641474 0.841779 0.903746
0.770245 0.833646 0.910185
0.881254 0.840848 0.897566
0.957809 0.850553 0.891203
0.141497 0.917205 0.905425
0.134615 0.916121 0.904356
0.265812 0.907179 0.893523
0.453071 0.909728 0.894224
0.573022 0.917281 0.90045
0.676677 0.922103 0.908583
0.776226 0.920043 0.915618
0.892256 0.908293 0.907744
0.972488 0.908003 0.903517
0.341604 0.971176 0.915572
0.339437 0.970443 0.914061
0.436484 0.965805 0.907149
0.55935 0.968215 0.908644
0.652934 0.973556 0.912337
0.738155 0.977905 0.914565
0.819821 0.977996 0.915831
0.902663 0.972808 0.912886
0.982803 0.967788 0.919173
0.0278172 0.192401 0.77322
0.0235752 0.198535 0.798932
0.0431067 0.19115 0.814176
0.269917 0.213581 0.828229
0.501823 0.253162 0.850172
0.63537 0.301167 0.872374
0.7476 0.357229 0.890806
0.840787 0.414176 0.90367
0.919768 0.474632 0.912886
0.0280461 0.319982 0.798367
0.0172122 0.326452 0.809277
0.0365759 0.317601 0.831403
0.261051 0.319127 0.84506
0.490257 0.351858 0.860151
0.633631 0.392905 0.876265
0.743908 0.436027 0.890166
0.835035 0.4804 0.899962
0.911254 0.52639 0.906966
0.0368963 0.45922 0.802365
0.0300145 0.462669 0.804074
0.0211948 0.456596 0.806012
0.171038 0.446571 0.829908
0.431022 0.445853 0.852842
0.596689 0.479362 0.862974
0.714672 0.515038 0.873289
0.809964 0.549386 0.88217
0.888609 0.583993 0.889052
0.0377356 0.573205 0.836912
0.0354314 0.572427 0.833585
0.0269322 0.565469 0.826612
0.160021 0.560967 0.840299
0.423896 0.549615 0.874876
0.603403 0.568887 0.886915
0.724987 0.601236 0.889708
0.819684 0.631098 0.893919
0.897642 0.659739 0.898726
0.0336156 0.671763 0.874281
0.0346075 0.668925 0.869902
0.0323644 0.661418 0.860761
0.169589 0.665064 0.867964
0.438956 0.660655 0.891081
0.60592 0.658778 0.916106
0.738231 0.681483 0.915068
0.835386 0.708858 0.911101
0.910719 0.732265 0.911696
0.028687 0.766232 0.910369
0.0306249 0.762875 0.90695
0.0416114 0.754955 0.898482
0.212894 0.757412 0.898939
0.470069 0.759869 0.910338
0.619532 0.755093 0.930098
0.748516 0.759197 0.939284
0.852247 0.779187 0.931517
0.927214 0.799008 0.926879
0.062562 0.848096 0.935836
0.0552529 0.846128 0.934707
0.0768902 0.838697 0.927718
0.335088 0.836957 0.924102
0.520943 0.84271 0.931044
0.647257 0.843488 0.941817
0.762631 0.837888 0.952026
0.865995 0.845304 0.948959
0.94583 0.859236 0.941024
0.254887 0.91223 0.947173
0.2495 0.910857 0.946349
0.298405 0.904311 0.940032
0.459617 0.905226 0.940383
0.585901 0.910643 0.945647
0.687282 0.915221 0.953475
0.781826 0.913558 0.960464
0.877409 0.909957 0.958541
0.959838 0.912276 0.952102
0.415824 0.967865 0.958419
0.411582 0.967514 0.957565
0.454765 0.962646 0.952224
0.571725 0.963043 0.952392
0.666728 0.966659 0.95552
0.745876 0.970703 0.959152
0.816464 0.974517 0.963272
0.889464 0.971725 0.964813
0.967102 0.963882 0.958267
