LUT预设1/LUT全系打包/电影感系列lut/709电影感系列（正常色彩素材用这个）/cine3电影暗青-709.cube
TITLE "Generated by Resolve"
LUT_3D_SIZE 5
0.0121614 0.0699321 0.0670939
0.10602 0.0859998 0.0724041
0.253101 0.0979629 0.0521553
0.451453 0.0785992 0.00177005
0.6309 0.0116732 0.00254826
0.00611887 0.139269 0.0887617
0.126406 0.16437 0.0889754
0.329198 0.190448 0.0515145
0.563012 0.201007 0.0087129
0.736431 0.177707 0.000320439
0 0.257267 0.100725
0.0942702 0.3028 0.0759136
0.405814 0.360357 0.0193484
0.672816 0.394186 0.00927749
0.847776 0.396551 0
0 0.424048 0.0810559
0.0219577 0.501366 0.0440681
0.463172 0.601465 0.0136568
0.791302 0.669429 1.5259e-05
0.976257 0.694682 0
0 0.530983 0.116182
0 0.614496 0.0594339
0.475639 0.734005 0.0269169
0.844495 0.824811 3.0518e-05
0.999054 0.852293 0.000900282
0.00805676 0.0746929 0.144625
0.106813 0.091783 0.153903
0.267323 0.102373 0.151827
0.467262 0.0533303 0.129183
0.651926 0.00131228 0.111116
0.00297551 0.156283 0.191592
0.111208 0.182712 0.199573
0.344823 0.208042 0.193378
0.575952 0.199893 0.167056
0.742367 0.149264 0.128466
0 0.293751 0.240391
0.0531472 0.341009 0.243214
0.409964 0.391043 0.23299
0.681071 0.409689 0.194873
0.845136 0.400168 0.164889
0 0.478508 0.289998
0.00170901 0.555505 0.294911
0.441978 0.638315 0.266865
0.785397 0.692103 0.215808
0.954833 0.70222 0.177859
0 0.584924 0.356191
0.00329595 0.669963 0.371633
0.43064 0.769162 0.349126
0.818433 0.838819 0.324163
0.995361 0.866987 0.30013
0.00611887 0.0469673 0.271504
0.0958877 0.0828412 0.289342
0.275105 0.092134 0.299184
0.482353 0.0343786 0.289464
0.671519 0.000274662 0.285389
0 0.159716 0.347433
0.0773175 0.194842 0.364813
0.34844 0.22089 0.374609
0.587045 0.211261 0.364965
0.752758 0.159533 0.351766
0 0.326894 0.432074
0.00662242 0.380697 0.45301
0.397406 0.428672 0.458167
0.68716 0.44654 0.452796
0.849607 0.436316 0.448508
0 0.533028 0.518273
0.00236515 0.61294 0.547814
0.388754 0.693568 0.543374
0.772702 0.743572 0.542977
0.948592 0.760082 0.548012
0 0.636118 0.598657
1.5259e-05 0.722332 0.628656
0.370123 0.818097 0.632593
0.799664 0.888685 0.642222
0.980743 0.920241 0.657115
0.000427253 0.0033875 0.428168
0.0741283 0.026688 0.449271
0.278691 0.0206455 0.47039
0.494514 0.0122072 0.474205
0.684871 0 0.479667
0 0.115846 0.510262
0.0307469 0.190707 0.544625
0.3411 0.22089 0.567254
0.589105 0.206607 0.571237
0.758648 0.146899 0.570016
0 0.337774 0.624079
0 0.400244 0.656153
0.364782 0.453941 0.669108
0.682933 0.471504 0.681712
0.853391 0.465965 0.687785
0 0.569329 0.731548
0 0.649302 0.763378
0.308629 0.73373 0.772259
0.756985 0.7879 0.793133
0.944381 0.810254 0.811063
0 0.666819 0.795163
0 0.753582 0.828412
0.294697 0.848768 0.836179
0.78323 0.927443 0.868437
0.971725 0.961547 0.8925
0 1.5259e-05 0.558709
0.0239414 0.00106813 0.576669
0.272511 0.0047303 0.605615
0.501854 0.00105287 0.626978
0.698375 0 0.639948
0 0.0431067 0.62536
0.00991836 0.163653 0.661601
0.326253 0.207401 0.692912
0.588418 0.189685 0.712993
0.764141 0.124254 0.72015
0 0.33077 0.738979
0.00411994 0.401419 0.773526
0.329793 0.463767 0.790173
0.67538 0.482582 0.815152
0.857359 0.482658 0.832944
0 0.580072 0.839109
0 0.660563 0.870527
0.274266 0.747967 0.879332
0.745693 0.809735 0.916091
0.941482 0.835019 0.937316
0 0.675761 0.879637
0 0.760616 0.907057
0.180255 0.85803 0.914946
0.77499 0.941833 0.9561
0.968505 0.976623 0.97731
