LUT预设1/LUT全系打包/电影感系列lut/709电影感系列（正常色彩素材用这个）/cine2电影709.cube
TITLE "Generated by Resolve"
LUT_3D_SIZE 33
0.0961318 0.0906386 0.0743267
0.132509 0.0876936 0.0709392
0.169207 0.0848249 0.067689
0.19942 0.0838788 0.0661784
0.233097 0.0825666 0.0642863
0.275532 0.0811627 0.0628061
0.311589 0.084596 0.0656748
0.342458 0.0892805 0.0700084
0.372152 0.0951858 0.0761883
0.400351 0.100984 0.0823224
0.428138 0.107439 0.0892805
0.454948 0.113817 0.0961776
0.481468 0.120287 0.103243
0.507301 0.126711 0.110262
0.533394 0.133822 0.117922
0.559182 0.141085 0.125673
0.585489 0.148531 0.13341
0.612482 0.156756 0.141512
0.63917 0.164904 0.149493
0.665873 0.173281 0.157733
0.692088 0.181567 0.165881
0.718456 0.190356 0.17464
0.744732 0.199908 0.184451
0.770977 0.209552 0.194293
0.796841 0.220447 0.205463
0.822293 0.232059 0.217411
0.847761 0.243412 0.229129
0.870954 0.256107 0.242237
0.893858 0.26836 0.254948
0.915923 0.280568 0.267674
0.935393 0.293797 0.281529
0.954757 0.306859 0.295247
0.970336 0.320241 0.309148
0.0899672 0.126879 0.0793622
0.129259 0.121386 0.075639
0.165621 0.116686 0.0720226
0.202899 0.11194 0.067277
0.23682 0.110277 0.0662394
0.279301 0.108553 0.06598
0.315404 0.111452 0.0694438
0.346639 0.116152 0.074876
0.376242 0.121477 0.0809491
0.404562 0.127214 0.0873732
0.431876 0.133181 0.0939956
0.458991 0.139422 0.100832
0.485725 0.145953 0.107836
0.511925 0.152575 0.114824
0.538094 0.160021 0.122591
0.564172 0.167208 0.130266
0.591012 0.175174 0.138216
0.61796 0.183032 0.145953
0.644495 0.19086 0.153689
0.670985 0.198978 0.161913
0.69749 0.20705 0.170108
0.723903 0.216007 0.179492
0.750134 0.225299 0.18912
0.775952 0.234836 0.198657
0.801617 0.246006 0.210269
0.826993 0.256962 0.221576
0.851179 0.268421 0.233402
0.873945 0.280278 0.245808
0.896605 0.291981 0.258732
0.917144 0.303914 0.272084
0.936614 0.316106 0.28574
0.955932 0.327794 0.298894
0.969512 0.340566 0.312886
0.0879377 0.157565 0.083711
0.121569 0.15346 0.0810559
0.159258 0.149386 0.0763256
0.200488 0.144717 0.0707713
0.235874 0.143069 0.070573
0.282353 0.139528 0.0698253
0.318166 0.140444 0.0724804
0.349325 0.144472 0.0778668
0.377874 0.148684 0.0832837
0.406439 0.154314 0.0899977
0.433768 0.15996 0.0966964
0.461189 0.166293 0.103746
0.488029 0.172625 0.111055
0.514763 0.179477 0.118624
0.541329 0.186633 0.126085
0.567651 0.193896 0.133318
0.594659 0.201801 0.140795
0.621042 0.209567 0.148089
0.647501 0.217533 0.155825
0.673884 0.225528 0.163699
0.700084 0.233631 0.171679
0.726452 0.242939 0.181231
0.752529 0.25211 0.19057
0.778317 0.26183 0.200809
0.803723 0.272312 0.212085
0.829129 0.282673 0.223178
0.852308 0.293477 0.235798
0.875074 0.304173 0.248569
0.897551 0.314839 0.261036
0.917037 0.326482 0.274525
0.936461 0.337652 0.28751
0.954589 0.348959 0.300526
0.968658 0.361028 0.314153
0.0810254 0.189792 0.0852216
0.111406 0.187686 0.0825818
0.152377 0.182849 0.0782177
0.193011 0.178592 0.0749981
0.232731 0.175357 0.0736248
0.282551 0.171115 0.0726482
0.320073 0.171328 0.0753796
0.35108 0.174594 0.0803845
0.380041 0.178607 0.0857862
0.408133 0.183566 0.0921035
0.435279 0.188785 0.0986801
0.46273 0.194766 0.105531
0.489052 0.200732 0.112245
0.51603 0.207523 0.119219
0.542306 0.21445 0.126131
0.568826 0.221714 0.13315
0.595514 0.229252 0.140291
0.621332 0.236652 0.147448
0.647944 0.244617 0.155184
0.674311 0.252491 0.162951
0.700389 0.260838 0.171359
0.726436 0.269749 0.180514
0.752407 0.278752 0.189609
0.778073 0.288624 0.20032
0.803433 0.298558 0.211688
0.828153 0.308553 0.223102
0.850736 0.318791 0.235645
0.873335 0.328695 0.247974
0.894713 0.338811 0.260227
0.914687 0.34934 0.27332
0.934295 0.359457 0.285924
0.951492 0.370306 0.299245
0.966613 0.381537 0.312947
0.0781567 0.215915 0.0856489
0.106767 0.215061 0.084947
0.140581 0.213382 0.0844282
0.178195 0.211933 0.0830549
0.222416 0.210208 0.0803082
0.279072 0.207294 0.0785229
0.321233 0.207492 0.0801251
0.352392 0.208606 0.0831617
0.380911 0.211093 0.0874189
0.407782 0.214405 0.0923323
0.434089 0.218433 0.0976425
0.461631 0.224521 0.10457
0.488594 0.230472 0.111147
0.515602 0.2374 0.117937
0.541772 0.243977 0.124315
0.567773 0.251102 0.131044
0.59353 0.258289 0.137743
0.61912 0.265446 0.144442
0.645106 0.272908 0.151751
0.670695 0.280446 0.158999
0.69662 0.288502 0.167254
0.72253 0.297078 0.17612
0.748455 0.305684 0.184939
0.773739 0.315221 0.196078
0.798672 0.324758 0.207477
0.822965 0.334081 0.218982
0.845518 0.343435 0.231113
0.867903 0.352728 0.243015
0.888991 0.362127 0.255283
0.908934 0.371801 0.267979
0.928725 0.381125 0.280201
0.945556 0.391623 0.293782
0.961028 0.402197 0.307378
0.0705425 0.245594 0.0794995
0.0933394 0.247044 0.0806744
0.122423 0.247227 0.0826886
0.155535 0.246967 0.0836957
0.196033 0.245777 0.0832532
0.255741 0.244633 0.0811627
0.304723 0.246677 0.0815595
0.341817 0.250004 0.084062
0.375265 0.254047 0.0872511
0.404654 0.258427 0.0919051
0.433234 0.262852 0.0968185
0.458732 0.266682 0.101411
0.483589 0.270481 0.105623
0.508202 0.274952 0.110063
0.532113 0.279515 0.114473
0.555947 0.284764 0.119234
0.580728 0.291218 0.125536
0.605692 0.298116 0.132036
0.631235 0.305501 0.13933
0.656535 0.312627 0.146304
0.681682 0.320119 0.153628
0.707164 0.327916 0.162203
0.732097 0.335668 0.170321
0.756695 0.343954 0.17966
0.780911 0.352087 0.189502
0.804959 0.360235 0.199557
0.826902 0.368734 0.2112
0.849073 0.376959 0.222766
0.870405 0.385107 0.234409
0.890501 0.39382 0.247227
0.910414 0.402319 0.259663
0.929 0.411521 0.272648
0.945281 0.421225 0.286778
0.0676738 0.273594 0.0792401
0.0888991 0.275792 0.0812848
0.115892 0.276921 0.0841688
0.145785 0.27718 0.0867323
0.18117 0.276524 0.0890516
0.239673 0.276844 0.0880751
0.291463 0.280491 0.0880751
0.334493 0.286641 0.0906081
0.372702 0.29247 0.0936141
0.405585 0.297826 0.098024
0.436667 0.30341 0.102556
0.463828 0.307973 0.107073
0.490669 0.312856 0.111879
0.515999 0.318273 0.116884
0.540291 0.323369 0.121767
0.564172 0.328618 0.126726
0.587076 0.333501 0.131456
0.609415 0.338338 0.135668
0.632547 0.343359 0.140734
0.655528 0.34847 0.145571
0.678355 0.353811 0.150896
0.702144 0.360204 0.157656
0.726345 0.367117 0.165103
0.75053 0.374517 0.174121
0.774197 0.382086 0.183246
0.797116 0.389181 0.192294
0.819043 0.396704 0.20354
0.840436 0.403723 0.214389
0.861173 0.410758 0.22501
0.880964 0.418448 0.237232
0.90042 0.425864 0.248951
0.918837 0.433539 0.261051
0.935699 0.442313 0.274693
0.0714275 0.301915 0.0849165
0.0924849 0.303639 0.0870985
0.117311 0.304891 0.0892958
0.1458 0.305455 0.0923018
0.178531 0.305226 0.0963607
0.231952 0.304417 0.0961013
0.281636 0.308217 0.0972152
0.328542 0.316472 0.100191
0.370291 0.324865 0.103807
0.40885 0.332921 0.107851
0.444038 0.34078 0.112566
0.474769 0.347799 0.118379
0.504768 0.354788 0.124147
0.529229 0.359655 0.128923
0.553689 0.365087 0.133776
0.576883 0.36968 0.138216
0.599725 0.374533 0.14258
0.622477 0.379553 0.147448
0.645869 0.384939 0.152514
0.668498 0.389868 0.157412
0.691142 0.395132 0.162753
0.713359 0.400061 0.168261
0.735012 0.404532 0.173144
0.756436 0.409659 0.180011
0.777539 0.414771 0.187076
0.798032 0.419471 0.194293
0.818235 0.42501 0.203845
0.838254 0.430533 0.212802
0.858366 0.436851 0.223163
0.878065 0.443687 0.235019
0.897475 0.45037 0.246326
0.915724 0.457664 0.258549
0.933272 0.465537 0.272007
0.0759899 0.329534 0.0911574
0.0973831 0.331167 0.0944839
0.119646 0.332357 0.0972152
0.147402 0.332891 0.101274
0.178958 0.33286 0.105303
0.228931 0.33135 0.106737
0.278126 0.335607 0.108446
0.323232 0.342947 0.110857
0.36701 0.352712 0.114885
0.409384 0.363287 0.119539
0.446464 0.372869 0.124895
0.481163 0.381949 0.130297
0.513268 0.390509 0.135851
0.541329 0.397894 0.141787
0.569299 0.40557 0.147845
0.593912 0.411597 0.153399
0.618448 0.418006 0.159289
0.641794 0.423362 0.164309
0.663645 0.427848 0.168536
0.684901 0.431769 0.172168
0.705791 0.435035 0.176043
0.726558 0.43859 0.180209
0.747204 0.442359 0.185
0.767651 0.446464 0.191714
0.787671 0.450217 0.19794
0.807065 0.4542 0.204974
0.826261 0.458503 0.213092
0.844999 0.462562 0.220722
0.863203 0.467155 0.22977
0.881514 0.472038 0.239582
0.899123 0.476738 0.248859
0.916381 0.482918 0.2607
0.9337 0.489158 0.272755
0.0835584 0.357183 0.10222
0.102785 0.358419 0.104631
0.12401 0.359442 0.107134
0.151492 0.359747 0.110628
0.182727 0.359701 0.114092
0.23003 0.358465 0.118273
0.276204 0.361349 0.119219
0.316274 0.365911 0.120638
0.364767 0.379644 0.126238
0.411307 0.393256 0.131975
0.45095 0.404471 0.137041
0.489525 0.415793 0.14255
0.522744 0.425437 0.148989
0.553552 0.434424 0.155459
0.583246 0.443153 0.161883
0.609293 0.450111 0.167895
0.635462 0.457359 0.173938
0.65922 0.462989 0.179248
0.682445 0.468406 0.184588
0.70518 0.473716 0.189975
0.726024 0.477211 0.194476
0.746197 0.480476 0.199084
0.76553 0.483284 0.203845
0.783505 0.485191 0.208164
0.800793 0.486442 0.211673
0.818006 0.488411 0.217075
0.834897 0.490394 0.222629
0.852323 0.492943 0.228779
0.870207 0.497139 0.238376
0.88777 0.501259 0.247288
0.904768 0.505089 0.256092
0.92192 0.510536 0.267857
0.938613 0.515755 0.279103
0.091783 0.384253 0.112764
0.109865 0.38526 0.114778
0.132036 0.385885 0.117128
0.158694 0.385977 0.119768
0.189929 0.386297 0.123461
0.23566 0.384939 0.127672
0.279179 0.387121 0.129885
0.319615 0.393118 0.13315
0.364065 0.403555 0.136858
0.406607 0.414862 0.141482
0.45034 0.429618 0.148623
0.493111 0.444541 0.15613
0.528527 0.455985 0.162203
0.563714 0.467857 0.168414
0.594888 0.477852 0.174853
0.624292 0.486717 0.181613
0.653162 0.495918 0.188647
0.678096 0.502754 0.195682
0.702617 0.509071 0.202594
0.72433 0.513252 0.207996
0.744656 0.516182 0.212543
0.764935 0.519448 0.217334
0.783047 0.521141 0.221439
0.800595 0.52256 0.22562
0.818296 0.524498 0.230106
0.834897 0.525887 0.235386
0.85127 0.527321 0.240284
0.867338 0.528984 0.245808
0.883009 0.530938 0.252689
0.898222 0.532464 0.258885
0.913481 0.53492 0.267094
0.928878 0.538247 0.276768
0.944076 0.541268 0.285954
0.100633 0.410834 0.123064
0.117479 0.411566 0.124331
0.140841 0.41181 0.126497
0.166186 0.411704 0.128237
0.197696 0.412421 0.132235
0.242771 0.411307 0.136492
0.282643 0.412863 0.141497
0.322454 0.418524 0.143908
0.361227 0.425162 0.145434
0.406363 0.439063 0.151843
0.452949 0.455863 0.160128
0.495201 0.470832 0.167544
0.533959 0.484718 0.174411
0.572427 0.498802 0.181918
0.604105 0.509178 0.188617
0.635859 0.519631 0.195407
0.664668 0.528328 0.202594
0.691157 0.535637 0.209674
0.717952 0.543175 0.216938
0.740047 0.547753 0.223056
0.762325 0.552285 0.229557
0.783368 0.55639 0.235737
0.801755 0.558602 0.240681
0.820066 0.561166 0.24564
0.836713 0.56231 0.249882
0.851759 0.562249 0.253407
0.866789 0.562432 0.256855
0.881666 0.562829 0.262318
0.896406 0.563622 0.268086
0.911101 0.564385 0.273442
0.926223 0.567071 0.282994
0.941192 0.569467 0.292485
0.95552 0.571694 0.302022
0.111025 0.437293 0.132601
0.128801 0.437598 0.13373
0.151766 0.437766 0.135271
0.176989 0.437491 0.13698
0.20795 0.438041 0.140551
0.252506 0.437247 0.145022
0.291112 0.438926 0.150729
0.329198 0.443748 0.153277
0.364187 0.448875 0.156313
0.409018 0.462913 0.162615
0.451453 0.47599 0.168582
0.494774 0.492958 0.177172
0.537789 0.510704 0.187045
0.577356 0.526421 0.195911
0.612619 0.539025 0.202838
0.64802 0.551949 0.209857
0.677317 0.560632 0.21735
0.706477 0.569253 0.22501
0.73312 0.576547 0.232425
0.756115 0.581949 0.239506
0.779583 0.58732 0.246632
0.79968 0.590616 0.252369
0.818586 0.593225 0.257984
0.837491 0.596048 0.263691
0.853513 0.596643 0.268238
0.869505 0.597406 0.272801
0.885039 0.598062 0.277638
0.899367 0.598444 0.282811
0.913359 0.598337 0.287449
0.926955 0.598596 0.293629
0.940276 0.599069 0.301808
0.953262 0.599588 0.309407
0.965515 0.60116 0.319005
0.121538 0.463157 0.14136
0.140673 0.463203 0.142473
0.162509 0.463142 0.143465
0.188037 0.463294 0.145449
0.218112 0.463523 0.148241
0.262074 0.462882 0.15346
0.300267 0.464576 0.158907
0.334646 0.467979 0.162966
0.370718 0.474678 0.167468
0.41088 0.48513 0.172183
0.450309 0.496788 0.178103
0.495933 0.515724 0.188968
0.539452 0.533455 0.199435
0.578622 0.548928 0.207965
0.617121 0.564385 0.21677
0.653193 0.578103 0.225315
0.685161 0.588602 0.232517
0.717723 0.599405 0.239628
0.744366 0.606455 0.246891
0.770123 0.612985 0.254185
0.794858 0.619104 0.261662
0.815412 0.623102 0.268803
0.835981 0.627085 0.276204
0.854917 0.630198 0.282765
0.871763 0.6318 0.288457
0.88806 0.632792 0.293492
0.902358 0.632715 0.298222
0.915999 0.632029 0.303044
0.929702 0.631952 0.308339
0.943069 0.632242 0.315969
0.956329 0.632593 0.323964
0.969604 0.63331 0.331701
0.979171 0.635126 0.342397
0.132296 0.489403 0.150607
0.151705 0.489479 0.152392
0.172213 0.489082 0.153674
0.198383 0.489326 0.156451
0.227558 0.488701 0.158785
0.271992 0.488136 0.163272
0.310048 0.490028 0.168734
0.342748 0.493462 0.174609
0.378073 0.499901 0.179217
0.412131 0.506722 0.183154
0.452369 0.519677 0.190539
0.495384 0.53576 0.199588
0.537362 0.552071 0.208804
0.580453 0.571572 0.220264
0.62356 0.591546 0.232502
0.660624 0.605447 0.24033
0.695705 0.617685 0.247318
0.728634 0.628901 0.254978
0.755718 0.635859 0.262425
0.783658 0.643549 0.269795
0.807324 0.649088 0.277409
0.828916 0.653346 0.285084
0.850507 0.657938 0.292363
0.868345 0.659983 0.299016
0.885801 0.66212 0.305531
0.902892 0.664179 0.312276
0.917861 0.664851 0.318761
0.932906 0.665766 0.325368
0.947555 0.66659 0.332418
0.960601 0.66685 0.339956
0.973617 0.666926 0.347173
0.983841 0.666987 0.354955
0.990677 0.667353 0.363867
0.142535 0.515618 0.162249
0.161486 0.515267 0.163577
0.182879 0.514839 0.165026
0.208621 0.514397 0.167193
0.238056 0.514076 0.169589
0.282002 0.512978 0.172915
0.319356 0.515328 0.179492
0.351476 0.518761 0.185779
0.38381 0.52372 0.18996
0.414359 0.528954 0.194598
0.455787 0.542611 0.201923
0.494148 0.554833 0.20882
0.53724 0.572702 0.219455
0.580743 0.592172 0.231479
0.62266 0.610224 0.242634
0.661646 0.626215 0.252155
0.700755 0.642878 0.262684
0.73344 0.65388 0.270756
0.764675 0.663203 0.278187
0.795331 0.672663 0.285725
0.818631 0.677668 0.293477
0.842039 0.682704 0.300984
0.863966 0.687083 0.308705
0.882765 0.690364 0.316991
0.90164 0.693919 0.325093
0.918288 0.695705 0.33257
0.934127 0.6972 0.339956
0.949889 0.698955 0.347616
0.963165 0.699672 0.355596
0.97525 0.700359 0.363684
0.987305 0.701289 0.371923
0.992554 0.701473 0.380621
0.996475 0.701442 0.389075
0.15349 0.540597 0.173327
0.171862 0.539971 0.174121
0.194186 0.539544 0.17583
0.218921 0.538872 0.177295
0.248981 0.53904 0.179873
0.292592 0.537911 0.182589
0.329992 0.540124 0.188602
0.361944 0.54403 0.194675
0.391897 0.548577 0.200977
0.42356 0.555444 0.206973
0.457954 0.564202 0.212238
0.49221 0.573953 0.218112
0.536904 0.592782 0.229801
0.580072 0.610666 0.241199
0.623011 0.629984 0.253223
0.665644 0.65005 0.266407
0.706127 0.668086 0.278508
0.739437 0.678691 0.286046
0.77319 0.690166 0.294514
0.801999 0.698405 0.302419
0.8271 0.704097 0.309819
0.852872 0.710277 0.316976
0.873869 0.714305 0.325109
0.89395 0.718013 0.333303
0.914137 0.721736 0.341344
0.931502 0.724743 0.350637
0.948959 0.72781 0.360204
0.965316 0.730938 0.369879
0.977447 0.732555 0.379431
0.989654 0.734676 0.389136
0.998108 0.736019 0.398337
0.999542 0.735698 0.406195
1 0.735088 0.413626
0.164538 0.564965 0.183719
0.182635 0.564141 0.184085
0.205203 0.563882 0.185657
0.229389 0.56321 0.186847
0.26009 0.563699 0.189456
0.303548 0.56289 0.192233
0.340856 0.56492 0.197513
0.371771 0.569116 0.204685
0.400519 0.573663 0.211994
0.431525 0.580041 0.217548
0.461738 0.586786 0.222843
0.498268 0.598688 0.231083
0.537804 0.613245 0.240757
0.57673 0.628138 0.250675
0.620996 0.648249 0.264454
0.664714 0.668269 0.278386
0.704265 0.684703 0.289754
0.741405 0.700038 0.300481
0.778698 0.715923 0.311833
0.807111 0.723018 0.318715
0.835828 0.73051 0.325811
0.862791 0.737408 0.333333
0.884855 0.741924 0.341695
0.907164 0.746593 0.349981
0.927413 0.750896 0.359915
0.945998 0.754971 0.370916
0.964767 0.759152 0.381872
0.977661 0.762051 0.39234
0.988327 0.76437 0.402716
0.998627 0.767132 0.413321
1 0.76759 0.422263
1 0.767666 0.430854
1 0.768109 0.43975
0.175555 0.588617 0.192691
0.194873 0.588129 0.193683
0.216709 0.587991 0.19498
0.241749 0.587991 0.19675
0.27158 0.588144 0.199023
0.315221 0.587747 0.201846
0.352178 0.58999 0.206897
0.382925 0.59443 0.21442
0.411948 0.599313 0.221683
0.440589 0.605341 0.228794
0.467521 0.611292 0.236103
0.502129 0.621744 0.243641
0.53402 0.630793 0.250462
0.574182 0.64651 0.261631
0.620111 0.66659 0.2757
0.66421 0.685695 0.289265
0.704189 0.704036 0.301976
0.744366 0.722652 0.315328
0.779721 0.736004 0.325658
0.811139 0.745357 0.333547
0.843091 0.755947 0.342351
0.868162 0.761944 0.350668
0.892439 0.767422 0.358968
0.916945 0.772961 0.367376
0.937484 0.777874 0.379034
0.958007 0.782895 0.390448
0.976211 0.787854 0.401999
0.985534 0.791394 0.413809
0.994522 0.795178 0.425742
0.999954 0.798276 0.437293
0.999954 0.799329 0.447425
0.999985 0.800855 0.457832
1 0.801587 0.467536
0.186358 0.612024 0.201694
0.206638 0.612665 0.203937
0.227985 0.612909 0.205783
0.253681 0.613519 0.208209
0.282704 0.613413 0.210498
0.326665 0.613108 0.212818
0.363409 0.615656 0.218235
0.394415 0.619928 0.225452
0.422766 0.625315 0.23331
0.449805 0.6309 0.241611
0.477882 0.637461 0.249058
0.507622 0.644862 0.255436
0.536767 0.652384 0.262348
0.578103 0.668467 0.274174
0.616632 0.682887 0.284977
0.657084 0.699992 0.297597
0.700633 0.71989 0.3122
0.74432 0.739925 0.327092
0.779339 0.753246 0.337652
0.814343 0.767514 0.348928
0.84712 0.779965 0.359731
0.87451 0.786694 0.367895
0.902419 0.793988 0.376165
0.927138 0.80032 0.386648
0.949554 0.806012 0.398886
0.971618 0.811627 0.410788
0.983169 0.816175 0.423529
0.991012 0.820294 0.436377
0.998917 0.824414 0.448936
1 0.826291 0.459998
1 0.828214 0.471046
1 0.830091 0.482002
1 0.83093 0.491691
0.198352 0.638712 0.214511
0.218372 0.639139 0.21651
0.240024 0.639277 0.218311
0.265751 0.640024 0.22118
0.294743 0.640314 0.223606
0.338293 0.639399 0.225284
0.375204 0.641993 0.230594
0.406241 0.64593 0.236957
0.43418 0.651225 0.245441
0.460456 0.656641 0.253666
0.487587 0.662394 0.260899
0.513756 0.668254 0.267918
0.543618 0.676448 0.275731
0.575952 0.686107 0.28368
0.606836 0.695003 0.291142
0.654108 0.716197 0.307073
0.699916 0.736507 0.322515
0.741146 0.754467 0.33637
0.778698 0.771237 0.349447
0.816876 0.788586 0.363424
0.848402 0.798856 0.373816
0.878752 0.808484 0.383993
0.909102 0.818662 0.394903
0.933257 0.824933 0.407065
0.957717 0.831632 0.419409
0.978454 0.837842 0.431876
0.986648 0.842557 0.445167
0.994873 0.847349 0.458091
1 0.851392 0.470695
1 0.854246 0.48307
1 0.857359 0.495338
1 0.860029 0.506889
1 0.861463 0.517052
0.210849 0.665263 0.227481
0.230747 0.665644 0.229267
0.253391 0.666285 0.231662
0.278416 0.666804 0.23418
0.307927 0.667262 0.236698
0.350439 0.665599 0.237888
0.387442 0.668055 0.24271
0.41796 0.671885 0.249088
0.44535 0.676722 0.25713
0.471565 0.681559 0.264775
0.497185 0.686763 0.272358
0.521981 0.691783 0.279789
0.551553 0.699138 0.286702
0.579553 0.706004 0.293385
0.614435 0.717662 0.303365
0.654536 0.733532 0.316045
0.692607 0.747982 0.327977
0.734005 0.766857 0.343313
0.776654 0.786633 0.359625
0.816556 0.804395 0.374975
0.850004 0.817563 0.387976
0.884138 0.83183 0.401877
0.914244 0.84268 0.415229
0.941375 0.850446 0.42771
0.968826 0.858656 0.440436
0.98146 0.864073 0.453498
0.989868 0.869017 0.466773
0.998932 0.874174 0.479927
1 0.87747 0.492546
1 0.880796 0.505287
1 0.884245 0.517845
1 0.886107 0.528756
1 0.887877 0.539498
0.224887 0.692683 0.241032
0.2448 0.693034 0.242603
0.267842 0.693919 0.245304
0.292287 0.694286 0.247562
0.321691 0.694392 0.249805
0.363394 0.692256 0.251057
0.39968 0.69366 0.254826
0.429587 0.697276 0.261219
0.457023 0.701534 0.268193
0.482841 0.706004 0.275776
0.507286 0.710567 0.283619
0.532418 0.715465 0.290852
0.557763 0.72047 0.296956
0.582177 0.725002 0.302846
0.616403 0.736004 0.312551
0.648981 0.745983 0.321523
0.686778 0.76083 0.334401
0.731579 0.78172 0.35227
0.774838 0.801465 0.369512
0.812741 0.818189 0.385245
0.849867 0.834958 0.401511
0.887388 0.851926 0.418235
0.916335 0.861326 0.431769
0.946166 0.871641 0.445914
0.971008 0.881361 0.460166
0.981689 0.887098 0.473732
0.993011 0.893233 0.487175
1 0.89839 0.500435
1 0.902388 0.51371
1 0.906538 0.526864
1 0.909972 0.539406
1 0.912673 0.551278
1 0.915572 0.563287
0.239506 0.719539 0.254032
0.260105 0.719982 0.256092
0.282551 0.720607 0.258274
0.30724 0.720821 0.260487
0.335698 0.720272 0.262638
0.376715 0.718181 0.263645
0.411765 0.718761 0.266773
0.441108 0.721889 0.27277
0.468315 0.725582 0.27892
0.493462 0.729686 0.286778
0.517708 0.733822 0.294423
0.542062 0.737896 0.300801
0.565606 0.741817 0.307179
0.59234 0.747967 0.314595
0.621988 0.755688 0.322698
0.650324 0.762783 0.330282
0.689677 0.779156 0.34519
0.729229 0.795438 0.360418
0.767269 0.811551 0.375814
0.808728 0.831327 0.394995
0.850675 0.851804 0.414847
0.88748 0.868025 0.432685
0.92015 0.881407 0.448875
0.953414 0.895674 0.465476
0.97113 0.90428 0.480003
0.984482 0.910872 0.493721
0.998657 0.917769 0.507286
1 0.922072 0.52076
1 0.926421 0.534249
1 0.93077 0.547509
1 0.933593 0.559716
1 0.936522 0.57203
1 0.939498 0.584375
0.255146 0.745007 0.266621
0.275975 0.745693 0.26923
0.297566 0.746105 0.271199
0.322103 0.74638 0.273686
0.349325 0.74583 0.275624
0.389715 0.743114 0.276066
0.423789 0.74342 0.279225
0.452628 0.745983 0.284459
0.479194 0.749096 0.290745
0.504173 0.752743 0.297993
0.528069 0.75639 0.305013
0.551247 0.759884 0.31191
0.573754 0.763607 0.319097
0.599741 0.76875 0.325841
0.624826 0.773419 0.332097
0.653574 0.781231 0.340948
0.688869 0.794018 0.353735
0.722835 0.806088 0.366094
0.764385 0.825391 0.385199
0.808026 0.84654 0.40621
0.849958 0.866484 0.426444
0.884978 0.881758 0.444129
0.920851 0.897993 0.46276
0.951919 0.912474 0.480735
0.969757 0.921202 0.495735
0.988586 0.930541 0.510918
1 0.938308 0.525719
1 0.943328 0.539452
1 0.948531 0.553429
1 0.953002 0.566934
1 0.956573 0.580194
1 0.960082 0.593179
1 0.963272 0.604349
0.270237 0.770687 0.280781
0.290639 0.771038 0.282902
0.312108 0.771023 0.284703
0.336156 0.771267 0.287221
0.363073 0.770657 0.289067
0.401892 0.767437 0.289128
0.43537 0.767559 0.292134
0.463661 0.769146 0.296544
0.48983 0.771984 0.302846
0.514458 0.775082 0.309117
0.537881 0.778317 0.316121
0.560525 0.781476 0.323308
0.583902 0.785061 0.33019
0.608225 0.789166 0.336782
0.631739 0.793225 0.343313
0.66244 0.802411 0.353979
0.693019 0.811749 0.364675
0.725444 0.823087 0.377218
0.766049 0.841291 0.396368
0.8047 0.858381 0.414557
0.843549 0.876127 0.434073
0.882826 0.895186 0.455192
0.923339 0.915099 0.477317
0.949798 0.92842 0.49514
0.973617 0.940368 0.512184
0.99855 0.953109 0.529763
0.999695 0.958846 0.544198
0.999619 0.964309 0.558434
1 0.970321 0.573022
1 0.973144 0.58648
1 0.975921 0.599725
1 0.978332 0.612726
1 0.979995 0.62211
0.285969 0.794858 0.294255
0.306035 0.795041 0.29601
0.327565 0.795132 0.298009
0.350851 0.79501 0.300038
0.377157 0.794385 0.301885
0.414359 0.790906 0.30193
0.44712 0.790661 0.304646
0.474632 0.791821 0.308888
0.500481 0.794202 0.314565
0.524773 0.796689 0.320287
0.547997 0.79968 0.327321
0.570581 0.802594 0.334127
0.59382 0.806058 0.341146
0.616617 0.809674 0.348302
0.640894 0.814435 0.356237
0.667857 0.821073 0.365347
0.693584 0.826917 0.373724
0.727947 0.839811 0.388663
0.764538 0.854383 0.405097
0.799634 0.868376 0.421134
0.84126 0.888838 0.443824
0.882399 0.908888 0.4663
0.918456 0.926268 0.487083
0.947097 0.940215 0.506142
0.977325 0.955016 0.52578
0.994842 0.966522 0.54403
0.99649 0.973907 0.559731
0.998795 0.981918 0.57586
1 0.986908 0.590829
1 0.989242 0.604639
1 0.991318 0.618402
1 0.993103 0.629618
1 0.994919 0.639445
0.302037 0.818387 0.307286
0.321691 0.818402 0.308873
0.343053 0.818586 0.311101
0.365621 0.818296 0.312886
0.391348 0.817563 0.314809
0.42739 0.814115 0.314717
0.458671 0.81294 0.316808
0.485801 0.813947 0.320958
0.511116 0.815793 0.32575
