LUT预设1/LUT全系打包/电影感系列lut/709电影感系列（正常色彩素材用这个）/cine3电影暗青-709.cube
TITLE "Generated by Resolve"
LUT_3D_SIZE 33
0.0121614 0.0699321 0.0670939
0.0257877 0.0714733 0.0681621
0.039353 0.0729992 0.0691844
0.0529183 0.0744182 0.0699931
0.0641642 0.0763256 0.0708019
0.0733349 0.0788128 0.0714733
0.0829786 0.0811933 0.0719768
0.0931411 0.0836652 0.0725414
0.10602 0.0859998 0.0724041
0.119432 0.0883803 0.0721294
0.132616 0.0907301 0.0718547
0.148592 0.0928359 0.0709392
0.168826 0.0942245 0.0688029
0.189441 0.095552 0.0665141
0.210117 0.0969711 0.0643473
0.231556 0.0974594 0.0581674
0.253101 0.0979629 0.0521553
0.275029 0.0984054 0.0461128
0.298299 0.097612 0.0395056
0.322499 0.0961624 0.0319219
0.346731 0.0946059 0.0236973
0.372015 0.0917372 0.0166934
0.398657 0.0874495 0.0116121
0.425391 0.0833906 0.00616464
0.451453 0.0785992 0.00177005
0.475822 0.0709392 0.00106813
0.500572 0.0631876 0.000457771
0.524773 0.0546426 4.57771e-05
0.547875 0.0409247 0.00030518
0.570947 0.0277256 0.00128176
0.593622 0.0164797 0.00187686
0.612253 0.0143893 0.00234989
0.6309 0.0116732 0.00254826
0.0146487 0.0775006 0.0715038
0.0271153 0.0788891 0.0724956
0.0392615 0.0802319 0.0732891
0.0512551 0.081529 0.0740215
0.061799 0.0838178 0.0745556
0.0728466 0.086183 0.0748913
0.084535 0.0884871 0.0753033
0.096788 0.0908675 0.0754864
0.109743 0.0932631 0.0751202
0.122805 0.0957809 0.074815
0.135851 0.0982223 0.0743725
0.15523 0.0999161 0.0723888
0.175784 0.101427 0.0702831
0.196704 0.102953 0.0680247
0.217929 0.104082 0.0640574
0.239796 0.104768 0.0581826
0.262058 0.105486 0.0524605
0.284642 0.106142 0.0462806
0.308659 0.105379 0.0375219
0.333059 0.104494 0.0281834
0.357763 0.103761 0.0181735
0.384298 0.101335 0.0127565
0.411444 0.0989548 0.00758373
0.438697 0.0965744 0.00224308
0.464073 0.090837 0.00270085
0.488792 0.0838941 0.00375372
0.513603 0.0769207 0.0043183
0.537392 0.0673686 0.004654
0.560662 0.0561837 0.00479133
0.584024 0.0453498 0.00462348
0.604944 0.0376898 0.00433356
0.623896 0.0318914 0.00411994
0.642908 0.0257267 0.00366217
0.0162356 0.0850233 0.0754711
0.0271458 0.0862898 0.076112
0.0376898 0.0874342 0.0767987
0.0487526 0.0890364 0.0772564
0.0612345 0.09131 0.0775616
0.0741741 0.0935531 0.077821
0.0877699 0.0957961 0.0780346
0.100511 0.098436 0.0777295
0.113054 0.101167 0.0772869
0.125673 0.103899 0.0766918
0.141253 0.106325 0.0755779
0.161852 0.108263 0.0732433
0.182528 0.11017 0.0710307
0.203525 0.112108 0.0686656
0.225681 0.11342 0.0628519
0.248081 0.114641 0.0570993
0.270909 0.115892 0.0512856
0.294652 0.116213 0.0431067
0.319249 0.115999 0.0329595
0.343862 0.115846 0.023209
0.369635 0.115129 0.0166629
0.396719 0.11339 0.0142214
0.424155 0.111376 0.0115358
0.451026 0.108827 0.00910964
0.476173 0.103365 0.00939956
0.501396 0.0981765 0.00909438
0.526741 0.0924086 0.00813306
0.550195 0.082475 0.0074464
0.573434 0.0723125 0.0065156
0.59707 0.0619821 0.00514229
0.616098 0.0532998 0.00448615
0.635706 0.0437324 0.00367742
0.655039 0.0338598 0.00276188
0.0168002 0.0928817 0.0787671
0.025803 0.0941787 0.0791791
0.0342565 0.0954147 0.0796826
0.0473335 0.0977493 0.0798199
0.0610971 0.100084 0.0800031
0.0756237 0.102434 0.0800031
0.0897078 0.104906 0.0797894
0.102419 0.107729 0.0791791
0.115221 0.110582 0.0784924
0.128313 0.113481 0.0777295
0.147585 0.115801 0.0756695
0.168246 0.117998 0.0732128
0.189014 0.12018 0.0708324
0.210925 0.122194 0.066804
0.233814 0.123659 0.0606546
0.256779 0.125277 0.0550088
0.280308 0.126726 0.049836
0.304784 0.127108 0.0412604
0.329625 0.12755 0.0329747
0.354818 0.128054 0.0249485
0.381888 0.127199 0.0219425
0.409262 0.126116 0.0193332
0.436988 0.125017 0.0162509
0.463325 0.122316 0.0145418
0.48893 0.118761 0.0131838
0.514672 0.115175 0.0111543
0.539269 0.107774 0.00947585
0.563119 0.0979629 0.00791943
0.58706 0.0882582 0.00598154
0.608896 0.0792096 0.00453193
0.628901 0.0705425 0.00361639
0.649363 0.062562 0.00257877
0.666835 0.0552682 0.0018616
0.0161593 0.101472 0.0813611
0.0227054 0.1028 0.0817731
0.0321965 0.104601 0.0819104
0.0469062 0.106966 0.0818799
0.0621958 0.109255 0.0817884
0.0779278 0.11162 0.0814679
0.0913405 0.114382 0.080766
0.104356 0.117342 0.0799878
0.117693 0.120348 0.078996
0.133165 0.123262 0.0774853
0.153887 0.125719 0.0749371
0.17467 0.12813 0.072694
0.195697 0.130694 0.0710002
0.218433 0.132616 0.066392
0.241779 0.134508 0.0615702
0.26566 0.136355 0.0566415
0.290043 0.137819 0.0503548
0.315114 0.138811 0.0427863
0.340261 0.139986 0.0358282
0.366155 0.14052 0.0302892
0.394125 0.139895 0.0270542
0.421759 0.139239 0.0232395
0.44976 0.13817 0.0191196
0.475715 0.135424 0.0172427
0.50248 0.132738 0.0145266
0.528954 0.129946 0.0115663
0.552956 0.122683 0.00952163
0.577386 0.115709 0.00712596
0.601907 0.108858 0.00442512
0.622614 0.102296 0.0033875
0.643412 0.096025 0.00236515
0.664561 0.0897078 0.0012665
0.679744 0.0830091 0.0009308
0.0133669 0.110262 0.0834974
0.0174105 0.111788 0.0837873
0.0317235 0.114015 0.0836042
0.0478523 0.116335 0.0832685
0.0637827 0.118654 0.082826
0.0788128 0.121096 0.0821088
0.0918135 0.124239 0.081117
0.105318 0.127306 0.0800336
0.119249 0.130495 0.0796979
0.138231 0.133272 0.0788128
0.158923 0.135988 0.0775158
0.179721 0.138766 0.0762951
0.20174 0.141344 0.0737469
0.225666 0.143511 0.0688945
0.249805 0.145739 0.0642557
0.274479 0.148013 0.059617
0.299611 0.149508 0.0525826
0.325124 0.151186 0.0459449
0.350698 0.152911 0.0392767
0.378241 0.15314 0.0348516
0.406531 0.153002 0.0299077
0.434852 0.153002 0.0243534
0.462181 0.151934 0.0203555
0.489357 0.150408 0.0172885
0.516716 0.14905 0.0138399
0.54284 0.146181 0.0106508
0.567742 0.142351 0.0077821
0.592721 0.138552 0.00466926
0.615961 0.134615 0.00239567
0.637308 0.129717 0.00143435
0.658869 0.124575 0.000518807
0.677897 0.1178 4.57771e-05
0.693111 0.109651 4.57771e-05
0.0102388 0.119463 0.0850538
0.0176089 0.121462 0.0850538
0.0323796 0.123735 0.0844434
0.0469825 0.126024 0.0837262
0.0611276 0.128283 0.0830854
0.0752422 0.131273 0.0830396
0.0896773 0.134371 0.0832532
0.104982 0.137621 0.0834363
0.122118 0.140703 0.0831617
0.142626 0.143725 0.0821698
0.163622 0.146715 0.0810407
0.184955 0.149889 0.0800793
0.208789 0.152422 0.0758831
0.233539 0.154955 0.0712749
0.258503 0.157534 0.0669108
0.28397 0.159915 0.0614481
0.30985 0.162081 0.0549477
0.33579 0.164279 0.0486
0.362325 0.165911 0.0424506
0.390585 0.166552 0.0365148
0.419181 0.167208 0.0296025
0.447715 0.16762 0.0223697
0.47567 0.167254 0.0189364
0.503868 0.166827 0.0150759
0.53228 0.166461 0.0108797
0.55758 0.163912 0.0080415
0.583246 0.161273 0.00512703
0.609094 0.158785 0.00216678
0.631556 0.154147 0.00132753
0.653849 0.149508 0.000701915
0.67628 0.144945 0.000198367
0.692195 0.13814 0.000976577
0.707561 0.131624 0.00135805
0.00650034 0.129137 0.0859541
0.0185245 0.131319 0.085481
0.0313115 0.133577 0.0858778
0.0435798 0.135912 0.0860151
0.0564431 0.138415 0.086183
0.0721752 0.141649 0.0864881
0.0887465 0.144915 0.0868086
0.106188 0.148211 0.087129
0.126284 0.151354 0.0863355
0.147005 0.154696 0.08542
0.168322 0.15819 0.0844282
0.190906 0.161608 0.0819562
0.215793 0.164538 0.0773785
0.241199 0.167636 0.0726482
0.267277 0.170642 0.0680095
0.293187 0.173266 0.061265
0.319234 0.175875 0.0544747
0.346075 0.1785 0.047364
0.373892 0.17998 0.040589
0.402869 0.181125 0.0331273
0.431571 0.1823 0.0250706
0.460792 0.182818 0.0191501
0.489647 0.183246 0.0149844
0.519524 0.183749 0.0104524
0.547372 0.1832 0.0068513
0.573785 0.181674 0.00454719
0.599863 0.180011 0.00318914
0.624765 0.176974 0.00337224
0.646983 0.172778 0.00376898
0.669795 0.168215 0.00349432
0.689754 0.16376 0.00289921
0.705531 0.159426 0.00236515
0.721614 0.155337 0.00141909
0.00611887 0.139269 0.0887617
0.0172427 0.141695 0.0890211
0.0273289 0.144274 0.0894179
0.0362707 0.146715 0.089662
0.0507668 0.150072 0.0899214
0.0681773 0.153613 0.0902876
0.0860609 0.157137 0.0903792
0.105165 0.160708 0.0900893
0.126406 0.16437 0.0889754
0.148333 0.168109 0.0878462
0.170764 0.171756 0.0865644
0.19588 0.175082 0.0822919
0.222095 0.178332 0.0774548
0.248646 0.18146 0.072694
0.275425 0.184634 0.0666972
0.302083 0.187549 0.0594644
0.329198 0.190448 0.0515145
0.357122 0.193042 0.0433204
0.385779 0.194858 0.0354772
0.41529 0.196612 0.0268406
0.444938 0.198398 0.0178225
0.474876 0.19939 0.0135653
0.505409 0.200656 0.0104219
0.53637 0.201892 0.00840772
0.563012 0.201007 0.0087129
0.589105 0.199817 0.00848402
0.615595 0.198642 0.00755322
0.638743 0.195392 0.00679026
0.661814 0.191913 0.00567636
0.685344 0.188235 0.00387579
0.702876 0.184909 0.00273136
0.719448 0.181262 0.00163272
0.736431 0.177707 0.000320439
0.00743114 0.151705 0.0925154
0.013901 0.154147 0.0930037
0.0192111 0.156725 0.0934462
0.0269627 0.159548 0.0936294
0.0451667 0.163073 0.0936446
0.0635538 0.166659 0.09337
0.0828107 0.170214 0.0931258
0.104311 0.173953 0.0920729
0.126986 0.177829 0.090837
0.150439 0.181781 0.0895705
0.175326 0.185595 0.0871138
0.201984 0.188968 0.0821393
0.229282 0.192386 0.0773632
0.257221 0.195819 0.0726024
0.284108 0.199039 0.0644846
0.311574 0.202701 0.0547646
0.339361 0.20621 0.0447547
0.368414 0.209247 0.0355993
0.39794 0.211948 0.0281071
0.427558 0.214771 0.0222477
0.457786 0.217075 0.0190738
0.488624 0.218784 0.0178988
0.519509 0.220371 0.0163882
0.548959 0.220981 0.0149538
0.575647 0.220188 0.0134585
0.602792 0.219303 0.0108949
0.628824 0.217777 0.0080415
0.652491 0.214725 0.00640879
0.676722 0.211933 0.00436408
0.699153 0.209232 0.0024567
0.71664 0.206241 0.00155642
0.734432 0.203693 0.000656138
0.750515 0.200961 7.62951e-05
0.00476081 0.164279 0.0960708
0.00666819 0.166857 0.0965591
0.00746166 0.169436 0.0970626
0.0214084 0.172778 0.0969253
0.0407416 0.17641 0.0964065
0.0598001 0.179904 0.0956436
0.078706 0.183841 0.0946212
0.101808 0.188098 0.092958
0.126024 0.19263 0.0912795
0.151446 0.197055 0.0894026
0.178485 0.201083 0.0845502
0.206073 0.205035 0.0791028
0.234455 0.209094 0.0737011
0.263035 0.213184 0.0661173
0.291188 0.217243 0.0552682
0.320012 0.221302 0.0454108
0.349157 0.225437 0.0371099
0.379156 0.228672 0.032639
0.409186 0.23209 0.0286107
0.439734 0.235325 0.0243076
0.470649 0.237354 0.0235447
0.502052 0.239109 0.0219883
0.533547 0.240772 0.0198978
0.561532 0.240589 0.0168154
0.589059 0.240116 0.012604
0.617075 0.239612 0.00720226
0.642451 0.237858 0.00453193
0.667674 0.235859 0.00262455
0.693462 0.234012 0.000640879
0.713314 0.232181 0
0.731823 0.230182 0
0.750881 0.228458 0
0.764813 0.226703 0
0.00131228 0.177874 0.0985275
0.00170901 0.180728 0.0990311
0.00575265 0.183825 0.0990768
0.0209049 0.18761 0.0981003
0.0343023 0.191379 0.0970321
0.0461433 0.195117 0.0956893
0.0675822 0.199557 0.0938125
0.0945602 0.204181 0.0916915
0.122759 0.209018 0.0892195
0.152071 0.213687 0.0858778
0.180896 0.217975 0.0797742
0.210376 0.222538 0.0738689
0.240391 0.227085 0.0688029
0.269657 0.231708 0.0593423
0.299153 0.236378 0.0500343
0.329366 0.241108 0.0410468
0.359564 0.24506 0.0364233
0.390066 0.248859 0.033341
0.420661 0.252628 0.0296025
0.45185 0.255497 0.0272526
0.483589 0.257755 0.0257572
0.51548 0.259785 0.0232242
0.545983 0.261387 0.0195315
0.574166 0.26154 0.0144503
0.60293 0.261784 0.00839246
0.630976 0.261677 0.00328069
0.656764 0.260807 0.00210575
0.683131 0.259815 0.000915541
0.708141 0.258808 0
0.727687 0.257282 0
0.74757 0.256184 0
0.765972 0.255131 0
0.779583 0.254154 0
0.000656138 0.192584 0.0999466
0.000732433 0.195682 0.100267
0.00761425 0.199268 0.0993973
0.0153353 0.203052 0.0981765
0.0211795 0.20679 0.0966964
0.0305333 0.210803 0.0948653
0.0601968 0.215839 0.0921645
0.090898 0.22089 0.08925
0.12285 0.225971 0.0871595
0.15314 0.230945 0.0825971
0.182559 0.235889 0.0768292
0.21384 0.240818 0.0711986
0.245121 0.245914 0.0647135
0.275364 0.25124 0.0564889
0.306554 0.256474 0.0490578
0.337957 0.26157 0.0429389
0.368429 0.265843 0.0399634
0.399435 0.270115 0.0360876
0.430991 0.274403 0.0312657
0.462959 0.276921 0.0286259
0.495445 0.279591 0.0251011
0.528084 0.282261 0.0210574
0.558007 0.283421 0.0159304
0.587457 0.284657 0.0100557
0.617533 0.285756 0.0037995
0.645212 0.285771 0.00155642
0.672328 0.285801 0.000808728
0.700359 0.285695 0.00015259
0.72285 0.285237 0
0.743786 0.284733 0
0.76527 0.284337 0
0.781338 0.283787 0
0.795224 0.282673 0.000488289
7.62951e-05 0.207691 0.100801
0.000869764 0.211139 0.100725
0.00396735 0.214893 0.0988937
0.00636301 0.218845 0.0970932
0.00825513 0.22266 0.0951247
0.0292363 0.227481 0.093019
0.0572976 0.232776 0.0908217
0.08365 0.238117 0.0885176
0.109926 0.243458 0.0852369
0.143328 0.248936 0.0792859
0.178515 0.25449 0.0733043
0.216083 0.260075 0.0679484
0.248539 0.265858 0.061677
0.280781 0.271504 0.056199
0.313909 0.27715 0.0505226
0.345846 0.282383 0.045716
0.377554 0.287114 0.0408179
0.409445 0.291844 0.0345617
0.441962 0.295903 0.0288853
0.474723 0.299031 0.0247654
0.50808 0.302251 0.0199741
0.540566 0.305165 0.0146792
0.571099 0.306981 0.00955215
0.602289 0.309255 0.00418097
0.632471 0.311391 0.000122072
0.660685 0.311849 7.62951e-05
0.689113 0.312428 3.0518e-05
0.71632 0.313176 0
0.73753 0.312459 0.00122072
0.758831 0.311528 0.00196841
0.77882 0.310674 0.00195315
0.792905 0.309194 0.00196841
0.807187 0.307805 0.0016022
3.0518e-05 0.223239 0.0997024
0.00132753 0.227054 0.0982834
0.00267033 0.231128 0.0970169
0.00363165 0.235172 0.0967422
0.00848402 0.239597 0.0957809
0.0300298 0.244999 0.0933242
0.049134 0.250355 0.0905928
0.0659342 0.255756 0.0877852
0.0975662 0.261707 0.082414
0.137636 0.267628 0.0766003
0.180026 0.273823 0.070985
0.219715 0.280049 0.06598
0.253361 0.286229 0.0608988
0.287572 0.29221 0.0560922
0.321996 0.298421 0.050248
0.353796 0.303807 0.0439918
0.386267 0.309483 0.0365148
0.419562 0.315068 0.028336
0.452888 0.319142 0.0238346
0.486442 0.323201 0.0191043
0.520638 0.327398 0.0138399
0.552895 0.330587 0.00943008
0.584695 0.333562 0.00537118
0.616846 0.336706 0.00132753
0.646479 0.338323 0.00164797
0.674968 0.33875 0.00370794
0.703532 0.33933 0.0047303
0.727626 0.339117 0.00479133
0.749874 0.33814 0.00424201
0.772717 0.337438 0.0027924
0.789868 0.33637 0.00192264
0.805112 0.335149 0.00140383
0.820584 0.334051 0.000793469
0.000167849 0.239399 0.0991836
0.000564584 0.243641 0.0989548
0.000686656 0.247898 0.0985275
0.000549325 0.252216 0.0984207
0.0102998 0.257313 0.096376
0.0223392 0.262959 0.0930953
0.0327611 0.268696 0.0897993
0.0494545 0.274769 0.0854047
0.0925765 0.281407 0.0794385
0.137346 0.288182 0.0737011
0.181674 0.294911 0.0683909
0.218372 0.301686 0.0631876
0.254688 0.308415 0.0574044
0.292119 0.314946 0.0509957
0.327337 0.321401 0.0441596
0.361059 0.327794 0.0368353
0.395239 0.334081 0.0293126
0.429816 0.340047 0.022446
0.464164 0.344808 0.0175784
0.498787 0.349737 0.0122683
0.533669 0.354696 0.00787366
0.565835 0.358053 0.00848402
0.59855 0.361334 0.00842298
0.631037 0.364141 0.00794995
0.659648 0.364904 0.00833143
0.688701 0.365621 0.00773632
0.717006 0.365881 0.00631724
0.740337 0.365438 0.004654
0.764035 0.365347 0.00256352
0.786618 0.364904 0.000503548
0.802792 0.36466 0.000335698
0.818967 0.364126 0.00015259
0.83418 0.364065 0
0 0.257267 0.100725
1.5259e-05 0.261799 0.100664
1.5259e-05 0.266346 0.100618
0.00166323 0.271168 0.0998093
0.00910964 0.277058 0.0953689
0.0148928 0.282902 0.0911879
0.018967 0.288945 0.0869306
0.0512703 0.295598 0.081529
0.0942702 0.3028 0.0759136
0.137072 0.309789 0.0700542
0.178225 0.316854 0.0639353
0.217624 0.323995 0.057023
0.258183 0.331151 0.049073
0.299275 0.338308 0.0402228
0.33431 0.345464 0.0335546
0.36936 0.352758 0.0266575
0.405814 0.360357 0.0193484
0.44062 0.366155 0.0168154
0.475868 0.37232 0.0161746
0.511421 0.378149 0.0145724
0.544991 0.382773 0.0145876
0.578531 0.386603 0.0139925
0.612345 0.390402 0.0123903
0.643412 0.392691 0.0108949
0.672816 0.394186 0.00927749
0.7028 0.395758 0.00700389
0.729732 0.396445 0.00489815
0.754421 0.396628 0.00308232
0.780041 0.396826 0.00111391
0.799954 0.396872 0.000320439
0.817258 0.396765 0.000183108
0.834531 0.39646 4.57771e-05
0.847776 0.396551 0
0 0.276371 0.10222
0 0.280873 0.102235
0 0.285557 0.102205
0.00198367 0.291173 0.0986801
0.00366217 0.297276 0.0937667
0.00422675 0.303258 0.0891127
0.0132448 0.309728 0.0842756
0.054078 0.317128 0.0781567
0.0945754 0.324331 0.0712902
0.131975 0.332143 0.0637217
0.172229 0.340032 0.0554055
0.215534 0.348302 0.0458534
0.261295 0.356466 0.0356298
0.302495 0.364797 0.0276188
0.338933 0.373449 0.0260929
0.376577 0.382162 0.0250248
0.414176 0.390112 0.0241855
0.449897 0.396628 0.022797
0.485878 0.402823 0.0208896
0.52195 0.408865 0.0182345
0.55668 0.413077 0.0164034
0.591699 0.417594 0.0138552
0.626444 0.421637 0.0106508
0.656733 0.424002 0.00831617
0.687648 0.426154 0.00563058
0.718349 0.428305 0.00271611
0.74435 0.428809 0.0016022
0.770993 0.429343 0.000701915
0.797192 0.429862 0.000122072
0.815152 0.429938 6.10361e-05
0.833356 0.43006 1.5259e-05
0.850828 0.430594 0
0.863111 0.431174 0
0 0.295781 0.103273
0 0.300816 0.102983
0 0.305959 0.101503
0 0.312459 0.0958572
0 0.31899 0.0905928
0 0.32549 0.0857862
0.0233158 0.33315 0.0790417
0.0528878 0.341344 0.0705577
0.0786755 0.349554 0.0609598
0.110338 0.358038 0.0506447
0.15996 0.366705 0.0405585
0.21178 0.376074 0.0341802
0.265431 0.385229 0.0283513
0.304158 0.394369 0.0286107
0.344213 0.403555 0.0285344
0.384985 0.41297 0.0283207
0.422461 0.420264 0.0264897
0.459358 0.427176 0.0232242
0.496651 0.433829 0.0183719
0.533394 0.43946 0.0146181
0.569329 0.444526 0.0113527
0.606439 0.449958 0.00794995
0.639719 0.453849 0.00537118
0.671214 0.457298 0.00328069
0.703532 0.460639 0.00103761
0.733074 0.462852 3.0518e-05
0.760861 0.464439 3.0518e-05
0.788937 0.465827 3.0518e-05
0.8121 0.466911 3.0518e-05
0.831693 0.467857 1.5259e-05
0.851667 0.468925 0
0.86746 0.46981 0
0.881056 0.470558 0
0 0.317968 0.100557
0 0.322957 0.0999619
0 0.329061 0.0962692
0 0.335775 0.0909743
0 0.34229 0.0859236
0.00466926 0.349325 0.0802167
0.0228885 0.3579 0.069688
0.0375067 0.366583 0.0573434
0.0480659 0.375647 0.0473182
0.0965133 0.385382 0.0413519
0.154406 0.395193 0.035935
0.215183 0.404913 0.0312352
0.264714 0.41471 0.0301671
0.305791 0.424201 0.0314641
0.349004 0.433951 0.0308537
0.391302 0.442802 0.0289311
0.429206 0.450416 0.0245365
0.467689 0.458198 0.0188144
0.506783 0.465873 0.0126345
0.544045 0.472099 0.0100404
0.582315 0.478645 0.00726329
0.621027 0.485313 0.00450141
0.653498 0.489677 0.00291447
0.687205 0.49398 0.00140383
0.721096 0.498741 3.0518e-05
0.749706 0.500923 3.0518e-05
0.778988 0.502861 1.5259e-05
0.808057 0.504891 1.5259e-05
0.82919 0.506676 1.5259e-05
0.850004 0.507668 0.000289921
0.870207 0.508415 0.000350958
0.883726 0.508537 0.000289921
0.897612 0.508644 0.000137331
0 0.340246 0.0981003
0 0.345693 0.0968643
0 0.352483 0.0916152
0 0.359106 0.0860914
0 0.365454 0.0806134
0.0065156 0.373907 0.071519
0.0140841 0.383383 0.0619974
0.0202029 0.39292 0.0541238
0.0430152 0.402747 0.0481575
0.0995193 0.412955 0.0450752
0.154925 0.423239 0.0414588
0.208072 0.433463 0.0369573
0.254551 0.443473 0.0359655
0.302678 0.453712 0.033341
0.353582 0.464042 0.0288243
0.395361 0.472938 0.0235142
0.435889 0.481849 0.0169375
0.477531 0.491356 0.00926223
0.517617 0.499474 0.00523384
0.557092 0.507179 0.00341802
0.59765 0.515282 0.0018616
0.635157 0.521996 0.000854505
0.669886 0.527596 0.000289921
0.705058 0.533486 1.5259e-05
0.737545 0.537316 1.5259e-05
0.767407 0.539101 0.000213626
0.79704 0.540841 0.000274662
0.822278 0.541939 6.10361e-05
0.843992 0.542977 4.57771e-05
0.866346 0.543801 1.5259e-05
0.884001 0.544717 0
0.898939 0.545083 0
0.914107 0.545708 0
0 0.361944 0.094789
0 0.368078 0.090425
0 0.374868 0.0849622
0 0.381598 0.0799878
0.00112917 0.389288 0.0749218
0.00523384 0.399359 0.0680095
0.00814832 0.409247 0.061738
0.00996414 0.419318 0.0566415
0.0520638 0.430121 0.0529335
0.100374 0.440772 0.048661
0.146731 0.451469 0.0429694
0.194858 0.462165 0.0377508
0.248798 0.472999 0.032578
0.305745 0.483986 0.0255894
0.359594 0.494499 0.0177462
0.400961 0.504143 0.012253
0.444419 0.514061 0.00595102
0.487511 0.524117 9.15541e-05
0.528206 0.532387 6.10361e-05
0.569924 0.541329 3.0518e-05
0.612085 0.55024 0
0.648081 0.556313 0
0.684047 0.562219 0.00125124
0.720729 0.568139 0.00129702
0.750881 0.570443 0.0012665
0.781765 0.572915 0.000808728
0.812924 0.575555 7.62951e-05
0.835843 0.576852 6.10361e-05
0.859739 0.578561 3.0518e-05
0.883146 0.580056 0
0.899428 0.581582 0
0.916182 0.58294 0
0.932036 0.584802 0
0 0.383734 0.0908675
0 0.390768 0.0859083
0 0.397894 0.0812848
0 0.405081 0.0770275
0.00062562 0.414786 0.072343
0.000656138 0.42533 0.0675517
0.000411994 0.435431 0.0638743
0.0145113 0.445518 0.0601816
0.0548714 0.455924 0.0547494
0.09131 0.466438 0.0477607
0.123476 0.47718 0.0396277
0.182666 0.487999 0.0341344
0.245243 0.499077 0.0276188
0.311223 0.51043 0.0201419
0.360082 0.521447 0.0142824
0.405524 0.532509 0.00852979
0.451728 0.544167 0.0024567
0.496056 0.554788 4.57771e-05
0.539117 0.564584 3.0518e-05
0.582452 0.574548 0.00332647
0.622507 0.582559 0.00451667
0.659953 0.589181 0.00419623
0.698329 0.596323 0.00241093
0.733654 0.60148 0.000732433
0.765484 0.604761 0.000335698
0.798108 0.608301 6.10361e-05
0.82678 0.611109 0
0.851453 0.61294 0
0.876677 0.614984 0
0.89781 0.616602 0
0.915343 0.618433 0
0.933471 0.620401 0
0.946715 0.621866 0
0 0.405447 0.0861524
0 0.412039 0.0817578
0 0.418708 0.0780194
3.0518e-05 0.426184 0.0749981
0.000106813 0.436149 0.0720073
0.000167849 0.446113 0.0689097
0.000198367 0.456046 0.0654917
0.0228885 0.467079 0.0597391
0.0462654 0.478187 0.051957
0.0649271 0.489555 0.0428321
0.10721 0.501106 0.0347295
0.177005 0.513146 0.0284733
0.248981 0.525567 0.0213931
0.31632 0.538033 0.0146029
0.364157 0.550622 0.0096437
0.412284 0.563439 0.00547799
0.461402 0.576211 0.00561532
0.504936 0.58613 0.00820935
0.548486 0.595956 0.00857557
0.593011 0.605951 0.00733959
0.631662 0.612909 0.00584421
0.670878 0.620401 0.0034638
0.710964 0.628 0.000213626
0.744045 0.631998 3.0518e-05
0.777646 0.636454 1.5259e-05
0.811765 0.641001 0
0.838209 0.643671 0
0.865187 0.646464 0
0.89279 0.649454 0
0.911665 0.651804 0
0.930922 0.654292 0
0.949706 0.656504 0
0.961791 0.658595 0
0 0.424048 0.0810559
0 0.430915 0.0789502
0 0.437537 0.0772412
3.0518e-05 0.446708 0.0751659
4.57771e-05 0.456748 0.0722057
4.57771e-05 0.466743 0.0682841
0.00454719 0.477195 0.0627451
0.0154726 0.489219 0.0542153
0.0219577 0.501366 0.0440681
0.0295567 0.513207 0.0324102
0.105241 0.52549 0.0265812
0.179126 0.538277 0.0202335
0.251484 0.551247 0.0144045
0.305669 0.564126 0.0155032
0.357305 0.577081 0.0161593
0.413031 0.589944 0.014725
0.463172 0.601465 0.0136568
0.508095 0.612131 0.0124971
0.55378 0.622751 0.0099031
0.597864 0.632609 0.0071107
0.63888 0.64126 0.00469978
0.681712 0.650446 0.00180056
0.72079 0.657847 6.10361e-05
0.75555 0.663569 4.57771e-05
0.791302 0.669429 1.5259e-05
0.823865 0.674372 0
0.852628 0.678264 0
0.881926 0.682078 0
0.906828 0.685466 0
0.927001 0.687892 0
0.947814 0.690517 0
0.96379 0.69276 0
0.976257 0.694682 0
0 0.442832 0.079408
0 0.449363 0.0797436
0 0.456687 0.0798352
0 0.466209 0.0764019
0 0.475624 0.0709697
0 0.485084 0.0635538
0.00529488 0.496681 0.0542458
0.0102693 0.50898 0.043473
0.0138399 0.521385 0.0314488
0.049073 0.534264 0.0228428
0.11249 0.54789 0.0234684
0.172519 0.561624 0.0238804
0.23035 0.575189 0.0233616
0.290074 0.588815 0.0228428
0.35436 0.602396 0.0199283
0.419821 0.615793 0.0153048
0.466041 0.627588 0.0130922
0.513161 0.639445 0.00988785
0.561578 0.651713 0.00590524
0.604898 0.661433 0.00399786
0.649073 0.670771 0.00221256
0.693797 0.680644 0.000244144
0.730373 0.68719 6.10361e-05
0.766735 0.693843 3.0518e-05
0.804242 0.700771 0
0.835111 0.705226 0
0.865629 0.709499 0
0.897475 0.714137 0
0.919142 0.717647 0
0.941176 0.720806 3.0518e-05
0.961944 0.723415 0
0.973388 0.724529 1.5259e-05
0.985122 0.725704 4.57771e-05
0 0.459236 0.0859388
0 0.465476 0.0870375
0 0.474189 0.0825666
0 0.483314 0.0740978
0 0.4925 0.0632639
0.000961318 0.502754 0.0509957
0.00289921 0.515709 0.0398108
0.00390631 0.529229 0.0331579
0.00477607 0.543114 0.0290074
0.0576181 0.55729 0.030518
0.105852 0.571328 0.0303044
0.151354 0.584726 0.0297551
0.212787 0.597894 0.0281987
