LUT预设1/LUT全系打包/电影感系列lut/709电影感系列（正常色彩素材用这个）/cine2电影709.cube
TITLE "Generated by Resolve"
LUT_3D_SIZE 5
0.0961318 0.0906386 0.0743267
0.372152 0.0951858 0.0761883
0.585489 0.148531 0.13341
0.796841 0.220447 0.205463
0.970336 0.320241 0.309148
0.0759899 0.329534 0.0911574
0.36701 0.352712 0.114885
0.618448 0.418006 0.159289
0.787671 0.450217 0.19794
0.9337 0.489158 0.272755
0.15349 0.540597 0.173327
0.391897 0.548577 0.200977
0.706127 0.668086 0.278508
0.914137 0.721736 0.341344
1 0.735088 0.413626
0.255146 0.745007 0.266621
0.479194 0.749096 0.290745
0.688869 0.794018 0.353735
0.969757 0.921202 0.495735
1 0.963272 0.604349
0.390723 0.929595 0.378988
0.573495 0.92137 0.393912
0.745876 0.936522 0.453864
0.969879 0.997345 0.584619
1 1 0.716823
0.0218509 0.0903639 0.309712
0.334401 0.124483 0.327337
0.582803 0.168307 0.384878
0.803403 0.229816 0.453758
0.963928 0.334173 0.520378
0.0113527 0.363897 0.351949
0.282307 0.352651 0.347097
0.585336 0.377142 0.365316
0.773266 0.426749 0.413184
0.929274 0.486397 0.473808
0.0158999 0.595682 0.431617
0.316899 0.583993 0.411551
0.639796 0.628748 0.44828
0.851316 0.65568 0.48983
0.963607 0.670375 0.526406
0.0479438 0.793423 0.520333
0.4168 0.774502 0.495598
0.640925 0.795361 0.523613
0.931945 0.890349 0.633127
1 0.926726 0.707103
0.290715 0.950652 0.590692
0.542092 0.937804 0.582528
0.721721 0.94435 0.612558
0.899168 0.965881 0.66862
1 1 0.799115
0.024506 0.112718 0.474586
0.254902 0.128801 0.508431
0.569268 0.21236 0.578042
0.776867 0.285817 0.62771
0.948394 0.376547 0.678874
0.0210422 0.392981 0.527199
0.155917 0.377813 0.542245
0.555611 0.419242 0.579751
0.757244 0.461799 0.602625
0.92726 0.508003 0.638148
0.0157168 0.62771 0.615259
0.0778515 0.636927 0.619165
0.551415 0.621302 0.632486
0.80882 0.636332 0.632563
0.952453 0.676081 0.66833
0.0207218 0.831357 0.694072
0.221942 0.821469 0.667292
0.581979 0.83212 0.679606
0.859846 0.847196 0.716731
0.99118 0.851453 0.74519
0.168887 0.979538 0.751308
0.491447 0.961822 0.732876
0.694224 0.959106 0.743236
0.864607 0.959014 0.767865
0.999527 0.998779 0.849546
0.0250706 0.146578 0.623652
0.120058 0.14905 0.663081
0.546059 0.227924 0.72549
0.767147 0.315679 0.771603
0.933883 0.432654 0.80766
0.0314031 0.428031 0.670741
0.0547646 0.421912 0.675837
0.508019 0.429206 0.729671
0.738354 0.492103 0.753246
0.903304 0.55668 0.777569
0.0226596 0.65388 0.759838
0.0438239 0.645884 0.752605
0.478233 0.631373 0.794888
0.769772 0.668849 0.797162
0.930938 0.707485 0.804044
0.0213169 0.84155 0.829358
0.0925917 0.834394 0.819165
0.508629 0.849378 0.831144
0.795316 0.831601 0.842023
0.967956 0.84036 0.835111
0.256672 0.976501 0.868833
0.434592 0.971466 0.856703
0.653971 0.977874 0.857572
0.836515 0.971435 0.865431
0.99826 0.980941 0.893385
0.0278172 0.192401 0.77322
0.0431067 0.19115 0.814176
0.501823 0.253162 0.850172
0.7476 0.357229 0.890806
0.919768 0.474632 0.912886
0.0368963 0.45922 0.802365
0.0211948 0.456596 0.806012
0.431022 0.445853 0.852842
0.714672 0.515038 0.873289
0.888609 0.583993 0.889052
0.0336156 0.671763 0.874281
0.0323644 0.661418 0.860761
0.438956 0.660655 0.891081
0.738231 0.681483 0.915068
0.910719 0.732265 0.911696
0.062562 0.848096 0.935836
0.0768902 0.838697 0.927718
0.520943 0.84271 0.931044
0.762631 0.837888 0.952026
0.94583 0.859236 0.941024
0.415824 0.967865 0.958419
0.454765 0.962646 0.952224
0.666728 0.966659 0.95552
0.816464 0.974517 0.963272
0.967102 0.963882 0.958267
