LUT预设1/LUT全系打包/电影感系列lut/709电影感系列（正常色彩素材用这个）/cold低饱和冷709.cube
TITLE "Generated by Resolve"
LUT_3D_SIZE 33
0.0366827 0.0472419 0.0562448
0.0532692 0.0488594 0.0580453
0.0707408 0.0505074 0.0604562
0.102342 0.0525673 0.0612345
0.14757 0.0547799 0.0605173
0.197833 0.0587778 0.0606546
0.245411 0.0642405 0.0626383
0.291173 0.0699474 0.0652171
0.334401 0.0756542 0.0673686
0.376425 0.0813306 0.0695201
0.41532 0.0877852 0.071809
0.453223 0.0941329 0.0737621
0.489189 0.100465 0.0758068
0.523995 0.1066 0.0776532
0.557473 0.112627 0.07953
0.589914 0.118624 0.0816052
0.621958 0.124407 0.0834516
0.652491 0.130068 0.0853742
0.682673 0.1355 0.0870375
0.711833 0.141894 0.0905318
0.740093 0.148592 0.0945754
0.767895 0.155383 0.0984512
0.79382 0.162173 0.102098
0.819944 0.168978 0.105608
0.840955 0.174411 0.108446
0.862333 0.180072 0.111238
0.880537 0.184436 0.11342
0.893965 0.186481 0.114534
0.907225 0.188617 0.115587
0.91841 0.190326 0.116335
0.929976 0.191836 0.116838
0.938537 0.193118 0.117128
0.938384 0.193957 0.117662
0.0431983 0.0651408 0.063859
0.0578012 0.0667277 0.0658732
0.0766613 0.0684367 0.0666361
0.103929 0.0706951 0.0654612
0.149203 0.0728771 0.063859
0.196948 0.0758373 0.0637827
0.243763 0.0808881 0.0660105
0.287404 0.0857862 0.0679789
0.33138 0.0911269 0.0695201
0.373312 0.0962692 0.0706951
0.41265 0.101747 0.0721141
0.450706 0.107347 0.0731365
0.486458 0.113329 0.0746624
0.521218 0.119234 0.0757458
0.554314 0.125643 0.0773327
0.586999 0.131975 0.0787671
0.618448 0.13846 0.0805219
0.648432 0.144884 0.0845655
0.678386 0.151369 0.0884413
0.707027 0.158129 0.092546
0.735851 0.164797 0.0963149
0.762707 0.171618 0.0999313
0.789746 0.178485 0.103273
0.815198 0.18526 0.106416
0.838224 0.191943 0.109483
0.861387 0.19881 0.112505
0.877211 0.201862 0.113863
0.891447 0.204379 0.114702
0.905425 0.206928 0.115343
0.917449 0.208804 0.115373
0.929488 0.210498 0.115999
0.934401 0.211887 0.117464
0.93666 0.21323 0.118776
0.0496681 0.08542 0.0728466
0.0626078 0.0869612 0.0747082
0.0816358 0.0891585 0.0753338
0.104051 0.0914015 0.0753643
0.148318 0.0931868 0.0713054
0.1953 0.0960098 0.0690929
0.240101 0.0999008 0.0696422
0.284337 0.104372 0.0701762
0.327932 0.109026 0.0704356
0.368948 0.113863 0.0707408
0.407828 0.119066 0.0711528
0.445289 0.124437 0.0715801
0.481102 0.130175 0.072221
0.516213 0.136034 0.0727245
0.548867 0.142184 0.0742809
0.581353 0.148257 0.077348
0.611841 0.154833 0.0819715
0.641886 0.161486 0.0862287
0.671305 0.168231 0.0905013
0.700069 0.175067 0.0945144
0.728756 0.181903 0.0981003
0.755825 0.188907 0.101396
0.782925 0.196002 0.104402
0.808026 0.20293 0.107118
0.831861 0.209964 0.109697
0.854917 0.216449 0.111803
0.871214 0.220081 0.112566
0.888228 0.224109 0.113237
0.902632 0.226703 0.11342
0.914885 0.228321 0.114748
0.926925 0.23006 0.116274
0.931441 0.231693 0.117861
0.936797 0.233371 0.119463
0.0580758 0.108949 0.0835126
0.0690776 0.109453 0.0849775
0.0855573 0.111559 0.0861677
0.104295 0.113649 0.0869001
0.146029 0.115221 0.0775921
0.191684 0.117403 0.0727245
0.234501 0.120302 0.070985
0.277943 0.124224 0.0702525
0.320455 0.128145 0.0694285
0.360418 0.133074 0.0697032
0.399145 0.138018 0.0702373
0.435935 0.143343 0.0712444
0.471839 0.148989 0.0724956
0.505943 0.154849 0.0760357
0.538827 0.160983 0.0797589
0.570993 0.16701 0.0832837
0.601541 0.173373 0.0869001
0.631525 0.179599 0.0902419
0.660899 0.186267 0.0933242
0.689921 0.192874 0.0961776
0.718273 0.199649 0.0987259
0.745846 0.206744 0.101335
0.773434 0.213962 0.103883
0.798413 0.221256 0.10631
0.822919 0.228611 0.1084
0.845151 0.234897 0.10988
0.86424 0.240009 0.110735
0.883772 0.245548 0.112535
0.897536 0.247776 0.114443
0.910048 0.249546 0.115877
0.92134 0.251179 0.117464
0.929244 0.25301 0.119265
0.938064 0.254902 0.120897
0.0688792 0.138231 0.0974746
0.0762036 0.138354 0.0982834
0.0908675 0.139635 0.099443
0.107485 0.140551 0.0999771
0.135805 0.142428 0.0949264
0.172564 0.144503 0.0869612
0.21091 0.147311 0.0776684
0.253925 0.149813 0.0734722
0.296818 0.152102 0.0704204
0.337377 0.155764 0.0703136
0.376486 0.159808 0.0711986
0.413626 0.164614 0.0728923
0.449699 0.170047 0.0751354
0.484016 0.17557 0.0783703
0.516854 0.181537 0.0821698
0.549126 0.187533 0.0855421
0.57969 0.193912 0.0888228
0.609659 0.200122 0.0917372
0.639139 0.206683 0.0945602
0.668132 0.213352 0.0970932
0.696284 0.220096 0.0994278
0.724178 0.227131 0.101564
0.752132 0.234104 0.103456
0.777874 0.241016 0.105043
0.803281 0.248081 0.106325
0.82742 0.254994 0.107271
0.849256 0.261463 0.108614
0.871031 0.267933 0.110292
0.886046 0.270878 0.113207
0.899413 0.272938 0.115618
0.912688 0.275364 0.118044
0.922866 0.27715 0.120226
0.933318 0.279026 0.122225
0.0812848 0.167987 0.112856
0.085008 0.167605 0.112627
0.0988937 0.168261 0.113252
0.113878 0.168444 0.113268
0.135744 0.169223 0.111055
0.165499 0.171313 0.1037
0.19556 0.174578 0.0951858
0.235447 0.17731 0.0890211
0.275349 0.179919 0.082536
0.316609 0.183017 0.0809796
0.358175 0.186023 0.0801251
0.395956 0.190051 0.0809644
0.431617 0.194461 0.0827192
0.465797 0.199313 0.0854963
0.49868 0.204639 0.0883497
0.530922 0.210056 0.0908522
0.561425 0.215793 0.0933089
0.591531 0.221988 0.0956893
0.621073 0.228656 0.0981003
0.649805 0.235294 0.100374
0.678325 0.24213 0.102556
0.706203 0.248966 0.104662
0.733959 0.255818 0.106706
0.760357 0.262654 0.10869
0.785946 0.269505 0.110658
0.810636 0.276127 0.112596
0.833127 0.28246 0.114488
0.855848 0.288746 0.116594
0.873198 0.292561 0.11928
0.889174 0.295949 0.121553
0.905013 0.29926 0.123583
0.916548 0.300816 0.125032
0.928283 0.302419 0.126162
0.0937057 0.196674 0.127291
0.0969711 0.196368 0.126543
0.109255 0.195987 0.126162
0.123369 0.195575 0.125826
0.143679 0.194568 0.125628
0.165805 0.19733 0.121416
0.187152 0.20145 0.117235
0.22565 0.204654 0.106737
0.261479 0.20824 0.0979477
0.30486 0.210529 0.0950027
0.346349 0.213214 0.0914015
0.383902 0.217136 0.0924239
0.420813 0.220829 0.0930037
0.455268 0.225544 0.0944533
0.488228 0.23061 0.0962387
0.520012 0.235798 0.0979324
0.550866 0.241459 0.0999161
0.580972 0.247059 0.101778
0.610101 0.253132 0.103777
0.638788 0.25919 0.105699
0.667063 0.2654 0.107668
0.694835 0.271824 0.109712
0.722637 0.278035 0.111727
0.749004 0.284611 0.114061
0.775326 0.291173 0.116396
0.799588 0.297505 0.118578
0.823117 0.303593 0.121172
0.846082 0.30959 0.124254
0.864042 0.313863 0.126436
0.882643 0.318379 0.12845
0.898741 0.321813 0.12987
0.910979 0.323491 0.130434
0.923552 0.325185 0.130709
0.108278 0.226886 0.143999
0.11342 0.22649 0.143648
0.123003 0.226047 0.143465
0.136126 0.225376 0.143359
0.155123 0.223224 0.142611
0.176394 0.225193 0.1402
0.198199 0.228473 0.136843
0.224643 0.232959 0.129793
0.254459 0.237095 0.123217
0.294118 0.240452 0.11516
0.332769 0.243839 0.107866
0.373342 0.246174 0.105074
0.414328 0.248035 0.101396
0.447623 0.252537 0.102342
0.480308 0.257008 0.103426
0.511818 0.262165 0.104997
0.54255 0.267414 0.106752
0.572641 0.272877 0.108492
0.60177 0.27863 0.110536
0.630442 0.284352 0.112535
0.65861 0.290333 0.114656
0.686442 0.296178 0.116747
0.713603 0.301991 0.118837
0.740276 0.307897 0.120989
0.76672 0.313588 0.123354
0.790845 0.319402 0.126146
0.814649 0.324956 0.128618
0.837079 0.330343 0.1308
0.857679 0.335424 0.132601
0.878218 0.340795 0.134386
0.893278 0.343572 0.135103
0.906676 0.345556 0.135409
0.919951 0.347707 0.135836
0.123476 0.257206 0.161517
0.129213 0.256748 0.16141
0.135653 0.255894 0.161395
0.149401 0.255055 0.161669
0.16791 0.252399 0.16022
0.187671 0.25304 0.159899
0.207263 0.256443 0.157198
0.226902 0.26128 0.153597
0.256886 0.265751 0.145922
0.289555 0.270298 0.136706
0.325567 0.273854 0.129473
0.363836 0.277073 0.123461
0.400687 0.280278 0.118456
0.437079 0.283421 0.116701
0.473213 0.286458 0.114473
0.504997 0.290669 0.115099
0.536492 0.294835 0.115541
0.566155 0.29958 0.116777
0.595026 0.304768 0.118486
0.623346 0.309697 0.120134
0.651408 0.315068 0.122103
0.679316 0.320165 0.123995
0.706645 0.325643 0.126299
0.733242 0.331014 0.128878
0.759289 0.336324 0.131182
0.783383 0.341817 0.133364
0.807736 0.347082 0.135317
0.830014 0.352224 0.137087
0.851499 0.357458 0.138811
0.872526 0.36228 0.140337
0.887709 0.364935 0.140948
0.903395 0.367697 0.141604
0.917052 0.370077 0.142626
0.140368 0.288609 0.181674
0.144457 0.288243 0.181811
0.149905 0.28719 0.181415
0.163699 0.285817 0.180926
0.18201 0.282765 0.178988
0.200885 0.281743 0.178042
0.219776 0.2851 0.176623
0.237583 0.288991 0.175967
0.261982 0.294392 0.167651
0.283787 0.300267 0.160311
0.318257 0.30457 0.150729
0.353857 0.308431 0.140917
0.391348 0.311131 0.135653
0.429099 0.313359 0.131456
0.464179 0.316274 0.128542
0.49691 0.319677 0.127916
0.52929 0.323095 0.12694
0.559258 0.327398 0.127672
0.589654 0.331426 0.127962
0.618463 0.335775 0.128954
0.646372 0.340475 0.130846
0.673961 0.344915 0.132586
0.700771 0.349828 0.134478
0.727245 0.354589 0.13611
0.752743 0.359442 0.137728
0.777523 0.364309 0.13933
0.801999 0.36907 0.140902
0.824338 0.374121 0.142809
0.846769 0.379049 0.144686
0.866606 0.383108 0.146181
0.883864 0.386603 0.147387
0.901701 0.390097 0.148592
0.914458 0.391806 0.149615
0.156802 0.319509 0.20119
0.158495 0.318776 0.200687
0.165835 0.3178 0.200092
0.178302 0.315816 0.198962
0.196551 0.312398 0.196826
0.215274 0.311162 0.195605
0.233326 0.313588 0.195529
0.251942 0.317067 0.193759
0.272343 0.322133 0.188968
0.294713 0.327276 0.183627
0.323064 0.332204 0.17435
0.350057 0.337301 0.165682
0.385031 0.340581 0.158099
0.418357 0.34432 0.150164
0.453086 0.347021 0.145892
0.488197 0.349172 0.142229
0.522042 0.351568 0.139391
0.553994 0.354498 0.138125
0.585382 0.357397 0.137285
0.613413 0.361547 0.138842
0.641443 0.365393 0.139712
0.669245 0.369421 0.140719
0.696193 0.373831 0.142184
0.722927 0.37792 0.14345
0.748043 0.382544 0.145174
0.773236 0.387076 0.146868
0.797391 0.391608 0.148562
0.819944 0.396139 0.150301
0.842863 0.40061 0.15201
0.862272 0.404501 0.153368
0.881926 0.408453 0.154742
0.899947 0.411765 0.155901
0.912322 0.41297 0.156207
0.172244 0.349905 0.219364
0.171893 0.348867 0.218524
0.181643 0.347478 0.217685
0.192752 0.345418 0.21651
0.21117 0.341375 0.214527
0.229984 0.340017 0.213687
0.24744 0.340932 0.213993
0.2654 0.344442 0.213092
0.283146 0.348959 0.211994
0.303868 0.354116 0.205768
0.325505 0.359716 0.197711
0.351751 0.364614 0.189364
0.382269 0.368811 0.17998
0.412467 0.372732 0.171466
0.44686 0.375128 0.166018
0.479698 0.377783 0.160235
0.512505 0.380148 0.157107
0.545342 0.382315 0.154101
0.576974 0.384894 0.151827
0.607477 0.387671 0.150515
0.638224 0.390158 0.148638
0.665507 0.393835 0.149508
0.692683 0.397436 0.150393
0.718944 0.401343 0.151553
0.744381 0.405325 0.152987
0.769879 0.409461 0.154543
0.793408 0.413748 0.156222
0.816876 0.417853 0.157839
0.839246 0.422004 0.159426
0.85977 0.426093 0.160906
0.880232 0.430106 0.162631
0.896178 0.432441 0.163943
0.910506 0.434119 0.164767
0.187991 0.378912 0.237171
0.190051 0.377676 0.236439
0.198535 0.376043 0.235554
0.20911 0.373816 0.234409
0.22652 0.369253 0.232044
0.24538 0.367742 0.23122
0.262333 0.367956 0.23122
0.279973 0.371298 0.230838
0.297154 0.374685 0.230579
0.316579 0.379797 0.225696
0.335195 0.38497 0.221775
0.359121 0.389899 0.212924
0.382437 0.395132 0.203525
0.409857 0.399313 0.19469
0.439643 0.40293 0.185824
0.469734 0.406348 0.177768
0.504311 0.407752 0.173342
0.537331 0.409613 0.16875
0.569696 0.411444 0.165789
0.601587 0.413443 0.163073
0.631861 0.415915 0.16141
0.660044 0.418952 0.161364
0.688823 0.421714 0.160708
0.715602 0.425177 0.161379
0.742077 0.428611 0.162066
0.767498 0.432258 0.162936
0.791211 0.436027 0.164355
0.814923 0.439872 0.165774
0.836728 0.44361 0.167559
0.85771 0.447501 0.169238
0.878279 0.451194 0.170611
0.894224 0.453483 0.171237
0.910491 0.456016 0.171954
0.203937 0.407065 0.255009
0.207889 0.405631 0.254185
0.213779 0.40383 0.253147
0.225223 0.401434 0.251911
0.241947 0.396597 0.249256
0.26041 0.394369 0.248173
0.277195 0.394675 0.248081
0.294286 0.397009 0.248661
0.311315 0.40029 0.248112
0.328573 0.404623 0.245899
0.346685 0.409323 0.242206
0.367163 0.414389 0.23415
0.386862 0.419486 0.227115
0.413596 0.423636 0.217411
0.438682 0.427955 0.207797
0.467887 0.431113 0.200336
0.498222 0.433814 0.1935
0.528862 0.436393 0.187121
0.561318 0.438041 0.182956
0.593851 0.439597 0.178439
0.624781 0.441596 0.175723
0.655665 0.443412 0.172885
0.685573 0.445457 0.170642
0.712856 0.448554 0.170962
0.740063 0.45156 0.171099
0.764828 0.454932 0.17232
0.78912 0.458457 0.173754
0.813153 0.461769 0.174746
0.834745 0.465568 0.17615
0.856291 0.469123 0.17734
0.875715 0.472358 0.178332
0.893828 0.47541 0.179217
0.912139 0.478462 0.180102
0.220172 0.434134 0.272679
0.224018 0.432502 0.272084
0.228016 0.43032 0.270954
0.241077 0.427817 0.269642
0.25774 0.423026 0.266621
0.275273 0.419883 0.264698
0.292241 0.42034 0.264683
0.308659 0.421836 0.265263
0.325261 0.424964 0.264332
0.341497 0.428687 0.263554
0.358785 0.43299 0.260197
0.376089 0.437675 0.256428
0.394827 0.442588 0.250233
0.415366 0.447654 0.239582
0.436622 0.452659 0.229831
0.465278 0.455894 0.221225
0.492851 0.459464 0.212589
0.523705 0.461662 0.206455
0.555245 0.463508 0.200961
0.586404 0.465446 0.195712
0.617884 0.467155 0.192142
0.64889 0.468681 0.188251
0.678492 0.470939 0.186419
0.707347 0.473152 0.184909
0.735882 0.475364 0.183307
0.761807 0.478157 0.183169
0.788174 0.480766 0.18265
0.811749 0.483803 0.182986
0.833738 0.487236 0.183932
0.855619 0.490425 0.184756
0.87509 0.493996 0.185992
0.894774 0.497414 0.187243
0.911711 0.499962 0.18822
0.236515 0.46041 0.290547
0.238087 0.458488 0.289265
0.243977 0.456168 0.287678
0.256107 0.453193 0.285695
0.272908 0.448249 0.282338
0.289738 0.44477 0.279973
0.306554 0.444968 0.28014
0.322393 0.445945 0.280369
0.338613 0.448936 0.280247
0.35436 0.451881 0.279973
0.370764 0.456245 0.277455
0.386603 0.460304 0.27512
0.405188 0.465171 0.268238
0.423423 0.469886 0.261326
0.444968 0.474327 0.253208
0.468391 0.478569 0.243488
0.492042 0.482872 0.234211
0.520851 0.485801 0.226963
0.548623 0.489006 0.219379
0.579065 0.491035 0.213809
0.61088 0.492546 0.20882
0.642252 0.493996 0.203891
0.67277 0.495567 0.200793
0.702922 0.497154 0.197436
0.731182 0.499138 0.195666
0.758389 0.501457 0.194644
0.78526 0.503731 0.193439
0.808255 0.506798 0.193835
0.831647 0.509483 0.193713
0.853803 0.512352 0.193957
0.874113 0.515572 0.194949
0.894286 0.518883 0.195926
0.908934 0.520348 0.196292
0.250614 0.485451 0.305974
0.250126 0.483162 0.304128
0.259129 0.480751 0.30251
0.270497 0.477745 0.300603
0.287221 0.472404 0.297337
0.304265 0.469337 0.295506
0.320226 0.468696 0.295277
0.336141 0.469856 0.295445
0.351904 0.472114 0.295964
0.367376 0.475029 0.29546
0.382452 0.478752 0.294224
0.397635 0.482597 0.292302
0.414237 0.487144 0.288365
0.430411 0.491753 0.284855
0.451041 0.496635 0.27454
0.470771 0.501411 0.265187
0.49456 0.505364 0.256611
0.520241 0.509133 0.248051
0.545953 0.51252 0.239536
0.575967 0.514611 0.233539
0.605249 0.516945 0.227131
0.634943 0.518914 0.222339
0.665522 0.520378 0.217899
0.695445 0.522087 0.213733
0.724605 0.523705 0.211093
0.753704 0.525383 0.208225
0.780575 0.527276 0.206119
0.806119 0.529244 0.204456
0.831861 0.530999 0.20238
0.852583 0.534081 0.203281
0.87303 0.537133 0.204196
0.892271 0.539849 0.20473
0.907652 0.541604 0.205173
0.263828 0.50985 0.320348
0.264973 0.507515 0.318639
0.274388 0.504921 0.317189
0.285039 0.501656 0.315358
0.301259 0.496239 0.312291
0.318135 0.493095 0.310567
0.33344 0.491798 0.309941
0.349416 0.493126 0.310384
0.364675 0.494591 0.310994
0.379812 0.497688 0.310369
0.394614 0.500938 0.309926
0.409903 0.50486 0.307713
0.425269 0.509178 0.30518
0.441535 0.513664 0.301259
0.459373 0.518227 0.294926
0.476753 0.52282 0.289265
0.499031 0.527169 0.278904
0.520088 0.531838 0.268498
0.544915 0.535409 0.259724
0.571374 0.538735 0.252033
0.598001 0.541878 0.244694
0.628931 0.543221 0.239719
0.659175 0.544778 0.23444
0.688853 0.546441 0.23032
0.718593 0.547784 0.226658
0.748043 0.549325 0.22298
0.77438 0.551125 0.22089
0.801083 0.55285 0.21857
0.826078 0.554681 0.2168
0.848753 0.557046 0.215976
0.871748 0.559167 0.215213
0.890257 0.561288 0.215305
0.908034 0.563287 0.215488
0.277638 0.533654 0.335241
0.281743 0.531289 0.333776
0.288716 0.528542 0.332174
0.299458 0.525353 0.330404
0.314946 0.519631 0.327169
0.33164 0.516182 0.325154
0.346822 0.514977 0.324498
0.362341 0.515785 0.325048
0.37731 0.517266 0.325567
0.392157 0.519951 0.325887
0.406775 0.522774 0.325841
0.421317 0.526925 0.324224
0.435523 0.530816 0.322606
0.451621 0.535363 0.318944
0.46743 0.539742 0.315114
0.485252 0.544305 0.308354
0.504646 0.548898 0.299214
0.523949 0.553353 0.290852
0.54815 0.556985 0.281788
0.571405 0.560952 0.272465
0.597528 0.563928 0.264942
0.625528 0.5664 0.258473
0.652552 0.568978 0.252079
0.68246 0.570397 0.247578
0.711864 0.572015 0.243091
0.740688 0.573404 0.239094
0.768688 0.574868 0.235874
0.796887 0.576089 0.232731
0.821744 0.577783 0.23064
0.846296 0.579492 0.228519
0.869383 0.581308 0.22678
0.888182 0.58349 0.226734
0.907866 0.58558 0.22623
0.291691 0.557183 0.350576
0.296452 0.554559 0.349462
0.301244 0.551751 0.348074
0.313527 0.548562 0.346349
0.329015 0.542885 0.342702
0.344915 0.538643 0.340017
0.360174 0.537957 0.339712
0.375051 0.538079 0.339925
0.38999 0.539849 0.340261
0.404776 0.542153 0.340734
0.41912 0.545129 0.340291
0.433265 0.548699 0.339422
0.447593 0.552575 0.338094
0.462593 0.556878 0.335348
0.477058 0.561105 0.332952
0.494316 0.565469 0.326925
0.510826 0.569894 0.321843
0.529641 0.574304 0.313649
0.549706 0.578988 0.302464
0.569696 0.583352 0.291539
0.596124 0.586389 0.284413
0.621515 0.589624 0.276951
0.649119 0.591959 0.270604
0.677821 0.593668 0.265354
0.705882 0.595575 0.260197
0.734752 0.596933 0.256519
0.763226 0.598535 0.252781
0.790463 0.599954 0.249165
0.8159 0.601465 0.246311
0.841352 0.602945 0.24329
0.863951 0.604471 0.241215
0.885756 0.606195 0.239399
0.907591 0.607797 0.237308
0.306676 0.580163 0.367071
0.309346 0.577615 0.365469
0.315373 0.574701 0.363516
0.327077 0.571374 0.361242
0.342412 0.565377 0.357061
0.35787 0.560967 0.353948
0.373068 0.560235 0.353506
0.387549 0.560113 0.353353
0.402518 0.561959 0.354116
0.416968 0.563714 0.35491
0.43125 0.56701 0.354818
0.445106 0.570153 0.354818
0.45922 0.573953 0.353323
0.473228 0.578058 0.351705
0.487984 0.582177 0.34902
0.503685 0.586374 0.344884
0.518959 0.590661 0.341146
0.537667 0.595087 0.33196
0.555901 0.599496 0.323537
0.576547 0.603616 0.315282
0.599222 0.60737 0.305852
0.620996 0.611414 0.296651
0.647501 0.613962 0.290364
0.67335 0.616739 0.283604
0.700252 0.619058 0.277623
0.728985 0.620645 0.272786
0.757717 0.622263 0.26772
0.784375 0.623621 0.264179
0.811002 0.62475 0.260761
0.836576 0.626154 0.257603
0.85977 0.627497 0.2551
0.882856 0.629007 0.252628
0.902373 0.630076 0.250706
0.319753 0.602686 0.381567
0.320241 0.599878 0.379294
0.329046 0.597025 0.377203
0.340276 0.593606 0.374807
0.355764 0.587503 0.370611
0.371359 0.583597 0.368002
0.386084 0.582422 0.367391
0.400656 0.58265 0.367529
0.415076 0.583825 0.368185
0.429282 0.585824 0.368765
0.443244 0.588495 0.369085
0.457053 0.59144 0.369253
0.470817 0.595163 0.368277
0.48423 0.598795 0.367514
0.498787 0.602869 0.364767
0.513161 0.607111 0.362158
0.52845 0.611246 0.3579
0.544732 0.615564 0.352789
0.560754 0.619837 0.347982
0.581308 0.624201 0.336751
0.6009 0.628641 0.326482
0.623056 0.632303 0.317556
0.647272 0.635569 0.309651
0.670817 0.639017 0.301228
0.698512 0.641032 0.295628
0.725551 0.643153 0.290013
0.751995 0.645121 0.284871
0.778927 0.646479 0.280812
0.805936 0.647898 0.27657
0.830716 0.649363 0.273304
0.855024 0.650507 0.270146
0.879057 0.651804 0.267079
0.898604 0.652857 0.265034
0.330938 0.624674 0.394003
0.33225 0.622034 0.391562
0.342489 0.619196 0.389776
0.353704 0.615564 0.387594
0.368795 0.609506 0.383963
0.384405 0.605768 0.381903
0.398657 0.604181 0.381186
0.413214 0.60444 0.381476
0.427375 0.60528 0.382116
0.441382 0.607309 0.382696
0.455238 0.609613 0.383398
0.46891 0.612726 0.383459
0.482338 0.616114 0.383169
0.495842 0.619623 0.382376
0.509651 0.623545 0.38056
0.523323 0.62742 0.37879
0.538811 0.631678 0.37467
0.553948 0.635737 0.370565
0.570504 0.639994 0.364385
0.588266 0.644327 0.356222
0.605478 0.648814 0.348867
0.627375 0.652613 0.338933
0.648249 0.656535 0.328801
0.671 0.660105 0.320043
0.695766 0.662989 0.313481
0.72018 0.666087 0.306569
0.746914 0.667918 0.301549
0.774441 0.669413 0.29688
0.80087 0.670985 0.292348
0.825589 0.672221 0.289036
0.850492 0.67332 0.28542
0.873396 0.674418 0.282704
0.894759 0.675624 0.280766
0.342931 0.646433 0.406928
0.347967 0.643931 0.405234
0.35642 0.64097 0.40351
0.367163 0.6374 0.401404
0.381643 0.631144 0.39765
0.397391 0.627451 0.39559
0.411521 0.625986 0.394888
0.425605 0.626032 0.395102
0.439567 0.626963 0.395697
0.453483 0.628779 0.396719
0.467185 0.630777 0.397833
0.480735 0.633738 0.398047
0.49395 0.636744 0.398398
0.507286 0.640208 0.397208
0.520531 0.643915 0.395758
0.534096 0.647715 0.393637
0.548287 0.651713 0.390646
0.562234 0.655833 0.388067
0.578485 0.660166 0.382071
0.5944 0.664454 0.37644
0.612024 0.668681 0.368643
0.631647 0.672923 0.358358
0.650507 0.677134 0.348745
0.673579 0.680537 0.340856
0.696422 0.683986 0.332586
0.719692 0.686915 0.324926
0.745724 0.689113 0.319326
0.770977 0.691508 0.313573
0.795895 0.693156 0.309438
0.820859 0.694682 0.305959
0.845716 0.696101 0.302083
0.868376 0.697185 0.299062
0.891234 0.698466 0.295857
0.356008 0.668238 0.421164
0.362371 0.665614 0.420142
0.368734 0.662562 0.418692
0.38027 0.659007 0.416678
0.394903 0.653025 0.412665
0.410025 0.648798 0.409995
0.424063 0.647547 0.409445
0.437903 0.64741 0.409628
0.451743 0.648356 0.410269
0.465537 0.649805 0.411124
0.478981 0.651942 0.411704
0.492393 0.654551 0.412009
0.505516 0.657404 0.412055
0.518624 0.660792 0.410971
0.531456 0.664073 0.410025
0.545144 0.667933 0.407889
0.55874 0.671962 0.40589
0.572961 0.675914 0.402731
0.588037 0.680095 0.398535
0.602716 0.684062 0.394598
0.620081 0.68838 0.386709
0.637079 0.692729 0.379126
0.655207 0.696971 0.37116
0.675746 0.700862 0.360815
0.695583 0.705043 0.350164
0.718929 0.708034 0.343267
0.742916 0.710918 0.337377
0.766979 0.713588 0.331426
0.792309 0.715084 0.327047
0.816983 0.716747 0.322377
0.841047 0.718212 0.318074
0.864286 0.719417 0.314366
0.887129 0.720897 0.310704
0.37052 0.689311 0.437049
0.374823 0.686564 0.435447
0.381704 0.683482 0.433478
0.392996 0.679973 0.431113
0.407767 0.674266 0.427024
0.422477 0.669978 0.423957
0.436576 0.668879 0.423209
0.449912 0.66833 0.422782
0.463844 0.669383 0.423362
0.47718 0.670527 0.424002
0.490593 0.672801 0.424567
0.503883 0.675044 0.425193
0.516945 0.677958 0.425147
0.529915 0.681056 0.424887
0.542824 0.684306 0.424231
0.555886 0.688075 0.422782
0.568704 0.691783 0.421485
0.582803 0.695674 0.418524
0.596902 0.699718 0.415686
0.611704 0.703746 0.411231
0.627543 0.708064 0.405127
0.642985 0.712306 0.399695
0.661784 0.716365 0.390661
0.680308 0.720607 0.381643
0.699718 0.724422 0.373068
0.722072 0.727825 0.36492
0.743709 0.731212 0.356008
0.766598 0.733867 0.349325
0.790387 0.736217 0.343435
0.813275 0.738735 0.337469
0.836484 0.7402 0.333364
0.859693 0.741726 0.329168
0.881621 0.743069 0.325673
0.383169 0.710048 0.450919
0.385367 0.707057 0.448661
0.394324 0.704311 0.446494
0.405249 0.700664 0.443732
0.420218 0.695064 0.43946
0.434958 0.691157 0.4365
0.448631 0.689662 0.435309
0.462089 0.689525 0.435187
0.475486 0.690089 0.435691
0.488746 0.691356 0.436439
0.502113 0.693202 0.437247
0.515251 0.69543 0.438132
0.528222 0.698177 0.438224
0.541009 0.700999 0.438499
0.553964 0.704311 0.437613
0.566613 0.707774 0.436713
0.57969 0.711421 0.435279
0.59324 0.715328 0.432975
0.606439 0.719219 0.431388
0.621332 0.723339 0.42768
0.636011 0.727428 0.424063
0.651392 0.731395 0.418738
0.667979 0.735775 0.411063
0.684031 0.740063 0.40351
0.703319 0.743984 0.393469
0.723171 0.747921 0.382193
0.74342 0.751644 0.37229
0.7664 0.754376 0.366003
0.788525 0.757061 0.359258
0.811261 0.759304 0.353582
0.834195 0.760983 0.349065
0.856825 0.762814 0.344289
