LUT预设1/LUT全系打包/电影感系列lut/709电影感系列（正常色彩素材用这个）/cold低饱和冷709.cube
TITLE "Generated by Resolve"
LUT_3D_SIZE 5
0.0366827 0.0472419 0.0562448
0.334401 0.0756542 0.0673686
0.621958 0.124407 0.0834516
0.840955 0.174411 0.108446
0.938384 0.193957 0.117662
0.123476 0.257206 0.161517
0.256886 0.265751 0.145922
0.536492 0.294835 0.115541
0.759289 0.336324 0.131182
0.917052 0.370077 0.142626
0.250614 0.485451 0.305974
0.351904 0.472114 0.295964
0.49456 0.505364 0.256611
0.724605 0.523705 0.211093
0.907652 0.541604 0.205173
0.356008 0.668238 0.421164
0.451743 0.648356 0.410269
0.55874 0.671962 0.40589
0.695583 0.705043 0.350164
0.887129 0.720897 0.310704
0.447257 0.822202 0.521263
0.539986 0.80592 0.507607
0.641657 0.822385 0.514702
0.743099 0.849409 0.497948
0.872465 0.874464 0.444678
0.049424 0.0644236 0.255177
0.302541 0.0896162 0.308156
0.599893 0.127626 0.342672
0.826764 0.178607 0.368978
0.927367 0.197116 0.385397
0.103227 0.272435 0.292668
0.253727 0.2654 0.287572
0.504234 0.293736 0.290745
0.72224 0.335164 0.311604
0.897047 0.374426 0.329732
0.236072 0.489662 0.409094
0.365606 0.467369 0.398032
0.50248 0.491768 0.388495
0.735149 0.508537 0.346395
0.899397 0.532219 0.355627
0.349157 0.66894 0.521141
0.469368 0.644587 0.510033
0.566934 0.66067 0.522484
0.698833 0.691188 0.48484
0.911971 0.698894 0.426246
0.438956 0.822797 0.61619
0.558053 0.805371 0.609567
0.655055 0.816953 0.618967
0.746059 0.839948 0.623133
0.871427 0.864012 0.584176
0.0726482 0.0940414 0.449226
0.301808 0.109895 0.51046
0.567422 0.149386 0.537942
0.811902 0.196155 0.584588
0.91458 0.216175 0.596323
0.103395 0.292775 0.463432
0.238529 0.285298 0.441154
0.481605 0.308827 0.483085
0.711879 0.34435 0.496849
0.892851 0.379217 0.511223
0.204166 0.50869 0.523827
0.332921 0.48246 0.517433
0.490929 0.49987 0.515831
0.685679 0.520439 0.509712
0.879637 0.54081 0.517922
0.328054 0.68191 0.611444
0.454154 0.655177 0.596918
0.580682 0.666041 0.605646
0.70341 0.692058 0.59852
0.889113 0.705409 0.571115
0.42417 0.83241 0.698192
0.559442 0.81265 0.688228
0.680735 0.821439 0.705653
0.764538 0.839841 0.720562
0.870024 0.862928 0.704295
0.0935988 0.119463 0.598886
0.307774 0.130678 0.66511
0.56437 0.172885 0.684184
0.779614 0.219287 0.725582
0.895598 0.234699 0.751034
0.115557 0.313146 0.602396
0.251438 0.309224 0.566949
0.448173 0.329305 0.638849
0.679957 0.363287 0.651621
0.88069 0.395621 0.677592
0.195239 0.526055 0.653605
0.322194 0.497383 0.634485
0.475425 0.512474 0.640833
0.676036 0.528572 0.669429
0.874647 0.547753 0.667796
0.299397 0.699214 0.71194
0.419959 0.671 0.700725
0.557931 0.68014 0.70634
0.697826 0.699199 0.710338
0.872877 0.713726 0.702663
0.404074 0.846738 0.782544
0.524025 0.825757 0.769085
0.667109 0.831449 0.78172
0.776837 0.845701 0.790692
0.870695 0.868223 0.789899
0.100862 0.128313 0.668376
0.318837 0.141848 0.74609
0.574014 0.182132 0.775326
0.773953 0.232273 0.801404
0.876524 0.249928 0.818402
0.123857 0.329442 0.707286
0.272892 0.329458 0.697917
0.439704 0.347265 0.754604
0.658442 0.380545 0.783658
0.852445 0.414557 0.804852
0.199145 0.537621 0.767452
0.327276 0.513695 0.740932
0.465126 0.527367 0.753491
0.646433 0.542626 0.8038
0.852903 0.56054 0.817685
0.284642 0.713985 0.816526
0.406317 0.684138 0.804364
0.551232 0.691447 0.81294
0.677287 0.709773 0.828138
0.859495 0.722087 0.84387
0.383291 0.861112 0.86862
0.519829 0.8392 0.854368
0.668376 0.843687 0.862089
0.77026 0.85687 0.870466
0.875288 0.873121 0.877897
