LUT预设1/LUT全系打包/电影感系列lut/709电影感系列（正常色彩素材用这个）/cold低饱和冷709.cube
TITLE "Generated by Resolve"
LUT_3D_SIZE 9
0.0366827 0.0472419 0.0562448
0.14757 0.0547799 0.0605173
0.334401 0.0756542 0.0673686
0.489189 0.100465 0.0758068
0.621958 0.124407 0.0834516
0.740093 0.148592 0.0945754
0.840955 0.174411 0.108446
0.907225 0.188617 0.115587
0.938384 0.193957 0.117662
0.0688792 0.138231 0.0974746
0.135805 0.142428 0.0949264
0.296818 0.152102 0.0704204
0.449699 0.170047 0.0751354
0.57969 0.193912 0.0888228
0.696284 0.220096 0.0994278
0.803281 0.248081 0.106325
0.886046 0.270878 0.113207
0.933318 0.279026 0.122225
0.123476 0.257206 0.161517
0.16791 0.252399 0.16022
0.256886 0.265751 0.145922
0.400687 0.280278 0.118456
0.536492 0.294835 0.115541
0.651408 0.315068 0.122103
0.759289 0.336324 0.131182
0.851499 0.357458 0.138811
0.917052 0.370077 0.142626
0.187991 0.378912 0.237171
0.22652 0.369253 0.232044
0.297154 0.374685 0.230579
0.382437 0.395132 0.203525
0.504311 0.407752 0.173342
0.631861 0.415915 0.16141
0.742077 0.428611 0.162066
0.836728 0.44361 0.167559
0.910491 0.456016 0.171954
0.250614 0.485451 0.305974
0.287221 0.472404 0.297337
0.351904 0.472114 0.295964
0.414237 0.487144 0.288365
0.49456 0.505364 0.256611
0.605249 0.516945 0.227131
0.724605 0.523705 0.211093
0.831861 0.530999 0.20238
0.907652 0.541604 0.205173
0.306676 0.580163 0.367071
0.342412 0.565377 0.357061
0.402518 0.561959 0.354116
0.45922 0.573953 0.353323
0.518959 0.590661 0.341146
0.599222 0.60737 0.305852
0.700252 0.619058 0.277623
0.811002 0.62475 0.260761
0.902373 0.630076 0.250706
0.356008 0.668238 0.421164
0.394903 0.653025 0.412665
0.451743 0.648356 0.410269
0.505516 0.657404 0.412055
0.55874 0.671962 0.40589
0.620081 0.68838 0.386709
0.695583 0.705043 0.350164
0.792309 0.715084 0.327047
0.887129 0.720897 0.310704
0.402441 0.749493 0.47216
0.443885 0.735393 0.463081
0.498116 0.730373 0.460929
0.550454 0.737667 0.465507
0.600839 0.750072 0.464103
0.653452 0.765225 0.454566
0.71426 0.781262 0.431006
0.790051 0.795621 0.394675
0.873182 0.804639 0.374426
0.447257 0.822202 0.521263
0.487388 0.810315 0.511193
0.539986 0.80592 0.507607
0.591379 0.812055 0.51136
0.641657 0.822385 0.514702
0.68957 0.83534 0.51107
0.743099 0.849409 0.497948
0.803693 0.863722 0.471489
0.872465 0.874464 0.444678
0.0387121 0.0529488 0.140658
0.139467 0.0599069 0.162509
0.324285 0.0785534 0.179156
0.480934 0.100923 0.184253
0.614786 0.121828 0.194034
0.733379 0.146929 0.20705
0.835416 0.173281 0.220417
0.903181 0.187778 0.228763
0.934127 0.192569 0.237064
0.0590219 0.145113 0.162936
0.129488 0.144686 0.162814
0.276738 0.152178 0.160082
0.430198 0.170489 0.166003
0.56347 0.193637 0.174823
0.681102 0.21976 0.18558
0.789212 0.246998 0.195651
0.87776 0.269413 0.205463
0.931044 0.278447 0.211704
0.119478 0.260853 0.20853
0.170611 0.252003 0.205585
0.265217 0.26125 0.196353
0.408194 0.274861 0.171481
0.534188 0.290532 0.172869
0.648035 0.310552 0.179538
0.752987 0.332113 0.190082
0.84712 0.353185 0.198978
0.91342 0.365179 0.203449
0.18529 0.380011 0.280385
0.230808 0.366796 0.273304
0.300481 0.370886 0.27335
0.382254 0.389654 0.25214
0.519356 0.398703 0.214145
0.633036 0.409476 0.209705
0.741466 0.422232 0.211582
0.833448 0.437537 0.21944
0.907866 0.450126 0.225879
0.247318 0.484993 0.349004
0.288457 0.469749 0.338003
0.354116 0.467643 0.335439
0.413306 0.481712 0.333684
0.495628 0.498939 0.303426
0.61619 0.508324 0.266606
0.727764 0.516014 0.255955
0.830701 0.524697 0.253147
0.905379 0.535103 0.257282
0.3037 0.578912 0.410513
0.341344 0.562676 0.397162
0.404486 0.558114 0.393637
0.460121 0.568566 0.395636
0.516655 0.584756 0.38822
0.59826 0.601312 0.35285
0.707851 0.611337 0.319402
0.812451 0.617487 0.306554
0.900771 0.622873 0.299626
0.354498 0.666651 0.468238
0.393072 0.650752 0.454398
0.45272 0.644663 0.449775
0.506523 0.652537 0.453117
0.558526 0.666392 0.452354
0.616876 0.682933 0.436622
0.690455 0.699641 0.401038
0.794751 0.708247 0.371969
0.88687 0.714641 0.357641
0.399344 0.748379 0.521477
0.44184 0.733104 0.507912
0.498024 0.727352 0.502953
0.551354 0.733684 0.506859
0.601694 0.745098 0.508278
0.652628 0.75996 0.503182
0.710872 0.776501 0.48368
0.786694 0.790814 0.446998
0.872404 0.799558 0.422293
0.44387 0.821057 0.567514
0.485527 0.808835 0.556176
0.539498 0.804013 0.551553
0.592065 0.808911 0.555138
0.642527 0.81854 0.558511
0.690929 0.831235 0.557931
0.74287 0.845426 0.548531
0.800778 0.859556 0.525902
0.869413 0.870771 0.499245
0.049424 0.0644236 0.255177
0.140246 0.0709087 0.284657
0.302541 0.0896162 0.308156
0.464179 0.1075 0.330724
0.599893 0.127626 0.342672
0.721126 0.152132 0.355657
0.826764 0.178607 0.368978
0.896269 0.191363 0.378531
0.927367 0.197116 0.385397
0.0585794 0.154772 0.271855
0.121691 0.15349 0.259556
0.26038 0.158328 0.283574
0.418357 0.174853 0.293935
0.551369 0.197009 0.306844
0.671321 0.221134 0.319936
0.782544 0.247089 0.332937
0.869627 0.270481 0.343297
0.92607 0.280201 0.349218
0.103227 0.272435 0.292668
0.153414 0.261875 0.290303
0.253727 0.2654 0.287572
0.381689 0.278111 0.284886
0.504234 0.293736 0.290745
0.61416 0.314519 0.301366
0.72224 0.335164 0.311604
0.817487 0.356649 0.321828
0.897047 0.374426 0.329732
0.170382 0.387793 0.347234
0.216602 0.373373 0.338445
0.304646 0.372473 0.33933
0.379736 0.386816 0.340902
0.50898 0.395697 0.315587
0.618097 0.40708 0.316426
0.720256 0.421195 0.323354
0.814847 0.436866 0.329992
0.896696 0.452873 0.337316
0.236072 0.489662 0.409094
0.282841 0.471885 0.395911
0.365606 0.467369 0.398032
0.420401 0.477516 0.406409
0.50248 0.491768 0.388495
0.638514 0.498283 0.346578
0.735149 0.508537 0.346395
0.82443 0.520363 0.351034
0.899397 0.532219 0.355627
0.294972 0.581674 0.466224
0.338628 0.563836 0.452476
0.419638 0.557671 0.455482
0.470832 0.565255 0.461921
0.521309 0.578302 0.467613
0.601724 0.594003 0.438636
0.751003 0.596353 0.383093
0.837903 0.605112 0.378332
0.906996 0.614816 0.383154
0.349157 0.66894 0.521141
0.390875 0.651377 0.50692
0.469368 0.644587 0.510033
0.520333 0.650462 0.515587
0.566934 0.66067 0.522484
0.615305 0.67538 0.523735
0.698833 0.691188 0.48484
0.834989 0.692821 0.429557
0.911971 0.698894 0.426246
0.394873 0.750088 0.571649
0.439704 0.734218 0.558373
0.516091 0.727932 0.561944
0.566552 0.732433 0.56672
0.612604 0.741512 0.571786
0.658152 0.754314 0.575799
0.704387 0.769146 0.574716
0.795102 0.782208 0.526268
0.895323 0.786633 0.497993
0.438956 0.822797 0.61619
0.482765 0.810239 0.604791
0.558053 0.805371 0.609567
0.608347 0.809308 0.614084
0.655055 0.816953 0.618967
0.700923 0.827268 0.623178
0.746059 0.839948 0.623133
0.796048 0.853208 0.616892
0.871427 0.864012 0.584176
0.0609598 0.0793011 0.357778
0.148775 0.0839399 0.389609
0.299825 0.100252 0.414389
0.443702 0.117678 0.430381
0.587167 0.136294 0.458259
0.709865 0.162203 0.474479
0.817472 0.188174 0.486259
0.888167 0.20032 0.494118
0.919875 0.206516 0.499428
0.0645762 0.164813 0.367834
0.128954 0.164126 0.348211
0.243824 0.169558 0.387427
0.394507 0.186435 0.397482
0.53669 0.205646 0.418997
0.660655 0.229267 0.432609
0.773526 0.254643 0.444419
0.863172 0.276493 0.454017
0.91809 0.285145 0.45864
0.0991836 0.283497 0.383032
0.148669 0.272679 0.373877
0.24303 0.273762 0.374624
0.369207 0.284459 0.388876
0.498497 0.298955 0.392752
0.61294 0.317815 0.397208
0.718471 0.338201 0.407614
0.815885 0.358495 0.416831
0.895735 0.374823 0.424247
0.154345 0.39968 0.41735
0.198489 0.384695 0.408652
0.288426 0.381231 0.409247
0.378073 0.391104 0.40679
0.486427 0.401083 0.407111
0.595926 0.412879 0.406165
0.700847 0.425696 0.412879
0.794263 0.442176 0.421088
0.880018 0.458106 0.42826
0.219287 0.498634 0.464714
0.262699 0.480751 0.450355
0.347738 0.474632 0.453758
0.425071 0.481621 0.452689
0.497154 0.494957 0.453605
0.609277 0.503853 0.431678
0.708278 0.513771 0.432074
0.804334 0.525078 0.436973
0.885603 0.53814 0.442496
0.282399 0.588663 0.514809
0.327367 0.56994 0.499306
0.415167 0.562875 0.501015
0.476448 0.568627 0.505486
0.529717 0.58024 0.513039
0.598016 0.595972 0.499565
0.727291 0.600534 0.463752
0.82089 0.608606 0.458457
0.895354 0.618784 0.463478
0.340963 0.674357 0.56556
0.385489 0.656077 0.55053
0.472236 0.648203 0.552483
0.527855 0.653056 0.558465
0.575097 0.662394 0.566079
0.621439 0.675868 0.573297
0.702434 0.690028 0.543114
0.828504 0.693034 0.499382
0.903517 0.700816 0.502403
0.390097 0.754925 0.614404
0.436316 0.738094 0.600153
0.519738 0.730983 0.603052
0.578546 0.734951 0.610956
0.622339 0.742687 0.616938
0.665827 0.753719 0.624186
0.70985 0.767666 0.629114
0.795605 0.780468 0.590143
0.894774 0.784741 0.567651
0.432303 0.826642 0.657496
0.479606 0.813947 0.646021
0.560952 0.808331 0.650065
0.629908 0.812329 0.662226
0.67274 0.818616 0.667842
0.713756 0.827161 0.674235
0.755001 0.8383 0.679835
0.801434 0.850858 0.678416
0.869703 0.861662 0.655772
0.0726482 0.0940414 0.449226
0.159091 0.0978714 0.4766
0.301808 0.109895 0.51046
0.438819 0.128023 0.515435
0.567422 0.149386 0.537942
0.698634 0.171847 0.566598
0.811902 0.196155 0.584588
0.881636 0.209827 0.591928
0.91458 0.216175 0.596323
0.071458 0.176532 0.45095
0.140444 0.174762 0.435843
0.248142 0.180346 0.471214
0.386053 0.196551 0.490852
0.513924 0.218769 0.500175
0.647211 0.238804 0.525856
0.76379 0.263539 0.540597
0.855955 0.285863 0.54902
0.909926 0.293706 0.554192
0.103395 0.292775 0.463432
0.153597 0.283238 0.447669
0.238529 0.285298 0.441154
0.351919 0.293645 0.474189
0.481605 0.308827 0.483085
0.602548 0.325002 0.49247
0.711879 0.34435 0.496849
0.812772 0.363073 0.502785
0.892851 0.379217 0.511223
0.148592 0.410208 0.489632
0.192432 0.395026 0.479881
0.28191 0.388388 0.478462
0.371649 0.397024 0.481453
0.475822 0.406226 0.494713
0.593011 0.416403 0.48983
0.700282 0.429389 0.489143
0.797513 0.444633 0.497993
0.882246 0.458579 0.506493
0.204166 0.50869 0.523827
0.248707 0.490715 0.51017
0.332921 0.48246 0.517433
0.411826 0.489281 0.511193
0.490929 0.49987 0.515831
0.592264 0.508705 0.514092
0.685679 0.520439 0.509712
0.786984 0.530709 0.513054
0.879637 0.54081 0.517922
0.265873 0.597467 0.565469
0.310185 0.578759 0.549416
0.387213 0.571084 0.554589
0.464027 0.575525 0.554757
0.531807 0.584894 0.557351
0.59762 0.598306 0.55758
0.701823 0.606378 0.539757
0.797101 0.614969 0.535363
0.882429 0.623301 0.538582
0.328054 0.68191 0.611444
0.371817 0.66331 0.595224
0.454154 0.655177 0.596918
0.524468 0.658274 0.599741
0.580682 0.666041 0.605646
0.630426 0.678264 0.614954
0.70341 0.692058 0.59852
0.813764 0.697658 0.568124
0.889113 0.705409 0.571115
0.381415 0.761273 0.656916
0.427436 0.74461 0.642145
0.512993 0.736217 0.643061
0.579858 0.73904 0.648997
0.628626 0.745846 0.6551
0.674083 0.756268 0.663447
0.719417 0.769512 0.669535
0.794797 0.782376 0.643641
0.888594 0.78703 0.62652
0.42417 0.83241 0.698192
0.474144 0.81944 0.686259
0.559442 0.81265 0.688228
0.635065 0.81593 0.69955
0.680735 0.821439 0.705653
0.723232 0.829511 0.712947
0.764538 0.839841 0.720562
0.808743 0.852003 0.721553
0.870024 0.862928 0.704295
0.0841688 0.108019 0.52961
0.169711 0.110475 0.552316
0.304082 0.119783 0.591348
0.444327 0.138125 0.598581
0.560632 0.162112 0.610712
0.680247 0.18529 0.636179
0.800687 0.205554 0.664134
0.876783 0.217441 0.677653
0.910643 0.223194 0.682414
0.0816052 0.188769 0.524788
0.153323 0.185367 0.517372
0.257679 0.191073 0.546029
0.386862 0.206516 0.574701
0.510597 0.229175 0.578149
0.628244 0.252598 0.597513
0.750973 0.272999 0.623056
0.851164 0.294133 0.637446
0.904524 0.301305 0.642527
0.109422 0.302663 0.535592
0.161532 0.292332 0.519615
0.243458 0.297353 0.503471
0.337194 0.30602 0.542962
0.464714 0.318898 0.563745
0.582712 0.336492 0.568887
0.699336 0.352026 0.583566
0.803174 0.370764 0.589868
0.887465 0.386801 0.594751
0.148775 0.418875 0.560845
0.194034 0.403662 0.54725
0.279896 0.397147 0.537972
0.362997 0.405188 0.544854
0.463172 0.412589 0.57203
0.579293 0.423072 0.576211
0.691096 0.434287 0.581765
0.79263 0.449882 0.578882
0.88069 0.462318 0.585
0.196643 0.518166 0.588922
0.241459 0.500053 0.575143
0.325765 0.489586 0.579339
0.404898 0.495537 0.577569
0.484428 0.505028 0.583459
0.58056 0.513512 0.593591
0.690517 0.521828 0.591073
0.788708 0.534081 0.583337
0.881804 0.543023 0.588052
0.252415 0.606622 0.620951
0.297551 0.588067 0.604944
0.376501 0.578683 0.613123
0.449989 0.582925 0.615671
0.52195 0.592081 0.608087
0.596582 0.602106 0.614496
0.692241 0.610086 0.614954
0.785718 0.619516 0.607538
0.875288 0.627054 0.609232
0.312779 0.690501 0.659922
0.357153 0.672023 0.643488
0.429419 0.663325 0.64683
0.498329 0.666407 0.654078
0.567987 0.672984 0.652491
0.635996 0.682292 0.654292
0.703182 0.694728 0.653864
0.798901 0.702739 0.637125
0.878782 0.710124 0.635706
0.369665 0.769009 0.700908
0.414588 0.752163 0.68545
0.489815 0.743709 0.686427
0.559106 0.745983 0.693233
0.622354 0.751247 0.695537
0.679698 0.760067 0.701198
0.730053 0.772412 0.708446
0.792676 0.785473 0.695689
0.883558 0.790234 0.680369
0.415061 0.839277 0.739773
0.46424 0.826139 0.727062
0.545602 0.818616 0.727199
0.627253 0.820829 0.736294
0.682872 0.825574 0.741634
0.729381 0.832853 0.748547
0.771695 0.842313 0.756725
0.814282 0.853956 0.760494
0.870542 0.865217 0.747829
0.0935988 0.119463 0.598886
0.180331 0.121828 0.621744
0.307774 0.130678 0.66511
0.448005 0.148516 0.676066
0.56437 0.172885 0.684184
0.672755 0.196994 0.702754
0.779614 0.219287 0.725582
0.859998 0.230243 0.743069
0.895598 0.234699 0.751034
0.0927443 0.200946 0.593698
0.165515 0.196689 0.590555
0.267247 0.202152 0.61799
0.394553 0.216464 0.65066
0.515084 0.238041 0.658869
0.621653 0.26424 0.667094
0.732067 0.286671 0.687541
0.84094 0.304433 0.711727
0.899382 0.308705 0.720989
0.115557 0.313146 0.602396
0.16994 0.300984 0.590677
0.251438 0.309224 0.566949
0.332921 0.317494 0.603433
0.448173 0.329305 0.638849
0.569619 0.345846 0.642847
0.679957 0.363287 0.651621
0.791104 0.378958 0.669886
0.88069 0.395621 0.677592
0.152956 0.426596 0.628885
0.200473 0.411002 0.613062
0.283024 0.406439 0.596048
0.359808 0.414862 0.601083
0.444099 0.422629 0.632181
0.564935 0.43064 0.650339
0.67538 0.443381 0.656046
0.782895 0.45565 0.666529
0.87454 0.468254 0.669459
0.195239 0.526055 0.653605
0.240375 0.507988 0.638819
0.322194 0.497383 0.634485
0.400275 0.502739 0.635126
0.475425 0.512474 0.640833
0.571725 0.519036 0.664347
0.676036 0.528572 0.669429
0.781506 0.53814 0.670069
0.874647 0.547753 0.667796
0.24416 0.615778 0.680247
0.289754 0.597253 0.664378
0.368505 0.585794 0.671031
0.443626 0.588693 0.676478
0.51429 0.597742 0.671244
0.590707 0.606912 0.678828
0.6804 0.615015 0.688823
0.785306 0.621622 0.684504
0.875959 0.629664 0.679393
0.299397 0.699214 0.71194
0.345098 0.680659 0.695293
0.419959 0.671 0.700725
0.490227 0.67303 0.71075
0.557931 0.68014 0.70634
0.625437 0.689632 0.702449
0.697826 0.699199 0.710338
0.789319 0.706065 0.708721
0.872877 0.713726 0.702663
0.355856 0.777157 0.747738
0.400931 0.760464 0.732113
0.470176 0.751675 0.733181
0.534447 0.753887 0.743465
0.600778 0.75903 0.747555
0.671366 0.766201 0.742885
0.73341 0.776257 0.748211
0.793454 0.788327 0.748089
0.877485 0.794461 0.734829
0.404074 0.846738 0.782544
0.451835 0.833219 0.769375
0.524025 0.825757 0.769085
0.592691 0.827741 0.777661
0.667109 0.831449 0.78172
0.726467 0.837613 0.784558
0.776837 0.845701 0.790692
0.81976 0.856657 0.797559
0.870695 0.868223 0.789899
0.0975814 0.124743 0.64683
0.18703 0.127504 0.671931
0.313588 0.137728 0.717098
0.451179 0.15581 0.733532
0.569711 0.17911 0.741833
0.674037 0.203555 0.756069
0.773663 0.227451 0.774868
0.847547 0.24062 0.789685
0.881315 0.244694 0.79678
0.100359 0.209689 0.648844
0.174792 0.206394 0.651698
0.276768 0.211536 0.680644
0.402502 0.226123 0.717876
0.521538 0.246906 0.728099
0.624964 0.272145 0.734585
0.724819 0.29691 0.749004
0.82182 0.316335 0.768627
0.883864 0.320516 0.779431
0.121187 0.323507 0.664317
0.1785 0.310292 0.655589
0.261662 0.321202 0.631632
0.336858 0.32845 0.662043
0.437797 0.33991 0.703563
0.555566 0.35462 0.719799
0.665125 0.374273 0.716258
0.771145 0.391104 0.731258
0.870649 0.405127 0.750027
0.158022 0.43389 0.691539
0.207889 0.417746 0.677394
0.289113 0.415457 0.654139
0.362097 0.424689 0.656489
0.435111 0.433112 0.685496
0.543359 0.439475 0.723491
0.660517 0.452186 0.724437
0.764782 0.466026 0.732738
0.866789 0.475151 0.748058
0.197299 0.532784 0.715679
0.243702 0.514565 0.700267
0.323354 0.50573 0.687617
0.398337 0.510765 0.688243
0.469398 0.520806 0.692882
0.555245 0.527199 0.726238
0.665263 0.534783 0.740169
0.767895 0.545251 0.744121
0.868376 0.551171 0.756436
0.240284 0.623194 0.739132
0.287388 0.60502 0.724346
0.363973 0.593027 0.724132
0.437644 0.595361 0.729244
0.509972 0.604013 0.727993
0.583947 0.612711 0.738399
0.672724 0.619501 0.757504
0.772702 0.627359 0.760571
0.870283 0.633204 0.762493
0.290349 0.707454 0.766049
0.336706 0.689647 0.749966
0.410941 0.678004 0.754864
0.483223 0.678584 0.765347
0.553124 0.685496 0.763622
0.618555 0.694957 0.762005
0.691005 0.703944 0.771756
0.774624 0.711498 0.77966
0.868788 0.717098 0.774929
0.344045 0.785122 0.795468
0.389425 0.768627 0.780423
0.463172 0.759258 0.782727
0.537331 0.759838 0.792416
0.606638 0.765072 0.793759
0.665858 0.773098 0.791409
0.726726 0.782269 0.793118
0.789471 0.79237 0.799207
0.871168 0.79794 0.797436
0.392782 0.854047 0.82565
0.439124 0.840635 0.812451
0.507897 0.832563 0.811154
0.588907 0.833936 0.819104
0.661967 0.837751 0.823163
0.716274 0.843778 0.82565
0.771801 0.851148 0.828702
0.82237 0.860304 0.833906
0.87509 0.870344 0.832609
0.100862 0.128313 0.668376
0.19144 0.131243 0.696529
0.318837 0.141848 0.74609
0.455421 0.160266 0.767193
0.574014 0.182132 0.775326
0.676692 0.207736 0.783948
0.773953 0.232273 0.801404
0.845487 0.245869 0.813931
0.876524 0.249928 0.818402
0.104646 0.214969 0.687434
0.180026 0.210452 0.693553
0.285069 0.216007 0.725277
0.407706 0.231235 0.759319
0.526909 0.251987 0.775326
0.631174 0.27631 0.785412
0.727794 0.300587 0.792554
0.81561 0.321065 0.807401
0.87451 0.328252 0.819272
0.123857 0.329442 0.707286
0.184741 0.317754 0.704814
0.272892 0.329458 0.697917
0.346151 0.337987 0.717922
0.439704 0.347265 0.754604
0.550942 0.361425 0.782589
0.658442 0.380545 0.783658
0.758846 0.401068 0.789807
0.852445 0.414557 0.804852
0.160769 0.439261 0.739864
0.213687 0.422812 0.731502
0.297078 0.423224 0.713191
0.366186 0.431907 0.71664
0.433005 0.442283 0.740505
0.526238 0.449607 0.777249
0.648447 0.459312 0.792233
0.752071 0.474693 0.793057
0.851148 0.485756 0.808804
0.199145 0.537621 0.767452
0.248325 0.519905 0.756481
0.327276 0.513695 0.740932
0.397772 0.51841 0.743053
0.465126 0.527367 0.753491
0.539132 0.535668 0.780484
0.646433 0.542626 0.8038
0.755001 0.552926 0.806134
0.852903 0.56054 0.817685
0.240436 0.628901 0.791379
0.287633 0.610986 0.779492
0.362814 0.600671 0.774105
0.434836 0.60296 0.776989
0.502571 0.610162 0.781933
0.569253 0.619333 0.795163
0.652857 0.626581 0.817304
0.76054 0.63299 0.825513
0.856077 0.640497 0.83003
0.284642 0.713985 0.816526
0.33315 0.696574 0.803433
0.406317 0.684138 0.804364
0.484596 0.685115 0.810422
0.551232 0.691447 0.81294
0.611078 0.700313 0.817777
0.677287 0.709773 0.828138
0.764904 0.716182 0.841062
0.859495 0.722087 0.84387
0.336004 0.792477 0.84268
0.38146 0.776577 0.828946
0.461189 0.765789 0.829664
0.546929 0.765988 0.835615
0.610056 0.770642 0.838727
0.664942 0.778058 0.842023
0.720302 0.787549 0.846708
0.782361 0.796429 0.853849
0.863752 0.801785 0.85893
0.383291 0.861112 0.86862
0.428992 0.847593 0.856229
0.519829 0.8392 0.854368
0.609796 0.839841 0.858442
0.668376 0.843687 0.862089
0.719905 0.849485 0.866423
0.77026 0.85687 0.870466
0.818524 0.8654 0.872557
0.875288 0.873121 0.877897
