LUT预设1/LUT全系打包/电影感系列lut/709电影感系列（正常色彩素材用这个）/green绿调709.cube
TITLE "Generated by Resolve"
LUT_3D_SIZE 9
0.0111238 0.0250858 0.0284428
0.0881819 0.0309453 0.0352026
0.269001 0.0204776 0.0253147
0.464485 0.00793469 0.012726
0.612604 0.00976577 0.0131838
0.72932 0.0176394 0.0206302
0.825193 0.0280003 0.0304265
0.91078 0.0529641 0.0551766
0.986572 0.0807965 0.0825666
0.0218814 0.143496 0.0482338
0.120317 0.153719 0.0545357
0.319432 0.142641 0.0444648
0.513283 0.136492 0.0349584
0.657496 0.146609 0.0434577
0.772015 0.168078 0.0584421
0.86566 0.194934 0.0781415
0.947753 0.223606 0.103487
0.995956 0.251194 0.126299
0.00933852 0.315373 0.0234073
0.0946975 0.333242 0.0316625
0.295415 0.329915 0.0324865
0.489586 0.328725 0.0316014
0.633295 0.340124 0.0374304
0.749218 0.356939 0.0459602
0.841978 0.376974 0.0619211
0.920928 0.399237 0.0806287
0.9897 0.421775 0.0997635
0.0107424 0.501244 0.0218814
0.0990158 0.516716 0.0341802
0.294743 0.509682 0.0333104
0.479164 0.503151 0.0295567
0.618921 0.508476 0.0312657
0.733776 0.518868 0.0415503
0.827863 0.534325 0.0558328
0.90721 0.552712 0.0727398
0.974716 0.571221 0.0914168
0.0200961 0.65771 0.0460822
0.13167 0.666331 0.0583505
0.324559 0.65449 0.0525368
0.500587 0.64686 0.0482643
0.635584 0.64921 0.0521706
0.746242 0.656992 0.0606241
0.836561 0.668711 0.0737011
0.912642 0.682139 0.0889754
0.981201 0.696254 0.103792
0.0573587 0.788998 0.0932479
0.180636 0.793774 0.102022
0.36846 0.779812 0.0907301
0.53547 0.769802 0.0831922
0.663951 0.768841 0.0844434
0.768902 0.772412 0.090074
0.85304 0.77937 0.100557
0.925155 0.788373 0.112673
0.985962 0.797818 0.124849
0.114534 0.901503 0.149065
0.236454 0.90164 0.152316
0.41593 0.884276 0.135195
0.575113 0.870909 0.12311
0.696651 0.866102 0.120958
0.794034 0.865888 0.12398
0.872938 0.869551 0.130785
0.940917 0.874937 0.1402
0.990845 0.880629 0.149859
0.166766 0.983825 0.201144
0.285985 0.983322 0.198123
0.459052 0.970291 0.176349
0.611719 0.953719 0.160037
0.726421 0.9458 0.155138
0.816892 0.943618 0.1561
0.891325 0.944793 0.160723
0.956146 0.948043 0.167086
0.999161 0.951782 0.175128
0.20795 0.996948 0.242496
0.324636 0.996948 0.235309
0.493126 0.996765 0.209995
0.641062 0.99646 0.19086
0.749752 0.993866 0.184146
0.83566 0.992889 0.183917
0.906966 0.993515 0.187411
0.969909 0.994644 0.193042
1 0.995483 0.198993
0.0142672 0.0294194 0.118715
0.0943923 0.0349584 0.128695
0.277958 0.0221256 0.11487
0.473213 0.01149 0.100008
0.619669 0.0146029 0.102937
0.736736 0.0209812 0.120439
0.832166 0.0363165 0.145953
0.917678 0.0618143 0.177829
0.993271 0.0893873 0.213535
0.0253605 0.149767 0.150179
0.126574 0.16022 0.160845
0.328206 0.149905 0.150713
0.521614 0.144915 0.145388
0.665385 0.156649 0.156741
0.779339 0.177707 0.178073
0.871855 0.204089 0.204044
0.952926 0.232151 0.231479
0.997345 0.258396 0.257939
0.00854505 0.325078 0.121492
0.10338 0.343572 0.137392
0.306111 0.340139 0.135927
0.498543 0.338659 0.136004
0.640543 0.349554 0.145739
0.754864 0.365118 0.159609
0.847379 0.384131 0.177432
0.925628 0.405753 0.199573
0.992126 0.427863 0.221744
0.0115053 0.510887 0.125246
0.10811 0.525246 0.142489
0.303197 0.517113 0.138598
0.486625 0.51043 0.135286
0.625681 0.514977 0.140627
0.73959 0.525414 0.152819
0.832807 0.540398 0.169863
0.911742 0.557763 0.188739
0.97734 0.576104 0.207736
0.0260929 0.663966 0.161471
0.139544 0.671839 0.173968
0.33193 0.660319 0.16556
0.506493 0.652308 0.160632
0.640681 0.654276 0.165011
0.750576 0.661814 0.174228
0.840452 0.672404 0.187884
0.915404 0.685359 0.20499
0.981308 0.698711 0.221347
0.0637217 0.793423 0.214557
0.186618 0.79794 0.221271
0.373281 0.783795 0.206943
0.540169 0.773342 0.197818
0.667308 0.771969 0.199619
0.771084 0.774655 0.205982
0.85507 0.781247 0.216175
0.926207 0.7897 0.22855
0.987915 0.798627 0.241779
0.119097 0.90396 0.274418
0.239826 0.903639 0.274784
0.41883 0.886137 0.253681
0.57705 0.872374 0.239445
0.697551 0.866972 0.23714
0.795087 0.866239 0.240482
0.872847 0.86949 0.2477
0.940444 0.874403 0.256321
0.990524 0.879881 0.266224
0.168643 0.984756 0.326986
0.287556 0.985336 0.322332
0.459815 0.970001 0.296925
0.611795 0.953079 0.277974
0.725948 0.94522 0.271946
0.816342 0.94258 0.272618
0.890105 0.943755 0.277226
0.954864 0.946685 0.284123
0.997726 0.950301 0.291508
0.208316 0.996948 0.367422
0.324544 0.996948 0.35874
0.492622 0.996948 0.330358
0.639811 0.995743 0.309239
0.748745 0.993072 0.301137
0.834333 0.992691 0.300221
0.905486 0.993362 0.303944
0.968231 0.994339 0.310002
1 0.994415 0.316747
0.0149844 0.0271611 0.309056
0.09308 0.0330816 0.325109
0.278492 0.0186313 0.311223
0.473701 0.0124056 0.299626
0.619745 0.0158694 0.309789
0.737194 0.0200198 0.332311
0.833295 0.0389105 0.3626
0.919341 0.0647746 0.397818
0.993866 0.0926833 0.434058
0.0252384 0.14931 0.357458
0.126741 0.160571 0.371008
0.329824 0.151461 0.36025
0.524056 0.147829 0.357229
0.667063 0.16054 0.37113
0.781216 0.181308 0.393256
0.873533 0.207492 0.419959
0.953323 0.23473 0.445975
0.998688 0.260365 0.470405
0.0112917 0.328878 0.326436
0.106767 0.34757 0.345205
0.31014 0.343938 0.341665
0.501823 0.342596 0.340475
0.642161 0.352499 0.350072
0.755734 0.366796 0.364324
0.847883 0.385336 0.382834
0.92575 0.406561 0.40412
0.990631 0.428397 0.425956
0.0105287 0.513832 0.330175
0.111101 0.527382 0.34583
0.305592 0.518578 0.338003
0.488243 0.511986 0.332662
0.626444 0.516152 0.338796
0.740322 0.525948 0.351125
0.833112 0.540841 0.367605
0.911635 0.557519 0.385977
0.977325 0.57528 0.405127
0.0287785 0.664439 0.366232
0.141588 0.672084 0.376028
0.332876 0.660548 0.364065
0.506783 0.652689 0.35639
0.640665 0.654307 0.359945
0.749752 0.661143 0.368353
0.839155 0.671107 0.38117
0.913771 0.683482 0.396506
0.977829 0.696391 0.411627
0.0646067 0.792905 0.415534
0.18732 0.797024 0.419776
0.372503 0.782818 0.402136
0.538216 0.772091 0.390417
0.664988 0.76997 0.390005
0.768399 0.772152 0.395087
0.852094 0.778119 0.40383
0.922454 0.78616 0.415229
0.986007 0.794461 0.426612
0.11812 0.901717 0.468482
0.237858 0.901228 0.466911
0.415793 0.883467 0.443763
0.57348 0.869139 0.427375
0.693568 0.863264 0.423026
0.79057 0.862119 0.424857
0.868238 0.864942 0.430884
0.935515 0.869612 0.438941
0.989227 0.874571 0.447837
0.16611 0.984253 0.514809
0.283604 0.9841 0.508339
0.455329 0.964706 0.481605
0.60679 0.948455 0.461555
0.720302 0.940291 0.454108
0.810956 0.937438 0.453498
0.884535 0.938354 0.457664
0.949248 0.9411 0.463828
0.994385 0.944533 0.470939
0.204044 0.996948 0.550637
0.319188 0.996948 0.540551
0.487312 0.996887 0.511727
0.633768 0.994064 0.489677
0.742824 0.991806 0.481407
0.828428 0.990982 0.480003
0.899489 0.99086 0.482734
0.962432 0.993057 0.488029
0.999863 0.992859 0.494682
0.0140078 0.0257115 0.509499
0.0918288 0.0294041 0.523262
0.279728 0.0192264 0.507622
0.475288 0.0135195 0.495689
0.621607 0.0159152 0.504967
0.739269 0.0213931 0.524788
0.836622 0.0432898 0.552499
0.923262 0.0697948 0.585168
0.993927 0.0983749 0.615396
0.0240177 0.150256 0.550637
0.128389 0.162402 0.561715
0.334524 0.154253 0.5505
0.527993 0.152209 0.546624
0.670405 0.165927 0.558541
0.784176 0.187274 0.577295
0.876631 0.212848 0.600076
0.955291 0.239322 0.622141
1 0.264393 0.643122
0.0148165 0.333822 0.517754
0.11162 0.35259 0.533867
0.315038 0.34876 0.528588
0.504646 0.346899 0.52546
0.64448 0.356115 0.531655
0.757198 0.369848 0.543511
0.848905 0.388434 0.559411
0.926833 0.409415 0.578363
0.989197 0.430747 0.597513
0.00958267 0.517678 0.515862
0.114717 0.529763 0.527901
0.309102 0.520897 0.518944
0.490272 0.514015 0.512078
0.628122 0.518303 0.516472
0.741772 0.528145 0.526238
0.834012 0.542306 0.540429
0.912062 0.55877 0.556939
0.978149 0.576272 0.574548
0.0314946 0.666331 0.543374
0.144732 0.673655 0.551339
0.335454 0.661921 0.538201
0.508598 0.65391 0.529702
0.641672 0.655161 0.530846
0.750179 0.66128 0.538369
0.838621 0.671107 0.549813
0.912856 0.682994 0.563058
0.975998 0.695521 0.57612
0.0670024 0.79379 0.585809
0.189532 0.797559 0.588983
0.373724 0.782834 0.571084
0.53817 0.77171 0.558099
0.664485 0.768795 0.556573
0.766979 0.770718 0.560006
0.850202 0.776181 0.567559
0.919982 0.783978 0.577722
0.984192 0.791806 0.588235
0.119112 0.901122 0.633433
0.238285 0.899977 0.631174
0.415106 0.881651 0.607569
0.57203 0.866926 0.590555
0.691417 0.860563 0.585321
0.787427 0.859113 0.586145
0.865064 0.861692 0.59089
0.931823 0.866178 0.597772
0.988785 0.870832 0.605829
0.165499 0.985275 0.675013
0.28188 0.980606 0.667659
0.452766 0.961379 0.641047
0.603723 0.945144 0.6206
0.716762 0.936675 0.612848
0.80766 0.933394 0.611399
0.880751 0.934264 0.614542
0.945113 0.93695 0.619638
0.991852 0.940322 0.62594
0.201602 0.996948 0.706249
0.316564 0.996948 0.695903
0.483726 0.996536 0.667292
0.63003 0.992859 0.645411
0.738811 0.990723 0.636393
0.824475 0.988617 0.634501
0.895277 0.989517 0.637034
0.958312 0.991501 0.641688
0.999146 0.991897 0.647349
0.012314 0.0266575 0.651041
0.0949111 0.0307622 0.661204
0.286992 0.0221408 0.645151
0.482536 0.0164187 0.632151
0.628626 0.0166629 0.639109
0.745861 0.0285496 0.657877
0.843488 0.0511635 0.682338
0.930404 0.078645 0.711223
0.994812 0.107424 0.738094
0.0231327 0.155657 0.681422
0.134539 0.168917 0.692058
0.343404 0.160952 0.681956
0.536278 0.160678 0.677333
0.677623 0.175051 0.686915
0.790265 0.196307 0.704021
0.881651 0.2215 0.723751
0.959472 0.247318 0.742519
1 0.271687 0.760784
0.0180972 0.342657 0.651774
0.119158 0.360906 0.665431
0.323003 0.356497 0.660349
0.510613 0.354223 0.656168
0.649699 0.362249 0.661631
0.761227 0.376059 0.671794
0.85214 0.394385 0.685817
0.929961 0.415122 0.703075
0.989258 0.436316 0.721233
0.0087892 0.524819 0.647456
0.120851 0.5355 0.658366
0.315358 0.525643 0.649577
0.495689 0.519066 0.642847
0.632517 0.522942 0.645747
0.745968 0.532692 0.654383
0.836805 0.546761 0.667552
0.914366 0.562951 0.682551
0.98085 0.57995 0.697383
0.0348974 0.671168 0.670771
0.150637 0.678248 0.677821
0.341115 0.665965 0.665354
0.512551 0.657649 0.657008
0.645396 0.658579 0.658091
0.752728 0.664164 0.663508
0.840269 0.673655 0.673091
0.913848 0.685283 0.684962
0.976394 0.696956 0.696788
0.072282 0.797513 0.708888
0.194751 0.800702 0.711299
0.377737 0.785458 0.693736
0.541848 0.773602 0.681086
0.667002 0.770108 0.678523
0.768246 0.771847 0.681392
0.850645 0.776989 0.687251
0.919921 0.784543 0.695521
0.981338 0.791592 0.70454
0.122896 0.903105 0.751354
0.241947 0.901122 0.747906
0.417792 0.882429 0.725643
0.574121 0.866987 0.708553
0.692454 0.860502 0.702693
0.78761 0.858976 0.702693
0.864652 0.861067 0.706462
0.931044 0.865354 0.71194
0.989853 0.869963 0.718227
0.167895 0.985672 0.787442
0.284077 0.978927 0.779583
0.453925 0.960815 0.753994
0.604364 0.944289 0.734051
0.716823 0.935592 0.725704
0.806867 0.932357 0.723507
0.879835 0.933135 0.726192
0.94403 0.935805 0.730358
0.99173 0.939223 0.735164
0.203067 0.996948 0.812894
0.317403 0.996948 0.803098
0.484123 0.996139 0.776226
0.630106 0.992554 0.754894
0.73817 0.989975 0.745708
0.82385 0.988144 0.742947
0.894469 0.990372 0.744472
0.957382 0.991012 0.748837
0.997848 0.991882 0.753613
0.0102388 0.0285039 0.75668
0.100725 0.0354009 0.763119
0.297353 0.0262608 0.747372
0.492729 0.0195926 0.736263
0.63856 0.0203403 0.741894
0.755138 0.0376745 0.758038
0.852567 0.0614939 0.781933
0.939239 0.0899214 0.807263
0.996201 0.118334 0.83003
0.0263066 0.164004 0.78027
0.142962 0.177691 0.78941
0.354162 0.171237 0.780667
0.546105 0.171252 0.7776
0.6869 0.185626 0.785916
0.798245 0.207279 0.800656
0.88748 0.231678 0.817273
0.965164 0.256626 0.834318
1 0.280797 0.849729
0.0211643 0.353719 0.754818
0.128374 0.371389 0.768582
0.332296 0.365545 0.763821
0.517983 0.362783 0.759091
0.656382 0.370352 0.762249
0.766918 0.383993 0.771481
0.856794 0.402472 0.784848
0.93489 0.422782 0.799481
0.990707 0.44358 0.815457
0.0106203 0.53254 0.750729
0.128466 0.542855 0.760418
0.323735 0.532525 0.752453
0.502495 0.525628 0.746273
0.638498 0.529595 0.749447
0.750805 0.538888 0.756497
0.841276 0.552605 0.767193
0.917998 0.568673 0.780682
0.985046 0.585184 0.794598
0.038941 0.677775 0.771084
0.158083 0.684428 0.777234
0.348104 0.671626 0.766201
0.518837 0.662974 0.757839
0.650278 0.663233 0.757534
0.757107 0.668605 0.762493
0.84329 0.677836 0.770809
0.916487 0.688945 0.780224
0.97821 0.700175 0.790143
0.079118 0.802823 0.804654
0.201572 0.805203 0.80705
0.384024 0.789151 0.790707
0.546624 0.776745 0.778103
0.671244 0.773068 0.774319
0.771191 0.774517 0.775814
0.852506 0.779461 0.780972
0.921599 0.786328 0.788022
0.980819 0.793393 0.795026
0.128634 0.90663 0.841505
0.247654 0.903883 0.838682
0.422217 0.884504 0.817853
0.577661 0.868711 0.801617
0.695186 0.861891 0.794476
0.789303 0.860304 0.793088
0.866224 0.862409 0.79559
0.932006 0.866346 0.80061
0.991821 0.870741 0.806088
0.172305 0.985946 0.872221
0.28809 0.978988 0.865019
0.457221 0.962188 0.841108
0.606851 0.944884 0.821988
0.718517 0.936339 0.813931
0.807828 0.933181 0.810666
0.88072 0.933791 0.811933
0.944778 0.936477 0.815167
0.993225 0.939742 0.819867
0.206394 0.996948 0.893797
0.320363 0.996948 0.884108
0.4869 0.995789 0.858442
0.632212 0.992737 0.838621
0.739528 0.989929 0.829648
0.825177 0.989151 0.827054
0.895293 0.990799 0.827924
0.958175 0.991135 0.830884
0.997238 0.992157 0.834928
0.0146944 0.0339818 0.837507
0.110063 0.0416724 0.843397
0.310048 0.0313268 0.828077
0.50515 0.0231785 0.817227
0.650568 0.0298619 0.823178
0.766293 0.0482185 0.839384
0.863111 0.0731975 0.861418
0.948592 0.102419 0.884978
0.997559 0.130495 0.906172
0.0335241 0.173831 0.858442
0.15462 0.189212 0.867338
0.366949 0.182544 0.859434
0.558053 0.18323 0.856535
0.697536 0.197726 0.864393
0.806348 0.218784 0.878035
0.894301 0.242786 0.892653
0.971405 0.267445 0.908232
0.999863 0.290715 0.922789
0.0243687 0.365911 0.836789
0.138613 0.382986 0.848737
0.343221 0.376196 0.844633
0.526741 0.372366 0.840085
0.663737 0.379721 0.843549
0.773663 0.39324 0.850782
0.862806 0.411627 0.862638
0.940505 0.431632 0.877256
0.993042 0.452064 0.891936
0.0193484 0.541787 0.83241
0.137469 0.551415 0.842039
0.333089 0.540352 0.835447
0.510521 0.533333 0.829496
0.646097 0.53724 0.830961
0.756939 0.546487 0.837354
0.846815 0.559838 0.84741
0.922621 0.575631 0.859236
0.989868 0.591623 0.870817
0.0437476 0.685802 0.849958
0.166903 0.691936 0.856504
0.356512 0.678614 0.846281
0.526116 0.669474 0.838666
0.656565 0.669245 0.837995
0.7626 0.673991 0.841077
0.847517 0.683162 0.847959
0.919997 0.693889 0.856687
0.981262 0.704417 0.865385
0.0871138 0.809323 0.881056
0.20943 0.810529 0.882719
0.391073 0.794141 0.867475
0.552438 0.781216 0.855283
0.676234 0.777127 0.851316
0.775265 0.778271 0.851957
0.855573 0.783169 0.855634
0.924254 0.789471 0.861418
0.981765 0.796124 0.86775
0.135363 0.911009 0.914672
0.254246 0.90753 0.911055
0.428153 0.887724 0.89102
0.582681 0.871595 0.874754
0.699519 0.864561 0.867689
0.792309 0.862791 0.866087
0.868559 0.864591 0.868009
0.934066 0.86836 0.871748
0.991073 0.872694 0.876127
0.17734 0.986526 0.941924
0.293172 0.980362 0.934432
0.461769 0.964477 0.911269
0.610941 0.946777 0.892561
0.72195 0.938064 0.883787
0.810117 0.935012 0.880644
0.882872 0.935531 0.881773
0.946548 0.938109 0.884718
0.99585 0.941558 0.888151
0.210483 0.996948 0.960693
0.324514 0.996948 0.950881
0.490623 0.995727 0.926375
0.63566 0.993194 0.906905
0.742275 0.990677 0.897932
0.827283 0.991058 0.894682
0.897307 0.990997 0.895659
0.959915 0.991699 0.898589
0.997162 0.992615 0.90219
0.0203708 0.0411078 0.905943
0.121019 0.0491493 0.910903
0.323598 0.0371405 0.896406
0.518273 0.0299992 0.887236
0.662623 0.0405127 0.89369
0.778286 0.0597238 0.910002
0.87396 0.0860304 0.931914
0.957809 0.115236 0.953735
0.998795 0.142428 0.971893
0.0415961 0.185443 0.926101
0.166552 0.201175 0.934691
0.380331 0.194965 0.927626
0.569757 0.195911 0.92549
0.708354 0.210391 0.933028
0.814817 0.230991 0.944808
0.901427 0.254246 0.958938
0.976761 0.278401 0.972793
0.999741 0.301137 0.980316
0.0280156 0.378897 0.906233
0.149691 0.394965 0.917754
0.35436 0.386755 0.913283
0.536416 0.382513 0.908644
0.671916 0.389761 0.91107
0.78143 0.40322 0.918273
0.869871 0.421134 0.930159
0.946654 0.44094 0.943542
0.995743 0.461204 0.957336
0.0280156 0.551629 0.90135
0.147768 0.560876 0.910185
0.34345 0.549142 0.903716
0.519875 0.54226 0.898222
0.654475 0.545678 0.899641
0.763546 0.554574 0.905455
0.852811 0.567849 0.914504
0.927993 0.583413 0.925414
0.989975 0.598398 0.936141
0.0519112 0.694316 0.917784
0.175753 0.699901 0.924041
0.365667 0.685878 0.914107
0.534371 0.676066 0.906065
0.663417 0.675731 0.904784
0.768277 0.680385 0.907591
0.852399 0.689021 0.913771
0.924056 0.699107 0.921386
0.984894 0.709316 0.929198
0.0957504 0.815946 0.947097
0.218173 0.816678 0.948501
0.398871 0.799481 0.933135
0.559274 0.786236 0.920867
0.681743 0.781933 0.916106
0.780087 0.782696 0.915862
0.859434 0.787198 0.919356
0.92755 0.793103 0.92462
0.983719 0.799527 0.930098
0.142351 0.915724 0.975128
0.26128 0.911696 0.973816
0.43473 0.891249 0.954314
0.588006 0.874983 0.938048
0.704356 0.867628 0.930571
0.796094 0.865919 0.928481
0.87158 0.867506 0.930037
0.936873 0.870954 0.933593
0.990478 0.875212 0.93756
0.183108 0.987457 0.990738
0.298726 0.982254 0.985992
0.467048 0.967285 0.97145
0.615381 0.949203 0.953796
0.725856 0.940398 0.945144
0.813077 0.937346 0.942107
0.885466 0.937804 0.942641
0.94905 0.94049 0.945373
0.999207 0.943832 0.948775
0.215198 0.996948 0.997055
0.329305 0.996948 0.993896
0.494713 0.995865 0.97998
0.639582 0.993988 0.966171
0.745541 0.991989 0.958038
0.829786 0.991623 0.955001
0.899855 0.99144 0.955596
0.96231 0.992355 0.958022
0.997543 0.993194 0.96173
0.0256352 0.0486763 0.967102
0.132265 0.0567636 0.973983
0.338125 0.0439002 0.958801
0.531807 0.0404059 0.949706
0.675029 0.0518959 0.957168
0.790341 0.0720684 0.976013
0.884047 0.0990005 0.989059
0.966079 0.127611 0.995514
0.999817 0.154101 0.99968
0.0498665 0.198001 0.981399
0.178866 0.213687 0.98883
0.394095 0.207462 0.98584
0.581537 0.20856 0.983536
0.717556 0.22266 0.986099
0.822965 0.242527 0.99237
0.908339 0.265492 0.997436
0.979675 0.288792 0.998581
0.999771 0.31136 0.999207
0.0315404 0.392142 0.969741
0.160571 0.406729 0.97612
0.365667 0.397482 0.971023
0.545876 0.393057 0.968093
0.680369 0.4 0.971984
0.788388 0.413474 0.978836
0.876951 0.430732 0.983932
0.953185 0.450401 0.990417
0.998657 0.470268 0.997711
0.03682 0.561852 0.963378
0.158236 0.570336 0.972015
0.354253 0.558236 0.966003
0.529015 0.55108 0.960662
0.662882 0.554391 0.960006
0.770794 0.563012 0.964874
0.858885 0.575875 0.973663
0.933272 0.591028 0.984207
0.990372 0.605402 0.986893
0.0615244 0.703136 0.975616
0.186297 0.707774 0.97908
0.37528 0.693248 0.971984
0.542779 0.683345 0.966812
0.670604 0.68249 0.965743
0.773877 0.686961 0.966506
0.857404 0.695064 0.970047
0.928252 0.704631 0.976303
0.988968 0.714458 0.983932
0.104601 0.822553 0.994049
0.226368 0.822492 0.993103
0.406729 0.80499 0.985245
0.566369 0.791348 0.975433
0.68751 0.786694 0.97319
0.785183 0.787335 0.974914
0.86334 0.791287 0.976593
0.931029 0.796918 0.977798
0.986252 0.803098 0.981384
0.149432 0.920546 0.999634
0.268391 0.915984 1
0.440955 0.895247 0.995239
0.593622 0.878584 0.988556
0.708797 0.871153 0.981765
0.800061 0.868879 0.980621
0.874678 0.870466 0.984436
0.939635 0.873854 0.987137
0.990448 0.877897 0.986603
0.188525 0.988647 0.999985
0.304601 0.984482 0.999924
0.472419 0.97026 0.999832
0.62005 0.951629 0.995972
0.729809 0.942901 0.992126
0.816434 0.939757 0.988846
0.888167 0.940322 0.988479
0.951507 0.942824 0.991531
0.999374 0.946242 0.994354
0.219638 0.996948 1
0.334249 0.996948 1
0.499535 0.99617 0.999176
0.643839 0.994965 0.998047
0.749264 0.993347 0.997513
0.832715 0.991897 0.995407
0.902663 0.992096 0.994827
0.964935 0.993103 0.995239
0.998444 0.994034 0.997528
