LUT预设1/LUT全系打包/电影感系列lut/709电影感系列（正常色彩素材用这个）/green绿调709.cube
TITLE "Generated by Resolve"
LUT_3D_SIZE 5
0.0111238 0.0250858 0.0284428
0.269001 0.0204776 0.0253147
0.612604 0.00976577 0.0131838
0.825193 0.0280003 0.0304265
0.986572 0.0807965 0.0825666
0.00933852 0.315373 0.0234073
0.295415 0.329915 0.0324865
0.633295 0.340124 0.0374304
0.841978 0.376974 0.0619211
0.9897 0.421775 0.0997635
0.0200961 0.65771 0.0460822
0.324559 0.65449 0.0525368
0.635584 0.64921 0.0521706
0.836561 0.668711 0.0737011
0.981201 0.696254 0.103792
0.114534 0.901503 0.149065
0.41593 0.884276 0.135195
0.696651 0.866102 0.120958
0.872938 0.869551 0.130785
0.990845 0.880629 0.149859
0.20795 0.996948 0.242496
0.493126 0.996765 0.209995
0.749752 0.993866 0.184146
0.906966 0.993515 0.187411
1 0.995483 0.198993
0.0149844 0.0271611 0.309056
0.278492 0.0186313 0.311223
0.619745 0.0158694 0.309789
0.833295 0.0389105 0.3626
0.993866 0.0926833 0.434058
0.0112917 0.328878 0.326436
0.31014 0.343938 0.341665
0.642161 0.352499 0.350072
0.847883 0.385336 0.382834
0.990631 0.428397 0.425956
0.0287785 0.664439 0.366232
0.332876 0.660548 0.364065
0.640665 0.654307 0.359945
0.839155 0.671107 0.38117
0.977829 0.696391 0.411627
0.11812 0.901717 0.468482
0.415793 0.883467 0.443763
0.693568 0.863264 0.423026
0.868238 0.864942 0.430884
0.989227 0.874571 0.447837
0.204044 0.996948 0.550637
0.487312 0.996887 0.511727
0.742824 0.991806 0.481407
0.899489 0.99086 0.482734
0.999863 0.992859 0.494682
0.012314 0.0266575 0.651041
0.286992 0.0221408 0.645151
0.628626 0.0166629 0.639109
0.843488 0.0511635 0.682338
0.994812 0.107424 0.738094
0.0180972 0.342657 0.651774
0.323003 0.356497 0.660349
0.649699 0.362249 0.661631
0.85214 0.394385 0.685817
0.989258 0.436316 0.721233
0.0348974 0.671168 0.670771
0.341115 0.665965 0.665354
0.645396 0.658579 0.658091
0.840269 0.673655 0.673091
0.976394 0.696956 0.696788
0.122896 0.903105 0.751354
0.417792 0.882429 0.725643
0.692454 0.860502 0.702693
0.864652 0.861067 0.706462
0.989853 0.869963 0.718227
0.203067 0.996948 0.812894
0.484123 0.996139 0.776226
0.73817 0.989975 0.745708
0.894469 0.990372 0.744472
0.997848 0.991882 0.753613
0.0146944 0.0339818 0.837507
0.310048 0.0313268 0.828077
0.650568 0.0298619 0.823178
0.863111 0.0731975 0.861418
0.997559 0.130495 0.906172
0.0243687 0.365911 0.836789
0.343221 0.376196 0.844633
0.663737 0.379721 0.843549
0.862806 0.411627 0.862638
0.993042 0.452064 0.891936
0.0437476 0.685802 0.849958
0.356512 0.678614 0.846281
0.656565 0.669245 0.837995
0.847517 0.683162 0.847959
0.981262 0.704417 0.865385
0.135363 0.911009 0.914672
0.428153 0.887724 0.89102
0.699519 0.864561 0.867689
0.868559 0.864591 0.868009
0.991073 0.872694 0.876127
0.210483 0.996948 0.960693
0.490623 0.995727 0.926375
0.742275 0.990677 0.897932
0.897307 0.990997 0.895659
0.997162 0.992615 0.90219
0.0256352 0.0486763 0.967102
0.338125 0.0439002 0.958801
0.675029 0.0518959 0.957168
0.884047 0.0990005 0.989059
0.999817 0.154101 0.99968
0.0315404 0.392142 0.969741
0.365667 0.397482 0.971023
0.680369 0.4 0.971984
0.876951 0.430732 0.983932
0.998657 0.470268 0.997711
0.0615244 0.703136 0.975616
0.37528 0.693248 0.971984
0.670604 0.68249 0.965743
0.857404 0.695064 0.970047
0.988968 0.714458 0.983932
0.149432 0.920546 0.999634
0.440955 0.895247 0.995239
0.708797 0.871153 0.981765
0.874678 0.870466 0.984436
0.990448 0.877897 0.986603
0.219638 0.996948 1
0.499535 0.99617 0.999176
0.749264 0.993347 0.997513
0.902663 0.992096 0.994827
0.998444 0.994034 0.997528
