LUT预设1/LUT全系打包/电影感系列lut/709电影感系列（正常色彩素材用这个）/green绿调709.cube
TITLE "Generated by Resolve"
LUT_3D_SIZE 33
0.0111238 0.0250858 0.0284428
0.0220951 0.0269627 0.030396
0.0349279 0.0288243 0.0323949
0.0607919 0.0300603 0.0339361
0.0881819 0.0309453 0.0352026
0.119814 0.0309758 0.0358434
0.156207 0.0302739 0.0352636
0.200427 0.0280766 0.0327611
0.269001 0.0204776 0.0253147
0.326085 0.0159609 0.020737
0.37615 0.0124056 0.017258
0.421424 0.0103151 0.0151217
0.464485 0.00793469 0.012726
0.504387 0.00668345 0.011368
0.54287 0.00712596 0.0115816
0.578241 0.00849927 0.0123293
0.612604 0.00976577 0.0131838
0.643381 0.0119478 0.0153201
0.674128 0.0137789 0.0170901
0.7019 0.0157321 0.0189059
0.72932 0.0176394 0.0206302
0.754726 0.0197299 0.0225376
0.779171 0.0218357 0.0244755
0.802716 0.0242008 0.0267033
0.825193 0.0280003 0.0304265
0.847379 0.0338445 0.0362249
0.868742 0.0401617 0.0424964
0.889784 0.0463417 0.0486152
0.91078 0.0529641 0.0551766
0.931304 0.0597696 0.0619211
0.951659 0.0666972 0.0687572
0.969116 0.0736858 0.0756085
0.986572 0.0807965 0.0825666
0.0165713 0.0520943 0.0367285
0.0249332 0.0541085 0.03888
0.0463264 0.0556649 0.0406195
0.0703593 0.0572671 0.0419165
0.0994278 0.0582284 0.042298
0.13051 0.0585641 0.0421302
0.16997 0.0569314 0.0394446
0.21532 0.0535744 0.0356451
0.284733 0.0438392 0.0268864
0.342702 0.0381323 0.0229801
0.391852 0.0350958 0.0213931
0.437522 0.0332647 0.0203555
0.479652 0.0319371 0.0198978
0.519677 0.0310063 0.0193637
0.556909 0.0306401 0.0196384
0.592752 0.0302434 0.0200198
0.625834 0.0307012 0.0211948
0.657542 0.0328069 0.0225223
0.687343 0.0361486 0.0239414
0.715373 0.0401617 0.0253452
0.742641 0.0444343 0.0269017
0.767865 0.0493782 0.0295567
0.792828 0.0543679 0.0344549
0.815839 0.0601663 0.0401007
0.838514 0.0660868 0.0458381
0.860655 0.0722972 0.052079
0.882292 0.078996 0.0583352
0.903761 0.0855879 0.0647288
0.924498 0.0927443 0.071458
0.9449 0.100465 0.077821
0.963211 0.107927 0.0842451
0.980682 0.115404 0.0909743
0.995224 0.122927 0.0975052
0.0187076 0.0809186 0.0432136
0.0322423 0.0831464 0.0444648
0.0538033 0.085069 0.0453346
0.078706 0.0863966 0.0460822
0.108156 0.0873732 0.0469673
0.142245 0.0870222 0.0469825
0.180911 0.085832 0.0457008
0.228763 0.0823987 0.0426947
0.299001 0.0730449 0.0351263
0.357061 0.0670481 0.0311284
0.406287 0.0637675 0.02916
0.451347 0.0618448 0.0276341
0.493065 0.0612497 0.0265507
0.532891 0.0611429 0.0260319
0.569879 0.0620279 0.0262455
0.605432 0.0635843 0.0266423
0.638148 0.0661784 0.0275731
0.670512 0.0690776 0.0283055
0.699565 0.072755 0.030045
0.728511 0.0766918 0.0339666
0.754818 0.0814527 0.0385901
0.780438 0.0871748 0.0432593
0.804532 0.0933547 0.0485084
0.827573 0.10016 0.0538949
0.850553 0.106783 0.0596017
0.872099 0.114 0.0654307
0.893553 0.121004 0.0715496
0.914427 0.128481 0.0778515
0.935225 0.136034 0.0842603
0.954879 0.143587 0.090486
0.972412 0.151049 0.0977798
0.989792 0.158511 0.105318
0.995727 0.165026 0.111803
0.018677 0.111376 0.0457923
0.0374762 0.113909 0.0475319
0.0566262 0.11606 0.0493935
0.0847944 0.117876 0.0506752
0.114504 0.119265 0.0516518
0.150668 0.11928 0.0516976
0.190433 0.118273 0.0509957
0.239322 0.114977 0.0485237
0.310735 0.105928 0.0413977
0.368643 0.100496 0.0373236
0.418296 0.0977646 0.0346532
0.463172 0.0964675 0.0330816
0.505516 0.0961166 0.0316472
0.544015 0.0971084 0.0314336
0.58146 0.09897 0.03122
0.615854 0.101701 0.0316167
0.64921 0.104753 0.0343786
0.680079 0.108843 0.0376898
0.709789 0.113375 0.0413062
0.738079 0.118318 0.045243
0.764477 0.124132 0.0498665
0.790402 0.130037 0.0543374
0.814206 0.136339 0.0597696
0.83772 0.142901 0.0652323
0.860212 0.149844 0.0710307
0.881804 0.157092 0.0767376
0.902632 0.164752 0.0822766
0.923033 0.172259 0.0884413
0.943206 0.179629 0.0951247
0.961303 0.186954 0.101793
0.979217 0.194537 0.108644
0.992706 0.201556 0.114931
0.995743 0.208331 0.120607
0.0218814 0.143496 0.0482338
0.0382239 0.146456 0.0503395
0.0606546 0.149401 0.0521248
0.0886091 0.152071 0.0536507
0.120317 0.153719 0.0545357
0.155749 0.154665 0.054902
0.197665 0.153933 0.0538643
0.246281 0.151751 0.0515908
0.319432 0.142641 0.0444648
0.377752 0.138125 0.040238
0.427222 0.136172 0.0375067
0.471519 0.135866 0.0358892
0.513283 0.136492 0.0349584
0.552041 0.138018 0.0364385
0.58909 0.140169 0.0383307
0.623789 0.143175 0.0409552
0.657496 0.146609 0.0434577
0.688182 0.151125 0.0470588
0.718196 0.156191 0.0502632
0.745449 0.162081 0.0542916
0.772015 0.168078 0.0584421
0.796857 0.174411 0.0629892
0.820783 0.180987 0.0678416
0.844007 0.18764 0.0729534
0.86566 0.194934 0.0781415
0.88716 0.202152 0.0840925
0.90779 0.20914 0.090425
0.928176 0.216388 0.0970016
0.947753 0.223606 0.103487
0.966323 0.230838 0.109758
0.984512 0.23798 0.115648
0.99147 0.244648 0.121019
0.995956 0.251194 0.126299
0.0238651 0.180407 0.0484016
0.036286 0.183795 0.0504005
0.0623484 0.186847 0.0521401
0.0887617 0.189746 0.0537728
0.12256 0.191516 0.0545815
0.158022 0.193103 0.0549172
0.201663 0.192859 0.0534829
0.251408 0.19118 0.0517586
0.324804 0.182788 0.0450904
0.383566 0.178714 0.0415961
0.432303 0.1776 0.0404212
0.4766 0.178073 0.040528
0.518044 0.1794 0.0413519
0.556878 0.181689 0.0428321
0.593408 0.184604 0.0446784
0.628336 0.188159 0.0469062
0.661326 0.192203 0.0495155
0.69218 0.196994 0.0526589
0.722042 0.202045 0.0560159
0.749493 0.207706 0.0599222
0.776638 0.213367 0.0638437
0.800916 0.219852 0.0685435
0.824643 0.226352 0.0728466
0.846998 0.233082 0.0781109
0.868498 0.239918 0.083772
0.889403 0.246693 0.0894026
0.909392 0.253513 0.0951553
0.929213 0.260273 0.100816
0.948135 0.267292 0.106554
0.966796 0.273991 0.111986
0.982971 0.280842 0.117479
0.989731 0.28716 0.122606
0.997131 0.293736 0.127932
0.0209506 0.220508 0.0451667
0.0358892 0.224552 0.0468147
0.0600748 0.228321 0.0483101
0.0877394 0.231601 0.0496376
0.120821 0.234257 0.0515297
0.158114 0.236179 0.0527504
0.201053 0.236606 0.0530556
0.251637 0.235004 0.0518654
0.325414 0.22707 0.0463569
0.384436 0.223285 0.0439307
0.433234 0.222766 0.0433509
0.478187 0.223255 0.0436713
0.518883 0.225132 0.044831
0.558129 0.227588 0.0460975
0.5944 0.231037 0.0479438
0.629496 0.234546 0.0497902
0.661555 0.239063 0.0523232
0.692821 0.243641 0.0549172
0.721996 0.248676 0.0579385
0.749416 0.254215 0.0613413
0.775692 0.259907 0.0648966
0.800015 0.265919 0.069337
0.823957 0.271839 0.0744488
0.845655 0.278462 0.0796674
0.86743 0.284733 0.0851148
0.888029 0.291295 0.0903029
0.907713 0.297765 0.0956436
0.92726 0.304112 0.100786
0.945907 0.310491 0.105852
0.964538 0.316823 0.110872
0.977966 0.323033 0.115831
0.988052 0.329152 0.120729
0.998871 0.335241 0.125566
0.0140841 0.264118 0.0373999
0.0317082 0.268666 0.0391546
0.0536812 0.273198 0.0417487
0.0823682 0.276905 0.0448005
0.11548 0.280232 0.0473487
0.153643 0.282506 0.049134
0.195743 0.283818 0.0500801
0.247105 0.282429 0.0495003
0.320546 0.275013 0.0447852
0.37998 0.271366 0.04271
0.428336 0.271397 0.0424048
0.473198 0.272068 0.0428321
0.513954 0.27425 0.0436561
0.552743 0.276661 0.0449683
0.589136 0.27982 0.04654
0.624369 0.283375 0.0482948
0.656458 0.287449 0.0505074
0.688304 0.291783 0.0526284
0.716838 0.296544 0.055436
0.744533 0.30132 0.0584115
0.770169 0.306386 0.0623026
0.7944 0.31194 0.0667582
0.818006 0.317494 0.0712291
0.839719 0.323384 0.0760357
0.861265 0.329198 0.0807507
0.881422 0.335393 0.085481
0.901137 0.341329 0.0904555
0.920378 0.347494 0.095079
0.939055 0.353414 0.10013
0.957656 0.359579 0.104829
0.972076 0.365347 0.109758
0.985748 0.371221 0.114672
0.997559 0.376928 0.119539
0.00933852 0.315373 0.0234073
0.0198825 0.320378 0.0246738
0.0371862 0.324834 0.0260014
0.0617227 0.329259 0.0284276
0.0946975 0.333242 0.0316625
0.131823 0.336049 0.0341955
0.17322 0.337682 0.0360113
0.223178 0.337041 0.0359808
0.295415 0.329915 0.0324865
0.354543 0.326574 0.0307012
0.40354 0.326284 0.0303807
0.448661 0.326879 0.0308995
0.489586 0.328725 0.0316014
0.528771 0.330922 0.0326085
0.565057 0.333593 0.0341344
0.600595 0.336812 0.0355077
0.633295 0.340124 0.0374304
0.664973 0.344015 0.0392309
0.694408 0.347997 0.0414588
0.722469 0.352407 0.0436866
0.749218 0.356939 0.0459602
0.773602 0.361715 0.0488594
0.798032 0.366537 0.0529793
0.820035 0.371893 0.0573281
0.841978 0.376974 0.0619211
0.862699 0.382376 0.0665141
0.882628 0.3879 0.0712139
0.902388 0.393393 0.0758679
0.920928 0.399237 0.0806287
0.939727 0.404822 0.0856184
0.957061 0.410391 0.0903182
0.97319 0.41622 0.0949264
0.9897 0.421775 0.0997635
0.00843824 0.364096 0.016907
0.0179294 0.369329 0.0181277
0.0303807 0.374517 0.0201724
0.0546883 0.378882 0.0238041
0.087541 0.382818 0.0270085
0.124102 0.38584 0.0293889
0.164767 0.387549 0.0314031
0.214099 0.387137 0.0315099
0.285832 0.380011 0.0281987
0.344732 0.376761 0.0263371
0.39321 0.376196 0.0260471
0.438132 0.376654 0.0263828
0.478752 0.37792 0.0273136
0.517464 0.379828 0.0282292
0.553841 0.382025 0.0295567
0.589166 0.384466 0.03093
0.621942 0.387228 0.0324865
0.653895 0.390265 0.0339818
0.683192 0.393713 0.035584
0.711727 0.397314 0.0372778
0.738476 0.401358 0.0388342
0.763531 0.405753 0.0417487
0.788174 0.410071 0.0454414
0.81033 0.414954 0.0497749
0.832197 0.420066 0.0537728
0.853117 0.42501 0.0582437
0.873121 0.430213 0.0627909
0.893202 0.435416 0.0675212
0.911986 0.440818 0.072343
0.9308 0.446189 0.0771344
0.948882 0.45156 0.0819257
0.966232 0.456962 0.0867323
0.983764 0.462333 0.0914931
0.00881971 0.411215 0.0129244
0.0174258 0.41651 0.0169985
0.0255589 0.421561 0.0209354
0.0551766 0.425605 0.0245518
0.0878614 0.429587 0.0277867
0.125231 0.432135 0.0301976
0.165423 0.43389 0.0321965
0.214969 0.432959 0.0322118
0.286198 0.425772 0.0286107
0.34406 0.422202 0.0267643
0.392248 0.421347 0.026627
0.436179 0.421408 0.0269017
0.476478 0.422415 0.0276341
0.514626 0.423819 0.0284581
0.550469 0.425681 0.0293889
0.585321 0.427604 0.0303044
0.617746 0.430091 0.0311742
0.649638 0.432654 0.0318456
0.679072 0.435584 0.032929
0.707729 0.439017 0.0338903
0.734295 0.442542 0.0371405
0.759625 0.446281 0.0408179
0.784176 0.45037 0.0442969
0.806653 0.454932 0.0483711
0.828794 0.459464 0.0523842
0.849638 0.464256 0.0567483
0.869856 0.469368 0.0613413
0.889723 0.474266 0.0657511
0.908598 0.479606 0.0704814
0.927337 0.484642 0.0749981
0.945693 0.489952 0.0797436
0.963699 0.495186 0.084535
0.980758 0.500389 0.0892958
0.0107271 0.45713 0.0160525
0.0157778 0.462181 0.0198825
0.0271305 0.466819 0.023743
0.0587625 0.470985 0.0272679
0.0920882 0.474403 0.0304417
0.129473 0.476448 0.0328069
0.170153 0.477729 0.0343023
0.21886 0.476417 0.0344396
0.289509 0.468971 0.0307774
0.346426 0.465202 0.0288853
0.394415 0.463691 0.0286412
0.437125 0.463478 0.0287938
0.476921 0.463813 0.0290532
0.514519 0.464881 0.0294347
0.550393 0.466102 0.029633
0.584451 0.468055 0.0298161
0.617304 0.469978 0.0300298
0.648905 0.472328 0.0303807
0.678096 0.475273 0.0328374
0.707149 0.477928 0.035523
0.733135 0.481468 0.0387579
0.758572 0.485023 0.0419776
0.782666 0.489128 0.0454719
0.805341 0.493202 0.049485
0.827863 0.497505 0.0534676
0.848325 0.502205 0.0575723
0.86862 0.506859 0.0621042
0.888304 0.511666 0.0665293
0.907301 0.516564 0.0710155
0.92607 0.521675 0.0753948
0.94432 0.526604 0.0801862
0.962173 0.531502 0.0848554
0.976608 0.536568 0.0899062
0.0107424 0.501244 0.0218814
0.0130159 0.506035 0.0252232
0.0338598 0.509987 0.0285191
0.0649729 0.513756 0.0315862
0.0990158 0.516716 0.0341802
0.135409 0.518669 0.0362249
0.176883 0.519158 0.0373083
0.224277 0.517784 0.0372625
0.294743 0.509682 0.0333104
0.350484 0.505364 0.0314794
0.398169 0.503502 0.0305028
0.439933 0.502983 0.029984
0.479164 0.503151 0.0295567
0.51632 0.504112 0.0291295
0.552239 0.505135 0.0287175
0.586175 0.506539 0.029572
0.618921 0.508476 0.0312657
0.649943 0.510445 0.0335241
0.679271 0.512886 0.0358892
0.707485 0.51577 0.0383917
0.733776 0.518868 0.0415503
0.759564 0.522194 0.0446326
0.783078 0.526085 0.0482338
0.806043 0.529976 0.0518502
0.827863 0.534325 0.0558328
0.848585 0.538659 0.0598611
0.869078 0.543191 0.0640116
0.888151 0.548028 0.0683909
0.90721 0.552712 0.0727398
0.925811 0.557382 0.0772564
0.943786 0.562036 0.0820935
0.961532 0.566644 0.0868238
0.974716 0.571221 0.0914168
0.00929274 0.543801 0.0274968
0.0124056 0.547875 0.0305486
0.0420386 0.551537 0.0333562
0.0719615 0.554589 0.0362097
0.106233 0.556634 0.0382544
0.141939 0.558328 0.0400854
0.18381 0.55819 0.0403143
0.231022 0.556207 0.0397345
0.300725 0.547768 0.0354009
0.356344 0.543267 0.0327916
0.402564 0.541405 0.03122
0.443992 0.540764 0.0300145
0.483101 0.540871 0.0302281
0.520073 0.541573 0.0312047
0.555474 0.542397 0.0324712
0.589181 0.543862 0.033814
0.621942 0.545388 0.0354162
0.65214 0.547448 0.037644
0.681804 0.549783 0.0395666
0.709316 0.552529 0.0421912
0.735912 0.555367 0.0452277
0.761181 0.558419 0.0482185
0.78436 0.562081 0.0517433
0.807599 0.565698 0.0552224
0.82887 0.569741 0.0590982
0.849714 0.574029 0.0629435
0.869902 0.57818 0.0670939
0.889006 0.582544 0.0713054
0.907851 0.587076 0.0758526
0.92607 0.591623 0.0804608
0.94374 0.596155 0.0847791
0.960815 0.600656 0.0892653
0.974838 0.605097 0.0936446
0.00932326 0.583703 0.0327306
0.0237888 0.587335 0.0353094
0.0507515 0.590417 0.0376898
0.0801251 0.592981 0.0397345
0.113619 0.59501 0.0419318
0.150149 0.596155 0.0441749
0.191363 0.595575 0.0450141
0.238743 0.593149 0.0442512
0.307607 0.584833 0.0388037
0.362692 0.580041 0.0359045
0.407935 0.578317 0.0352483
0.449348 0.577325 0.0350347
0.487846 0.577478 0.0356603
0.524559 0.577798 0.0363928
0.559747 0.578714 0.0376287
0.593347 0.579767 0.038941
0.625498 0.581079 0.0404364
0.65597 0.58291 0.0423285
0.68545 0.585092 0.04448
0.712261 0.587564 0.0469368
0.738811 0.590249 0.0495003
0.763195 0.593637 0.0524758
0.786664 0.596887 0.0557717
0.809445 0.600488 0.0591592
0.830518 0.604181 0.0626993
0.851575 0.607996 0.066743
0.871168 0.612222 0.0712139
0.890135 0.616236 0.0754711
0.908888 0.620218 0.0796826
0.926909 0.624475 0.084123
0.944595 0.628473 0.088304
0.96083 0.632624 0.0925765
0.97641 0.636728 0.0967727
0.00950637 0.621698 0.0368658
0.0336767 0.624582 0.0407721
0.0582284 0.627451 0.0442359
0.0889296 0.629419 0.0473487
0.12221 0.63122 0.0500801
0.15938 0.631632 0.0515602
0.199481 0.631205 0.0523079
0.24773 0.628504 0.0508736
0.315602 0.620142 0.0453651
0.370428 0.615457 0.0423285
0.414832 0.613687 0.0414588
0.455726 0.612924 0.0411383
0.493843 0.612833 0.0414588
0.530297 0.613092 0.0422675
0.564874 0.613764 0.043183
0.59852 0.61474 0.0440681
0.629694 0.616129 0.0458228
0.660426 0.61767 0.0474861
0.689082 0.619577 0.0496681
0.716182 0.621744 0.0522011
0.742245 0.624262 0.0547341
0.766415 0.627222 0.057435
0.790143 0.630137 0.0607309
0.812009 0.633417 0.0643931
0.833387 0.636973 0.0682689
0.853895 0.64062 0.0719158
0.873106 0.644251 0.0760204
0.892287 0.648066 0.0800031
0.910338 0.652171 0.0839551
0.92813 0.656077 0.0879377
0.945815 0.659922 0.0921035
0.962509 0.663676 0.0959487
0.9794 0.66743 0.0999771
0.0200961 0.65771 0.0460822
0.0421149 0.660655 0.0496529
0.0666972 0.66305 0.0532082
0.0983749 0.665019 0.0559854
0.13167 0.666331 0.0583505
0.169131 0.666285 0.0596628
0.209461 0.665675 0.0599527
0.257221 0.66273 0.0586252
0.324559 0.65449 0.0525368
0.378027 0.650004 0.0494698
0.422339 0.648112 0.0482948
0.462867 0.647089 0.0479896
0.500587 0.64686 0.0482643
0.536614 0.646983 0.0488289
0.571328 0.647181 0.0497139
0.604471 0.64802 0.0506905
0.635584 0.64921 0.0521706
0.666056 0.650431 0.0537728
0.693858 0.65243 0.0555581
0.720913 0.654398 0.0579385
0.746242 0.656992 0.0606241
0.770382 0.659556 0.0636912
0.793729 0.662425 0.0667887
0.815229 0.665537 0.0702678
0.836561 0.668711 0.0737011
0.856504 0.671901 0.0773632
0.875746 0.675349 0.081239
0.894652 0.678599 0.0850996
0.912642 0.682139 0.0889754
0.930419 0.685649 0.0927901
0.947631 0.689128 0.0965286
0.964431 0.692607 0.100206
0.981201 0.696254 0.103792
0.0296178 0.692134 0.0570535
0.0500343 0.694865 0.0602274
0.0779889 0.697047 0.0631723
0.109224 0.698863 0.0657969
0.143053 0.699886 0.0676432
0.179706 0.700008 0.068864
0.220752 0.698894 0.0686809
0.267384 0.696147 0.0670481
0.334432 0.687861 0.0605631
0.386938 0.683497 0.0571756
0.430915 0.681315 0.0560616
0.470771 0.680369 0.0554055
0.508263 0.67985 0.0554818
0.543877 0.679866 0.0556954
0.578317 0.67982 0.0564584
0.61062 0.680369 0.0574197
0.641886 0.681254 0.0588693
0.671443 0.682383 0.0606699
0.699245 0.684016 0.0627146
0.726467 0.68571 0.0649882
0.751019 0.687892 0.067689
0.775372 0.690028 0.0705425
0.797864 0.692714 0.0734417
0.819516 0.695537 0.0766613
0.840375 0.698405 0.079881
0.859815 0.701503 0.0835431
0.879057 0.704585 0.0868849
0.897322 0.707942 0.0902571
0.915053 0.711116 0.0938735
0.932692 0.714443 0.0973831
0.949783 0.717601 0.101015
0.966628 0.720714 0.104509
0.979782 0.723735 0.108354
0.0380865 0.725856 0.0680858
0.059678 0.728115 0.0711376
0.0896925 0.730114 0.0740673
0.120851 0.731579 0.0764324
0.155276 0.73225 0.0779889
0.191104 0.732372 0.0789807
0.232914 0.730922 0.0784466
0.279164 0.728145 0.0766308
0.345296 0.719738 0.0695354
0.397009 0.715373 0.06598
0.440467 0.7131 0.0644999
0.479728 0.711788 0.0639811
0.516869 0.71104 0.06392
0.552331 0.710796 0.0642405
0.586282 0.710719 0.0650797
0.618204 0.711162 0.0658579
0.649271 0.71162 0.0671092
0.677867 0.712856 0.0688182
0.705821 0.714107 0.0704814
0.731701 0.715877 0.0726787
0.756374 0.717815 0.0750286
0.780423 0.719768 0.0774548
0.802472 0.722011 0.0803082
0.824048 0.724422 0.0832837
0.844114 0.727062 0.0862287
0.8636 0.729747 0.0894484
0.882719 0.732433 0.0928511
0.900465 0.735271 0.0961471
0.918181 0.738079 0.0994125
0.935515 0.741054 0.103182
0.952255 0.743862 0.106706
0.968902 0.746822 0.110338
0.97998 0.749706 0.113878
0.0466926 0.758038 0.0802472
0.0727855 0.760143 0.0830091
0.102373 0.761929 0.085481
0.133883 0.763317 0.0877546
0.16759 0.763851 0.08925
0.204242 0.763684 0.0899672
0.244953 0.762158 0.0892958
0.291234 0.759182 0.0872053
0.35642 0.750866 0.0796979
0.407691 0.746151 0.0758068
0.450278 0.743908 0.0742504
0.489006 0.742397 0.0735332
0.525765 0.741436 0.0733654
0.560861 0.74078 0.0734874
0.594217 0.740536 0.0739757
0.626261 0.740414 0.0745556
0.656474 0.74078 0.0757916
0.685115 0.741619 0.0770275
0.712764 0.742519 0.0784924
0.737865 0.743893 0.0806897
0.762737 0.745434 0.0825666
0.785779 0.747311 0.084947
0.807645 0.749325 0.0874342
0.82887 0.751583 0.0901198
0.848417 0.753948 0.0929122
0.86772 0.756466 0.0958267
0.886183 0.759075 0.0991836
0.903807 0.761746 0.102556
0.921431 0.764279 0.105898
0.938308 0.766766 0.109285
0.955108 0.769406 0.112795
0.969955 0.771832 0.11603
0.982284 0.77438 0.119387
0.0573587 0.788998 0.0932479
0.0862287 0.790875 0.0962539
0.115557 0.792523 0.098909
0.147723 0.793286 0.100649
0.180636 0.793774 0.102022
0.218112 0.793149 0.102235
0.258015 0.791608 0.101442
0.304402 0.788113 0.0985885
0.36846 0.779812 0.0907301
0.419074 0.775021 0.0865339
0.460639 0.772534 0.0846723
0.499321 0.770886 0.0836652
0.53547 0.769802 0.0831922
0.570275 0.769024 0.0830091
0.603113 0.768521 0.0830701
0.634699 0.768475 0.0835737
0.663951 0.768841 0.0844434
0.692714 0.769253 0.0853437
0.719234 0.770214 0.0867628
0.744472 0.771359 0.088365
0.768902 0.772412 0.090074
0.791272 0.773999 0.0923629
0.813245 0.77557 0.0945907
0.833631 0.777417 0.0974136
0.85304 0.77937 0.100557
0.872419 0.781506 0.103365
0.890242 0.783856 0.1066
0.907912 0.786007 0.109789
0.925155 0.788373 0.112673
0.941894 0.790722 0.115785
0.958373 0.793225 0.11902
0.972107 0.795529 0.121965
0.985962 0.797818 0.124849
0.0715953 0.818921 0.107515
0.0998703 0.820798 0.110201
0.129717 0.822141 0.112047
0.160998 0.82295 0.113542
0.194644 0.822843 0.114473
0.231495 0.821851 0.114229
0.271458 0.819989 0.113008
0.31696 0.816663 0.109972
0.380179 0.808164 0.101732
0.429892 0.803372 0.0971084
0.471183 0.800671 0.0949721
0.509514 0.798581 0.0937057
0.545495 0.797208 0.0927443
0.5794 0.796048 0.0924544
0.611856 0.795407 0.092256
0.643061 0.794934 0.0926528
0.67216 0.79498 0.0931106
0.700618 0.795056 0.0937972
0.726253 0.795651 0.095201
0.751614 0.796384 0.0966659
0.774914 0.797436 0.0986038
0.797131 0.798825 0.100633
0.818769 0.800275 0.102907
0.838422 0.802075 0.105501
0.858076 0.803845 0.108003
0.87657 0.805814 0.110658
0.894377 0.807858 0.113619
0.911955 0.809888 0.116533
0.928649 0.811948 0.119295
0.945312 0.813977 0.12221
0.961028 0.815839 0.125093
0.975631 0.818021 0.127855
0.990478 0.820035 0.130587
0.0860914 0.847547 0.121813
0.114153 0.84921 0.12401
0.144152 0.849943 0.125704
0.174914 0.850614 0.126802
0.208957 0.850126 0.126909
0.244968 0.849149 0.126452
0.285145 0.846983 0.124743
0.329885 0.843458 0.121538
0.392538 0.834684 0.112627
0.441077 0.829679 0.108064
0.482094 0.826825 0.105394
0.519722 0.824598 0.103807
0.555444 0.823102 0.102525
0.589059 0.821805 0.101793
0.621439 0.820783 0.101579
0.651453 0.82034 0.101701
0.680568 0.819944 0.102083
0.707622 0.820066 0.102983
0.733303 0.820462 0.104112
0.758434 0.820706 0.105531
0.781033 0.821561 0.107347
0.803388 0.822568 0.109071
0.823957 0.823743 0.111345
0.843915 0.825208 0.11342
0.863218 0.826703 0.11574
0.881239 0.828428 0.118288
0.899077 0.830106 0.121004
0.916045 0.831861 0.123522
0.932799 0.833814 0.125994
0.949187 0.835752 0.128664
0.964675 0.837522 0.131319
0.980102 0.839445 0.133898
0.992309 0.841291 0.136675
0.100496 0.875471 0.135729
0.128603 0.876616 0.137469
0.158145 0.877165 0.138689
0.189029 0.877287 0.139391
0.22295 0.876707 0.139162
0.258656 0.875303 0.138399
0.298405 0.872847 0.136278
0.342565 0.868894 0.132845
0.404379 0.86009 0.123384
0.45243 0.855024 0.118395
0.493065 0.851926 0.115663
0.530419 0.849454 0.113771
0.565301 0.847547 0.112627
0.598489 0.845945 0.111864
0.630304 0.844694 0.111452
0.659983 0.843931 0.111574
0.689113 0.843198 0.111681
0.71516 0.843214 0.112505
0.740978 0.843198 0.113283
0.764782 0.843519 0.114412
0.787472 0.84419 0.115892
0.809354 0.844968 0.117418
0.829557 0.846281 0.119249
0.849409 0.84741 0.121263
0.867933 0.848905 0.123232
0.885924 0.850431 0.12546
0.903471 0.85182 0.127703
0.920211 0.853376 0.130312
0.936782 0.854932 0.132647
0.952834 0.85658 0.135195
0.968627 0.858061 0.138079
0.984253 0.859663 0.140871
0.990768 0.861234 0.143328
0.114534 0.901503 0.149065
0.143038 0.902251 0.150637
0.172 0.902754 0.152026
0.203235 0.902464 0.152499
0.236454 0.90164 0.152316
0.272236 0.89984 0.151034
0.311482 0.897246 0.148943
0.355047 0.89308 0.144884
0.41593 0.884276 0.135195
0.463523 0.879057 0.129839
0.503731 0.875593 0.126696
0.54078 0.872953 0.124575
0.575113 0.870909 0.12311
0.608133 0.869154 0.121935
0.639139 0.86772 0.12137
0.668574 0.866804 0.120943
0.696651 0.866102 0.120958
0.722835 0.865614 0.121218
0.748425 0.865339 0.121752
0.77142 0.86569 0.123003
0.794034 0.865888 0.12398
0.814954 0.86659 0.12549
0.835294 0.867399 0.127077
0.854902 0.868269 0.128695
0.872938 0.869551 0.130785
0.890791 0.870817 0.132799
0.907866 0.872023 0.135027
0.924498 0.873411 0.137545
0.940917 0.874937 0.1402
0.956756 0.876356 0.142657
0.972427 0.87776 0.145052
0.984909 0.879271 0.147585
0.990845 0.880629 0.149859
0.128786 0.926894 0.163424
0.156527 0.927275 0.164889
0.185412 0.927428 0.16556
0.216678 0.926757 0.165545
0.249348 0.925551 0.165072
0.285389 0.923461 0.163287
0.323812 0.920562 0.160678
0.367147 0.916152 0.156283
0.427283 0.90721 0.146426
0.474586 0.901793 0.14049
0.514351 0.898085 0.137331
0.550668 0.895262 0.134966
0.584756 0.892821 0.132982
0.617334 0.890883 0.131624
0.647623 0.889433 0.130648
0.677378 0.888029 0.1299
0.704219 0.887282 0.129839
0.73051 0.88658 0.129793
0.754788 0.886397 0.130312
0.777966 0.886412 0.131029
0.800504 0.886519 0.132036
0.82089 0.887205 0.133181
0.841093 0.887877 0.1346
0.859846 0.888747 0.136507
0.877928 0.889708 0.13872
0.895613 0.890715 0.140627
0.91223 0.891737 0.142977
0.928649 0.892912 0.145251
0.944839 0.894102 0.147524
0.960632 0.895323 0.149798
0.976242 0.896529 0.152026
0.984817 0.897871 0.154147
0.992706 0.899046 0.156481
0.14226 0.950576 0.176989
0.169543 0.950851 0.177905
0.198764 0.950607 0.178302
0.229404 0.949706 0.17789
0.262547 0.948272 0.176913
0.297948 0.945998 0.174884
0.335988 0.942718 0.171695
0.379065 0.938155 0.167086
