LUT预设1/LUT全系打包/电影感系列lut/709电影感系列（正常色彩素材用这个）/T&O重口青橙709.cube
TITLE "Generated by Resolve"
LUT_3D_SIZE 5
0.0276951 0.0473945 0.047013
0.193317 0.0835584 0.0282902
0.44361 0.11667 0.010193
0.677165 0.152636 0.0326085
0.807248 0.195392 0.0534371
0.0465095 0.209705 0.120531
0.294652 0.236194 0.082887
0.609445 0.290929 0.0450599
0.789776 0.317311 0.0639811
0.871168 0.2654 0.0692912
0.116716 0.468818 0.23006
0.368185 0.54934 0.223743
0.689326 0.550637 0.134157
0.850584 0.568139 0.110887
0.943252 0.608179 0.119814
0.265766 0.713329 0.379431
0.509209 0.758083 0.374365
0.742641 0.815854 0.368795
0.877272 0.780056 0.230594
0.938094 0.771374 0.169787
0.463233 0.884749 0.538567
0.637263 0.900923 0.532891
0.786084 0.939269 0.536919
0.905974 0.956451 0.50634
0.942336 0.912871 0.287831
0.01561 0.126436 0.163348
0.0984817 0.143725 0.148409
0.30045 0.200198 0.145724
0.516701 0.271183 0.165164
0.683574 0.300664 0.155383
0.022446 0.233814 0.243473
0.189685 0.283879 0.276204
0.557565 0.3234 0.24419
0.729168 0.365942 0.228733
0.794186 0.364981 0.18439
0.0773022 0.540764 0.438468
0.261479 0.563653 0.394751
0.649989 0.596414 0.342748
0.826841 0.62623 0.356481
0.922362 0.657893 0.300893
0.15639 0.740169 0.586313
0.447013 0.769741 0.530175
0.711803 0.815091 0.524971
0.877058 0.808072 0.438315
0.952316 0.807233 0.407736
0.341543 0.895644 0.696193
0.619028 0.910628 0.634852
0.779461 0.932998 0.635431
0.899458 0.958679 0.618723
0.955291 0.926604 0.474815
0.0315099 0.249622 0.340719
0.0332189 0.264454 0.306142
0.153109 0.298711 0.223758
0.421988 0.32018 0.156008
0.603372 0.356603 0.146517
0.054902 0.347753 0.426642
0.0990158 0.39176 0.481956
0.392432 0.420279 0.402518
0.612909 0.437293 0.351873
0.703471 0.423865 0.22182
0.0978561 0.49807 0.535103
0.180514 0.560128 0.586313
0.582223 0.634867 0.639796
0.792889 0.678538 0.647913
0.916869 0.702739 0.660746
0.167773 0.740215 0.730144
0.309316 0.782925 0.74226
0.690425 0.816297 0.713054
0.873121 0.828977 0.674144
0.96286 0.850095 0.700893
0.240497 0.892027 0.836973
0.476081 0.922957 0.813046
0.775433 0.934417 0.76611
0.893187 0.954864 0.759472
0.968521 0.943801 0.698329
0.0653239 0.371527 0.498619
0.0659648 0.381582 0.462394
0.113909 0.403632 0.353079
0.326299 0.431998 0.213382
0.574838 0.421973 0.10045
0.0940261 0.457908 0.571115
0.109804 0.491081 0.621836
0.313375 0.501137 0.568505
0.567269 0.511162 0.477745
0.67747 0.487587 0.298116
0.123873 0.550881 0.643168
0.174609 0.603098 0.690745
0.510445 0.666438 0.754482
0.74815 0.697688 0.748455
0.881163 0.727169 0.759503
0.167361 0.690135 0.748959
0.308446 0.74313 0.793164
0.652064 0.80441 0.828672
0.853956 0.847059 0.841321
0.954925 0.871168 0.851972
0.233982 0.85687 0.880812
0.402167 0.901335 0.90074
0.710506 0.938979 0.892882
0.889326 0.952224 0.872984
0.972808 0.956436 0.849226
0.103059 0.478904 0.624979
0.105058 0.48603 0.619272
0.135256 0.490486 0.518563
0.295674 0.529992 0.419974
0.523629 0.533928 0.300282
0.126894 0.549157 0.68333
0.136828 0.574228 0.721462
0.293263 0.582528 0.709834
0.529183 0.585092 0.6748
0.669062 0.572595 0.521294
0.15079 0.622675 0.739681
0.173449 0.664714 0.773236
0.463386 0.713466 0.834394
0.705333 0.733089 0.849836
0.857832 0.738277 0.828855
0.180316 0.715877 0.811505
0.27512 0.754696 0.84593
0.602594 0.811063 0.890562
0.817182 0.85716 0.915816
0.936004 0.872923 0.915724
0.241154 0.820478 0.891142
0.421592 0.858793 0.9178
0.712673 0.903471 0.937942
0.879408 0.941756 0.947814
0.969604 0.961669 0.948653
