LUT预设1/LUT全系打包/电影感系列lut/709电影感系列（正常色彩素材用这个）/T&O重口青橙709.cube
TITLE "Generated by Resolve"
LUT_3D_SIZE 33
0.0276951 0.0473945 0.047013
0.0381781 0.0519265 0.0485389
0.0490425 0.0557107 0.0498207
0.063859 0.0610056 0.051194
0.0801099 0.0663157 0.0519265
0.100389 0.072282 0.0515297
0.123461 0.0775921 0.0492409
0.151003 0.0822461 0.0442054
0.193317 0.0835584 0.0282902
0.23032 0.0843519 0.0179599
0.26424 0.0847639 0.00993362
0.297642 0.0865644 0.0059205
0.330083 0.0881666 0.00189212
0.357305 0.0962539 0.00225834
0.383474 0.105577 0.00521859
0.414054 0.111116 0.00808728
0.44361 0.11667 0.010193
0.474372 0.122286 0.0124514
0.505043 0.126665 0.014023
0.534157 0.134661 0.0166323
0.563363 0.142077 0.0187991
0.592554 0.147326 0.0218204
0.621286 0.152575 0.0252995
0.649287 0.155413 0.028687
0.677165 0.152636 0.0326085
0.704265 0.150454 0.0366217
0.726436 0.146242 0.0394751
0.748974 0.142657 0.0420386
0.766888 0.144991 0.0444343
0.780545 0.150561 0.0466163
0.793973 0.156191 0.0487221
0.800687 0.17644 0.0511482
0.807248 0.195392 0.0534371
0.0343938 0.0617838 0.0568399
0.0442817 0.0632639 0.0582132
0.0583963 0.0673838 0.0589914
0.0734722 0.072343 0.0594492
0.0925002 0.0778515 0.0590372
0.112825 0.0834516 0.0584421
0.138155 0.0886244 0.0544442
0.167132 0.0929732 0.0475166
0.211582 0.0939651 0.0288243
0.250202 0.0952621 0.0176394
0.283864 0.0984817 0.0119783
0.316609 0.102602 0.00862135
0.347326 0.108659 0.00846876
0.377737 0.114595 0.00874342
0.40824 0.118502 0.00962844
0.437369 0.122454 0.0106661
0.466957 0.125643 0.0122835
0.496757 0.128954 0.0144045
0.526101 0.134295 0.0167544
0.555184 0.139574 0.0188602
0.583642 0.143694 0.0211032
0.611078 0.14934 0.0246738
0.636652 0.15523 0.0284581
0.663279 0.154833 0.0324865
0.689738 0.155062 0.0360418
0.714031 0.153903 0.0390021
0.737133 0.151568 0.0415808
0.759075 0.150591 0.044007
0.773602 0.154376 0.0461585
0.788418 0.157244 0.0482032
0.797833 0.17113 0.0504463
0.804852 0.189151 0.0527199
0.812421 0.204044 0.0548714
0.0396735 0.07776 0.0675975
0.051957 0.0801556 0.068513
0.0665293 0.0825055 0.0684672
0.0831159 0.0859083 0.068452
0.102358 0.0911574 0.0683757
0.12462 0.0963302 0.0662394
0.149981 0.101793 0.0622568
0.180896 0.105959 0.0536507
0.226825 0.10898 0.0371252
0.266163 0.111772 0.0243076
0.302968 0.115541 0.0174258
0.337423 0.119783 0.0122988
0.371237 0.124865 0.010956
0.4038 0.129717 0.00988785
0.434562 0.134569 0.0110323
0.465003 0.138659 0.0122225
0.494408 0.138979 0.0146792
0.523201 0.139086 0.0171511
0.550195 0.139696 0.0194247
0.575311 0.140505 0.0227512
0.600214 0.146258 0.0261845
0.625544 0.153124 0.0290532
0.651072 0.156909 0.032166
0.676829 0.158877 0.0354772
0.701717 0.160403 0.0383612
0.724681 0.15874 0.0408942
0.747753 0.157336 0.0432593
0.765179 0.15906 0.0454871
0.78117 0.161227 0.0476844
0.794858 0.167102 0.0498512
0.80235 0.183963 0.0521859
0.810208 0.199481 0.0542916
0.819409 0.207736 0.0563821
0.0451362 0.0954147 0.0777752
0.0583352 0.0979477 0.078584
0.0719768 0.100526 0.0796674
0.0910048 0.104021 0.0785687
0.11133 0.106783 0.0767681
0.13579 0.111635 0.0742504
0.1626 0.116258 0.0703288
0.194888 0.120607 0.0621195
0.243427 0.124498 0.0447242
0.284932 0.128771 0.0318761
0.322896 0.133715 0.0225071
0.359655 0.138613 0.0169985
0.395697 0.143496 0.0118257
0.429541 0.147433 0.0113069
0.463066 0.151888 0.0114595
0.493126 0.152987 0.013962
0.521645 0.154498 0.0185092
0.548363 0.155566 0.0220798
0.57377 0.155474 0.0251011
0.598291 0.156344 0.027863
0.621714 0.158175 0.0302892
0.644114 0.158709 0.0324407
0.667262 0.161395 0.0353246
0.689418 0.164279 0.0377508
0.711742 0.164492 0.0400854
0.734874 0.164019 0.0424201
0.755932 0.164446 0.0446632
0.772396 0.166323 0.0470893
0.788678 0.16791 0.049546
0.798535 0.180362 0.0517739
0.807462 0.194293 0.0538338
0.8168 0.20499 0.0557259
0.826062 0.210697 0.0577707
0.0483558 0.115801 0.0884108
0.0614633 0.118624 0.090074
0.0781567 0.120745 0.0896162
0.0977035 0.122805 0.0879683
0.120119 0.125994 0.0856336
0.145693 0.129305 0.082002
0.175006 0.132998 0.0765545
0.208484 0.137011 0.0700999
0.25977 0.141131 0.0520638
0.303838 0.146609 0.0390784
0.342947 0.152361 0.0291295
0.381003 0.158404 0.0217594
0.417594 0.164263 0.0159609
0.453056 0.169421 0.0163577
0.487114 0.173846 0.0168917
0.518837 0.175509 0.0201877
0.550027 0.17705 0.0225681
0.575097 0.173754 0.0255894
0.599771 0.172976 0.0287633
0.622019 0.173037 0.0314031
0.64358 0.172519 0.0337682
0.665156 0.173083 0.0360266
0.686503 0.173388 0.0380102
0.707012 0.172473 0.0398108
0.727581 0.171923 0.0419623
0.746639 0.172122 0.04448
0.7626 0.17322 0.0470893
0.778622 0.173877 0.0493019
0.792905 0.177859 0.0512245
0.803067 0.190341 0.053315
0.813672 0.20177 0.0551919
0.823224 0.208743 0.057145
0.83238 0.214115 0.0590677
0.0493935 0.137804 0.0989548
0.063859 0.140322 0.099733
0.0821698 0.143633 0.0991531
0.100755 0.147082 0.0986648
0.127291 0.14728 0.0927749
0.155077 0.147951 0.0867933
0.186145 0.151522 0.0827497
0.22211 0.154925 0.0760815
0.274983 0.15877 0.0601816
0.321309 0.165286 0.0466468
0.361791 0.172137 0.0370031
0.400504 0.179522 0.029221
0.43827 0.186175 0.0257877
0.47454 0.192813 0.0239567
0.508629 0.19765 0.024506
0.541421 0.201999 0.0260471
0.571298 0.20412 0.0279393
0.598657 0.204654 0.0305791
0.624872 0.204074 0.0327916
0.64712 0.199329 0.0348516
0.669047 0.194125 0.036759
0.687907 0.188296 0.0381323
0.706081 0.185885 0.0400092
0.723903 0.186709 0.0428931
0.741314 0.187442 0.045716
0.75787 0.18674 0.0480354
0.773449 0.186419 0.0500801
0.788861 0.185107 0.0517891
0.800137 0.191974 0.0535286
0.809995 0.200626 0.0550851
0.819821 0.207828 0.0565805
0.828962 0.213001 0.0584268
0.838026 0.217548 0.0601968
0.0504311 0.160006 0.107881
0.0664378 0.163149 0.107591
0.0830854 0.167758 0.10724
0.103075 0.171649 0.105531
0.128511 0.174868 0.102571
0.15787 0.17673 0.0978408
0.193256 0.175341 0.089601
0.233188 0.17615 0.0817578
0.289769 0.178561 0.0685588
0.336706 0.184924 0.0564279
0.378653 0.193057 0.0470588
0.418204 0.201434 0.03888
0.456214 0.209644 0.0352026
0.493141 0.217777 0.0309606
0.527794 0.223651 0.0314031
0.561364 0.22977 0.0310674
0.591058 0.232776 0.0331273
0.619913 0.235981 0.0351263
0.644877 0.235798 0.0373083
0.667582 0.235019 0.039704
0.689006 0.23357 0.0418097
0.707759 0.228962 0.0440681
0.726299 0.224399 0.0464027
0.742504 0.217456 0.0480964
0.758053 0.208759 0.0493935
0.772061 0.202777 0.0507668
0.785489 0.201572 0.0526589
0.799054 0.201297 0.0545205
0.809094 0.208881 0.0560616
0.819089 0.214069 0.0573434
0.82858 0.217884 0.058793
0.837491 0.220676 0.0603342
0.84596 0.221973 0.061677
0.0509804 0.182681 0.115053
0.0661479 0.187442 0.114549
0.0810101 0.193286 0.114488
0.102174 0.198688 0.113512
0.126818 0.204334 0.111742
0.157748 0.206897 0.106477
0.193378 0.208316 0.0993973
0.237522 0.206058 0.090547
0.299992 0.202655 0.0754101
0.349187 0.206424 0.0651865
0.39234 0.214801 0.0563973
0.432898 0.223011 0.0491951
0.471336 0.232303 0.0439002
0.507912 0.24123 0.0394446
0.542443 0.249607 0.0386969
0.575784 0.258198 0.0375525
0.605493 0.264439 0.039292
0.635111 0.271473 0.0405127
0.660136 0.273747 0.0429084
0.684291 0.276097 0.0452125
0.705791 0.274144 0.047837
0.725368 0.270604 0.0505226
0.744228 0.267674 0.052842
0.760037 0.261387 0.0545663
0.77586 0.256184 0.056199
0.789471 0.250492 0.0574807
0.802228 0.242603 0.0583963
0.813748 0.236118 0.0591135
0.822049 0.234485 0.0597696
0.830549 0.230991 0.0603189
0.838605 0.230457 0.0613718
0.847227 0.232044 0.0627604
0.856138 0.230106 0.0637522
0.0465095 0.209705 0.120531
0.0609903 0.214298 0.119265
0.0755016 0.220066 0.118349
0.0944839 0.227176 0.117586
0.118059 0.235431 0.116762
0.146639 0.242481 0.114397
0.180987 0.248783 0.110765
0.226902 0.24686 0.101183
0.294652 0.236194 0.082887
0.347341 0.233158 0.0715038
0.392065 0.238544 0.0631571
0.433707 0.244907 0.0562295
0.472679 0.254612 0.0508888
0.510185 0.263966 0.0456855
0.544762 0.273289 0.0450446
0.578775 0.282841 0.0436713
0.609445 0.290929 0.0450599
0.639216 0.299351 0.0464942
0.665995 0.306142 0.0486152
0.69131 0.312627 0.0512093
0.715038 0.318288 0.053727
0.735714 0.320958 0.0568093
0.756512 0.323873 0.0599374
0.773266 0.320287 0.0619974
0.789776 0.317311 0.0639811
0.804685 0.312688 0.0654917
0.818372 0.305425 0.0665446
0.832654 0.299596 0.0677501
0.842145 0.295064 0.0684825
0.852064 0.288533 0.0690623
0.860456 0.281712 0.0694591
0.866041 0.274632 0.0695201
0.871168 0.2654 0.0692912
0.0485237 0.237385 0.128878
0.0623941 0.242786 0.12781
0.0763714 0.24921 0.127169
0.0949721 0.256947 0.12665
0.116762 0.265538 0.12578
0.145129 0.27483 0.124529
0.179355 0.284886 0.123018
0.224628 0.289967 0.116167
0.293858 0.282063 0.0982376
0.352499 0.266316 0.0800641
0.399329 0.267201 0.0714122
0.442695 0.270649 0.0647135
0.481758 0.279683 0.059266
0.519463 0.288167 0.0542306
0.554177 0.297902 0.0526589
0.587945 0.307469 0.0505226
0.618677 0.316579 0.051667
0.648539 0.32575 0.0525216
0.675273 0.333669 0.0543221
0.700999 0.341222 0.0563668
0.724834 0.347936 0.0585336
0.746334 0.353353 0.0619364
0.767514 0.359442 0.0651255
0.78529 0.361975 0.06804
0.803204 0.366003 0.0709544
0.819883 0.366781 0.0732128
0.835248 0.363561 0.0747997
0.850874 0.361471 0.0764172
0.861143 0.353246 0.0769207
0.872541 0.346349 0.0776684
0.882185 0.340032 0.078294
0.88954 0.333227 0.0786297
0.898039 0.326467 0.0791028
0.0536355 0.26598 0.138979
0.0666361 0.272999 0.139055
0.0805829 0.279316 0.138354
0.100099 0.28777 0.13785
0.120333 0.296422 0.137057
0.150347 0.307073 0.136568
0.183398 0.318181 0.135698
0.229267 0.327428 0.131807
0.299489 0.326329 0.116396
0.358587 0.319432 0.100221
0.408087 0.310369 0.0858167
0.4533 0.305684 0.0742809
0.49395 0.310277 0.0680247
0.532204 0.315877 0.0633097
0.566857 0.324712 0.0607462
0.600305 0.333394 0.0583658
0.630777 0.342596 0.058793
0.660426 0.351995 0.0585641
0.686793 0.360357 0.0601511
0.712566 0.368887 0.0615244
0.73547 0.37641 0.0645914
0.756558 0.383459 0.0678264
0.776898 0.390158 0.0705577
0.795026 0.395117 0.0736095
0.812863 0.400427 0.0764172
0.829984 0.402564 0.078645
0.846998 0.404959 0.0807813
0.863142 0.406516 0.0827039
0.876966 0.404501 0.0842756
0.891737 0.403449 0.0860456
0.903227 0.398535 0.0870832
0.912306 0.391409 0.0877089
0.921355 0.384695 0.0883803
0.0600137 0.298116 0.15256
0.0734569 0.304189 0.151644
0.0885023 0.310521 0.150515
0.107164 0.319402 0.150103
0.128115 0.328389 0.149416
0.157733 0.339651 0.149248
0.191409 0.3514 0.148669
0.236408 0.364294 0.147738
0.307088 0.370443 0.135195
0.366583 0.367086 0.119936
0.418814 0.354849 0.102449
0.464347 0.349874 0.0903334
0.506432 0.346456 0.0798199
0.544381 0.349142 0.0731365
0.579293 0.355245 0.0684977
0.611933 0.362554 0.0659648
0.642496 0.370977 0.0654459
0.671626 0.379339 0.0652323
0.697795 0.387961 0.0672923
0.723507 0.396414 0.0686961
0.745098 0.404242 0.0715038
0.766079 0.412116 0.0736706
0.785824 0.419486 0.076173
0.803983 0.425971 0.0790265
0.822019 0.432364 0.0815595
0.839429 0.436667 0.0838331
0.856535 0.441291 0.0859846
0.872297 0.44329 0.0879683
0.887419 0.444038 0.0899672
0.902983 0.445914 0.0921035
0.913405 0.443763 0.0935378
0.924208 0.443244 0.0952316
0.932921 0.441077 0.0964675
0.0690929 0.331762 0.167269
0.0832685 0.337469 0.165469
0.099733 0.344533 0.164279
0.117281 0.352499 0.163409
0.139986 0.362097 0.16289
0.166552 0.372732 0.162463
0.20174 0.385092 0.162524
0.245472 0.398962 0.162585
0.31603 0.411994 0.154986
0.375647 0.413535 0.14136
0.428794 0.412314 0.126665
0.475471 0.39707 0.1075
0.519997 0.380529 0.0880903
0.556863 0.383993 0.0823835
0.592355 0.386145 0.0759289
0.624308 0.393103 0.0747539
0.654963 0.400839 0.0742962
0.682704 0.408652 0.074876
0.708263 0.416739 0.0758526
0.732311 0.424689 0.0768444
0.753307 0.432395 0.0784466
0.773846 0.440101 0.0793469
0.792828 0.447135 0.0817884
0.8112 0.454093 0.0839551
0.829114 0.460655 0.0860914
0.84683 0.466575 0.0883345
0.864363 0.472969 0.0904402
0.88072 0.47747 0.0929274
0.896941 0.481514 0.0953841
0.910903 0.484504 0.0976272
0.92163 0.486076 0.0997177
0.93283 0.488045 0.101793
0.939315 0.486717 0.102831
0.0794842 0.365362 0.181811
0.0942245 0.370718 0.179294
0.111208 0.378683 0.17847
0.12845 0.38616 0.177203
0.152316 0.396185 0.176715
0.176867 0.406073 0.175753
0.214389 0.419242 0.176394
0.257527 0.432807 0.176303
0.32639 0.449378 0.173266
0.386923 0.455528 0.161913
0.438163 0.457511 0.150286
0.485847 0.448432 0.132479
0.52932 0.441001 0.117021
0.567468 0.43061 0.101884
0.603632 0.422736 0.0892348
0.635554 0.42771 0.0867475
0.666514 0.43209 0.0840009
0.692744 0.438956 0.0844129
0.718654 0.44564 0.0843061
0.740963 0.45301 0.0848402
0.761578 0.460639 0.0852522
0.781323 0.467842 0.0858473
0.799512 0.474983 0.087541
0.817441 0.481956 0.0886397
0.835081 0.488319 0.0907149
0.852506 0.494682 0.0928054
0.869322 0.500359 0.0949416
0.885588 0.505501 0.0975204
0.901473 0.511193 0.0999313
0.913817 0.515419 0.102327
0.925704 0.519707 0.104738
0.93666 0.524041 0.10692
0.942153 0.527352 0.108431
0.0911879 0.399359 0.196674
0.106828 0.405585 0.194461
0.12369 0.412985 0.192935
0.142733 0.421027 0.191424
0.164813 0.430243 0.190463
0.19173 0.440726 0.190295
0.227131 0.453193 0.191104
0.270634 0.467079 0.191989
0.338827 0.484428 0.190417
0.397696 0.497505 0.184955
0.448402 0.501884 0.174105
0.496452 0.501991 0.160174
0.538567 0.489937 0.141772
0.578103 0.474922 0.12224
0.613123 0.470375 0.111421
0.644968 0.46833 0.103014
0.67451 0.468391 0.0970932
0.70135 0.472953 0.0958572
0.727062 0.477363 0.094316
0.747936 0.483482 0.0937972
0.768566 0.489387 0.0928359
0.787488 0.495933 0.0930343
0.80528 0.502373 0.0930343
0.822904 0.508873 0.0933547
0.840391 0.515129 0.0953536
0.857816 0.521752 0.0979477
0.874083 0.528084 0.100664
0.889693 0.533989 0.102785
0.904219 0.539483 0.104616
0.916259 0.544289 0.106981
0.928374 0.548928 0.10901
0.9364 0.55285 0.110689
0.942504 0.556313 0.112337
0.104082 0.433173 0.211597
0.120027 0.440604 0.210758
0.136828 0.447745 0.20914
0.157244 0.45597 0.208042
0.179294 0.464591 0.206699
0.208682 0.475257 0.206744
0.241443 0.486519 0.20676
0.286427 0.500511 0.208164
0.353292 0.517052 0.206561
0.409918 0.532204 0.204944
0.460212 0.538598 0.195453
0.506432 0.544381 0.186679
0.548043 0.537987 0.169574
0.587701 0.533852 0.154376
0.621225 0.520348 0.135744
0.654231 0.505333 0.115663
0.682734 0.50457 0.110521
0.710292 0.506325 0.107347
0.733867 0.50959 0.104707
0.754833 0.514183 0.103212
0.775036 0.518685 0.101564
0.793103 0.524498 0.100633
0.810636 0.530022 0.0997177
0.828214 0.535927 0.101442
0.845563 0.542046 0.10341
0.862135 0.547967 0.104906
0.877562 0.553719 0.106569
0.892775 0.559548 0.107744
0.905623 0.565133 0.109438
0.917876 0.570535 0.111131
0.92961 0.575952 0.112505
0.936278 0.580331 0.114397
0.943343 0.58439 0.11632
0.116716 0.468818 0.23006
0.133165 0.475486 0.228138
0.151186 0.482231 0.226108
0.172473 0.490379 0.224613
0.195529 0.498573 0.22298
0.225147 0.508675 0.222843
0.258366 0.519417 0.222705
0.302358 0.532509 0.224308
0.368185 0.54934 0.223743
0.423331 0.563836 0.222431
0.472328 0.574884 0.217655
0.516808 0.580377 0.208911
0.558053 0.581445 0.196643
0.595605 0.576471 0.181369
0.629709 0.564813 0.162051
0.66154 0.556832 0.146365
0.689326 0.550637 0.134157
0.716487 0.543206 0.120363
0.739025 0.544747 0.117327
0.761166 0.545617 0.114321
0.780941 0.548836 0.112474
0.798978 0.552865 0.110811
0.816724 0.557137 0.10959
0.83389 0.562646 0.110597
0.850584 0.568139 0.110887
0.866102 0.573617 0.111711
0.880964 0.579202 0.112627
0.895109 0.584421 0.113252
0.907256 0.589715 0.114443
0.919295 0.594842 0.115129
0.92842 0.599466 0.116335
0.935668 0.603754 0.118105
0.943252 0.608179 0.119814
0.131518 0.503166 0.248508
0.148455 0.509102 0.245594
0.168124 0.516213 0.243503
0.189044 0.523644 0.241398
0.214069 0.532067 0.240101
0.242344 0.540932 0.23888
0.277424 0.551568 0.239216
0.319249 0.56347 0.240238
0.384283 0.579965 0.240864
0.438315 0.594461 0.239933
0.48484 0.607706 0.23888
0.528084 0.614633 0.231037
0.568765 0.621637 0.223941
0.60441 0.618021 0.207782
0.638437 0.613901 0.191943
0.668086 0.602731 0.173129
0.696117 0.590402 0.153994
0.721675 0.58381 0.142123
0.744595 0.581353 0.135668
0.766812 0.578454 0.128008
0.785687 0.580713 0.12578
0.804578 0.5823 0.123262
0.822202 0.585779 0.121874
0.838926 0.589868 0.120317
0.854841 0.593881 0.118608
0.869703 0.598825 0.11902
0.884352 0.603525 0.118975
0.897139 0.60853 0.119142
0.908919 0.613413 0.119097
0.920378 0.618341 0.118685
0.927916 0.622812 0.120485
0.93547 0.627237 0.122011
0.940826 0.631708 0.123278
0.147189 0.536355 0.266163
0.165194 0.541939 0.262943
0.185428 0.549004 0.261036
0.206592 0.555779 0.258503
0.233051 0.563928 0.257221
0.260517 0.571756 0.255222
0.297307 0.582391 0.256535
0.338674 0.593591 0.257542
0.401404 0.608682 0.258457
0.453803 0.623529 0.25832
0.498497 0.635981 0.257298
0.540276 0.644984 0.252171
0.578805 0.651225 0.245335
0.613718 0.651743 0.233463
0.646586 0.651194 0.221454
0.675319 0.642542 0.202686
0.703304 0.635447 0.185245
0.726818 0.626719 0.169574
0.749752 0.616709 0.152132
0.770962 0.612253 0.143038
0.791318 0.611124 0.139666
0.810941 0.610437 0.13611
0.827375 0.613367 0.132631
0.843381 0.615839 0.128557
0.858518 0.619471 0.12726
0.87332 0.623545 0.127047
0.88751 0.627451 0.126574
0.89926 0.6318 0.126192
0.91104 0.635935 0.125383
0.920378 0.640421 0.125917
0.927687 0.644724 0.126482
0.934981 0.649073 0.126268
0.938476 0.653513 0.127382
0.164233 0.567956 0.28368
0.183658 0.57409 0.28101
0.203784 0.580514 0.27863
0.226612 0.587594 0.276875
0.252338 0.594873 0.275105
0.282017 0.603128 0.274495
0.316777 0.612299 0.275013
0.358053 0.623026 0.276478
0.418662 0.636835 0.276692
0.468666 0.65124 0.27776
0.511818 0.663615 0.276905
0.551873 0.674922 0.275257
0.58851 0.681376 0.268925
0.623041 0.686595 0.261906
0.654108 0.685252 0.248753
0.682994 0.680995 0.233036
0.709239 0.674662 0.216815
0.732876 0.664317 0.197421
0.755749 0.655665 0.179767
0.775891 0.650263 0.169375
0.795666 0.643809 0.156237
0.81355 0.641627 0.147921
0.830488 0.641382 0.142611
0.847059 0.64152 0.138277
0.862242 0.644419 0.13756
0.877226 0.647227 0.136538
0.890303 0.650782 0.136095
0.901991 0.654582 0.135241
0.913359 0.658305 0.133806
0.920623 0.662593 0.133318
0.928115 0.666804 0.132357
0.934066 0.670756 0.131884
0.937606 0.674861 0.132525
0.181735 0.598901 0.302205
0.201541 0.605081 0.300435
0.222187 0.61091 0.297902
0.246967 0.617639 0.296315
0.272404 0.624186 0.294286
0.303761 0.632425 0.294392
0.33724 0.640497 0.293873
0.378729 0.650935 0.29572
0.437186 0.663859 0.295583
0.484733 0.676616 0.297154
0.526101 0.688472 0.296407
0.564294 0.699413 0.295735
0.599405 0.707073 0.291356
0.632959 0.714473 0.287236
0.662486 0.714611 0.275654
0.690867 0.716457 0.266377
0.715404 0.710552 0.248661
0.739391 0.70454 0.230304
0.760708 0.696178 0.210742
0.780133 0.683986 0.187259
0.798993 0.673976 0.168002
0.817044 0.672023 0.1635
0.834806 0.668971 0.15697
0.850767 0.669306 0.153536
0.865461 0.670863 0.150439
0.879805 0.672236 0.146288
0.891905 0.675349 0.145174
0.904036 0.677974 0.143771
0.913878 0.681163 0.142519
0.921874 0.684688 0.141192
0.929931 0.688167 0.139376
0.933913 0.691783 0.13872
0.937606 0.695293 0.137438
0.1991 0.629252 0.322667
0.219989 0.634821 0.320073
0.242985 0.64062 0.317479
0.267536 0.646799 0.315618
0.29456 0.653132 0.314076
0.325353 0.660365 0.313527
0.359243 0.668254 0.313466
0.398978 0.677836 0.314977
0.455039 0.689616 0.314748
0.500694 0.701381 0.315785
0.539773 0.712917 0.316594
0.576089 0.723018 0.315755
0.610315 0.732387 0.314031
0.641505 0.738506 0.309422
0.670634 0.742657 0.302922
0.697963 0.744274 0.293782
0.722393 0.741176 0.279072
0.746242 0.738918 0.265797
0.765652 0.729061 0.24387
0.784894 0.720516 0.223011
0.803388 0.713359 0.207446
0.821408 0.705898 0.192126
0.838651 0.699016 0.176486
0.853346 0.698039 0.168734
0.86807 0.69633 0.159915
0.881575 0.696818 0.155993
0.894453 0.698451 0.154864
0.906798 0.700404 0.15375
0.915114 0.703593 0.151995
0.923629 0.706432 0.149645
0.930159 0.709194 0.147326
0.93402 0.712566 0.145418
0.938094 0.715587 0.142901
0.219242 0.658442 0.342702
0.241489 0.663417 0.339452
0.265278 0.668818 0.337804
0.289891 0.674189 0.335882
0.317937 0.680217 0.334691
0.347768 0.686351 0.333364
0.381888 0.694194 0.334066
0.419944 0.702571 0.334691
0.47393 0.713863 0.334524
0.516899 0.724743 0.335271
0.553658 0.735195 0.336736
0.588159 0.744778 0.335988
0.620859 0.754406 0.335943
0.650858 0.760922 0.332387
0.679698 0.767803 0.3299
0.705211 0.769924 0.321675
0.729656 0.77171 0.313405
0.751186 0.769772 0.29984
0.770718 0.763806 0.280797
0.790173 0.757473 0.262364
0.80824 0.746471 0.240085
0.825956 0.736645 0.218311
0.841718 0.731441 0.204242
0.856931 0.727489 0.191821
0.87158 0.723766 0.179629
0.884413 0.723934 0.174838
0.896941 0.723522 0.16849
0.907195 0.724285 0.163821
0.91635 0.726055 0.160845
0.925521 0.727565 0.157748
0.930098 0.730129 0.155138
0.9346 0.732723 0.152224
0.93843 0.735424 0.150378
0.240757 0.686641 0.361639
0.263767 0.691203 0.358923
0.287724 0.695903 0.357382
0.31284 0.700679 0.355779
0.341085 0.706233 0.354772
0.370611 0.711666 0.353658
0.404074 0.718776 0.354391
0.440833 0.726375 0.354879
0.492027 0.73669 0.354147
0.532662 0.746853 0.354971
0.567605 0.756451 0.356161
0.600397 0.765789 0.356573
0.630915 0.774212 0.356451
0.660044 0.781674 0.355169
0.687572 0.787945 0.35285
0.712352 0.791257 0.34725
0.736706 0.794965 0.342535
0.757031 0.792218 0.328389
0.777386 0.79057 0.31606
0.795926 0.784848 0.298009
0.813321 0.777447 0.276997
0.83003 0.770886 0.257069
0.845655 0.763592 0.236637
0.861067 0.755459 0.21413
0.874479 0.751354 0.199405
0.886839 0.748714 0.187533
0.898604 0.746365 0.177111
0.908339 0.747219 0.174853
0.91812 0.747662 0.171481
0.925658 0.748852 0.168734
0.930785 0.750591 0.166369
0.936034 0.752117 0.163439
0.938155 0.754101 0.161013
0.265766 0.713329 0.379431
0.288273 0.717784 0.378531
0.311147 0.722026 0.377554
0.336599 0.726574 0.376745
0.363821 0.731136 0.375784
0.393301 0.736278 0.375387
0.425681 0.741924 0.375235
0.460792 0.748974 0.375753
0.509209 0.758083 0.374365
0.547662 0.767437 0.375204
0.580896 0.776364 0.376028
0.611566 0.785031 0.377188
0.640833 0.792981 0.377127
0.669093 0.800793 0.377203
0.695094 0.806668 0.375357
0.719676 0.812375 0.373724
0.742641 0.815854 0.368795
0.763516 0.8168 0.360388
0.783764 0.817334 0.351431
0.801129 0.811887 0.332113
0.818387 0.807294 0.314366
0.834516 0.800198 0.293065
0.850111 0.792081 0.269612
0.864836 0.785138 0.248081
0.877272 0.780056 0.230594
0.889601 0.774197 0.210712
0.900633 0.771191 0.199435
0.910826 0.770138 0.193271
0.920882 0.768856 0.186007
0.926482 0.769406 0.182345
0.932204 0.76968 0.178393
0.93666 0.770245 0.174395
0.938094 0.771374 0.169787
0.288441 0.739635 0.400732
0.310887 0.743282 0.399649
0.334905 0.747036 0.398032
0.360342 0.750973 0.397528
0.386633 0.754681 0.396628
0.41593 0.759335 0.396612
0.446738 0.763821 0.396124
0.480507 0.770169 0.396841
0.526284 0.778195 0.394949
0.562737 0.78677 0.395514
0.593912 0.795209 0.396582
0.622782 0.803265 0.397742
0.650996 0.810987 0.397971
0.677806 0.818402 0.398337
0.702739 0.824598 0.397284
0.727184 0.830869 0.396582
0.748516 0.833906 0.391745
0.76939 0.837308 0.387793
0.788418 0.837369 0.377844
0.806577 0.835966 0.365164
0.824201 0.834058 0.351736
0.83949 0.827756 0.329702
0.854536 0.82208 0.308522
0.867964 0.814481 0.283879
0.880766 0.805386 0.255802
0.893172 0.797894 0.232288
0.903334 0.795407 0.223011
0.913268 0.792142 0.210605
0.921218 0.790036 0.201434
0.92755 0.789563 0.197345
0.934035 0.788846 0.192813
0.936522 0.789212 0.187793
0.938476 0.789334 0.182177
0.313252 0.763134 0.421851
0.336599 0.766705 0.419211
0.360281 0.770352 0.41825
0.384115 0.773663 0.417731
0.41004 0.777295 0.417578
0.437781 0.78088 0.41735
0.467185 0.78497 0.417243
0.50013 0.789883 0.417227
0.543008 0.797192 0.415549
0.577264 0.805112 0.415717
0.606348 0.813199 0.416876
0.634012 0.820981 0.417792
0.660563 0.828519 0.418647
0.685969 0.835645 0.418997
0.710491 0.842481 0.418982
0.733379 0.848371 0.418326
0.754589 0.853101 0.416693
0.775067 0.857633 0.414878
0.793744 0.858259 0.406012
0.812207 0.859495 0.398733
0.828412 0.856367 0.382925
