LUT预设1/LUT全系打包/电影感系列lut/709电影感系列（正常色彩素材用这个）/T&O重口青橙709.cube
TITLE "Generated by Resolve"
LUT_3D_SIZE 9
0.0276951 0.0473945 0.047013
0.0801099 0.0663157 0.0519265
0.193317 0.0835584 0.0282902
0.330083 0.0881666 0.00189212
0.44361 0.11667 0.010193
0.563363 0.142077 0.0187991
0.677165 0.152636 0.0326085
0.766888 0.144991 0.0444343
0.807248 0.195392 0.0534371
0.0483558 0.115801 0.0884108
0.120119 0.125994 0.0856336
0.25977 0.141131 0.0520638
0.417594 0.164263 0.0159609
0.550027 0.17705 0.0225681
0.64358 0.172519 0.0337682
0.727581 0.171923 0.0419623
0.792905 0.177859 0.0512245
0.83238 0.214115 0.0590677
0.0465095 0.209705 0.120531
0.118059 0.235431 0.116762
0.294652 0.236194 0.082887
0.472679 0.254612 0.0508888
0.609445 0.290929 0.0450599
0.715038 0.318288 0.053727
0.789776 0.317311 0.0639811
0.842145 0.295064 0.0684825
0.871168 0.2654 0.0692912
0.0690929 0.331762 0.167269
0.139986 0.362097 0.16289
0.31603 0.411994 0.154986
0.519997 0.380529 0.0880903
0.654963 0.400839 0.0742962
0.753307 0.432395 0.0784466
0.829114 0.460655 0.0860914
0.896941 0.481514 0.0953841
0.939315 0.486717 0.102831
0.116716 0.468818 0.23006
0.195529 0.498573 0.22298
0.368185 0.54934 0.223743
0.558053 0.581445 0.196643
0.689326 0.550637 0.134157
0.780941 0.548836 0.112474
0.850584 0.568139 0.110887
0.907256 0.589715 0.114443
0.943252 0.608179 0.119814
0.181735 0.598901 0.302205
0.272404 0.624186 0.294286
0.437186 0.663859 0.295583
0.599405 0.707073 0.291356
0.715404 0.710552 0.248661
0.798993 0.673976 0.168002
0.865461 0.670863 0.150439
0.913878 0.681163 0.142519
0.937606 0.695293 0.137438
0.265766 0.713329 0.379431
0.363821 0.731136 0.375784
0.509209 0.758083 0.374365
0.640833 0.792981 0.377127
0.742641 0.815854 0.368795
0.818387 0.807294 0.314366
0.877272 0.780056 0.230594
0.920882 0.768856 0.186007
0.938094 0.771374 0.169787
0.365789 0.806577 0.459785
0.45539 0.818631 0.457694
0.575769 0.833371 0.455955
0.679698 0.861479 0.459052
0.765835 0.886442 0.460822
0.837156 0.896651 0.443427
0.891676 0.884001 0.376013
0.925673 0.855528 0.270237
0.94052 0.841154 0.22208
0.463233 0.884749 0.538567
0.543267 0.894179 0.535317
0.637263 0.900923 0.532891
0.71841 0.920256 0.534813
0.786084 0.939269 0.536919
0.85211 0.95317 0.531624
0.905974 0.956451 0.50634
0.935805 0.941405 0.426215
0.942336 0.912871 0.287831
0.0203708 0.0740063 0.0872816
0.0612345 0.0840925 0.0897536
0.161044 0.106264 0.0855879
0.275898 0.134066 0.0820478
0.388785 0.162936 0.0793774
0.511284 0.186481 0.0738537
0.63151 0.202869 0.0656291
0.745083 0.199313 0.0629282
0.815991 0.217319 0.059617
0.030808 0.125658 0.128145
0.0940871 0.142077 0.138476
0.24004 0.158282 0.115862
0.400198 0.177096 0.0882429
0.525994 0.199771 0.0784466
0.609323 0.222126 0.0841382
0.687663 0.233951 0.0824292
0.771008 0.232242 0.0765698
0.836789 0.236179 0.0698558
0.0155795 0.233921 0.176898
0.0835737 0.246006 0.170855
0.272709 0.254429 0.140612
0.459251 0.27216 0.118715
0.596597 0.304448 0.097673
0.700038 0.32369 0.0834363
0.77052 0.324086 0.0753796
0.821134 0.305272 0.0773785
0.863539 0.275547 0.0739757
0.0416724 0.361685 0.232593
0.109865 0.378256 0.220127
0.279606 0.416464 0.203098
0.501198 0.407126 0.153903
0.64152 0.421958 0.138659
0.736919 0.453773 0.126024
0.807553 0.481041 0.115801
0.866789 0.497108 0.10695
0.915755 0.489647 0.102403
0.0807965 0.493935 0.304021
0.165896 0.51426 0.287816
0.33489 0.551324 0.271901
0.534096 0.593011 0.257984
0.676829 0.570825 0.202472
0.772305 0.569558 0.177752
0.836851 0.589273 0.161563
0.890135 0.608881 0.149203
0.928466 0.62298 0.13164
0.134524 0.615686 0.382193
0.242664 0.637064 0.360098
0.410559 0.665965 0.347433
0.579248 0.708995 0.347585
0.70399 0.724208 0.318318
0.794919 0.694316 0.247883
0.861555 0.690303 0.221851
0.90808 0.699657 0.201099
0.93521 0.711406 0.174136
0.212741 0.724224 0.460014
0.33698 0.741299 0.436805
0.49189 0.760098 0.426871
0.626001 0.791989 0.429343
0.732509 0.817502 0.423484
0.814557 0.818341 0.386923
0.877302 0.793332 0.303838
0.921614 0.782025 0.255421
0.941543 0.785534 0.231891
0.316838 0.813916 0.530587
0.434562 0.826352 0.510979
0.56611 0.836393 0.502235
0.671824 0.860319 0.50457
0.758938 0.885908 0.505058
0.833005 0.900374 0.496345
0.891981 0.892195 0.440406
0.929442 0.864302 0.332387
0.944747 0.85127 0.280995
0.419867 0.889952 0.598093
0.529061 0.900099 0.579202
0.633158 0.904204 0.570062
0.716258 0.919554 0.570764
0.78262 0.937804 0.572015
0.848615 0.953155 0.567895
0.904967 0.958801 0.550103
0.939101 0.947082 0.483162
0.947234 0.91899 0.355566
0.01561 0.126436 0.163348
0.0259251 0.136614 0.168048
0.0984817 0.143725 0.148409
0.205875 0.166934 0.136706
0.30045 0.200198 0.145724
0.403906 0.237339 0.159213
0.516701 0.271183 0.165164
0.612024 0.293889 0.165164
0.683574 0.300664 0.155383
0.0208286 0.17612 0.211963
0.0332799 0.192157 0.233646
0.141619 0.202274 0.211078
0.297627 0.225727 0.191562
0.416541 0.255039 0.191043
0.503731 0.283223 0.189349
0.578668 0.305913 0.184497
0.650752 0.324056 0.181262
0.719097 0.335286 0.170428
0.022446 0.233814 0.243473
0.0379644 0.26183 0.268666
0.189685 0.283879 0.276204
0.403632 0.304646 0.256077
0.557565 0.3234 0.24419
0.66157 0.349523 0.239719
0.729168 0.365942 0.228733
0.767834 0.366735 0.209674
0.794186 0.364981 0.18439
0.0429541 0.398169 0.344823
0.0597848 0.415793 0.349737
0.200259 0.427695 0.324224
0.450904 0.443976 0.289036
0.607706 0.461173 0.301183
0.714565 0.490166 0.301106
0.791882 0.51162 0.291539
0.850523 0.51368 0.266011
0.891478 0.497993 0.226642
0.0773022 0.540764 0.438468
0.100877 0.549889 0.431159
0.261479 0.563653 0.394751
0.482429 0.595743 0.376165
0.649989 0.596414 0.342748
0.755932 0.603815 0.354681
0.826841 0.62623 0.356481
0.882094 0.645411 0.336873
0.922362 0.657893 0.300893
0.111055 0.649897 0.517662
0.153231 0.660212 0.505806
0.349477 0.677012 0.465492
0.539361 0.704906 0.457786
0.677974 0.731655 0.442985
0.78584 0.715846 0.398642
0.858442 0.717525 0.401205
0.909041 0.731624 0.395224
0.941665 0.745647 0.369223
0.15639 0.740169 0.586313
0.239307 0.757153 0.573114
0.447013 0.769741 0.530175
0.602869 0.788205 0.526619
0.711803 0.815091 0.524971
0.804486 0.825757 0.499306
0.877058 0.808072 0.438315
0.927184 0.80061 0.421515
0.952316 0.807233 0.407736
0.236774 0.821576 0.646616
0.341497 0.836057 0.62887
0.536995 0.844541 0.58645
0.662089 0.857481 0.583734
0.746914 0.880491 0.584527
0.822309 0.900069 0.577356
0.889113 0.899168 0.538918
0.934722 0.875395 0.45066
0.954742 0.865278 0.429252
0.341543 0.895644 0.696193
0.454643 0.906996 0.675502
0.619028 0.910628 0.634852
0.712963 0.918074 0.633219
0.779461 0.932998 0.635431
0.840238 0.949401 0.631052
0.899458 0.958679 0.618723
0.941787 0.953079 0.576455
0.955291 0.926604 0.474815
0.023682 0.189349 0.254353
0.0245518 0.199603 0.256855
0.0424659 0.206912 0.23241
0.121874 0.223072 0.201099
0.224643 0.238361 0.167025
0.346395 0.256214 0.157321
0.458915 0.28632 0.167117
0.551736 0.319371 0.179492
0.612909 0.34548 0.186389
0.0301976 0.246479 0.313985
0.0329747 0.26215 0.339345
0.0760662 0.266743 0.310491
0.193042 0.281422 0.263279
0.335286 0.292943 0.224018
0.439353 0.304143 0.203159
0.517342 0.318685 0.180316
0.593194 0.344182 0.179492
0.652232 0.368429 0.184009
0.0352941 0.285313 0.338903
0.0435798 0.310826 0.366018
0.117662 0.335332 0.3935
0.285115 0.353048 0.362707
0.459709 0.376745 0.346609
0.575402 0.400275 0.342367
0.653284 0.416815 0.328786
0.697871 0.4177 0.286549
0.727367 0.412863 0.233997
0.052842 0.366232 0.390448
0.0628672 0.391531 0.412711
0.148623 0.430671 0.444831
0.368307 0.471077 0.465782
0.555703 0.498802 0.465324
0.679118 0.520088 0.471427
0.767102 0.535668 0.473655
0.827268 0.55024 0.464652
0.870176 0.542977 0.434791
0.0945754 0.527977 0.511727
0.103014 0.551476 0.528008
0.185855 0.579889 0.535607
0.422553 0.605173 0.526665
0.616831 0.622553 0.509331
0.731655 0.639155 0.530709
0.810285 0.660426 0.543084
0.873823 0.678325 0.546487
0.922927 0.685435 0.537438
0.129549 0.659495 0.613581
0.139925 0.672267 0.616617
0.261128 0.69453 0.606332
0.497795 0.712596 0.581216
0.655543 0.732204 0.573159
0.772549 0.734157 0.549493
0.850263 0.744121 0.565942
0.906325 0.761257 0.575921
0.946365 0.77615 0.571191
0.15848 0.753109 0.686213
0.191516 0.764569 0.684001
0.357 0.783825 0.661128
0.575418 0.794614 0.628702
0.702724 0.811856 0.626627
0.794049 0.826566 0.608484
0.874571 0.819974 0.56907
0.929656 0.819944 0.578607
0.960342 0.830213 0.582345
0.194003 0.822843 0.738155
0.261402 0.837736 0.732891
0.453559 0.85658 0.701213
0.644495 0.863508 0.669917
0.74522 0.877394 0.669902
0.815061 0.896757 0.664576
0.88513 0.90248 0.634882
0.938338 0.886229 0.579248
0.963378 0.880766 0.578653
0.271214 0.894392 0.7823
0.363226 0.909056 0.770611
0.548363 0.91957 0.733547
0.702174 0.922972 0.706554
0.780835 0.930846 0.70721
0.836667 0.944991 0.704372
0.894575 0.956985 0.692027
0.943908 0.956085 0.663508
0.962997 0.935088 0.599252
0.0315099 0.249622 0.340719
0.0327153 0.261524 0.344121
0.0332189 0.264454 0.306142
0.0780194 0.27921 0.271794
0.153109 0.298711 0.223758
0.284901 0.310521 0.176074
0.421988 0.32018 0.156008
0.525597 0.338079 0.150164
0.603372 0.356603 0.146517
0.04477 0.310658 0.402319
0.0498054 0.326635 0.43241
0.0617533 0.32546 0.393591
0.14464 0.338109 0.345937
0.263005 0.352392 0.277256
0.39147 0.351293 0.212772
0.485527 0.351064 0.16965
0.572961 0.364172 0.147509
0.643732 0.377096 0.134508
0.054902 0.347753 0.426642
0.0633707 0.3738 0.455634
0.0990158 0.39176 0.481956
0.224216 0.399908 0.452445
0.392432 0.420279 0.402518
0.525444 0.430014 0.377035
0.612909 0.437293 0.351873
0.666957 0.430793 0.294865
0.703471 0.423865 0.22182
0.0695659 0.398733 0.462852
0.078706 0.425696 0.488212
0.134173 0.460914 0.520348
0.309606 0.497597 0.555871
0.489769 0.524361 0.543999
0.628916 0.551034 0.54226
0.722606 0.572122 0.54902
0.791363 0.584802 0.55053
0.840879 0.581949 0.530526
0.0978561 0.49807 0.535103
0.107408 0.523949 0.557198
0.180514 0.560128 0.586313
0.383764 0.602914 0.620661
0.582223 0.634867 0.639796
0.708431 0.658473 0.638956
0.792889 0.678538 0.647913
0.861692 0.69456 0.657847
0.916869 0.702739 0.660746
0.135454 0.63006 0.640528
0.145953 0.650843 0.655909
0.237797 0.684428 0.675166
0.44828 0.720531 0.684871
0.636927 0.737743 0.676982
0.763134 0.748623 0.667033
0.841505 0.763012 0.678218
0.900801 0.781186 0.691157
0.945205 0.793256 0.695308
0.167773 0.740215 0.730144
0.18294 0.754116 0.735882
0.309316 0.782925 0.74226
0.522499 0.805127 0.726055
0.690425 0.816297 0.713054
0.791302 0.827955 0.702281
0.873121 0.828977 0.674144
0.927565 0.838407 0.691264
0.96286 0.850095 0.700893
0.192935 0.820768 0.791653
0.231952 0.834455 0.792523
0.386618 0.859403 0.783627
0.592035 0.874662 0.757061
0.736629 0.881987 0.741527
0.814801 0.894591 0.737926
0.882353 0.903746 0.718669
0.939864 0.896864 0.686961
0.968627 0.896452 0.691905
0.240497 0.892027 0.836973
0.301015 0.904967 0.83267
0.476081 0.922957 0.813046
0.658137 0.930343 0.782589
0.775433 0.934417 0.76611
0.837858 0.943023 0.766171
0.893187 0.954864 0.759472
0.944274 0.957595 0.735348
0.968521 0.943801 0.698329
0.0454719 0.311391 0.423499
0.0489357 0.323476 0.431815
0.0461128 0.324437 0.384497
0.0614633 0.330526 0.334646
0.121218 0.354406 0.288487
0.229129 0.369512 0.218967
0.366751 0.378073 0.167666
0.496956 0.381826 0.128283
0.593973 0.384543 0.0950484
0.0640879 0.370474 0.481453
0.0699474 0.385412 0.511543
0.0709239 0.381857 0.473136
0.126909 0.388434 0.417838
0.222858 0.407156 0.357305
0.341009 0.409827 0.261631
0.444846 0.406409 0.181323
0.549035 0.405249 0.129534
0.63444 0.401175 0.0975509
0.0754864 0.405631 0.503838
0.0839551 0.430701 0.532464
0.0991531 0.443763 0.557809
0.200763 0.448218 0.529854
0.340108 0.461662 0.488411
0.488121 0.471122 0.433005
0.58674 0.468925 0.39057
0.648615 0.460517 0.328115
0.690608 0.446555 0.227237
0.0887007 0.44828 0.535927
0.0976425 0.475151 0.561151
0.131472 0.505684 0.588876
0.28043 0.534966 0.626657
0.439567 0.548898 0.615274
0.589014 0.570016 0.598871
0.692927 0.588052 0.591669
0.766079 0.599786 0.590921
0.820676 0.600259 0.579278
0.10927 0.515236 0.587152
0.117678 0.538766 0.608286
0.177859 0.572549 0.637583
0.35996 0.615961 0.680446
0.539971 0.646922 0.703273
0.678569 0.668605 0.698009
0.769482 0.69163 0.703929
0.840177 0.711025 0.718959
0.897658 0.721996 0.728634
0.135027 0.603433 0.652628
0.147036 0.620691 0.66833
0.242939 0.658274 0.699672
0.441382 0.698497 0.732677
0.615702 0.734081 0.749203
0.74757 0.757382 0.751842
0.828565 0.77583 0.760967
0.890852 0.790478 0.771511
0.939223 0.80209 0.776181
0.168078 0.71107 0.739971
0.185519 0.72842 0.753414
0.299474 0.763531 0.776623
0.495766 0.797604 0.790631
0.659892 0.819028 0.788922
0.782864 0.831266 0.779736
0.868101 0.837247 0.764538
0.922332 0.852399 0.778698
0.961547 0.864195 0.787869
0.195178 0.799863 0.810712
0.22565 0.816999 0.819989
0.35314 0.847776 0.830335
0.545937 0.875044 0.827451
0.698604 0.889281 0.814847
0.80914 0.8963 0.802777
0.87892 0.905303 0.792798
0.937377 0.90602 0.775433
0.97081 0.910292 0.780072
0.231876 0.879454 0.868452
0.269154 0.892576 0.870451
0.423743 0.917006 0.869078
0.604929 0.933379 0.852308
0.741024 0.940444 0.83331
0.839338 0.943893 0.820386
0.892943 0.952819 0.817578
0.942519 0.957183 0.800702
0.97145 0.951095 0.77966
0.0653239 0.371527 0.498619
0.0691997 0.382422 0.513405
0.0659648 0.381582 0.462394
0.06392 0.380087 0.399191
0.113909 0.403632 0.353079
0.203479 0.422934 0.276799
0.326299 0.431998 0.213382
0.455817 0.434623 0.152819
0.574838 0.421973 0.10045
0.0835584 0.42565 0.551141
0.088777 0.439185 0.577752
0.0869459 0.435004 0.549203
0.120729 0.435065 0.488334
0.21413 0.452155 0.442588
0.314137 0.46273 0.353582
0.416175 0.460975 0.255497
0.521172 0.453452 0.179263
0.615152 0.449073 0.152255
0.0940261 0.457908 0.571115
0.101961 0.480507 0.596948
0.109804 0.491081 0.621836
0.189136 0.49337 0.59971
0.313375 0.501137 0.568505
0.451392 0.511223 0.531228
0.567269 0.511162 0.477745
0.633219 0.502922 0.401511
0.67747 0.487587 0.298116
0.106188 0.496101 0.599359
0.11458 0.521202 0.623529
0.13489 0.547692 0.649439
0.262348 0.571923 0.686473
0.411292 0.579248 0.681224
0.548333 0.590829 0.667597
0.670314 0.603906 0.647562
0.749462 0.614038 0.636408
0.808591 0.615122 0.623178
0.123873 0.550881 0.643168
0.131472 0.573587 0.663935
0.174609 0.603098 0.690745
0.337911 0.643763 0.731258
0.510445 0.666438 0.754482
0.644572 0.682902 0.755871
0.74815 0.697688 0.748455
0.823041 0.714321 0.749325
0.881163 0.727169 0.759503
0.143175 0.614023 0.691264
0.153521 0.634195 0.7093
0.234989 0.666712 0.738674
0.423468 0.705531 0.771939
0.593072 0.738003 0.79263
0.724178 0.76463 0.804685
0.810376 0.781613 0.806256
0.875135 0.796231 0.810483
0.927108 0.809537 0.822492
0.167361 0.690135 0.748959
0.189395 0.710491 0.765896
0.308446 0.74313 0.793164
0.49604 0.777569 0.816846
0.652064 0.80441 0.828672
0.770626 0.826337 0.835248
0.853956 0.847059 0.841321
0.911604 0.859739 0.843626
0.954925 0.871168 0.851972
0.195834 0.774701 0.81648
0.229938 0.792798 0.830182
0.356069 0.825132 0.851926
0.534905 0.856886 0.865583
0.680247 0.879347 0.867018
0.789303 0.895872 0.864317
0.873274 0.906233 0.857649
0.931838 0.912093 0.849195
0.969375 0.919112 0.852552
0.233982 0.85687 0.880812
0.266529 0.873014 0.889158
0.402167 0.901335 0.90074
0.574289 0.924651 0.901701
0.710506 0.938979 0.892882
0.813077 0.94757 0.882399
0.889326 0.952224 0.872984
0.94049 0.956847 0.862806
0.972808 0.956436 0.849226
0.0850538 0.427619 0.565667
0.0886091 0.437201 0.583139
0.0857099 0.435157 0.540734
0.080354 0.431235 0.47306
0.120256 0.447013 0.427039
0.197162 0.471199 0.365576
0.30396 0.483177 0.299031
0.42002 0.489937 0.251453
0.54345 0.475547 0.192844
0.101671 0.476066 0.612314
0.106279 0.488197 0.635493
0.10486 0.484962 0.623026
0.124819 0.481682 0.564599
0.216205 0.493507 0.531212
0.312825 0.507118 0.476768
0.405295 0.513069 0.388586
0.4963 0.509712 0.29012
0.595026 0.493706 0.243824
0.11104 0.505455 0.630564
0.117937 0.525567 0.652842
0.123644 0.534264 0.675608
0.183185 0.535637 0.66421
0.301411 0.541665 0.643305
0.428077 0.545373 0.61857
0.548119 0.548867 0.582879
0.626352 0.543633 0.503044
0.667689 0.527733 0.393194
0.122194 0.539956 0.655909
0.130022 0.562814 0.676646
0.142123 0.585794 0.699626
0.246952 0.60647 0.735302
0.393606 0.611902 0.737133
0.522576 0.618235 0.729839
0.642756 0.625467 0.722362
0.735912 0.631189 0.698268
0.796139 0.632197 0.671901
0.137636 0.587259 0.694896
0.14464 0.608438 0.713054
0.172992 0.635279 0.735103
0.317311 0.670924 0.772931
0.486946 0.689784 0.796475
0.621271 0.702327 0.802121
0.725429 0.711604 0.80116
0.807813 0.720027 0.789853
0.868589 0.730358 0.787945
0.154696 0.640879 0.736278
0.161654 0.658534 0.750927
0.222599 0.685954 0.77496
0.399466 0.723537 0.80943
0.566293 0.752529 0.831113
0.701488 0.776562 0.845899
0.790722 0.789059 0.850599
0.86186 0.79707 0.842893
0.915221 0.810239 0.849622
0.17229 0.697749 0.777722
0.189151 0.713542 0.791058
0.29691 0.742794 0.817853
0.481346 0.77377 0.844251
0.634287 0.801434 0.860349
0.751415 0.829114 0.872358
0.835828 0.851164 0.882414
0.8981 0.862135 0.883116
0.945266 0.873701 0.88983
0.197635 0.760494 0.825422
0.233173 0.77731 0.839994
0.366155 0.806363 0.86421
0.540215 0.834913 0.88191
0.680568 0.859312 0.891936
0.785885 0.881483 0.899138
0.864256 0.902693 0.903548
0.92398 0.914427 0.90309
0.964385 0.924437 0.910124
0.239933 0.835309 0.885206
0.27895 0.851514 0.895659
0.411749 0.878035 0.910918
0.573419 0.90367 0.921599
0.704219 0.924727 0.92639
0.802289 0.9402 0.926955
0.878874 0.950668 0.922896
0.938323 0.956161 0.914595
0.972213 0.959716 0.907988
0.103059 0.478904 0.624979
0.106767 0.488289 0.644709
0.105058 0.48603 0.619272
0.100786 0.482231 0.559487
0.135256 0.490486 0.518563
0.212146 0.512062 0.478172
0.295674 0.529992 0.419974
0.406043 0.539544 0.369116
0.523629 0.533928 0.300282
0.118135 0.522881 0.667277
0.122499 0.533928 0.6878
0.121996 0.531807 0.690822
0.134173 0.52813 0.642863
0.21883 0.537102 0.618357
0.324895 0.54522 0.588083
0.409857 0.555535 0.525658
0.491798 0.560433 0.436835
0.583108 0.551415 0.367193
0.126894 0.549157 0.68333
0.132998 0.566705 0.7028
0.136828 0.574228 0.721462
0.178271 0.575372 0.719997
0.293263 0.582528 0.709834
0.415778 0.583841 0.694789
0.529183 0.585092 0.6748
0.620478 0.581018 0.620508
0.669062 0.572595 0.521294
0.137011 0.580804 0.705501
0.143709 0.600763 0.723995
0.151461 0.620523 0.742962
0.228397 0.638666 0.774548
0.377584 0.64506 0.783902
0.507027 0.650111 0.780743
0.620386 0.654383 0.783261
0.72079 0.652491 0.767895
0.788205 0.651682 0.734722
0.15079 0.622675 0.739681
0.157351 0.642741 0.755779
0.173449 0.664714 0.773236
0.293858 0.696269 0.80827
0.463386 0.713466 0.834394
0.601129 0.723918 0.843336
0.705333 0.733089 0.849836
0.791012 0.736416 0.841337
0.857832 0.738277 0.828855
0.16582 0.668757 0.775738
0.171176 0.6851 0.788632
0.212039 0.708995 0.808164
0.369589 0.743236 0.842145
0.535714 0.769451 0.865156
0.678584 0.788891 0.881575
0.770291 0.799908 0.890761
0.844617 0.806317 0.887892
0.904509 0.811627 0.881819
0.180316 0.715877 0.811505
0.191318 0.72958 0.823209
0.27512 0.754696 0.84593
0.448798 0.784695 0.87306
0.602594 0.811063 0.890562
0.725826 0.837385 0.903807
0.817182 0.85716 0.915816
0.884871 0.866331 0.918669
0.936004 0.872923 0.915724
0.200107 0.763958 0.84831
0.227359 0.777203 0.86009
0.351263 0.802396 0.883238
0.52398 0.827924 0.901198
0.664134 0.853269 0.914107
0.769848 0.879316 0.923705
0.8533 0.901869 0.931334
0.91545 0.91693 0.936904
0.957458 0.924941 0.938018
0.241154 0.820478 0.891142
0.288121 0.835691 0.90222
0.421592 0.858793 0.9178
0.582162 0.881697 0.929839
0.712673 0.903471 0.937942
0.805432 0.924651 0.94432
0.879408 0.941756 0.947814
0.935042 0.953536 0.948226
0.969604 0.961669 0.948653
