LUT预设1/LUT全系打包/电影感系列lut/709电影感系列（正常色彩素材用这个）/warm2暖调709.cube
TITLE "Generated by Resolve"
LUT_3D_SIZE 9
0.00370794 0.00497444 0.00535592
0.118593 0.0307927 0.0293431
0.367834 0.0794232 0.0609445
0.583642 0.123552 0.0860609
0.752392 0.15816 0.103517
0.844282 0.178393 0.118257
0.857679 0.180697 0.120577
0.857877 0.180652 0.119753
0.857908 0.180667 0.119661
0.0749218 0.114656 0.0432136
0.116899 0.110948 0.0515297
0.32462 0.130236 0.058793
0.530404 0.163851 0.0838026
0.703532 0.19559 0.105425
0.837522 0.224231 0.124605
0.880629 0.231586 0.131182
0.881025 0.232105 0.131685
0.8822 0.234058 0.132509
0.165072 0.274342 0.084184
0.173968 0.258 0.087602
0.2692 0.255802 0.108446
0.464836 0.284886 0.117571
0.666865 0.32517 0.148363
0.825208 0.355581 0.168444
0.928512 0.377172 0.183505
0.945754 0.378286 0.185519
0.945846 0.376013 0.184756
0.248737 0.435004 0.127626
0.242527 0.416037 0.123247
0.336461 0.391791 0.166934
0.422263 0.418006 0.175128
0.612314 0.453925 0.186892
0.808133 0.497902 0.221775
0.943999 0.525322 0.241398
0.99527 0.531456 0.24654
0.994095 0.526131 0.244327
0.326955 0.585443 0.171557
0.314992 0.560433 0.164126
0.41268 0.525414 0.200977
0.478859 0.543954 0.243656
0.574273 0.568673 0.240024
0.746151 0.601953 0.245075
0.919783 0.645838 0.279576
0.999344 0.66923 0.303304
1 0.663706 0.301259
0.401266 0.72047 0.217273
0.388708 0.69276 0.20763
0.475593 0.656397 0.233585
0.571237 0.660426 0.290867
0.614176 0.69189 0.315541
0.719585 0.712108 0.304723
0.859968 0.736934 0.296437
0.976364 0.765667 0.318624
0.99675 0.769421 0.329137
0.464683 0.830045 0.262791
0.453193 0.807141 0.253117
0.530938 0.775082 0.270085
0.646433 0.770718 0.330037
0.69839 0.794766 0.371695
0.749203 0.822553 0.379934
0.845777 0.83888 0.366705
0.946365 0.854002 0.355581
0.980362 0.85771 0.355535
0.479362 0.85272 0.271946
0.479423 0.852659 0.271946
0.554314 0.843809 0.290623
0.684153 0.844343 0.353002
0.758755 0.863478 0.406165
0.794659 0.899443 0.432074
0.861082 0.92459 0.434867
0.946197 0.934951 0.419135
0.982635 0.937713 0.408042
0.479362 0.85272 0.271946
0.479362 0.85272 0.271946
0.550286 0.845777 0.289052
0.679545 0.848219 0.350454
0.76463 0.869734 0.408148
0.79794 0.907256 0.437568
0.861265 0.935897 0.444709
0.952071 0.954833 0.438621
0.989319 0.961227 0.431617
0.0040589 0.0196841 0.062211
0.122972 0.0396124 0.116426
0.344381 0.0839551 0.156115
0.546777 0.125292 0.177127
0.722087 0.160571 0.19585
0.820462 0.181811 0.202014
0.832944 0.183597 0.207004
0.833082 0.183062 0.211765
0.831998 0.183215 0.214282
0.0566873 0.120943 0.107225
0.107073 0.110506 0.109102
0.30631 0.12874 0.114
0.512367 0.1617 0.132403
0.687343 0.194278 0.15285
0.823194 0.222553 0.167666
0.869581 0.229404 0.165499
0.869169 0.23035 0.173724
0.868879 0.231846 0.178958
0.143633 0.27718 0.118044
0.160449 0.259876 0.113939
0.269825 0.250172 0.125811
0.462333 0.278416 0.130465
0.663478 0.317632 0.154955
0.819165 0.347539 0.175692
0.919448 0.368704 0.196078
0.94023 0.36936 0.197986
0.940993 0.366064 0.192569
0.234791 0.434226 0.142031
0.235035 0.413733 0.12607
0.328817 0.385946 0.165331
0.410239 0.409995 0.17879
0.608408 0.445563 0.191287
0.801785 0.48687 0.223377
0.940322 0.514305 0.240635
0.993057 0.520012 0.249485
0.990387 0.514107 0.247456
0.312505 0.582391 0.184451
0.304829 0.556039 0.169955
0.399817 0.517433 0.197101
0.468421 0.533898 0.239643
0.565408 0.558389 0.239902
0.737987 0.591119 0.243977
0.916823 0.636011 0.278843
0.999496 0.658396 0.298283
1 0.653178 0.300328
0.386816 0.716274 0.228214
0.377234 0.687343 0.212268
0.459403 0.648722 0.229023
0.558312 0.650172 0.28394
0.605432 0.680034 0.309361
0.708049 0.700999 0.300954
0.851621 0.72607 0.291447
0.977203 0.757687 0.317647
0.997559 0.761959 0.328511
0.453834 0.82501 0.268421
0.444053 0.800809 0.25478
0.514641 0.768673 0.264912
0.631754 0.762127 0.321294
0.689479 0.784314 0.365988
0.738735 0.812955 0.375097
0.835035 0.829297 0.362966
0.943709 0.846403 0.352895
0.981628 0.851102 0.352926
0.477089 0.853605 0.275151
0.477485 0.852796 0.274067
0.541146 0.844694 0.288518
0.671763 0.839872 0.346777
0.752987 0.858701 0.402228
0.789502 0.893294 0.429191
0.852552 0.918395 0.431754
0.93933 0.928435 0.415473
0.98146 0.933623 0.404868
0.47425 0.854765 0.279011
0.477867 0.8533 0.273899
0.538293 0.846632 0.285023
0.670008 0.847364 0.345602
0.759716 0.867445 0.404669
0.794827 0.904555 0.436759
0.856535 0.934478 0.444739
0.947875 0.954223 0.439353
0.987793 0.960967 0.432197
0.00347906 0.0434577 0.172366
0.131594 0.0497749 0.270924
0.34757 0.0861067 0.333867
0.51194 0.122347 0.332555
0.664897 0.15761 0.34667
0.768765 0.181292 0.362158
0.779156 0.183078 0.364385
0.778088 0.183124 0.366262
0.778271 0.183062 0.36994
0.01561 0.146105 0.197024
0.0637827 0.135927 0.211017
0.282002 0.129488 0.280385
0.458259 0.154086 0.282719
0.624308 0.187564 0.303166
0.761227 0.21796 0.325078
0.812894 0.227771 0.332143
0.816052 0.228885 0.332143
0.816449 0.229877 0.332448
0.116136 0.284581 0.269612
0.122057 0.270161 0.253407
0.251942 0.250828 0.244297
0.434669 0.270817 0.250263
0.612757 0.313085 0.282597
0.776776 0.354421 0.316045
0.886763 0.37911 0.334691
0.915663 0.385763 0.338338
0.917296 0.386999 0.337255
0.176989 0.446479 0.317052
0.173037 0.427695 0.292821
0.316075 0.391257 0.277424
0.411215 0.402365 0.279179
0.615091 0.439399 0.294713
0.795804 0.484321 0.330251
0.936751 0.515282 0.3552
0.986877 0.520775 0.361303
0.983597 0.51751 0.360296
0.241047 0.59733 0.346014
0.233478 0.571466 0.313268
0.384863 0.52665 0.295964
0.482322 0.528756 0.346532
0.574197 0.552956 0.335439
0.751095 0.591562 0.331838
0.940871 0.642985 0.374884
1 0.663737 0.404456
1 0.660883 0.40827
0.31136 0.733272 0.371359
0.30692 0.703258 0.333745
0.425696 0.661402 0.318303
0.564614 0.651774 0.379965
0.616846 0.67219 0.398367
0.705348 0.696406 0.383658
0.85977 0.72755 0.364462
0.983719 0.77055 0.411704
1 0.775555 0.42591
0.377111 0.843671 0.400656
0.376883 0.817441 0.362539
0.468193 0.782727 0.339605
0.62533 0.768811 0.400565
0.701579 0.778515 0.439551
0.739879 0.807828 0.447852
0.82884 0.825864 0.431281
0.948089 0.846357 0.410071
0.989532 0.852918 0.406973
0.405356 0.87953 0.399298
0.417548 0.874113 0.372427
0.491264 0.861982 0.354559
0.658595 0.85034 0.409461
0.755749 0.860121 0.459037
0.798627 0.888884 0.483177
0.848875 0.914382 0.482155
0.935576 0.925826 0.465919
0.983169 0.933516 0.449454
0.405249 0.879637 0.396307
0.419196 0.875105 0.36733
0.489097 0.865248 0.347234
0.651072 0.858808 0.39469
0.759884 0.871229 0.454734
0.807675 0.901595 0.486793
0.858564 0.934966 0.495033
0.944671 0.955398 0.489189
0.988495 0.962982 0.484138
0 0.0645762 0.299428
0.124956 0.063447 0.421241
0.352789 0.0899519 0.504952
0.525505 0.121477 0.503456
0.661799 0.155245 0.498497
0.75407 0.178149 0.503075
0.765743 0.180392 0.503334
0.765103 0.180255 0.502403
0.764965 0.180133 0.503624
0 0.168383 0.314473
0.0410315 0.149065 0.351308
0.279011 0.132296 0.437705
0.46128 0.152422 0.443931
0.604623 0.180316 0.441794
0.726299 0.20679 0.451392
0.776669 0.218463 0.455406
0.778943 0.219684 0.452796
0.779843 0.220615 0.450401
0.0807965 0.306966 0.338323
0.0862135 0.290913 0.327047
0.204822 0.27306 0.336629
0.395361 0.270893 0.393484
0.561852 0.298497 0.397879
0.719905 0.338155 0.424125
0.836637 0.369375 0.450645
0.869307 0.374701 0.453254
0.869017 0.37203 0.448707
0.180179 0.451499 0.43769
0.175128 0.430625 0.417777
0.271489 0.40177 0.407263
0.406744 0.406668 0.394476
0.581872 0.430747 0.406943
0.75285 0.476387 0.438987
0.898253 0.522789 0.478965
0.961013 0.532403 0.487449
0.961624 0.526299 0.483146
0.235142 0.599847 0.489601
0.22501 0.573739 0.461051
0.318853 0.540612 0.438132
0.473182 0.535073 0.438254
0.588891 0.553887 0.438666
0.77406 0.599207 0.459663
0.936355 0.64976 0.502205
1 0.674693 0.527733
0.999756 0.672999 0.530114
0.288975 0.73753 0.531762
0.277684 0.709422 0.495674
0.368811 0.677684 0.454231
0.559625 0.663569 0.485313
0.641825 0.672526 0.505623
0.729717 0.694728 0.494911
0.904173 0.746807 0.506584
0.997009 0.791348 0.550668
1 0.797086 0.56141
0.340429 0.850645 0.565377
0.331899 0.827726 0.525704
0.40856 0.800702 0.473426
0.619623 0.785061 0.517662
0.728557 0.783902 0.569757
0.766033 0.806851 0.577035
0.848341 0.825559 0.554147
0.960586 0.856916 0.538949
0.99707 0.866224 0.52134
0.363333 0.892073 0.565682
0.365713 0.889693 0.533455
0.426261 0.881743 0.490883
0.647974 0.871031 0.527733
0.774289 0.871717 0.592325
0.830396 0.889708 0.629267
0.864012 0.911757 0.634592
0.93875 0.926986 0.611139
0.987808 0.936873 0.55169
0.364279 0.891981 0.562661
0.368246 0.890608 0.529442
0.42295 0.887388 0.488884
0.641581 0.881331 0.514916
0.764355 0.884092 0.563821
0.833448 0.902144 0.596582
0.8719 0.936477 0.609781
0.946136 0.958541 0.602945
0.991287 0.966812 0.580896
0 0.0812695 0.412177
0.112688 0.076463 0.54522
0.350317 0.0962997 0.637629
0.533211 0.122972 0.649195
0.678676 0.154284 0.648508
0.767773 0.178149 0.648249
0.780209 0.181277 0.644755
0.780011 0.181201 0.641733
0.780362 0.181186 0.643641
0 0.186175 0.426001
0.0295567 0.161685 0.470909
0.275105 0.13843 0.565789
0.465278 0.152529 0.59382
0.619501 0.177096 0.594232
0.731228 0.206195 0.588174
0.777676 0.217792 0.586587
0.778698 0.217975 0.580835
0.776532 0.218235 0.575219
0.0354162 0.333501 0.403479
0.0390478 0.315785 0.396139
0.173754 0.297795 0.412634
0.355291 0.288472 0.516335
0.545083 0.301259 0.538537
0.688624 0.329809 0.536721
0.792828 0.352514 0.5467
0.822019 0.356054 0.544121
0.825544 0.354894 0.542519
0.160128 0.468177 0.508247
0.151904 0.446891 0.485039
0.227558 0.425589 0.449363
0.361471 0.427054 0.47718
0.543099 0.422827 0.539574
0.69984 0.453544 0.539208
0.839521 0.494621 0.563439
0.901198 0.504875 0.576623
0.906081 0.502876 0.574578
0.240177 0.60383 0.593866
0.229404 0.576623 0.565682
0.303334 0.546334 0.544518
0.426444 0.548012 0.55314
0.559518 0.556023 0.550027
0.731609 0.586038 0.56109
0.891173 0.635645 0.595376
0.974853 0.657282 0.62182
0.983536 0.656397 0.622538
0.294408 0.739467 0.641382
0.28191 0.710872 0.610025
0.344045 0.680522 0.587015
0.495598 0.677012 0.613016
0.618494 0.680751 0.595666
0.717052 0.696941 0.579797
0.903807 0.749111 0.621027
0.999542 0.790402 0.658671
1 0.795163 0.659266
0.343908 0.851682 0.684535
0.33225 0.828595 0.65272
0.381109 0.80531 0.621454
0.560693 0.800549 0.636744
0.711452 0.794614 0.644862
0.773983 0.808072 0.655055
0.864897 0.82974 0.655802
0.972976 0.868498 0.674052
1 0.879606 0.639338
0.363851 0.895216 0.692943
0.361868 0.892882 0.669627
0.40351 0.887251 0.641291
0.590265 0.888472 0.639689
0.758343 0.884993 0.661097
0.836805 0.89102 0.701076
0.877379 0.910658 0.716426
0.945754 0.930236 0.696498
0.99321 0.940902 0.649454
0.363867 0.895567 0.692515
0.362432 0.894896 0.668147
0.401038 0.895094 0.639796
0.58172 0.899718 0.630106
0.725414 0.900786 0.630167
0.835813 0.908278 0.668254
0.883711 0.938323 0.694301
0.950118 0.962386 0.689296
0.995331 0.971283 0.676539
0 0.0851453 0.440299
0.108415 0.0793774 0.578286
0.349523 0.0987716 0.679423
0.532647 0.124651 0.707378
0.684855 0.154116 0.720882
0.777142 0.177249 0.722713
0.792416 0.180865 0.720684
0.792813 0.180865 0.723247
0.792599 0.18088 0.721736
0 0.194263 0.479423
0.0316167 0.169955 0.531868
0.272374 0.143511 0.644877
0.463004 0.155764 0.685588
0.622721 0.177386 0.697658
0.746029 0.207019 0.702571
0.793515 0.218341 0.707118
0.794171 0.21796 0.697383
0.793423 0.218509 0.694194
0.0100862 0.352346 0.47039
0.00738537 0.333288 0.466957
0.154498 0.31635 0.502373
0.338476 0.302358 0.613458
0.531121 0.308537 0.671839
0.690822 0.332082 0.672496
0.791348 0.356558 0.667948
0.818921 0.359701 0.663737
0.817472 0.356268 0.656687
0.112612 0.4963 0.534874
0.101091 0.474495 0.513893
0.191669 0.449943 0.501305
0.320668 0.452979 0.53547
0.492058 0.443091 0.643717
0.675044 0.449271 0.670512
0.79675 0.473716 0.665492
0.855482 0.482872 0.667048
0.860563 0.481346 0.662669
0.227634 0.616007 0.662928
0.214572 0.588922 0.633417
0.272862 0.563973 0.596857
0.383764 0.569009 0.594903
0.509178 0.575662 0.630838
0.682597 0.575051 0.680629
0.831739 0.602426 0.685237
0.908827 0.619364 0.698192
0.923125 0.619333 0.699107
0.298619 0.743236 0.732891
0.28542 0.71429 0.703792
0.340612 0.684932 0.679149
0.472038 0.683864 0.697261
0.586908 0.690913 0.702876
0.704967 0.702876 0.693736
0.858671 0.730404 0.711788
0.971695 0.762844 0.737881
0.992279 0.768246 0.743435
0.349996 0.855222 0.77557
0.338033 0.831296 0.747219
0.378973 0.807324 0.722057
0.527764 0.803403 0.750881
0.65742 0.806104 0.767636
0.767117 0.81265 0.73669
0.860731 0.832746 0.740673
0.98088 0.868299 0.765469
0.999863 0.883909 0.758541
0.370977 0.899611 0.785626
0.368521 0.89633 0.767239
0.403357 0.890806 0.750774
0.554116 0.895125 0.76434
0.699535 0.900938 0.766873
0.812024 0.899733 0.764523
0.887053 0.912016 0.779477
0.952468 0.934798 0.77763
0.997635 0.945724 0.751553
0.371267 0.900374 0.785138
0.369955 0.89929 0.766415
0.404028 0.898756 0.749935
0.544549 0.905806 0.759014
0.667262 0.918135 0.744533
0.804059 0.923491 0.746303
0.899931 0.939315 0.777768
0.955779 0.966354 0.779049
0.998428 0.976074 0.775448
0 0.0844739 0.438499
0.10753 0.0790723 0.5776
0.349142 0.0989853 0.679301
0.531258 0.124636 0.709651
0.68397 0.153719 0.722072
0.776806 0.176944 0.726879
0.793484 0.180865 0.72755
0.793484 0.180865 0.72755
0.793484 0.180865 0.72755
0 0.195438 0.483116
0.0345159 0.171252 0.537469
0.271748 0.144762 0.652247
0.459586 0.15668 0.69894
0.619425 0.178943 0.7196
0.749416 0.207813 0.73106
0.797055 0.21883 0.733974
0.799664 0.217884 0.732509
0.800305 0.219257 0.733806
0.000610361 0.358221 0.490639
0 0.33962 0.49041
0.145876 0.323339 0.55462
0.329961 0.31043 0.661158
0.520836 0.31281 0.7299
0.682506 0.335622 0.751339
0.802563 0.360723 0.756985
0.831296 0.360967 0.758099
0.829023 0.358495 0.748241
0.0919814 0.507866 0.554192
0.0772259 0.486305 0.539834
0.171481 0.46334 0.54847
0.293507 0.467994 0.593133
0.453544 0.460472 0.703914
0.656748 0.458289 0.769528
0.798917 0.475319 0.771298
0.859937 0.482704 0.77113
0.861234 0.479896 0.770352
0.207324 0.629023 0.686122
0.189425 0.603479 0.656001
0.24332 0.582086 0.622324
0.346731 0.587549 0.628275
0.454887 0.596262 0.681208
0.647288 0.587503 0.778546
0.811582 0.593805 0.79881
0.884047 0.604379 0.790402
0.895186 0.603235 0.787671
0.297215 0.748196 0.78883
0.28249 0.720348 0.766384
0.327291 0.694743 0.739864
0.444785 0.698314 0.731182
0.547051 0.710536 0.73051
0.663417 0.716808 0.771527
0.819883 0.718212 0.811658
0.914168 0.728649 0.814389
0.935973 0.731487 0.81413
0.353918 0.858396 0.842786
0.34197 0.834287 0.823255
0.376455 0.810681 0.802747
0.54316 0.807355 0.820218
0.678523 0.810437 0.824811
0.748104 0.821637 0.824186
0.84332 0.832746 0.827604
0.959014 0.85272 0.839231
0.99646 0.862669 0.847715
0.376226 0.904189 0.855985
0.374075 0.900832 0.843061
0.40853 0.896605 0.831922
0.558541 0.899733 0.8448
0.686183 0.903243 0.85594
0.773465 0.910109 0.859236
0.875914 0.919554 0.846983
0.955642 0.936477 0.857298
0.999832 0.951354 0.851667
0.376822 0.905272 0.857404
0.375769 0.904311 0.844114
0.410651 0.903639 0.832975
0.54023 0.909926 0.840269
0.652888 0.92311 0.851301
0.761425 0.93724 0.855406
0.88986 0.948455 0.847944
0.963119 0.969848 0.867308
1 0.980636 0.869841
0 0.0834821 0.436271
0.108614 0.0807355 0.577447
0.34995 0.0990768 0.679164
0.530755 0.124666 0.709377
0.68423 0.153429 0.722194
0.777264 0.177005 0.726879
0.793484 0.180865 0.72755
0.793484 0.180865 0.72755
0.793484 0.180865 0.72755
0 0.196796 0.482261
0.03299 0.17232 0.537301
0.272694 0.145022 0.652827
0.457679 0.156786 0.698772
0.616053 0.180575 0.720088
0.748638 0.208682 0.731517
0.796292 0.21944 0.734142
0.799802 0.218463 0.733257
0.800717 0.219913 0.734264
0 0.360067 0.491295
0.00282292 0.341024 0.491524
0.14786 0.322835 0.562325
0.323735 0.313069 0.658122
0.516243 0.313787 0.732555
0.676188 0.336583 0.759838
0.80296 0.360189 0.766705
0.833021 0.360861 0.767803
0.832181 0.35819 0.766781
0.091371 0.50782 0.555444
0.0750286 0.485969 0.540932
0.169085 0.464469 0.557275
0.282979 0.469749 0.608942
0.451286 0.459007 0.720867
0.64889 0.459953 0.78616
0.796399 0.476066 0.800793
0.865019 0.482918 0.80444
0.866163 0.479042 0.803464
0.204898 0.628275 0.685603
0.183841 0.604456 0.656565
0.235523 0.585687 0.625727
0.328115 0.592386 0.638941
0.436744 0.59971 0.701625
0.641566 0.588968 0.800565
0.801236 0.596338 0.834592
0.887694 0.604013 0.83772
0.899519 0.60177 0.839826
0.295567 0.748028 0.797238
0.279591 0.720684 0.77702
0.32137 0.697704 0.750912
0.432853 0.704707 0.736614
0.522362 0.717845 0.744289
0.64979 0.721752 0.801892
0.810956 0.718395 0.861646
0.909773 0.725109 0.86833
0.929427 0.724361 0.867338
0.354238 0.858396 0.860456
0.342336 0.834745 0.848737
0.377951 0.812238 0.837293
0.544518 0.81088 0.841352
0.641474 0.818311 0.840589
0.720134 0.829816 0.845914
0.821759 0.836866 0.881331
0.932387 0.839536 0.905409
0.961822 0.842649 0.900114
0.378241 0.906096 0.881483
0.377188 0.904112 0.879438
0.411826 0.90103 0.87837
0.564935 0.900801 0.887098
0.666041 0.905791 0.894697
0.760983 0.914244 0.903426
0.852445 0.927398 0.91368
0.950652 0.937972 0.929061
0.997314 0.946242 0.930556
0.378714 0.907027 0.881849
0.378592 0.906905 0.880171
0.414847 0.906661 0.878691
0.54342 0.913588 0.889677
0.650523 0.927459 0.907637
0.763165 0.941726 0.918563
0.867338 0.957595 0.928664
0.960555 0.974182 0.936812
0.999863 0.9823 0.946639
0 0.0847334 0.440314
0.111864 0.0820783 0.579446
0.352346 0.0992447 0.679591
0.532921 0.125063 0.709468
0.684855 0.153704 0.722179
0.778943 0.177432 0.726955
0.793484 0.180865 0.72755
0.793484 0.180865 0.72755
0.793484 0.180865 0.72755
0 0.199756 0.481514
0.0275273 0.174838 0.537194
0.275975 0.145541 0.654505
0.457252 0.159808 0.699245
0.61529 0.183368 0.720592
0.745144 0.209888 0.731807
0.796475 0.221546 0.734279
0.80087 0.221759 0.734386
0.80145 0.222309 0.735012
0.00323491 0.362722 0.492103
0.00839246 0.342611 0.49543
0.150683 0.324071 0.56434
0.321279 0.317311 0.653361
0.512856 0.315541 0.733272
0.673671 0.338582 0.75996
0.800626 0.361288 0.767163
0.833204 0.363134 0.768185
0.83267 0.361181 0.767391
0.0919661 0.508339 0.556268
0.0752117 0.485847 0.540978
0.170459 0.464271 0.557961
0.281727 0.470924 0.607645
0.451209 0.459693 0.720607
0.646296 0.46099 0.785595
0.795331 0.477867 0.801724
0.864378 0.484474 0.804959
0.866529 0.479576 0.803861
0.205066 0.628199 0.685878
0.183276 0.603738 0.65597
0.236713 0.585428 0.62417
0.327352 0.59321 0.638285
0.443641 0.599008 0.706096
0.641947 0.590051 0.801511
0.798337 0.597971 0.835508
0.890333 0.606119 0.841001
0.900053 0.603845 0.840604
0.295995 0.748516 0.797803
0.279667 0.720333 0.777264
0.324758 0.697246 0.751171
0.432837 0.705119 0.736614
0.522271 0.718608 0.746105
0.65185 0.722637 0.80354
0.810803 0.71986 0.865217
0.910719 0.72755 0.874891
0.930694 0.726299 0.875227
0.354925 0.859754 0.86125
0.342733 0.835004 0.849088
0.385122 0.812757 0.838819
0.543694 0.811719 0.842344
0.631128 0.820554 0.843641
0.717632 0.832166 0.851667
0.821805 0.839948 0.883864
0.929549 0.842863 0.908293
0.960388 0.844312 0.910613
0.378576 0.906691 0.88275
0.378607 0.906722 0.88278
0.412879 0.901411 0.881285
0.560952 0.900343 0.889555
0.659876 0.906813 0.900206
0.756374 0.917586 0.912474
0.853284 0.931319 0.927306
0.947723 0.940856 0.940383
0.993164 0.947387 0.946166
0.378805 0.907118 0.882948
0.378805 0.907118 0.882948
0.418433 0.906905 0.883589
0.549661 0.914626 0.894224
0.658 0.928512 0.908782
0.765881 0.943587 0.924056
0.870985 0.960204 0.940444
0.962768 0.975906 0.952483
0.999847 0.98233 0.953246
