LUT预设1/LUT全系打包/电影感系列lut/709电影感系列（正常色彩素材用这个）/warm2暖调709.cube
TITLE "Generated by Resolve"
LUT_3D_SIZE 33
0.00370794 0.00497444 0.00535592
0.0189822 0.00852979 0.00943008
0.0348516 0.0124819 0.0146181
0.068574 0.0205386 0.021561
0.118593 0.0307927 0.0293431
0.176532 0.0422675 0.0375525
0.241047 0.0545815 0.0455634
0.305058 0.0666361 0.053193
0.367834 0.0794232 0.0609445
0.429114 0.0918441 0.0683146
0.483085 0.10309 0.074876
0.535271 0.11397 0.0811017
0.583642 0.123552 0.0860609
0.629969 0.132509 0.0904097
0.673213 0.141253 0.0947585
0.713497 0.149859 0.0991836
0.752392 0.15816 0.103517
0.7832 0.165209 0.107988
0.814313 0.172351 0.11252
0.830976 0.17586 0.115648
0.844282 0.178393 0.118257
0.854109 0.180209 0.120058
0.855543 0.180423 0.120409
0.85745 0.180682 0.120668
0.857679 0.180697 0.120577
0.857725 0.180682 0.120363
0.857786 0.180682 0.120134
0.857832 0.180667 0.119951
0.857877 0.180652 0.119753
0.857923 0.180652 0.1196
0.857939 0.180636 0.119478
0.857969 0.180636 0.119402
0.857908 0.180667 0.119661
0.0179751 0.0222324 0.016144
0.0254063 0.0231785 0.0189212
0.0396429 0.0249485 0.0217136
0.069398 0.0293126 0.0255894
0.119005 0.0365606 0.0314336
0.173281 0.0451514 0.0379644
0.238788 0.056672 0.045304
0.300816 0.0678111 0.0522927
0.365347 0.0801404 0.059678
0.425879 0.0917525 0.0665904
0.480446 0.103593 0.0732738
0.532799 0.114946 0.0795453
0.580392 0.124681 0.0843824
0.626627 0.134005 0.0891127
0.668421 0.142763 0.0936904
0.709377 0.151141 0.0981613
0.745663 0.158816 0.102815
0.777874 0.165911 0.108034
0.807996 0.172259 0.112612
0.825864 0.175418 0.115541
0.845212 0.17882 0.118486
0.85211 0.179919 0.119432
0.85536 0.180346 0.119753
0.857847 0.180667 0.119875
0.858061 0.181033 0.119707
0.858427 0.181827 0.119692
0.858625 0.182269 0.119707
0.858701 0.182452 0.119722
0.858656 0.18233 0.119677
0.858503 0.181964 0.119615
0.858183 0.181308 0.119738
0.857939 0.180987 0.120058
0.857832 0.180835 0.120256
0.0313268 0.0432288 0.0254215
0.0336156 0.0430304 0.0256657
0.0492866 0.0449531 0.0280156
0.0711528 0.0473945 0.0315862
0.120943 0.0522469 0.0350805
0.178988 0.0598306 0.0398871
0.239963 0.0697337 0.046067
0.301808 0.0804303 0.0526131
0.363455 0.0912642 0.0592813
0.42034 0.101518 0.0657664
0.47364 0.111406 0.0721447
0.524346 0.120653 0.0779736
0.571954 0.129335 0.0831922
0.618235 0.137682 0.0883192
0.659754 0.145144 0.0929427
0.70132 0.152361 0.097734
0.736767 0.160769 0.102831
0.771527 0.169085 0.107744
0.800092 0.175723 0.111925
0.823438 0.181018 0.115587
0.845945 0.185992 0.11902
0.851865 0.187411 0.119905
0.858732 0.188785 0.120897
0.861402 0.189151 0.121172
0.861295 0.18883 0.120974
0.861021 0.188174 0.120729
0.860655 0.187304 0.120562
0.860182 0.186114 0.120348
0.859602 0.18471 0.12015
0.85893 0.183169 0.120058
0.859236 0.183825 0.120317
0.860014 0.185702 0.12076
0.860655 0.187213 0.12108
0.0493629 0.0728771 0.0331426
0.0490272 0.0713664 0.0322728
0.0590524 0.0717021 0.0359045
0.0719463 0.0721752 0.0398718
0.12372 0.0745098 0.0395819
0.181704 0.0800793 0.0424659
0.23714 0.0874952 0.0467384
0.296269 0.0965744 0.0525978
0.35436 0.105638 0.0585794
0.408881 0.11545 0.065156
0.461707 0.125109 0.0717021
0.51133 0.134478 0.0777142
0.559579 0.143771 0.0835126
0.604974 0.152453 0.089128
0.647822 0.160342 0.0939498
0.689357 0.167865 0.0985733
0.726268 0.175311 0.103441
0.76289 0.182406 0.108125
0.79266 0.188205 0.112367
0.821088 0.193561 0.116548
0.843198 0.197391 0.119768
0.853452 0.198993 0.121386
0.865599 0.20177 0.123552
0.867338 0.20267 0.12398
0.867735 0.203342 0.124178
0.867979 0.203723 0.1243
0.868116 0.203952 0.124407
0.868193 0.204181 0.124544
0.868116 0.20415 0.12459
0.86804 0.204135 0.124544
0.867903 0.203998 0.124407
0.867964 0.204257 0.124361
0.867872 0.204166 0.124224
0.0749218 0.114656 0.0432136
0.0749065 0.114199 0.042771
0.081178 0.112795 0.0452125
0.088304 0.110246 0.047776
0.116899 0.110948 0.0515297
0.161898 0.113283 0.0520333
0.213107 0.117144 0.0501717
0.269245 0.123522 0.0538338
0.32462 0.130236 0.058793
0.378592 0.138247 0.0648508
0.431037 0.146502 0.0710918
0.481178 0.15494 0.077348
0.530404 0.163851 0.0838026
0.576974 0.172137 0.0897078
0.620981 0.179828 0.0949569
0.664454 0.187701 0.100252
0.703532 0.19559 0.105425
0.742184 0.203281 0.110369
0.776394 0.21059 0.115282
0.809064 0.217884 0.120241
0.837522 0.224231 0.124605
0.856214 0.227817 0.127642
0.876768 0.231617 0.130922
0.880659 0.231998 0.131395
0.880629 0.231586 0.131182
0.880552 0.23122 0.130968
0.880552 0.231296 0.131106
0.880796 0.231724 0.131426
0.881025 0.232105 0.131685
0.881209 0.232395 0.131868
0.881483 0.232853 0.132052
0.881819 0.233402 0.132296
0.8822 0.234058 0.132509
0.100069 0.156603 0.0538949
0.0999008 0.156237 0.0536965
0.103029 0.153826 0.0550698
0.106905 0.150668 0.0566262
0.124895 0.146853 0.0630503
0.15761 0.14667 0.0641489
0.193164 0.149142 0.062974
0.244327 0.153979 0.0641489
0.296498 0.158709 0.0647288
0.350515 0.166033 0.0699321
0.404639 0.173831 0.0760204
0.456413 0.182055 0.0823987
0.50695 0.190417 0.0889296
0.555047 0.198535 0.0950332
0.600961 0.206348 0.100664
0.646052 0.214252 0.106218
0.68658 0.221439 0.110704
0.726802 0.229404 0.115694
0.763714 0.237736 0.121248
0.79913 0.24596 0.126772
0.831144 0.2533 0.131884
0.855802 0.258518 0.136095
0.881636 0.264256 0.140444
0.888747 0.265507 0.141588
0.893629 0.266346 0.142382
0.897841 0.267002 0.143023
0.898054 0.267079 0.143053
0.898283 0.267063 0.143023
0.898283 0.266896 0.142885
0.898207 0.266682 0.142702
0.8981 0.266407 0.142458
0.898177 0.266712 0.142535
0.898344 0.267277 0.142885
0.122454 0.195499 0.0644999
0.122713 0.195209 0.0646067
0.122942 0.193179 0.064683
0.127199 0.189517 0.0667277
0.143603 0.179721 0.0746777
0.160113 0.178943 0.0782177
0.177966 0.181369 0.0803845
0.230137 0.184512 0.0762493
0.277562 0.188418 0.0735332
0.333623 0.195514 0.0789654
0.387579 0.202426 0.0835279
0.440589 0.211292 0.0904555
0.492805 0.220218 0.0974746
0.542123 0.229129 0.104204
0.590082 0.23798 0.110842
0.635615 0.246387 0.11693
0.678126 0.254124 0.122164
0.720012 0.261906 0.127428
0.757458 0.26949 0.132509
0.794858 0.277104 0.137499
0.827695 0.283986 0.142168
0.857694 0.290837 0.146746
0.886961 0.297261 0.151034
0.896193 0.298802 0.15259
0.907179 0.300954 0.154482
0.912612 0.302281 0.15555
0.913405 0.302403 0.155779
0.91487 0.302785 0.156146
0.914824 0.302815 0.156222
0.914778 0.302724 0.156237
0.914778 0.302678 0.156252
0.914824 0.302708 0.156283
0.914824 0.302556 0.156207
0.143999 0.235004 0.0744182
0.143893 0.234363 0.0743572
0.143542 0.232975 0.0741894
0.147829 0.228717 0.0759899
0.156634 0.219196 0.0797284
0.178286 0.213977 0.0887007
0.201694 0.213153 0.0937209
0.229831 0.217456 0.0923934
0.264622 0.222324 0.0921492
0.318013 0.227771 0.0925002
0.370779 0.233982 0.0938582
0.426932 0.243305 0.101061
0.483421 0.252415 0.108156
0.533608 0.261631 0.115267
0.582879 0.270863 0.122347
0.62826 0.2795 0.128527
0.671916 0.287785 0.13434
0.714153 0.2963 0.140108
0.753201 0.304021 0.145098
0.792157 0.311849 0.150088
0.825559 0.319402 0.155016
0.858595 0.326894 0.159899
0.884855 0.332509 0.163775
0.901869 0.335683 0.1664
0.920394 0.339178 0.169223
0.925246 0.339773 0.16994
0.928603 0.339666 0.170291
0.931258 0.339605 0.17055
0.931044 0.338781 0.170199
0.930861 0.338689 0.170138
0.930755 0.338689 0.170123
0.930632 0.338613 0.170077
0.930571 0.338598 0.170047
0.165072 0.274342 0.084184
0.164691 0.273655 0.084062
0.163973 0.272343 0.083772
0.166415 0.267811 0.0844129
0.173968 0.258 0.087602
0.197116 0.248585 0.0992905
0.215747 0.247944 0.104662
0.232959 0.25124 0.108049
0.2692 0.255802 0.108446
0.310323 0.261372 0.107164
0.358221 0.268376 0.109056
0.411841 0.276463 0.112886
0.464836 0.284886 0.117571
0.519158 0.295644 0.126055
0.573007 0.306752 0.134707
0.619928 0.315785 0.141421
0.666865 0.32517 0.148363
0.709484 0.333227 0.153918
0.750301 0.340719 0.158755
0.789639 0.347875 0.163439
0.825208 0.355581 0.168444
0.860838 0.363134 0.173327
0.886275 0.36849 0.177127
0.90901 0.373266 0.180606
0.928512 0.377172 0.183505
0.934813 0.378012 0.184405
0.94255 0.378805 0.185412
0.945403 0.378698 0.185641
0.945754 0.378286 0.185519
0.946151 0.3776 0.185321
0.946014 0.377096 0.185138
0.9458 0.376272 0.184833
0.945846 0.376013 0.184756
0.186328 0.314626 0.0946822
0.186023 0.314031 0.0945144
0.185428 0.312123 0.0941482
0.185199 0.308019 0.0936904
0.19353 0.297612 0.0965744
0.211398 0.287083 0.103471
0.232288 0.284947 0.114336
0.252949 0.28365 0.125978
0.276722 0.289708 0.124529
0.296162 0.296193 0.123445
0.344976 0.30251 0.12314
0.396384 0.308537 0.122835
0.450889 0.318685 0.129229
0.506157 0.329686 0.137041
0.558251 0.339971 0.144106
0.608362 0.350408 0.152331
0.658289 0.361379 0.160998
0.701518 0.369635 0.166796
0.745693 0.378225 0.172976
0.785641 0.386175 0.178302
0.823377 0.39382 0.183017
0.859678 0.400763 0.187396
0.887037 0.406455 0.191272
0.915373 0.41236 0.195239
0.933455 0.415427 0.19765
0.945876 0.416892 0.199237
0.958648 0.418433 0.200885
0.958923 0.417563 0.200671
0.959869 0.416785 0.200534
0.960464 0.415976 0.200336
0.960189 0.415381 0.200107
0.959823 0.41442 0.19971
0.959762 0.414298 0.199649
0.207324 0.354772 0.105348
0.206912 0.353979 0.10515
0.206149 0.352071 0.104692
0.204547 0.348165 0.103731
0.211673 0.337148 0.105379
0.226001 0.327413 0.110964
0.251087 0.321675 0.124086
0.273396 0.320134 0.133501
0.291432 0.325322 0.138338
0.314763 0.330953 0.142428
0.350835 0.337301 0.141314
0.384558 0.343999 0.14049
0.435767 0.352148 0.142199
0.484535 0.359747 0.14255
0.538857 0.371527 0.151278
0.595026 0.384833 0.162844
0.647868 0.396704 0.172839
0.695689 0.406683 0.180545
0.74255 0.416175 0.1879
0.781781 0.423117 0.192157
0.821363 0.430396 0.196872
0.856626 0.43714 0.201419
0.887816 0.443595 0.205631
0.919142 0.449775 0.209659
0.935912 0.452369 0.211887
0.954421 0.455421 0.214328
0.966201 0.45687 0.215686
0.969406 0.456352 0.215763
0.973297 0.455833 0.215885
0.973587 0.454856 0.215503
0.973297 0.453651 0.214969
0.973068 0.452583 0.214496
0.973022 0.452094 0.214267
0.228275 0.395239 0.116426
0.22771 0.394141 0.116106
0.226474 0.391638 0.115404
0.22475 0.388128 0.114427
0.226047 0.377066 0.113451
0.243549 0.366125 0.119936
0.272145 0.356313 0.131441
0.291768 0.356344 0.143542
0.308461 0.359976 0.155978
0.329641 0.36524 0.159182
0.351202 0.371939 0.158526
0.38381 0.378576 0.157855
0.427298 0.384741 0.156008
0.470802 0.391913 0.156207
0.525048 0.403311 0.164126
0.576547 0.41355 0.170047
0.628077 0.424781 0.178805
0.680461 0.436835 0.188846
0.729335 0.447852 0.19762
0.773602 0.456825 0.204334
0.818555 0.466163 0.21149
0.853239 0.47303 0.215763
0.888319 0.479988 0.219944
0.918196 0.485893 0.223621
0.942336 0.490043 0.226627
0.966796 0.494484 0.229862
0.973846 0.49456 0.230488
0.980072 0.494163 0.230854
0.985214 0.493965 0.231174
0.984924 0.492714 0.230686
0.984741 0.491493 0.230198
0.984482 0.49041 0.229786
0.984131 0.489265 0.229343
0.248737 0.435004 0.127626
0.247974 0.433524 0.127214
0.246632 0.430915 0.126467
0.245106 0.426474 0.125429
0.242527 0.416037 0.123247
0.26247 0.403967 0.129625
0.284306 0.394842 0.137301
0.310262 0.393332 0.152377
0.336461 0.391791 0.166934
0.351186 0.398962 0.172076
0.364416 0.406378 0.178439
0.393515 0.412238 0.177325
0.422263 0.418006 0.175128
0.461479 0.424613 0.174151
0.507073 0.431037 0.172564
0.554223 0.439109 0.173556
0.612314 0.453925 0.186892
0.667216 0.467613 0.198245
0.715923 0.477821 0.206378
0.763897 0.488258 0.214572
0.808133 0.497902 0.221775
0.846342 0.505791 0.227329
0.885954 0.514229 0.233631
0.915251 0.519799 0.237613
0.943999 0.525322 0.241398
0.967254 0.529732 0.244434
0.978607 0.530632 0.245411
0.991577 0.532219 0.246693
0.99527 0.531456 0.24654
0.995483 0.53019 0.246006
0.995743 0.528923 0.245457
0.995346 0.527535 0.244877
0.994095 0.526131 0.244327
0.268772 0.474006 0.138735
0.267796 0.472084 0.13817
0.266453 0.469459 0.137407
0.263874 0.464439 0.135973
0.260761 0.453986 0.133654
0.27686 0.441382 0.136965
0.299519 0.433127 0.145953
0.333333 0.426978 0.162448
0.357107 0.426352 0.175692
0.369802 0.43209 0.186084
0.386236 0.437781 0.193759
0.407004 0.444205 0.193622
0.425849 0.451148 0.194568
0.465446 0.45687 0.191959
0.502037 0.462394 0.189303
0.547829 0.47129 0.192294
0.596216 0.480644 0.19617
0.64477 0.490288 0.200656
0.697322 0.503258 0.210971
0.751003 0.516884 0.221836
0.796582 0.527657 0.230762
0.84126 0.538109 0.23978
0.882551 0.547601 0.247684
0.914809 0.553979 0.251545
0.947662 0.560678 0.255863
0.967361 0.563821 0.258137
0.984375 0.566491 0.260075
0.999603 0.568719 0.26183
0.998993 0.567529 0.261418
0.998505 0.566308 0.261036
0.997955 0.565164 0.260655
0.997452 0.563775 0.260105
0.997162 0.562249 0.259495
0.288624 0.512291 0.149767
0.287434 0.509972 0.149111
0.285786 0.506813 0.148211
0.282918 0.501259 0.146593
0.28191 0.490043 0.144732
0.287907 0.478401 0.144793
0.317021 0.469139 0.156237
0.351125 0.460792 0.169833
0.374624 0.460563 0.183795
0.396841 0.461967 0.198199
0.411612 0.467887 0.205966
0.420996 0.47657 0.211444
0.438163 0.483909 0.213565
0.465644 0.488624 0.210056
0.494636 0.493965 0.207233
0.538521 0.499992 0.205402
0.580285 0.506004 0.20351
0.630457 0.51754 0.21033
0.682521 0.530159 0.218723
0.732158 0.541665 0.226078
0.779248 0.553063 0.235309
0.826505 0.564599 0.244587
0.867079 0.574182 0.252308
0.905989 0.583429 0.260197
0.942382 0.59205 0.267704
0.965454 0.596597 0.271015
0.990356 0.60174 0.274708
0.999802 0.60322 0.276066
0.999771 0.602792 0.276158
0.999878 0.602289 0.276234
1 0.600931 0.275669
1 0.599161 0.274907
1 0.598093 0.274449
0.307897 0.549325 0.160586
0.3066 0.546822 0.159899
0.304601 0.542992 0.158785
0.301549 0.537163 0.157061
0.298528 0.525582 0.15436
0.301518 0.514473 0.153841
0.335424 0.50341 0.165209
0.365682 0.495277 0.176654
0.393774 0.493492 0.192874
0.42005 0.492226 0.207889
0.431266 0.499702 0.216709
0.443305 0.506294 0.226123
0.462104 0.513207 0.227359
0.479255 0.520394 0.228046
0.505913 0.526711 0.227146
0.539544 0.531685 0.224247
0.573861 0.537408 0.22211
0.61912 0.545724 0.222766
0.662074 0.552865 0.221424
0.710277 0.564141 0.22797
0.761959 0.577752 0.2383
0.812314 0.591073 0.248905
0.856123 0.602075 0.259586
0.899825 0.613108 0.269764
0.933242 0.620554 0.275868
0.962951 0.627207 0.281041
0.99176 0.633951 0.286717
0.993927 0.634485 0.287663
0.997513 0.635401 0.289067
1 0.635401 0.289738
1 0.633829 0.289128
1 0.632685 0.288716
1 0.631708 0.288319
0.326955 0.585443 0.171557
0.325383 0.582559 0.170657
0.323033 0.578164 0.169268
0.320073 0.572595 0.167514
0.314992 0.560433 0.164126
0.325216 0.548455 0.165789
0.350637 0.537362 0.172457
0.380026 0.530282 0.184863
0.41268 0.525414 0.200977
0.437461 0.525093 0.215351
0.455314 0.529183 0.228672
0.470863 0.534386 0.23949
0.478859 0.543954 0.243656
0.487266 0.553353 0.248463
0.515099 0.557977 0.245167
0.540383 0.563088 0.24271
0.574273 0.568673 0.240024
0.612848 0.574395 0.237003
0.651759 0.580713 0.235523
0.699763 0.591852 0.241276
0.746151 0.601953 0.245075
0.791119 0.612909 0.252293
0.837201 0.624598 0.261433
0.881682 0.636179 0.270191
0.919783 0.645838 0.279576
0.959411 0.656458 0.289967
0.981323 0.662745 0.296437
0.989654 0.665721 0.299641
0.999344 0.66923 0.303304
0.999908 0.667796 0.302632
0.999893 0.666148 0.301961
1 0.665064 0.301808
1 0.663706 0.301259
0.345876 0.620813 0.182574
0.344137 0.617594 0.181552
0.34168 0.61297 0.180072
0.338323 0.606729 0.178073
0.332036 0.594965 0.17438
0.344869 0.581994 0.175998
0.361654 0.571588 0.17911
0.396506 0.56405 0.194156
0.430289 0.557031 0.208515
0.453986 0.557992 0.223484
0.477241 0.559411 0.238422
0.491127 0.565576 0.24802
0.501991 0.573571 0.256382
0.51603 0.580972 0.261509
0.532219 0.588235 0.262211
0.54728 0.595911 0.263508
0.579049 0.600443 0.259953
0.608576 0.604929 0.256519
0.645457 0.610712 0.253712
0.685405 0.616724 0.249897
0.725734 0.623316 0.247333
0.774411 0.63621 0.25687
0.821729 0.648188 0.264729
0.865324 0.659602 0.274174
0.907439 0.670695 0.284535
0.948425 0.68162 0.293873
0.96495 0.68632 0.298665
0.98497 0.691966 0.304479
0.998398 0.695277 0.308797
0.998978 0.695125 0.310491
0.999771 0.695369 0.31284
1 0.69482 0.31342
1 0.693568 0.313222
0.364858 0.655406 0.193896
0.362844 0.651759 0.19266
0.360327 0.647211 0.191119
0.356664 0.640574 0.188922
0.35079 0.62855 0.185183
0.359945 0.615717 0.185153
0.377829 0.605951 0.189883
0.413077 0.596811 0.202502
0.445075 0.590616 0.215869
0.473579 0.589258 0.232227
0.499733 0.588937 0.24773
0.512871 0.595682 0.259236
0.526925 0.601663 0.270954
0.537453 0.610346 0.275547
0.546868 0.619013 0.279606
0.564797 0.625742 0.280446
0.589029 0.630884 0.278248
0.612619 0.636454 0.276509
0.648768 0.641566 0.272557
0.683268 0.646616 0.268711
0.722652 0.654169 0.268925
0.765042 0.66273 0.270344
0.805402 0.670558 0.270802
0.847822 0.681422 0.278111
0.88954 0.692241 0.284489
0.925353 0.701595 0.291798
0.957107 0.710521 0.301244
0.991913 0.720073 0.311604
0.995712 0.721813 0.315724
0.996963 0.722774 0.319142
0.999786 0.723537 0.321859
0.999832 0.721965 0.321111
0.999939 0.720531 0.320699
0.383429 0.688792 0.205615
0.381064 0.684535 0.20415
0.378576 0.680049 0.202594
0.374685 0.673075 0.200168
0.371221 0.660792 0.196719
0.373861 0.648737 0.194781
0.398199 0.638788 0.201572
0.428687 0.629084 0.21062
0.459495 0.624292 0.224887
0.490562 0.621027 0.240772
0.51429 0.621927 0.255131
0.533974 0.625666 0.268971
0.550896 0.630808 0.280705
0.559991 0.639307 0.287922
0.568841 0.647562 0.295735
0.584665 0.654688 0.296498
0.598505 0.662348 0.297887
0.620783 0.668177 0.296361
0.64947 0.672251 0.292287
0.678019 0.676112 0.288228
0.716899 0.681971 0.284657
0.754101 0.687572 0.281071
0.794003 0.695811 0.282277
0.835157 0.705623 0.286244
0.875242 0.714656 0.288762
0.910414 0.723796 0.297032
0.94519 0.732937 0.304448
0.970459 0.739437 0.310414
0.981262 0.742626 0.315679
0.994812 0.746487 0.321447
0.999359 0.746853 0.323522
0.999664 0.746136 0.324331
1 0.745708 0.325505
0.401266 0.72047 0.217273
0.399145 0.716731 0.215839
0.396353 0.711803 0.213947
0.392584 0.705135 0.211429
0.388708 0.69276 0.20763
0.389441 0.681651 0.205402
0.415976 0.670817 0.211322
0.441718 0.661707 0.218051
0.475593 0.656397 0.233585
0.508339 0.651102 0.248463
0.53315 0.652842 0.264317
0.557809 0.654307 0.279789
0.571237 0.660426 0.290867
0.582315 0.667765 0.301045
0.593866 0.675227 0.308324
0.604242 0.683497 0.311666
0.614176 0.69189 0.315541
0.637781 0.696941 0.313207
0.659602 0.702403 0.311513
0.687037 0.707744 0.308904
0.719585 0.712108 0.304723
0.750652 0.716518 0.300786
0.788067 0.723552 0.299321
0.824414 0.729839 0.296391
0.859968 0.736934 0.296437
0.895811 0.745541 0.30045
0.931975 0.75404 0.303563
0.954604 0.760021 0.310674
0.976364 0.765667 0.318624
0.993912 0.770184 0.324742
0.994369 0.769604 0.326406
0.995804 0.769497 0.328222
0.99675 0.769421 0.329137
0.418311 0.750408 0.229145
0.416159 0.746654 0.227649
0.413214 0.741482 0.22562
0.409659 0.735225 0.223133
0.405051 0.723232 0.218982
0.41149 0.711894 0.218143
0.430228 0.702037 0.221118
0.457282 0.694072 0.229908
0.49131 0.687221 0.243076
0.522148 0.68368 0.257252
0.549538 0.68365 0.273106
0.574624 0.684749 0.28809
0.591333 0.689876 0.300816
0.608911 0.694469 0.313817
0.617639 0.7028 0.320714
0.624552 0.71191 0.327398
0.635477 0.719738 0.331106
0.65005 0.726925 0.33196
0.663951 0.734051 0.332952
0.693233 0.737301 0.328206
0.720455 0.7411 0.324331
0.751156 0.745525 0.32015
0.785107 0.7505 0.315648
0.818021 0.755245 0.311208
0.853498 0.76286 0.312444
0.88809 0.770077 0.312779
0.918517 0.776486 0.314321
0.943343 0.782376 0.319768
0.969146 0.788342 0.324575
0.980087 0.790509 0.327352
0.985595 0.790951 0.329519
0.99202 0.791836 0.331762
0.992432 0.791394 0.331456
0.434958 0.779522 0.24097
0.432929 0.776059 0.239475
0.430106 0.771145 0.237369
0.426581 0.764874 0.234714
0.420813 0.753918 0.230289
0.42826 0.74255 0.229084
0.439139 0.733898 0.229343
0.473182 0.72488 0.240116
0.507103 0.716884 0.250965
0.537209 0.714443 0.26627
0.566735 0.712901 0.282002
0.59089 0.714565 0.296971
0.612375 0.717601 0.311574
0.629419 0.722225 0.32398
0.638025 0.730083 0.33254
0.647684 0.737575 0.34168
0.658701 0.745464 0.344503
0.668421 0.753384 0.347387
0.684321 0.759945 0.347997
0.705959 0.765042 0.346227
0.72607 0.770748 0.34522
0.756298 0.774701 0.340673
0.785061 0.778424 0.336278
0.81529 0.783001 0.332311
0.847105 0.78822 0.327916
0.878584 0.792935 0.322179
0.907118 0.79884 0.323873
0.936278 0.805219 0.327504
0.961334 0.810407 0.330297
0.970642 0.811887 0.333532
0.981231 0.813443 0.336461
0.98703 0.813962 0.337865
0.98761 0.813458 0.338033
0.449851 0.804837 0.251835
0.447822 0.801389 0.250355
0.445258 0.797009 0.248447
0.441932 0.79115 0.24596
0.436484 0.780941 0.241733
0.442863 0.770169 0.240177
0.457267 0.761868 0.242359
0.488273 0.753002 0.250431
0.518746 0.746548 0.260365
0.550546 0.743633 0.275547
0.581521 0.741207 0.29041
0.6065 0.74284 0.306035
0.631464 0.744411 0.321416
0.647272 0.749523 0.333471
0.661601 0.755459 0.345144
0.672877 0.762402 0.354101
0.678218 0.77145 0.359213
0.683085 0.780636 0.364736
0.699794 0.786725 0.364843
0.715465 0.793011 0.36524
0.735882 0.798016 0.363653
0.762173 0.801495 0.359731
0.787015 0.805234 0.356359
0.817121 0.809583 0.3514
0.847074 0.813748 0.346349
0.875883 0.818036 0.343023
0.904768 0.823468 0.342763
0.933211 0.82858 0.341436
0.951186 0.831601 0.342321
0.965545 0.834241 0.344488
0.980911 0.836957 0.346349
0.981628 0.83624 0.346166
0.982315 0.83566 0.345968
0.464683 0.830045 0.262791
0.462654 0.826673 0.261234
0.460121 0.82237 0.259266
0.456596 0.816449 0.256687
0.453193 0.807141 0.253117
0.454002 0.797925 0.250416
0.47361 0.789075 0.253452
0.499641 0.780621 0.258442
0.530938 0.775082 0.270085
0.564599 0.770703 0.284215
0.594446 0.768963 0.299077
0.621866 0.769284 0.315084
0.646433 0.770718 0.330037
0.664164 0.775006 0.343206
0.682429 0.778943 0.356435
0.690791 0.786648 0.364187
0.69839 0.794766 0.371695
0.707988 0.802319 0.376837
0.718822 0.809979 0.379065
0.728237 0.817731 0.381598
0.749203 0.822553 0.379934
0.769635 0.827497 0.378531
0.792142 0.832166 0.376165
0.819379 0.835523 0.371298
0.845777 0.83888 0.366705
0.873579 0.842802 0.362127
0.901778 0.846922 0.357427
0.927916 0.850767 0.354009
0.946365 0.854002 0.355581
0.965515 0.857313 0.356344
0.976165 0.858595 0.356268
0.978073 0.858 0.355917
0.980362 0.85771 0.355535
0.471443 0.840452 0.266941
0.470314 0.838529 0.266072
0.468711 0.83592 0.264942
0.466316 0.832059 0.263355
0.464103 0.825223 0.260853
0.464622 0.81883 0.259083
0.485878 0.811612 0.262516
0.506889 0.805493 0.266712
0.542641 0.800061 0.279637
0.576913 0.79498 0.291722
0.606226 0.794553 0.307591
0.635447 0.794186 0.32343
0.659464 0.79617 0.338369
0.682048 0.798856 0.353246
0.70042 0.802899 0.366232
0.710658 0.809918 0.375998
0.721401 0.816602 0.38613
0.727626 0.824918 0.390082
0.733669 0.833539 0.39411
0.744671 0.840574 0.396338
0.761486 0.846204 0.396201
0.776898 0.852094 0.39646
0.80087 0.855711 0.392935
0.824872 0.859449 0.389609
0.84918 0.863157 0.386038
0.876036 0.866804 0.381308
0.902266 0.870146 0.376471
0.924941 0.873549 0.373785
0.947219 0.877012 0.371237
0.96965 0.880461 0.367926
0.972869 0.880171 0.367056
0.976562 0.880018 0.366079
0.979324 0.880125 0.365347
0.478813 0.851911 0.271641
0.478233 0.851057 0.271305
0.476844 0.848966 0.270512
0.475212 0.84651 0.269551
0.473228 0.842832 0.26807
0.478386 0.838193 0.267857
0.492485 0.832837 0.269413
0.517281 0.82707 0.275761
0.552071 0.820615 0.286229
0.584497 0.816556 0.298512
0.615641 0.815274 0.31426
0.645518 0.814893 0.329625
0.670665 0.816983 0.345312
0.695903 0.819303 0.360891
0.712154 0.824491 0.373342
0.726741 0.830152 0.385122
0.73872 0.836866 0.394827
0.74519 0.845396 0.400931
0.75172 0.853788 0.407446
0.763348 0.860899 0.409354
0.774182 0.868177 0.4112
0.788281 0.874296 0.411658
0.808728 0.878981 0.410269
0.82826 0.883741 0.409247
0.851987 0.887098 0.405188
0.876692 0.889906 0.400229
0.901091 0.892622 0.395331
0.925612 0.895872 0.390402
0.949615 0.898985 0.385565
0.964355 0.900633 0.382803
0.970916 0.900893 0.381521
0.978729 0.901396 0.379736
0.980362 0.901656 0.379492
0.478904 0.852049 0.271687
0.478538 0.851484 0.271473
0.477897 0.850538 0.271107
