LUT预设1/LUT全系打包/电影感系列lut/709电影感系列（正常色彩素材用这个）/warm2暖调709.cube
TITLE "Generated by Resolve"
LUT_3D_SIZE 5
0.00370794 0.00497444 0.00535592
0.367834 0.0794232 0.0609445
0.752392 0.15816 0.103517
0.857679 0.180697 0.120577
0.857908 0.180667 0.119661
0.165072 0.274342 0.084184
0.2692 0.255802 0.108446
0.666865 0.32517 0.148363
0.928512 0.377172 0.183505
0.945846 0.376013 0.184756
0.326955 0.585443 0.171557
0.41268 0.525414 0.200977
0.574273 0.568673 0.240024
0.919783 0.645838 0.279576
1 0.663706 0.301259
0.464683 0.830045 0.262791
0.530938 0.775082 0.270085
0.69839 0.794766 0.371695
0.845777 0.83888 0.366705
0.980362 0.85771 0.355535
0.479362 0.85272 0.271946
0.550286 0.845777 0.289052
0.76463 0.869734 0.408148
0.861265 0.935897 0.444709
0.989319 0.961227 0.431617
0.00347906 0.0434577 0.172366
0.34757 0.0861067 0.333867
0.664897 0.15761 0.34667
0.779156 0.183078 0.364385
0.778271 0.183062 0.36994
0.116136 0.284581 0.269612
0.251942 0.250828 0.244297
0.612757 0.313085 0.282597
0.886763 0.37911 0.334691
0.917296 0.386999 0.337255
0.241047 0.59733 0.346014
0.384863 0.52665 0.295964
0.574197 0.552956 0.335439
0.940871 0.642985 0.374884
1 0.660883 0.40827
0.377111 0.843671 0.400656
0.468193 0.782727 0.339605
0.701579 0.778515 0.439551
0.82884 0.825864 0.431281
0.989532 0.852918 0.406973
0.405249 0.879637 0.396307
0.489097 0.865248 0.347234
0.759884 0.871229 0.454734
0.858564 0.934966 0.495033
0.988495 0.962982 0.484138
0 0.0812695 0.412177
0.350317 0.0962997 0.637629
0.678676 0.154284 0.648508
0.780209 0.181277 0.644755
0.780362 0.181186 0.643641
0.0354162 0.333501 0.403479
0.173754 0.297795 0.412634
0.545083 0.301259 0.538537
0.792828 0.352514 0.5467
0.825544 0.354894 0.542519
0.240177 0.60383 0.593866
0.303334 0.546334 0.544518
0.559518 0.556023 0.550027
0.891173 0.635645 0.595376
0.983536 0.656397 0.622538
0.343908 0.851682 0.684535
0.381109 0.80531 0.621454
0.711452 0.794614 0.644862
0.864897 0.82974 0.655802
1 0.879606 0.639338
0.363867 0.895567 0.692515
0.401038 0.895094 0.639796
0.725414 0.900786 0.630167
0.883711 0.938323 0.694301
0.995331 0.971283 0.676539
0 0.0844739 0.438499
0.349142 0.0989853 0.679301
0.68397 0.153719 0.722072
0.793484 0.180865 0.72755
0.793484 0.180865 0.72755
0.000610361 0.358221 0.490639
0.145876 0.323339 0.55462
0.520836 0.31281 0.7299
0.802563 0.360723 0.756985
0.829023 0.358495 0.748241
0.207324 0.629023 0.686122
0.24332 0.582086 0.622324
0.454887 0.596262 0.681208
0.811582 0.593805 0.79881
0.895186 0.603235 0.787671
0.353918 0.858396 0.842786
0.376455 0.810681 0.802747
0.678523 0.810437 0.824811
0.84332 0.832746 0.827604
0.99646 0.862669 0.847715
0.376822 0.905272 0.857404
0.410651 0.903639 0.832975
0.652888 0.92311 0.851301
0.88986 0.948455 0.847944
1 0.980636 0.869841
0 0.0847334 0.440314
0.352346 0.0992447 0.679591
0.684855 0.153704 0.722179
0.793484 0.180865 0.72755
0.793484 0.180865 0.72755
0.00323491 0.362722 0.492103
0.150683 0.324071 0.56434
0.512856 0.315541 0.733272
0.800626 0.361288 0.767163
0.83267 0.361181 0.767391
0.205066 0.628199 0.685878
0.236713 0.585428 0.62417
0.443641 0.599008 0.706096
0.798337 0.597971 0.835508
0.900053 0.603845 0.840604
0.354925 0.859754 0.86125
0.385122 0.812757 0.838819
0.631128 0.820554 0.843641
0.821805 0.839948 0.883864
0.960388 0.844312 0.910613
0.378805 0.907118 0.882948
0.418433 0.906905 0.883589
0.658 0.928512 0.908782
0.870985 0.960204 0.940444
0.999847 0.98233 0.953246
