LUT预设1/LUT全系打包/6.FAKE5207&淡雅系列/淡雅LUT/log灰片使用/淡雅warm.cube
TITLE "Generated by Resolve"
LUT_3D_SIZE 9
0 0 0
1.5259e-05 0 0
0.0168002 4.57771e-05 0.000213626
0.159838 0.00788891 0.00505074
0.438651 0.0343786 0.0158694
0.710597 0.0706035 0.0231785
0.943984 0.0990311 0.0298161
0.96347 0.100328 0.0301518
0.96347 0.100328 0.0301518
0 0 0
1.5259e-05 0 0
0.0424811 0.000579843 0.000823987
0.29102 0.0183566 0.0100557
0.587106 0.0540169 0.0203708
0.845472 0.087541 0.0267643
0.962356 0.100328 0.0301518
0.96347 0.100328 0.0301518
0.96347 0.10071 0.0301518
4.57771e-05 0.000579843 0.000534066
0.00108339 0.00767529 0.00456245
0.0403754 0.0203098 0.00471504
0.368078 0.037644 0.0128481
0.691295 0.0715038 0.0228733
0.935714 0.100221 0.029633
0.96347 0.103593 0.0301518
0.96347 0.114168 0.0302281
0.963424 0.140291 0.0308537
0.00813306 0.0628519 0.0556802
0.012314 0.117052 0.104601
0.0448157 0.204105 0.118181
0.298192 0.204456 0.0311284
0.676371 0.208698 0.0172122
0.935973 0.22501 0.0273136
0.963333 0.230823 0.0281987
0.963317 0.256245 0.0280919
0.963302 0.295369 0.0319524
0.0194705 0.255589 0.231708
0.0210422 0.328954 0.299458
0.0544594 0.438056 0.341131
0.225422 0.544854 0.256046
0.610727 0.4878 0.100069
0.893187 0.495308 0.0625925
0.963119 0.491814 0.0682383
0.963272 0.513054 0.0938125
0.963317 0.548592 0.13283
0.0159152 0.505776 0.467094
0.0128634 0.563714 0.52311
0.0417029 0.643793 0.563775
0.181842 0.719829 0.535607
0.435981 0.789242 0.304646
0.828717 0.724269 0.261173
0.955825 0.741482 0.299123
0.959762 0.755016 0.348547
0.959487 0.770657 0.400397
0.00633249 0.711925 0.670283
0.00743114 0.753506 0.705272
0.0537423 0.812222 0.735225
0.202182 0.870665 0.734829
0.454444 0.92192 0.592767
0.759625 0.937133 0.427756
0.937911 0.874632 0.491875
0.956039 0.883741 0.598321
0.957137 0.894682 0.653941
0.0081178 0.889662 0.842039
0.0209964 0.916457 0.863828
0.0955367 0.944076 0.879774
0.293736 0.958175 0.869978
0.550881 0.962615 0.784634
0.777417 0.95877 0.659922
0.917617 0.934371 0.664027
0.957366 0.925399 0.696559
0.960403 0.942061 0.807004
0.0381323 0.964508 0.943542
0.101259 0.966064 0.948409
0.234424 0.966506 0.947799
0.427588 0.966003 0.935744
0.629496 0.965301 0.885084
0.79617 0.96231 0.816129
0.918914 0.952438 0.842969
0.957565 0.946975 0.836347
0.962173 0.952575 0.871305
1.5259e-05 1.5259e-05 9.15541e-05
3.0518e-05 0 4.57771e-05
0.0331884 0.000289921 0.000717174
0.240406 0.014313 0.00816358
0.530037 0.0463874 0.0188754
0.79324 0.081178 0.0254368
0.960159 0.100221 0.0301213
0.96347 0.100328 0.0301518
0.96347 0.100267 0.0302892
0 0 0
3.0518e-05 1.5259e-05 7.62951e-05
0.0509651 0.000808728 0.000991836
0.333074 0.0224308 0.0116121
0.642573 0.0613107 0.0216068
0.904295 0.0948196 0.0284581
0.963455 0.100328 0.0301518
0.96347 0.100343 0.0301518
0.96347 0.101045 0.0306554
0.00148013 0.0109255 0.00378424
0.00306706 0.0201877 0.0172122
0.0432746 0.0273747 0.0101015
0.388037 0.0453956 0.0138094
0.710674 0.0760815 0.0233768
0.945144 0.102541 0.0298619
0.96347 0.107942 0.0301823
0.963455 0.121935 0.0309911
0.963424 0.156069 0.0337224
0.0144808 0.120562 0.0940871
0.0150301 0.161013 0.149371
0.046479 0.225086 0.161898
0.296803 0.223072 0.044358
0.680262 0.227405 0.0231022
0.937346 0.24062 0.0305028
0.963333 0.246784 0.0316777
0.963317 0.274418 0.0357824
0.963317 0.31664 0.0525216
0.0251621 0.327932 0.283177
0.0186923 0.382971 0.353597
0.0484016 0.470497 0.40293
0.211963 0.549935 0.309071
0.609262 0.511315 0.140017
0.893599 0.515206 0.110872
0.963211 0.510201 0.112261
0.963363 0.530571 0.137469
0.963394 0.563836 0.177081
0.0165408 0.560525 0.512489
0.00985733 0.603555 0.565927
0.0415351 0.667521 0.607279
0.197269 0.733806 0.595331
0.45919 0.790158 0.368338
0.830045 0.740139 0.313664
0.955947 0.756329 0.357412
0.959915 0.766583 0.399878
0.959747 0.781521 0.446967
0.00642405 0.747799 0.702663
0.00766003 0.782025 0.738003
0.0626078 0.831861 0.768719
0.238788 0.882536 0.772488
0.496529 0.925093 0.65655
0.76228 0.938216 0.491661
0.938369 0.883909 0.537194
0.956863 0.891646 0.635355
0.957687 0.90103 0.682307
0.0109407 0.91107 0.866667
0.0276188 0.931426 0.888106
0.12726 0.949798 0.901884
0.335363 0.960388 0.893202
0.582345 0.963134 0.826581
0.788205 0.959213 0.715694
0.915831 0.937972 0.704204
0.958083 0.930144 0.727718
0.960937 0.945403 0.827802
0.057023 0.965957 0.950591
0.1393 0.966415 0.953216
0.279377 0.96643 0.952209
0.462257 0.965942 0.944366
0.651759 0.965347 0.913512
0.808408 0.962768 0.853742
0.92401 0.954849 0.869184
0.95848 0.950576 0.859556
0.962554 0.9552 0.886992
0.00360113 0.00750744 0.0333867
0.0053254 0.0113832 0.0482338
0.0375219 0.00854505 0.0398413
0.270634 0.0133364 0.0287327
0.587671 0.0473945 0.0312047
0.859968 0.0855268 0.0351873
0.963333 0.0964523 0.0381628
0.963607 0.0944991 0.0423285
0.964279 0.0870069 0.0585031
0.00657664 0.0138399 0.0588998
0.00982681 0.0200809 0.080415
0.0570687 0.0133059 0.0636912
0.379629 0.0201267 0.0384985
0.707012 0.0617685 0.0366369
0.940688 0.0948959 0.0377356
0.963592 0.0960403 0.0390631
0.963729 0.0941024 0.0433509
0.964218 0.0897231 0.0582742
0.007187 0.0501411 0.054078
0.00776684 0.0586099 0.0641489
0.0455634 0.0508278 0.0636149
0.399191 0.0547036 0.035111
0.728023 0.0836957 0.034699
0.950088 0.110475 0.0373846
0.963516 0.117449 0.0380102
0.9635 0.143099 0.0428779
0.963439 0.191577 0.053666
0.0496529 0.238025 0.106813
0.0432136 0.262669 0.156008
0.0504158 0.275486 0.243854
0.29659 0.261387 0.117327
0.682246 0.259953 0.0724956
0.938293 0.270329 0.0602426
0.963378 0.276967 0.060914
0.963378 0.307973 0.0789654
0.963409 0.353796 0.114992
0.076173 0.467826 0.294087
0.033814 0.481987 0.406119
0.0482032 0.523095 0.484703
0.220584 0.561273 0.42266
0.60235 0.546181 0.229557
0.892683 0.54255 0.19559
0.963378 0.535027 0.18822
0.963485 0.553384 0.2121
0.963531 0.587442 0.255344
0.0300145 0.646448 0.557351
0.0103609 0.665644 0.618097
0.0534676 0.704265 0.663874
0.254749 0.755428 0.669535
0.498802 0.793423 0.49308
0.830762 0.763256 0.399252
0.956054 0.77528 0.445777
0.960433 0.782788 0.474769
0.960433 0.797543 0.512535
0.0111543 0.803937 0.744244
0.0131838 0.827497 0.781308
0.0910048 0.86099 0.814542
0.302327 0.899641 0.823438
0.552728 0.93022 0.754711
0.766476 0.939223 0.589227
0.938888 0.895918 0.601221
0.957824 0.902663 0.687007
0.958495 0.909468 0.722118
0.0157778 0.937041 0.8963
0.0493324 0.946136 0.915007
0.188602 0.957443 0.926146
0.398047 0.962753 0.922301
0.613519 0.964034 0.875776
0.802441 0.960327 0.790646
0.919158 0.943313 0.76434
0.959121 0.936522 0.770657
0.961715 0.950042 0.855467
0.104967 0.966476 0.955154
0.202762 0.966522 0.955901
0.348089 0.966262 0.955779
0.513787 0.96582 0.95285
0.67364 0.965362 0.936126
0.822324 0.963485 0.89424
0.930999 0.958007 0.900862
0.959838 0.955322 0.889494
0.963058 0.958541 0.907454
0.0293584 0.0623178 0.198901
0.0370184 0.080705 0.24184
0.0572824 0.0705577 0.247929
0.276143 0.00750744 0.245014
0.641749 0.022446 0.157961
0.903181 0.0446174 0.132982
0.966781 0.0485695 0.138003
0.966796 0.0410925 0.153429
0.966613 0.037171 0.187869
0.0415656 0.0923476 0.268498
0.0525978 0.123766 0.338643
0.0819562 0.101625 0.344823
0.382177 0.00654612 0.317311
0.74815 0.0256046 0.209339
0.955444 0.0410773 0.15845
0.966796 0.0408179 0.154238
0.96672 0.0400549 0.171618
0.966537 0.0391852 0.189059
0.0187076 0.135515 0.276173
0.0215457 0.162066 0.326757
0.0561379 0.152499 0.353033
0.400366 0.0349889 0.326253
0.768215 0.0437934 0.211231
0.958541 0.062974 0.158968
0.966033 0.0814679 0.148379
0.965576 0.117586 0.154284
0.964889 0.181064 0.187106
0.028809 0.31722 0.28983
0.0312505 0.344976 0.309133
0.0403296 0.34168 0.312108
0.293584 0.317708 0.294957
0.677943 0.300801 0.199283
0.93489 0.320455 0.174136
0.963623 0.330556 0.172229
0.963592 0.36524 0.196063
0.963653 0.413306 0.234958
0.102861 0.586069 0.354986
0.106203 0.606027 0.368475
0.0737316 0.609491 0.491783
0.289723 0.596551 0.549935
0.606439 0.585763 0.390188
0.889784 0.572381 0.32221
0.963607 0.567819 0.308568
0.963684 0.587823 0.330785
0.963745 0.620493 0.371878
0.107256 0.758465 0.509575
0.0751202 0.771344 0.584772
0.0792248 0.765942 0.709514
0.334691 0.788876 0.745739
0.560708 0.800977 0.653544
0.830427 0.792401 0.515587
0.956298 0.79826 0.549706
0.961166 0.804135 0.564767
0.960922 0.815503 0.591974
0.0673838 0.899397 0.721508
0.0346838 0.900725 0.801083
0.145312 0.900832 0.860822
0.390326 0.919203 0.877363
0.61294 0.937804 0.848341
0.783764 0.939513 0.711833
0.939055 0.90988 0.68072
0.959075 0.915465 0.74876
0.959564 0.919936 0.770993
0.0191043 0.960616 0.907622
0.0974899 0.961654 0.936004
0.275288 0.964675 0.945464
0.48127 0.964157 0.945739
0.660197 0.964828 0.930053
0.82652 0.961975 0.86656
0.924208 0.950484 0.834577
0.960479 0.944518 0.821942
0.962646 0.955398 0.887266
0.185687 0.966644 0.956695
0.296727 0.9664 0.957641
0.439582 0.966033 0.95877
0.580072 0.965667 0.95935
0.709026 0.965331 0.954864
0.839857 0.964324 0.932845
0.93872 0.961105 0.929183
0.961288 0.960067 0.920821
0.963653 0.96144 0.927916
0.0684825 0.179217 0.460883
0.0733349 0.201068 0.508736
0.098909 0.194598 0.53048
0.247959 0.0575113 0.557931
0.667918 0.00422675 0.555291
0.924407 0.0201267 0.485054
0.962814 0.0214389 0.482948
0.962371 0.0199741 0.51107
0.961929 0.0174868 0.553567
0.0758984 0.213001 0.535134
0.0817273 0.249622 0.615122
0.120531 0.241199 0.644938
0.334981 0.0423133 0.657511
0.753872 0.00389105 0.631357
0.954406 0.016022 0.56997
0.96199 0.0175784 0.549004
0.961975 0.0177005 0.552666
0.961776 0.024567 0.568627
0.0363622 0.249027 0.534585
0.038819 0.278904 0.598489
0.0760204 0.279683 0.640253
0.336034 0.073991 0.677485
0.756664 0.0347601 0.636194
0.954269 0.0407416 0.571099
0.962081 0.0523079 0.539574
0.962341 0.0929885 0.527489
0.962615 0.167056 0.532738
0.0320592 0.41912 0.587915
0.0339361 0.449912 0.636927
0.0386206 0.455039 0.649393
0.233265 0.413581 0.603723
0.692836 0.320806 0.578119
0.940856 0.317189 0.50515
0.963973 0.332052 0.475074
0.964187 0.381369 0.474693
0.964248 0.446479 0.494591
0.0226291 0.638743 0.578164
0.0248264 0.66038 0.594095
0.028687 0.658839 0.592554
0.210529 0.64593 0.598337
0.614725 0.628489 0.58703
0.882155 0.614542 0.4963
0.963836 0.620295 0.485069
0.964004 0.639414 0.497765
0.964034 0.670115 0.526406
0.0848249 0.843626 0.635615
0.0915694 0.861219 0.639353
0.0935378 0.858 0.662028
0.310582 0.842496 0.759716
0.621897 0.825727 0.777478
0.829938 0.822248 0.652232
0.956344 0.821851 0.65449
0.961776 0.82649 0.663005
0.961624 0.837964 0.682582
0.0993057 0.95436 0.700679
0.0869459 0.95639 0.727199
0.121675 0.951339 0.815976
0.459159 0.942733 0.910063
0.676661 0.947005 0.914199
0.81532 0.942153 0.829877
0.938369 0.925704 0.775006
0.960571 0.92961 0.81471
0.960845 0.932143 0.825589
0.0365911 0.966674 0.829084
0.0681468 0.966766 0.891371
0.319005 0.965927 0.944442
0.574639 0.964492 0.95671
0.716228 0.964996 0.953735
0.855894 0.963714 0.928649
0.933562 0.957443 0.89897
0.962127 0.953674 0.876493
0.963546 0.960388 0.918685
0.186069 0.966674 0.95021
0.356802 0.966247 0.957916
0.540368 0.965774 0.960784
0.658854 0.965484 0.961883
0.759335 0.965225 0.962036
0.866636 0.964675 0.954223
0.945891 0.963317 0.949081
0.962539 0.963378 0.945739
0.964248 0.963592 0.945998
0.0851759 0.291646 0.701717
0.0865339 0.309697 0.737453
0.123552 0.310384 0.77142
0.240101 0.177523 0.793744
0.666545 0.00108339 0.840574
0.932448 0.00109865 0.831342
0.96112 0.00146487 0.8177
0.960998 0.0011902 0.825116
0.961105 0.00163272 0.8421
0.0867781 0.3196 0.755993
0.0920424 0.349218 0.818891
0.135973 0.343282 0.849332
0.271901 0.17406 0.870787
0.734157 0.000854505 0.903456
0.951522 0.000595102 0.881193
0.961105 0.000671397 0.858457
0.961074 0.00437934 0.85037
0.961303 0.0332647 0.849928
0.0373083 0.352605 0.738643
0.0432746 0.374304 0.791424
0.0815595 0.372045 0.830747
0.276326 0.215808 0.882704
0.726513 0.035584 0.903929
0.948638 0.0609751 0.871565
0.961273 0.0813611 0.848936
0.961517 0.134905 0.83801
0.96173 0.212329 0.833799
0.0387427 0.524941 0.824231
0.0414588 0.548836 0.869108
0.0403296 0.552377 0.880888
0.167742 0.500969 0.789334
0.65716 0.324132 0.871122
0.932296 0.359792 0.8374
0.962249 0.367941 0.814221
0.96228 0.412573 0.801022
0.962341 0.476967 0.796201
0.034165 0.687861 0.803723
0.0367742 0.708858 0.833844
0.0410925 0.709026 0.837217
0.209354 0.707073 0.834928
0.575204 0.68072 0.798276
0.886183 0.648753 0.775738
0.963211 0.652125 0.757916
0.963729 0.672084 0.749996
0.963775 0.703227 0.752956
0.0185855 0.890455 0.814557
0.0178683 0.899443 0.820844
0.025452 0.892912 0.81532
0.197147 0.879667 0.806729
0.58204 0.862593 0.814115
0.83505 0.851774 0.793454
0.955154 0.847929 0.764355
0.962295 0.856565 0.770794
0.962097 0.867308 0.782727
0.0160067 0.966125 0.860807
0.0160372 0.96611 0.859358
0.0585336 0.965087 0.85388
0.33106 0.962493 0.866941
0.690333 0.95523 0.927459
0.849607 0.949493 0.91136
0.941466 0.941939 0.870314
0.962127 0.943404 0.87602
0.962325 0.944884 0.880339
0.014023 0.966949 0.879225
0.0589609 0.966842 0.88368
0.250233 0.9664 0.904891
0.557519 0.965637 0.945327
0.774319 0.965164 0.961028
0.885237 0.964477 0.956069
0.946853 0.962264 0.940612
0.963516 0.961379 0.925902
0.964157 0.963104 0.941787
0.198383 0.966583 0.927672
0.334051 0.966278 0.943343
0.53167 0.965805 0.957702
0.71368 0.965347 0.962432
0.816266 0.965072 0.963317
0.897459 0.964813 0.962402
0.951995 0.964385 0.959594
0.96376 0.964492 0.958801
0.964584 0.964462 0.957122
0.101549 0.363653 0.867216
0.10277 0.364614 0.872084
0.144564 0.352819 0.886198
0.251133 0.227008 0.900664
0.663951 0.0024567 0.965118
0.930861 0.000671397 0.967361
0.959106 0.00062562 0.966552
0.959091 0.000946059 0.966888
0.959091 0.00852979 0.967453
0.103059 0.364935 0.873381
0.103929 0.365194 0.876219
0.142412 0.353307 0.886793
0.2645 0.208927 0.904982
0.71519 0.00102235 0.967498
0.942397 0.000915541 0.968551
0.959075 0.00520333 0.968292
0.959152 0.0261692 0.967407
0.959411 0.093492 0.966125
0.0291142 0.400107 0.823697
0.0322728 0.398764 0.828107
0.066453 0.388769 0.844388
0.261051 0.270237 0.90161
0.693446 0.0421454 0.966415
0.936217 0.0901808 0.96762
0.959594 0.147005 0.966506
0.959869 0.207019 0.964111
0.960204 0.288563 0.961822
0.0299992 0.570214 0.923293
0.0310826 0.573617 0.928786
0.0314946 0.567407 0.918288
0.147417 0.522454 0.829541
0.595315 0.348577 0.944625
0.919524 0.372793 0.964813
0.960678 0.435813 0.961913
0.960906 0.478889 0.958602
0.961273 0.533745 0.955123
0.0512703 0.737072 0.961913
0.0496681 0.743755 0.966018
0.0556649 0.742367 0.967773
0.223697 0.742641 0.96936
0.521202 0.706462 0.889296
0.877623 0.656062 0.952621
0.961242 0.691173 0.946334
0.961913 0.705577 0.942794
0.962081 0.731853 0.938979
0.00669871 0.909468 0.946807
0.00662242 0.911421 0.948623
0.0224308 0.905745 0.946456
0.222934 0.897261 0.943389
0.568917 0.890196 0.941344
0.823178 0.873213 0.931991
0.953964 0.871382 0.924361
0.962524 0.877409 0.921172
0.962646 0.886854 0.918547
0 0.966949 0.950317
0.00344854 0.966964 0.949599
0.0923629 0.966781 0.947829
0.363684 0.965438 0.945006
0.644114 0.961257 0.941131
0.843656 0.956756 0.946517
0.947295 0.953933 0.934661
0.963745 0.954269 0.926574
0.963912 0.956252 0.928725
0.0200351 0.967117 0.95349
0.0903792 0.966934 0.952712
0.280354 0.966445 0.952056
0.535744 0.965774 0.952285
0.739666 0.96527 0.958724
0.896849 0.964828 0.963241
0.954376 0.964416 0.959579
0.964202 0.964279 0.954955
0.964523 0.964355 0.956054
0.273869 0.966461 0.954376
0.39826 0.96614 0.955871
0.551766 0.965743 0.958907
0.693263 0.965393 0.9617
0.828641 0.965042 0.963439
0.921767 0.964797 0.964218
0.956649 0.964691 0.963729
0.964492 0.964675 0.9635
0.964691 0.964691 0.962768
0.103944 0.365194 0.876234
0.104097 0.365164 0.876295
0.15877 0.346532 0.890517
0.257877 0.2159 0.903471
0.669718 0.00192264 0.966827
0.929 0.000686656 0.96907
0.959045 0.00204471 0.969284
0.959121 0.0204929 0.969207
0.959335 0.0822003 0.968902
0.102144 0.365911 0.875105
0.102876 0.365652 0.875563
0.158083 0.3467 0.890364
0.270024 0.204028 0.907149
0.693706 0.00149538 0.967224
0.935225 0.00595102 0.9691
0.959197 0.043183 0.969085
0.959487 0.12488 0.968704
0.959792 0.210849 0.968292
0.000915541 0.43064 0.804883
0.00077821 0.429694 0.805173
0.0351415 0.421485 0.819654
0.257252 0.339391 0.895064
0.651072 0.0925154 0.963699
0.924849 0.134173 0.968399
0.959854 0.226612 0.968215
0.96022 0.329824 0.967712
0.96051 0.4094 0.96733
0.0462959 0.600153 0.956466
0.0483711 0.602914 0.959442
0.0559396 0.596201 0.944976
0.162905 0.550546 0.83537
0.555459 0.433051 0.932265
0.901274 0.400168 0.966888
0.960754 0.488853 0.966949
0.961074 0.568185 0.966583
0.961227 0.614054 0.966354
0.0483711 0.749722 0.967742
0.0478218 0.752743 0.967025
0.06598 0.751202 0.968109
0.249302 0.753933 0.972244
0.510018 0.722499 0.892775
0.850126 0.670344 0.959167
0.959869 0.709514 0.965866
0.961746 0.757992 0.965545
0.961837 0.780377 0.965377
0.00628672 0.913115 0.956207
0.00648508 0.91191 0.956329
0.0424506 0.906661 0.956649
0.260533 0.898924 0.958495
0.576333 0.892958 0.963104
0.812024 0.88188 0.959548
0.952697 0.879835 0.964034
0.962921 0.90425 0.963699
0.963088 0.909987 0.963546
0.00375372 0.967086 0.956237
0.0410163 0.966964 0.956588
0.190295 0.966461 0.957885
0.446479 0.964584 0.960113
0.668391 0.961929 0.9617
0.836576 0.95964 0.962783
0.944549 0.9579 0.963226
0.964614 0.96025 0.962661
0.96466 0.961318 0.962386
0.185611 0.966705 0.957855
0.310964 0.966369 0.958953
0.478157 0.965942 0.960418
0.632944 0.96556 0.961761
0.763546 0.965209 0.96289
0.879469 0.96492 0.963897
0.95201 0.964706 0.964355
0.964523 0.964691 0.963424
0.964691 0.964691 0.962753
0.485176 0.965927 0.960494
0.559258 0.965743 0.961135
0.642771 0.965515 0.961868
0.732723 0.965286 0.962646
0.826825 0.965057 0.96347
0.913741 0.964828 0.964248
0.958282 0.964721 0.964584
0.96463 0.964691 0.964599
0.964691 0.964691 0.964691
0.100969 0.366415 0.874403
0.112749 0.363943 0.878752
0.194965 0.323156 0.895491
0.283635 0.172183 0.9131
0.681971 0.00341802 0.967025
0.923262 0.00936904 0.968994
0.959213 0.0462501 0.969085
0.959579 0.153155 0.968566
0.960067 0.285603 0.967926
0.0323186 0.394644 0.830014
0.0401312 0.392798 0.834318
0.166415 0.370672 0.880156
0.27718 0.229587 0.907347
0.671443 0.0480507 0.965942
0.919127 0.0779278 0.968627
0.959594 0.154604 0.968551
0.960067 0.285435 0.967926
0.960525 0.416617 0.9673
0.0021973 0.498589 0.837964
0.00283818 0.498604 0.837598
0.0289158 0.484382 0.816083
0.266072 0.448218 0.871992
0.611261 0.235462 0.954376
0.903685 0.25449 0.967666
0.96025 0.33817 0.967681
0.960708 0.466316 0.967071
0.961074 0.569207 0.966567
0.060853 0.651987 0.983551
0.0643931 0.653498 0.983566
0.119707 0.648371 0.966583
0.241596 0.607767 0.859724
0.558038 0.563027 0.916869
0.872862 0.497063 0.96553
0.960616 0.554604 0.966628
0.961349 0.643168 0.966217
0.961593 0.713497 0.965881
0.0439765 0.774945 0.963211
0.0495003 0.775799 0.963363
0.124895 0.777356 0.965591
0.329488 0.782574 0.969635
0.546624 0.761669 0.911849
0.824109 0.725414 0.953353
0.95697 0.735439 0.965728
0.961868 0.791745 0.965499
0.962066 0.841108 0.96527
0.0074464 0.916915 0.956329
0.0304112 0.91519 0.956481
0.144579 0.911315 0.957198
0.379904 0.905547 0.959731
0.623041 0.900877 0.963653
0.812375 0.893751 0.960998
0.946319 0.884764 0.964202
0.963088 0.910689 0.964935
0.963973 0.933639 0.964828
0.0903182 0.966796 0.957031
0.187366 0.966354 0.957885
0.354711 0.965042 0.959365
0.548135 0.962951 0.961074
0.708293 0.960784 0.962509
0.845808 0.959045 0.963745
0.941543 0.958129 0.96408
0.964599 0.960708 0.964706
0.964691 0.964004 0.964691
0.449607 0.966018 0.960189
0.534752 0.965805 0.960922
0.626871 0.96556 0.96173
0.719417 0.965331 0.962539
0.810071 0.965103 0.963333
0.894163 0.964874 0.96408
0.950301 0.964736 0.964569
0.964279 0.964691 0.964691
0.964691 0.964691 0.964691
0.729885 0.965301 0.962646
0.762951 0.965209 0.962921
0.804837 0.965103 0.963287
0.852354 0.964981 0.963714
0.899397 0.964858 0.964111
0.937224 0.964767 0.964446
0.958572 0.964706 0.96463
0.964584 0.964691 0.964691
0.964691 0.964691 0.964691
