LUT预设1/LUT全系打包/6.FAKE5207&淡雅系列/淡雅LUT/log灰片使用/淡雅warm.cube
TITLE "Generated by Resolve"
LUT_3D_SIZE 5
0 0 0
0.0168002 4.57771e-05 0.000213626
0.438651 0.0343786 0.0158694
0.943984 0.0990311 0.0298161
0.96347 0.100328 0.0301518
4.57771e-05 0.000579843 0.000534066
0.0403754 0.0203098 0.00471504
0.691295 0.0715038 0.0228733
0.96347 0.103593 0.0301518
0.963424 0.140291 0.0308537
0.0194705 0.255589 0.231708
0.0544594 0.438056 0.341131
0.610727 0.4878 0.100069
0.963119 0.491814 0.0682383
0.963317 0.548592 0.13283
0.00633249 0.711925 0.670283
0.0537423 0.812222 0.735225
0.454444 0.92192 0.592767
0.937911 0.874632 0.491875
0.957137 0.894682 0.653941
0.0381323 0.964508 0.943542
0.234424 0.966506 0.947799
0.629496 0.965301 0.885084
0.918914 0.952438 0.842969
0.962173 0.952575 0.871305
0.00360113 0.00750744 0.0333867
0.0375219 0.00854505 0.0398413
0.587671 0.0473945 0.0312047
0.963333 0.0964523 0.0381628
0.964279 0.0870069 0.0585031
0.007187 0.0501411 0.054078
0.0455634 0.0508278 0.0636149
0.728023 0.0836957 0.034699
0.963516 0.117449 0.0380102
0.963439 0.191577 0.053666
0.076173 0.467826 0.294087
0.0482032 0.523095 0.484703
0.60235 0.546181 0.229557
0.963378 0.535027 0.18822
0.963531 0.587442 0.255344
0.0111543 0.803937 0.744244
0.0910048 0.86099 0.814542
0.552728 0.93022 0.754711
0.938888 0.895918 0.601221
0.958495 0.909468 0.722118
0.104967 0.966476 0.955154
0.348089 0.966262 0.955779
0.67364 0.965362 0.936126
0.930999 0.958007 0.900862
0.963058 0.958541 0.907454
0.0684825 0.179217 0.460883
0.098909 0.194598 0.53048
0.667918 0.00422675 0.555291
0.962814 0.0214389 0.482948
0.961929 0.0174868 0.553567
0.0363622 0.249027 0.534585
0.0760204 0.279683 0.640253
0.756664 0.0347601 0.636194
0.962081 0.0523079 0.539574
0.962615 0.167056 0.532738
0.0226291 0.638743 0.578164
0.028687 0.658839 0.592554
0.614725 0.628489 0.58703
0.963836 0.620295 0.485069
0.964034 0.670115 0.526406
0.0993057 0.95436 0.700679
0.121675 0.951339 0.815976
0.676661 0.947005 0.914199
0.938369 0.925704 0.775006
0.960845 0.932143 0.825589
0.186069 0.966674 0.95021
0.540368 0.965774 0.960784
0.759335 0.965225 0.962036
0.945891 0.963317 0.949081
0.964248 0.963592 0.945998
0.101549 0.363653 0.867216
0.144564 0.352819 0.886198
0.663951 0.0024567 0.965118
0.959106 0.00062562 0.966552
0.959091 0.00852979 0.967453
0.0291142 0.400107 0.823697
0.066453 0.388769 0.844388
0.693446 0.0421454 0.966415
0.959594 0.147005 0.966506
0.960204 0.288563 0.961822
0.0512703 0.737072 0.961913
0.0556649 0.742367 0.967773
0.521202 0.706462 0.889296
0.961242 0.691173 0.946334
0.962081 0.731853 0.938979
0 0.966949 0.950317
0.0923629 0.966781 0.947829
0.644114 0.961257 0.941131
0.947295 0.953933 0.934661
0.963912 0.956252 0.928725
0.273869 0.966461 0.954376
0.551766 0.965743 0.958907
0.828641 0.965042 0.963439
0.956649 0.964691 0.963729
0.964691 0.964691 0.962768
0.100969 0.366415 0.874403
0.194965 0.323156 0.895491
0.681971 0.00341802 0.967025
0.959213 0.0462501 0.969085
0.960067 0.285603 0.967926
0.0021973 0.498589 0.837964
0.0289158 0.484382 0.816083
0.611261 0.235462 0.954376
0.96025 0.33817 0.967681
0.961074 0.569207 0.966567
0.0439765 0.774945 0.963211
0.124895 0.777356 0.965591
0.546624 0.761669 0.911849
0.95697 0.735439 0.965728
0.962066 0.841108 0.96527
0.0903182 0.966796 0.957031
0.354711 0.965042 0.959365
0.708293 0.960784 0.962509
0.941543 0.958129 0.96408
0.964691 0.964004 0.964691
0.729885 0.965301 0.962646
0.804837 0.965103 0.963287
0.899397 0.964858 0.964111
0.958572 0.964706 0.96463
0.964691 0.964691 0.964691
