LUT预设1/LUT全系打包/6.FAKE5207&淡雅系列/淡雅LUT/log灰片使用/淡雅cold.cube
TITLE "Generated by Resolve"
LUT_3D_SIZE 5
0 0 0
0.0153506 3.0518e-05 0.000183108
0.42652 0.0328679 0.0154421
0.937133 0.0983749 0.0296483
0.96347 0.100328 0.0301518
4.57771e-05 0.000610361 0.000564584
0.0305943 0.0212863 0.00534066
0.669184 0.069398 0.0223545
0.963455 0.103502 0.0301518
0.963424 0.141085 0.030869
0.0196689 0.257252 0.232425
0.0460822 0.432441 0.346273
0.56669 0.502632 0.112779
0.962539 0.497795 0.0704509
0.963317 0.553903 0.136385
0.00633249 0.714122 0.672175
0.0441444 0.809354 0.737514
0.425589 0.917494 0.640452
0.925658 0.885084 0.484031
0.957137 0.896315 0.655161
0.0358434 0.964752 0.944259
0.214649 0.966567 0.949386
0.602045 0.965469 0.904845
0.901335 0.954528 0.843809
0.961685 0.949554 0.853254
0.00486763 0.0101472 0.0440223
0.0342565 0.0120546 0.0543832
0.578317 0.043061 0.0366674
0.963088 0.0942702 0.04271
0.964675 0.0829328 0.0675212
0.00761425 0.0559854 0.0703746
0.0356756 0.0591897 0.0847334
0.706722 0.0804761 0.0416724
0.963623 0.117494 0.0424353
0.963455 0.195697 0.0599985
0.0885786 0.488716 0.286213
0.0404059 0.529641 0.492897
0.551583 0.562936 0.259541
0.962951 0.543328 0.203326
0.963561 0.594873 0.270176
0.0140536 0.815457 0.748394
0.0793622 0.864408 0.820966
0.531853 0.92961 0.7944
0.925216 0.905577 0.60238
0.958648 0.912245 0.729854
0.105623 0.966598 0.955596
0.337041 0.966293 0.956497
0.652323 0.965454 0.945037
0.916945 0.959472 0.906371
0.962798 0.957015 0.898192
0.0736706 0.202243 0.51136
0.102083 0.220768 0.581384
0.648234 0.00148013 0.623728
0.961807 0.0166934 0.56582
0.961288 0.0127871 0.623346
0.0369573 0.269444 0.577218
0.0677195 0.306798 0.684688
0.720836 0.0359655 0.704585
0.961425 0.0537881 0.624643
0.961975 0.173907 0.609812
0.0148775 0.648569 0.621134
0.0173342 0.66949 0.640726
0.57377 0.644694 0.638483
0.963119 0.635386 0.540673
0.964111 0.682445 0.568276
0.0866865 0.960021 0.726482
0.100938 0.959014 0.78819
0.668528 0.949752 0.928344
0.922957 0.933471 0.802563
0.961212 0.936461 0.840742
0.162844 0.96672 0.943404
0.525307 0.96582 0.960586
0.755291 0.96524 0.962524
0.938323 0.963699 0.952651
0.964248 0.963592 0.94609
0.103548 0.365072 0.874922
0.143114 0.354253 0.887556
0.639658 0.00434882 0.96556
0.959045 0.000656138 0.969162
0.959106 0.0170291 0.969207
0.0219425 0.40734 0.819974
0.0496681 0.39765 0.834607
0.641901 0.0525216 0.964004
0.959609 0.165774 0.968414
0.960189 0.318776 0.966812
0.049958 0.741588 0.968505
0.0522316 0.745846 0.96875
0.472206 0.715801 0.896178
0.958938 0.698848 0.961257
0.961837 0.746349 0.957519
4.57771e-05 0.967117 0.954726
0.100465 0.966903 0.954665
0.621408 0.962753 0.953033
0.937423 0.957046 0.951308
0.964309 0.959045 0.943542
0.317769 0.966354 0.958206
0.553475 0.965743 0.96051
0.800244 0.965118 0.963149
0.953796 0.964721 0.964263
0.964691 0.964691 0.963699
0.0981918 0.367575 0.872694
0.198383 0.321813 0.895796
0.662043 0.00656138 0.966445
0.959258 0.0616464 0.969009
0.960204 0.32781 0.967727
0.00425727 0.512947 0.852995
0.025864 0.498161 0.82211
0.566949 0.276402 0.946685
0.95993 0.349676 0.96762
0.961135 0.588495 0.966476
0.0428626 0.781003 0.962356
0.125063 0.783444 0.964492
0.531395 0.774121 0.924804
0.949828 0.739315 0.96553
0.962097 0.847135 0.96524
0.123674 0.966812 0.957321
0.371984 0.965026 0.959518
0.697536 0.961257 0.962402
0.929656 0.958801 0.963912
0.964691 0.964096 0.964691
0.76965 0.965194 0.962982
0.827756 0.965042 0.963485
0.907683 0.964843 0.964187
0.957641 0.964706 0.96463
0.964691 0.964691 0.964691
