LUT预设1/LUT全系打包/6.FAKE5207&淡雅系列/淡雅LUT/log灰片使用/淡雅std.cube
TITLE "Generated by Resolve"
LUT_3D_SIZE 5
0 0 0
0.0159915 3.0518e-05 0.000183108
0.433402 0.0336767 0.0157015
0.94229 0.098909 0.0297856
0.96347 0.100328 0.0301518
4.57771e-05 0.000564584 0.000518807
0.034638 0.0206455 0.00488289
0.681773 0.0704814 0.0226596
0.96347 0.103365 0.0301518
0.963424 0.141054 0.030869
0.0195621 0.255924 0.231693
0.0499886 0.435584 0.343786
0.594217 0.491661 0.104311
0.963073 0.494347 0.0688945
0.963317 0.55201 0.135271
0.00631724 0.712764 0.671016
0.0489662 0.810849 0.736309
0.441291 0.920287 0.616846
0.934142 0.877424 0.486397
0.957153 0.895827 0.655833
0.0367895 0.964706 0.944015
0.225711 0.966552 0.94873
0.618662 0.965393 0.895018
0.912306 0.953277 0.843839
0.961975 0.951156 0.862837
0.00401312 0.00839246 0.0371557
0.0355383 0.00973526 0.0450141
0.583719 0.0458381 0.0328374
0.963363 0.0959335 0.0392615
0.964401 0.0852979 0.062211
0.00730907 0.0522621 0.0600748
0.0397345 0.0537575 0.0707103
0.71809 0.0827497 0.0364233
0.963531 0.117556 0.0390021
0.963439 0.19469 0.0556954
0.0822156 0.477653 0.289998
0.0436713 0.52546 0.488838
0.582879 0.552789 0.239094
0.963363 0.538476 0.194156
0.963546 0.591638 0.262501
0.0119783 0.808469 0.746456
0.0847334 0.862379 0.817594
0.544305 0.930175 0.775265
0.934859 0.898939 0.599756
0.958572 0.910979 0.726314
0.104952 0.966552 0.955459
0.34342 0.966278 0.956176
0.664607 0.965408 0.940963
0.925994 0.958663 0.90396
0.962936 0.957824 0.903014
0.0710613 0.189578 0.483604
0.100481 0.206775 0.55378
0.659709 0.00242618 0.588312
0.962264 0.019501 0.521813
0.961563 0.0154116 0.587182
0.0368048 0.258045 0.554009
0.0713359 0.292271 0.660365
0.741375 0.0354009 0.668009
0.961715 0.0521706 0.580163
0.96228 0.171389 0.568917
0.0174105 0.643015 0.596521
0.0209659 0.663249 0.613046
0.600198 0.635798 0.611841
0.96379 0.627619 0.507134
0.964065 0.676753 0.54374
0.0955825 0.957595 0.709346
0.1093 0.955764 0.799527
0.673838 0.948592 0.922438
0.932982 0.928786 0.784024
0.960998 0.934234 0.832654
0.173999 0.966705 0.948028
0.5393 0.965789 0.96083
0.757305 0.96524 0.962356
0.943252 0.963516 0.950957
0.964248 0.963561 0.945708
0.102861 0.364645 0.872389
0.143709 0.353796 0.887266
0.655055 0.00260929 0.966064
0.95906 0.000640879 0.968444
0.959091 0.0110475 0.968811
0.0263981 0.40296 0.822934
0.0583505 0.392401 0.840177
0.674296 0.0441138 0.966033
0.959609 0.156054 0.967941
0.960174 0.3028 0.965072
0.0506142 0.739178 0.966583
0.053254 0.743816 0.968734
0.495827 0.709865 0.888747
0.960739 0.696498 0.955352
0.961944 0.738521 0.950088
0 0.967025 0.953002
0.0950484 0.966888 0.951934
0.634455 0.962097 0.947234
0.944595 0.955596 0.942824
0.964111 0.957809 0.935271
0.290181 0.966415 0.956664
0.551324 0.965759 0.959869
0.815671 0.965072 0.963302
0.95552 0.964706 0.964034
0.964691 0.964691 0.963165
0.0990311 0.367224 0.873213
0.19884 0.321157 0.895949
0.674266 0.00502022 0.966873
0.959258 0.0588693 0.969024
0.960189 0.319844 0.967773
0.00358587 0.508751 0.848463
0.027863 0.493599 0.819272
0.591302 0.258534 0.951156
0.960281 0.349142 0.96762
0.961135 0.585901 0.966491
0.0432898 0.778927 0.962631
0.12871 0.78146 0.96495
0.541405 0.768795 0.917327
0.954971 0.738674 0.965682
0.962097 0.846876 0.96524
0.113939 0.966812 0.957244
0.371878 0.964965 0.959518
0.706264 0.960998 0.962493
0.936843 0.958511 0.963973
0.964691 0.964141 0.964691
0.759182 0.965209 0.96289
0.82298 0.965057 0.963455
0.907301 0.964843 0.964187
0.95874 0.964706 0.964645
0.964691 0.964691 0.964691
