LUT预设1/LUT全系打包/6.FAKE5207&淡雅系列/淡雅LUT/log灰片使用/淡雅cold.cube
TITLE "Generated by Resolve"
LUT_3D_SIZE 33
0 0 0
0 0 0
0 0 0
0 0 0
1.5259e-05 0 0
0.000106813 0 0
0.000747692 0 0
0.00521859 1.5259e-05 1.5259e-05
0.0153506 3.0518e-05 0.000183108
0.0327916 0.000213626 0.000671397
0.0594797 0.000976577 0.00158694
0.0985885 0.0031281 0.00294499
0.152575 0.00730907 0.00479133
0.215457 0.012314 0.00717174
0.28365 0.0179294 0.00987259
0.354314 0.0246433 0.0126955
0.42652 0.0328679 0.0154421
0.49807 0.0421454 0.0178988
0.566323 0.0512703 0.0199588
0.631479 0.0599832 0.0214542
0.696498 0.0687724 0.0228275
0.763684 0.077409 0.0245823
0.832822 0.0861372 0.026627
0.894316 0.0936599 0.0284733
0.937133 0.0983749 0.0296483
0.957519 0.100038 0.0300755
0.962798 0.100298 0.0301518
0.963378 0.100328 0.0301518
0.96347 0.100328 0.0301518
0.96347 0.100328 0.0301518
0.96347 0.100328 0.0301518
0.96347 0.100328 0.0301518
0.96347 0.100328 0.0301518
0 0 0
0 0 0
0 0 0
0 0 0
1.5259e-05 0 0
0.000122072 0 0
0.00163272 0 0
0.00794995 1.5259e-05 4.57771e-05
0.02121 3.0518e-05 0.000335698
0.0435798 0.000396735 0.00105287
0.0771954 0.00178531 0.00221256
0.124483 0.005066 0.00373846
0.18735 0.0100862 0.00605783
0.255344 0.0154421 0.00875868
0.325963 0.0216831 0.0115969
0.397436 0.0293278 0.0143587
0.468513 0.0382086 0.0169223
0.537102 0.047364 0.0191196
0.602991 0.0561227 0.0209049
0.666835 0.0647593 0.0221561
0.732067 0.0734569 0.0237278
0.800168 0.0819867 0.0256504
0.866316 0.0902876 0.0276341
0.918898 0.0965438 0.0291752
0.949386 0.0994888 0.0299077
0.961074 0.100252 0.0301213
0.963302 0.100328 0.0301518
0.963455 0.100328 0.0301518
0.96347 0.100328 0.0301518
0.96347 0.100328 0.0301518
0.96347 0.100328 0.0301518
0.96347 0.100328 0.0301518
0.96347 0.100328 0.0301518
0 0 0
0 0 0
0 0 0
0 0 0
0 0 0
6.10361e-05 0 0
0.00276188 0 0
0.0109407 1.5259e-05 0.000106813
0.0270542 0.000122072 0.000518807
0.0536965 0.00077821 0.00137331
0.0932937 0.00277714 0.00268559
0.147845 0.00691234 0.00445563
0.217075 0.0124208 0.00720226
0.289464 0.018265 0.0101167
0.362341 0.0253605 0.0130159
0.433814 0.0337224 0.0156863
0.503227 0.0428016 0.0180362
0.569558 0.0517128 0.0200198
0.633783 0.0602274 0.0215457
0.697246 0.068864 0.0228122
0.7635 0.0774243 0.024567
0.831113 0.085893 0.0265507
0.891646 0.0933242 0.0283513
0.933761 0.0980545 0.0295262
0.955123 0.0999008 0.0300145
0.962158 0.100298 0.0301366
0.963394 0.100328 0.0301518
0.96347 0.100328 0.0301518
0.96347 0.100328 0.0301518
0.96347 0.100328 0.0301518
0.96347 0.100328 0.0301518
0.96347 0.100328 0.0301518
0.96347 0.100328 0.0301518
0 0 0
0 0 0
0 0 0
0 0 0
0 0 0
1.5259e-05 0 0
0.00352483 1.5259e-05 1.5259e-05
0.0137179 1.5259e-05 0.000183108
0.0332647 0.000274662 0.000671397
0.0649424 0.00137331 0.00161746
0.110765 0.00402838 0.00311284
0.172366 0.00875868 0.00531014
0.246983 0.0147097 0.00834669
0.322942 0.0213474 0.0113985
0.39791 0.0293736 0.014313
0.469703 0.0383459 0.0168917
0.537636 0.0473945 0.0190585
0.602747 0.0560922 0.0208133
0.666041 0.0645914 0.0221408
0.729397 0.0731212 0.0236057
0.796002 0.0813764 0.025452
0.861753 0.0897383 0.0273899
0.913863 0.0959335 0.0289158
0.945724 0.0991531 0.0297856
0.959365 0.100175 0.0300908
0.962997 0.100313 0.0301518
0.963455 0.100328 0.0301518
0.96347 0.100328 0.0301518
0.96347 0.100328 0.0301518
0.96347 0.100328 0.0301518
0.96347 0.100328 0.0301518
0.96347 0.100359 0.0301518
0.96347 0.100389 0.0301518
0 0 0
0 0 0
0 0 0
0 0 0
0 0 0
0 0 0
0.00349432 1.5259e-05 1.5259e-05
0.0146639 1.5259e-05 0.000183108
0.0370184 0.000381476 0.000686656
0.0736553 0.00181582 0.00170901
0.126589 0.00508125 0.00347906
0.197223 0.0106508 0.0062562
0.27538 0.0169528 0.00943008
0.355245 0.024445 0.0125887
0.432715 0.0335241 0.0155184
0.505211 0.0430457 0.0180209
0.572473 0.0520638 0.0199893
0.636561 0.0605478 0.0215152
0.699306 0.0690013 0.0228733
0.762951 0.0773175 0.0243839
0.82916 0.0855116 0.026276
0.88838 0.0928817 0.0280461
0.930022 0.097612 0.0292973
0.952422 0.0996872 0.0299229
0.961196 0.100267 0.0301213
0.963272 0.100328 0.0301518
0.96347 0.100328 0.0301518
0.96347 0.100328 0.0301518
0.96347 0.100328 0.0301518
0.96347 0.100328 0.0301518
0.96347 0.100389 0.0301518
0.96347 0.100572 0.0301518
0.96347 0.100725 0.0301518
0 0 0
0 0 0
0 0 0
0 0 0
0 0 0
0 0 0
0.00280766 1.5259e-05 1.5259e-05
0.0136568 1.5259e-05 9.15541e-05
0.0372168 0.000366217 0.000579843
0.0777142 0.00189212 0.00181582
0.138079 0.0056611 0.00401312
0.217517 0.0122988 0.00704967
0.300023 0.0192569 0.0103304
0.382712 0.0276646 0.0135653
0.462486 0.0374456 0.016495
0.537026 0.0472877 0.0188754
0.605661 0.0564126 0.020737
0.669871 0.0649729 0.0222629
0.73228 0.0733959 0.0235294
0.797681 0.0814679 0.0252842
0.862791 0.0897688 0.0271916
0.91281 0.0957656 0.0287633
0.943465 0.0989395 0.0296941
0.957961 0.100099 0.0300755
0.962631 0.100313 0.0301518
0.963424 0.100328 0.0301518
0.96347 0.100328 0.0301518
0.96347 0.100328 0.0301518
0.96347 0.100374 0.0301518
0.96347 0.100496 0.0301518
0.96347 0.10071 0.0301518
0.96347 0.10164 0.0301976
0.96347 0.102495 0.0302434
0 0 0
0 0 0
0 3.0518e-05 0
0 9.15541e-05 3.0518e-05
1.5259e-05 0.000198367 0.000122072
1.5259e-05 0.000274662 0.000167849
0.00166323 0.000213626 7.62951e-05
0.0120241 0.00015259 7.62951e-05
0.03682 0.000488289 0.000640879
0.0809491 0.00221256 0.00213626
0.147082 0.0065156 0.00459297
0.231724 0.01355 0.00767529
0.319799 0.0209659 0.0111543
0.40621 0.0303807 0.0145266
0.487755 0.0407721 0.0173648
0.563302 0.0508125 0.0196384
0.633433 0.06009 0.0214389
0.699977 0.0689555 0.0229191
0.765347 0.0775006 0.0243839
0.831266 0.0857252 0.0262608
0.889357 0.0929885 0.0280613
0.929656 0.0975814 0.0293278
0.951598 0.0996414 0.0299382
0.960723 0.100252 0.0301366
0.96318 0.100328 0.0301518
0.96347 0.100343 0.0301518
0.96347 0.100359 0.0301518
0.96347 0.100435 0.0301518
0.96347 0.100679 0.0301518
0.96347 0.101686 0.0301518
0.96347 0.103059 0.0301976
0.96347 0.105455 0.0302892
0.96347 0.107271 0.0303502
0 3.0518e-05 1.5259e-05
0 0.000106813 7.62951e-05
3.0518e-05 0.000366217 0.000167849
9.15541e-05 0.000900282 0.000381476
0.000213626 0.00181582 0.000869764
0.000411994 0.00328069 0.00123598
0.00114443 0.00444038 0.00109865
0.00973526 0.00482185 0.000839246
0.0346838 0.00497444 0.00115969
0.0818799 0.00640879 0.00247196
0.152285 0.0107118 0.00482185
0.241703 0.0175021 0.00805676
0.333654 0.0247349 0.0117189
0.423529 0.0343175 0.0151675
0.506889 0.0445563 0.0180056
0.583535 0.0542916 0.0202792
0.654749 0.0634623 0.0220188
0.723842 0.0725261 0.0234531
0.792645 0.0810407 0.0252689
0.8598 0.0893873 0.0272374
0.910826 0.0955825 0.0288396
0.941924 0.0988479 0.0297246
0.956985 0.100084 0.0300755
0.96228 0.100359 0.0301518
0.963378 0.100511 0.0301518
0.96347 0.100908 0.0301518
0.96347 0.101564 0.0301518
0.96347 0.102419 0.0301518
0.96347 0.103471 0.0301671
0.96347 0.106233 0.0302129
0.96347 0.110292 0.0302739
0.963455 0.11577 0.030396
0.963455 0.119249 0.0305028
4.57771e-05 0.000610361 0.000564584
0.000106813 0.00106813 0.000885023
0.000244144 0.00209049 0.00143435
0.000534066 0.00407416 0.002533
0.00103761 0.00732433 0.00457771
0.00169375 0.0119326 0.00642405
0.00256352 0.0168765 0.00709544
0.00859083 0.0205997 0.00680552
0.0305943 0.0212863 0.00534066
0.0777905 0.0209201 0.00407416
0.152621 0.0239719 0.00514229
0.247318 0.0299229 0.00813306
0.342473 0.0363928 0.011841
0.433753 0.04448 0.0153048
0.518456 0.0530709 0.018204
0.596201 0.0612802 0.0205539
0.669184 0.069398 0.0223545
0.740078 0.07776 0.0239109
0.811841 0.0859998 0.0259861
0.879103 0.0941329 0.0280156
0.925017 0.0994125 0.0293584
0.949798 0.101793 0.0299535
0.960052 0.102571 0.0301366
0.963012 0.102846 0.0301518
0.963455 0.103502 0.0301518
0.96347 0.104997 0.0301671
0.96347 0.10724 0.0301671
0.96347 0.109926 0.0301976
0.96347 0.112917 0.0302281
0.963455 0.118242 0.0302892
0.963455 0.126009 0.0304265
0.963439 0.135317 0.0306859
0.963424 0.141085 0.030869
0.000411994 0.00347906 0.00320439
0.000656138 0.00514229 0.00450141
0.00106813 0.00791943 0.00637827
0.00181582 0.0128328 0.00978103
0.00292973 0.0200809 0.0150912
0.00425727 0.0289616 0.0197757
0.00622568 0.0398871 0.0225223
0.0107424 0.0494392 0.0222629
0.0269932 0.0537575 0.0177615
0.067628 0.052842 0.0112306
0.142138 0.0514687 0.0075227
0.245228 0.0555581 0.0083772
0.344274 0.0608072 0.0114137
0.436667 0.0666819 0.0147402
0.521965 0.0724804 0.0177768
0.60116 0.0784619 0.0202792
0.675975 0.0845655 0.0223087
0.749111 0.0913405 0.0242313
0.822644 0.0987869 0.0265202
0.889433 0.106172 0.0285954
0.931838 0.110369 0.0296635
0.953079 0.112062 0.0300755
0.961105 0.112795 0.0301671
0.963165 0.113573 0.0301823
0.963439 0.115145 0.0301976
0.963455 0.118273 0.0302129
0.963455 0.122499 0.0302281
0.963455 0.127443 0.0302739
0.963439 0.133288 0.0303502
0.963424 0.141482 0.030396
0.963424 0.152361 0.0306554
0.963409 0.164858 0.0310979
0.963394 0.172137 0.0314183
0.00163272 0.0118715 0.0106813
0.00225834 0.0161288 0.014374
0.00311284 0.0221256 0.0192264
0.00437934 0.0310674 0.0263676
0.00601205 0.0428931 0.0359045
0.00787366 0.0561837 0.0442206
0.0107576 0.0722972 0.0492714
0.0163882 0.0875105 0.0491035
0.0277562 0.0999466 0.0424353
0.0557259 0.104524 0.0302434
0.117433 0.097734 0.0167391
0.225971 0.0953841 0.0112154
0.335271 0.0990616 0.0112306
0.431128 0.103288 0.0135042
0.517906 0.107408 0.0164645
0.597467 0.11133 0.0192569
0.673503 0.115648 0.0216831
0.748455 0.12108 0.0240024
0.824125 0.127443 0.0267796
0.892134 0.133532 0.0289616
0.933791 0.136309 0.0298619
0.953979 0.137499 0.0301518
0.961456 0.138293 0.0301976
0.963256 0.139971 0.0301976
0.963439 0.142901 0.0302129
0.963424 0.14699 0.0302281
0.963424 0.152178 0.0302739
0.963424 0.158343 0.0303349
0.963394 0.166323 0.0305333
0.963394 0.176394 0.0306554
0.963378 0.188418 0.0307317
0.963363 0.201694 0.0310369
0.963363 0.209171 0.0313725
0.00447089 0.0310063 0.0271458
0.00561532 0.0394293 0.0351263
0.00679026 0.049134 0.0441444
0.0080415 0.0612802 0.0548867
0.00939956 0.0757305 0.0669871
0.0110323 0.091722 0.0774395
0.0133822 0.108797 0.0839704
0.0202792 0.130098 0.0855116
0.0336156 0.149218 0.0796216
0.0568856 0.162676 0.0647593
0.0991684 0.168032 0.0426184
0.179889 0.147646 0.0236515
0.305486 0.144915 0.0141604
0.414252 0.147967 0.0120851
0.506111 0.151675 0.0138247
0.586572 0.15552 0.0166934
0.662547 0.159457 0.0195773
0.737682 0.164324 0.0224308
0.81323 0.169787 0.0253605
0.883146 0.175677 0.0278325
0.928862 0.17882 0.0291752
0.952102 0.180316 0.0296941
0.960922 0.181415 0.0298161
0.963134 0.183017 0.0298161
0.963378 0.185534 0.0298161
0.963378 0.189166 0.0298314
0.963378 0.193988 0.0298924
0.963363 0.200381 0.0299535
0.963363 0.208621 0.0298161
0.963348 0.218555 0.0299077
0.963348 0.23006 0.0300755
0.963333 0.242893 0.0301213
0.963333 0.25037 0.0301213
0.00820935 0.0633555 0.0558022
0.00917067 0.0743877 0.0668345
0.0100404 0.0861372 0.0783093
0.0109865 0.0998703 0.0909438
0.0121157 0.11548 0.104204
0.0138094 0.133486 0.11635
0.0158846 0.15346 0.125139
0.0225376 0.176394 0.128511
0.0380865 0.200641 0.124743
0.06392 0.222522 0.112322
0.100328 0.238499 0.0914473
0.151858 0.241611 0.0643626
0.256046 0.214099 0.0394293
0.375372 0.206485 0.0236515
0.481102 0.207355 0.0161135
0.569451 0.209415 0.0144656
0.64651 0.211429 0.0160678
0.720989 0.214466 0.0188907
0.796887 0.218891 0.0220493
0.869474 0.22417 0.0249332
0.920897 0.227649 0.0267185
0.948425 0.229038 0.0275273
0.959655 0.229694 0.0277867
0.962814 0.230869 0.0279088
0.963302 0.232822 0.0280766
0.963333 0.236072 0.0282139
0.963333 0.240787 0.0283207
0.963317 0.247242 0.0282902
0.963317 0.255238 0.0280919
0.963317 0.264973 0.0282597
0.963302 0.27657 0.0294194
0.963302 0.290196 0.0311589
0.963302 0.298207 0.0323339
0.0112154 0.102739 0.0917372
0.011841 0.114977 0.104433
0.0125277 0.127932 0.117311
0.0134737 0.143221 0.131304
0.0148165 0.160983 0.146426
0.0162966 0.180682 0.160372
0.0185245 0.203189 0.171237
0.0256046 0.228275 0.176516
0.0424964 0.256199 0.174807
0.070573 0.283955 0.164202
0.107042 0.307729 0.145022
0.149737 0.325551 0.120455
0.22182 0.316945 0.0865644
0.335164 0.289311 0.0560311
0.449744 0.275837 0.035172
0.548959 0.274403 0.022797
0.631159 0.275853 0.0168917
0.704921 0.275853 0.0159304
0.778897 0.276692 0.018265
0.852583 0.279835 0.0214542
0.90956 0.282429 0.023743
0.94284 0.283436 0.0248875
0.957671 0.283803 0.0252689
0.962371 0.284291 0.0253758
0.963226 0.285924 0.0255436
0.963287 0.28925 0.025864
0.963287 0.29395 0.026276
0.963287 0.300145 0.0268864
0.963287 0.30811 0.0276341
0.963272 0.317815 0.0287022
0.963272 0.330037 0.032105
0.963287 0.344717 0.0381933
0.963287 0.353323 0.0424201
0.013901 0.148394 0.133425
0.014374 0.161608 0.147509
0.0150454 0.176013 0.161898
0.0160983 0.192554 0.176852
0.0174563 0.211398 0.192889
0.0185092 0.233021 0.208835
0.0211795 0.257496 0.221286
0.0288243 0.284611 0.228672
0.0455482 0.313939 0.229038
0.0735637 0.344259 0.220874
0.111757 0.373693 0.204181
0.155947 0.397833 0.177462
0.20621 0.410117 0.148013
0.300084 0.391714 0.108324
0.414618 0.363378 0.074052
0.522866 0.347585 0.0504005
0.613458 0.346578 0.035584
0.690608 0.349371 0.027039
0.762722 0.349142 0.0240177
0.835126 0.348333 0.0239414
0.89633 0.34818 0.0246891
0.935744 0.347265 0.0251621
0.955062 0.346654 0.0253147
0.96173 0.346517 0.0252689
0.963119 0.347753 0.0256962
0.963256 0.350881 0.0270085
0.963256 0.355261 0.0289921
0.963256 0.361135 0.0318151
0.963256 0.369009 0.0356909
0.963256 0.379232 0.0405432
0.963272 0.392111 0.0478218
0.963287 0.407279 0.0581674
0.963287 0.415976 0.0647898
0.0167849 0.200137 0.180423
0.0171969 0.214298 0.19559
0.0178225 0.229389 0.21062
0.0187228 0.246921 0.226642
0.0197757 0.267155 0.243992
0.020264 0.290059 0.261219
0.0233158 0.315862 0.2748
0.0310674 0.343862 0.283848
0.0467842 0.373098 0.286641
0.0729992 0.402914 0.282307
0.110307 0.433127 0.270542
0.157992 0.460426 0.24181
0.204807 0.482918 0.210956
0.272343 0.487022 0.171893
0.378363 0.4645 0.126619
0.492363 0.435172 0.0914473
0.591134 0.419745 0.0704204
0.673915 0.421897 0.0558938
0.747524 0.426352 0.0457618
0.81825 0.425834 0.0403143
0.881682 0.423636 0.0383764
0.926528 0.421363 0.0378882
0.950957 0.419348 0.0379797
0.96054 0.418524 0.0384985
0.962921 0.419562 0.0399329
0.963241 0.421714 0.0424353
0.963256 0.425391 0.046067
0.963256 0.431342 0.0511482
0.963256 0.439002 0.0578317
0.963272 0.449256 0.0660716
0.963287 0.461631 0.0762341
0.963302 0.475883 0.0889754
0.963317 0.483955 0.0968032
0.0196689 0.257252 0.232425
0.0198672 0.272129 0.248173
0.0201724 0.287968 0.263905
0.0205692 0.306035 0.280858
0.0209506 0.326833 0.298756
0.0209354 0.350423 0.31667
0.024094 0.376669 0.330938
0.0314794 0.404471 0.341253
0.0460822 0.432441 0.346273
0.0700542 0.460349 0.346639
0.104265 0.487785 0.340825
0.152926 0.516457 0.314763
0.203662 0.540825 0.277928
0.254627 0.559258 0.239445
0.341634 0.558694 0.189609
0.456016 0.533928 0.143069
0.56669 0.502632 0.112779
0.652811 0.488838 0.0968948
0.729732 0.49546 0.0838941
0.80119 0.502098 0.0735485
0.865797 0.502403 0.0679179
0.915206 0.500359 0.0657969
0.945083 0.498527 0.0661631
0.958541 0.497322 0.0677043
0.962539 0.497795 0.0704509
0.963211 0.499184 0.0739757
0.963256 0.50222 0.0788739
0.963256 0.507485 0.0850996
0.963272 0.514458 0.092958
0.963272 0.523507 0.10248
0.963287 0.534157 0.11371
0.963302 0.546807 0.127779
0.963317 0.553903 0.136385
0.0216068 0.319478 0.289647
0.02121 0.334035 0.30515
0.0207828 0.350118 0.321492
0.0203555 0.368078 0.338781
0.0201419 0.388464 0.356054
0.0201724 0.411505 0.373388
0.0232547 0.437354 0.388159
0.0301823 0.463844 0.3991
0.0437324 0.489937 0.405966
0.0657511 0.515511 0.409735
0.0970626 0.540459 0.408438
0.143664 0.5673 0.386313
0.194018 0.59205 0.351644
0.245396 0.611826 0.307424
0.306767 0.62649 0.258808
0.410925 0.623926 0.203922
0.533822 0.597543 0.159823
0.629709 0.562417 0.141604
0.7075 0.554131 0.132189
0.78175 0.565988 0.120073
0.848676 0.573373 0.110018
0.902296 0.575708 0.10544
0.937743 0.575677 0.105241
0.955596 0.574975 0.107469
0.961761 0.575326 0.111391
0.963012 0.576455 0.115969
0.963134 0.579263 0.122026
0.963134 0.583047 0.128969
0.963149 0.588617 0.137591
0.963165 0.595972 0.148074
0.96318 0.60473 0.160204
0.96318 0.614939 0.175479
0.96318 0.621134 0.18555
0.0214389 0.384833 0.350164
0.0200961 0.398398 0.365515
0.0186923 0.413336 0.381643
0.0174868 0.43003 0.398291
0.0173648 0.449119 0.413947
0.0187076 0.470985 0.429679
0.0218967 0.495155 0.444083
0.028336 0.519753 0.455238
0.0405585 0.543832 0.463447
0.0606088 0.566964 0.4692
0.0899062 0.589471 0.469566
0.133196 0.61323 0.448005
0.18378 0.638911 0.415991
0.228824 0.659113 0.377478
0.285069 0.6757 0.324315
0.3608 0.687236 0.268513
0.471412 0.683589 0.219883
0.603037 0.656458 0.186236
0.686198 0.618128 0.178988
0.758816 0.614816 0.17293
0.829419 0.628428 0.162036
0.887922 0.637522 0.154635
0.928862 0.641871 0.153674
0.951278 0.64358 0.157397
0.960113 0.644511 0.163134
0.962325 0.646082 0.169802
0.962646 0.64799 0.176791
0.962661 0.651148 0.185168
0.962676 0.655344 0.194568
0.962707 0.660929 0.205539
0.962707 0.667994 0.21886
0.962646 0.675761 0.236027
0.96257 0.680659 0.248005
0.0189517 0.448508 0.410071
0.017258 0.460349 0.424353
0.0158541 0.473915 0.439338
0.0151827 0.489281 0.454353
0.0152895 0.507042 0.469749
0.0167544 0.527855 0.484291
0.0191653 0.549813 0.497505
0.0248112 0.572183 0.508385
0.0365911 0.593927 0.516854
0.0561685 0.614771 0.523537
0.0840772 0.634638 0.526406
0.121752 0.653559 0.518013
0.169192 0.676585 0.486519
0.221576 0.701091 0.443732
0.273381 0.719768 0.392569
0.327657 0.73489 0.329305
0.413809 0.744198 0.267063
0.545785 0.738705 0.229999
0.669779 0.712428 0.222614
0.741085 0.677913 0.221851
0.807889 0.673579 0.216983
0.869947 0.682643 0.212696
0.916228 0.691569 0.213367
0.943679 0.696803 0.21915
0.956298 0.70016 0.228443
0.960449 0.702831 0.238102
0.961364 0.705119 0.247227
0.961486 0.708141 0.256733
0.961517 0.711833 0.266835
0.961486 0.716457 0.279286
0.96141 0.721325 0.29366
0.961288 0.727367 0.311681
0.961196 0.731807 0.324895
0.0161135 0.508507 0.468879
0.014725 0.519799 0.482155
0.0136568 0.532448 0.495674
0.0128786 0.546441 0.50927
0.012314 0.562203 0.523415
0.0133059 0.580682 0.535988
0.0154726 0.600137 0.547799
0.0211337 0.620142 0.557885
0.0333562 0.639811 0.56614
0.0534829 0.658961 0.572915
0.0807813 0.677302 0.576349
0.115282 0.694942 0.573312
0.156588 0.713085 0.558602
0.212955 0.736004 0.520912
0.26717 0.758618 0.469856
0.321569 0.776623 0.409918
0.387045 0.789609 0.343633
0.481254 0.796841 0.281025
0.615854 0.791196 0.252857
0.725689 0.765988 0.263798
0.793683 0.738201 0.266911
0.852934 0.728939 0.267872
0.900923 0.731929 0.273548
0.933394 0.738094 0.284596
0.950515 0.743374 0.298955
0.957382 0.747417 0.313237
0.959319 0.75079 0.32604
0.959609 0.754131 0.338277
0.959609 0.757259 0.349996
0.959548 0.760998 0.363012
0.959472 0.765209 0.37731
0.959381 0.770489 0.394415
0.959319 0.774136 0.406653
0.0124666 0.56463 0.525124
0.0112917 0.575219 0.536995
0.0104524 0.586603 0.548821
0.0099031 0.599161 0.560845
0.00978103 0.613397 0.572702
0.0106203 0.629938 0.584085
0.0125734 0.647547 0.594751
0.0189975 0.665492 0.604013
0.0323949 0.683589 0.612177
0.0532387 0.701503 0.618799
0.0803082 0.719219 0.622538
0.113268 0.736217 0.621851
0.154253 0.752102 0.614313
0.212055 0.771847 0.586252
0.270695 0.793942 0.542229
0.321324 0.815045 0.484916
0.37702 0.831373 0.417258
0.458274 0.841215 0.350164
0.566552 0.84538 0.298589
0.680537 0.839002 0.290791
0.774655 0.815137 0.307286
0.83978 0.790738 0.316579
0.888365 0.778149 0.326741
0.92282 0.776532 0.342489
0.943679 0.780026 0.362295
0.953552 0.784253 0.381888
0.956771 0.788556 0.399832
0.957382 0.792523 0.415427
0.957519 0.796002 0.428946
0.95758 0.799634 0.442374
0.95761 0.803433 0.456062
0.95761 0.807935 0.47158
0.957641 0.811246 0.483162
0.00932326 0.616953 0.577264
0.00856031 0.626856 0.588067
0.00807202 0.63714 0.598535
0.00787366 0.648661 0.60911
0.00807202 0.661768 0.61915
0.00885023 0.676692 0.629267
0.0115969 0.692592 0.63856
0.0196841 0.709438 0.647578
0.0344244 0.72636 0.655619
0.0554818 0.743236 0.662043
0.0821393 0.760052 0.665721
0.114748 0.776425 0.666178
0.157473 0.791699 0.660777
0.216678 0.808881 0.640528
0.279225 0.828031 0.607324
0.332036 0.848859 0.559167
0.380713 0.867536 0.49366
0.446281 0.879515 0.419333
0.542855 0.884642 0.357809
0.645457 0.886732 0.327306
0.742153 0.879011 0.337316
0.822126 0.857923 0.356634
0.878035 0.834806 0.372244
0.91458 0.819944 0.389212
0.937331 0.815824 0.411719
0.949645 0.817914 0.436866
0.954467 0.822019 0.460197
0.955673 0.826276 0.47982
0.956039 0.830304 0.496345
0.956252 0.833951 0.510826
0.956436 0.837415 0.524422
0.956573 0.84126 0.538781
0.956695 0.844205 0.549859
0.00737011 0.666636 0.625956
0.00698863 0.675822 0.635798
0.00679026 0.685313 0.645121
0.00677501 0.695705 0.654169
0.0069276 0.708003 0.6636
0.00822461 0.721752 0.672511
0.0127108 0.736522 0.681041
0.0226749 0.752224 0.689525
0.0385443 0.768154 0.697154
0.0597848 0.784237 0.703212
0.0860761 0.800183 0.70695
0.11902 0.815885 0.708125
0.163561 0.830655 0.703899
0.224292 0.845563 0.68954
0.290379 0.861341 0.665797
0.349691 0.878386 0.62884
0.399878 0.895674 0.572076
0.454765 0.908873 0.495521
0.539727 0.913848 0.423163
0.632547 0.916609 0.374853
0.719295 0.918441 0.373404
0.800412 0.910048 0.395514
0.864363 0.888777 0.414374
0.906676 0.866148 0.42977
0.931838 0.852247 0.449622
0.945922 0.849058 0.476341
0.952377 0.851698 0.50425
0.954543 0.855955 0.529015
0.955367 0.860029 0.549355
0.95581 0.863584 0.566262
0.95613 0.866712 0.580941
0.95639 0.869993 0.595224
0.956588 0.872587 0.606485
0.00633249 0.714122 0.672175
0.00611887 0.722835 0.681071
0.00602731 0.731701 0.689357
0.00608835 0.741466 0.697719
0.0065919 0.753002 0.70663
0.0090486 0.765911 0.71487
0.0154421 0.779736 0.722881
0.0271763 0.794415 0.730678
0.0441444 0.809354 0.737514
0.0658579 0.82472 0.743206
0.0924239 0.83978 0.746929
0.12639 0.854276 0.74818
0.172519 0.867597 0.744869
0.23508 0.880247 0.735286
0.304021 0.89247 0.718212
0.368917 0.904799 0.688624
0.425589 0.917494 0.640452
0.481376 0.928542 0.571313
0.554177 0.934249 0.49369
0.638193 0.936294 0.440894
0.714214 0.938903 0.430762
0.785397 0.938598 0.44329
0.848783 0.92665 0.460273
0.896147 0.90518 0.472145
0.925658 0.885084 0.484031
0.942061 0.875837 0.505394
0.950271 0.876066 0.534493
0.953872 0.879606 0.563622
0.95552 0.883711 0.588846
0.956252 0.887343 0.609522
0.956634 0.890654 0.627131
0.956909 0.893782 0.642786
0.957137 0.896315 0.655161
0.00553903 0.760266 0.717357
0.00549325 0.768582 0.725307
0.00563058 0.777066 0.733028
0.00616464 0.786557 0.740978
0.00772107 0.797421 0.748684
0.0113985 0.809476 0.756466
0.0194553 0.822492 0.764035
0.0328069 0.836057 0.770993
0.0509194 0.84979 0.776974
0.0733349 0.86363 0.781903
0.101442 0.877287 0.78529
0.137667 0.889937 0.786084
0.18616 0.900938 0.783169
0.250324 0.910613 0.776272
0.321004 0.919417 0.763165
0.38761 0.92784 0.737041
0.447471 0.935958 0.692866
0.507607 0.942687 0.631098
0.577905 0.94667 0.563333
0.65153 0.948363 0.521233
0.719738 0.949691 0.504616
0.782254 0.949813 0.50309
0.837476 0.944335 0.512154
0.883467 0.92932 0.520088
0.917159 0.910079 0.524636
0.937362 0.897047 0.534798
0.947997 0.894331 0.558373
0.953445 0.89662 0.588449
0.9561 0.900465 0.617792
0.957092 0.904616 0.643442
0.957504 0.908492 0.665171
0.957748 0.911925 0.683375
0.957977 0.914809 0.697948
0.0053254 0.805844 0.761883
0.00552377 0.813687 0.769375
0.00614939 0.821973 0.776562
0.00762951 0.830823 0.783093
0.00976577 0.841047 0.790021
0.0149386 0.852247 0.796933
0.0251011 0.864012 0.803555
0.0398108 0.875822 0.809628
0.0587472 0.887816 0.815229
0.0825208 0.899458 0.81944
0.113283 0.910475 0.821851
0.152972 0.919768 0.821332
0.2056 0.92755 0.818082
0.27129 0.934401 0.812146
0.341939 0.94052 0.79942
0.409079 0.945785 0.776532
0.468788 0.950362 0.737987
0.525048 0.953857 0.680446
0.589075 0.955032 0.616892
0.662562 0.955367 0.582788
0.72929 0.955352 0.572885
0.785153 0.953811 0.568704
0.833936 0.949371 0.568185
0.874815 0.940352 0.571572
0.907301 0.92694 0.574029
0.931075 0.913756 0.57467
0.945373 0.907652 0.584665
