LUT预设1/LUT全系打包/6.FAKE5207&淡雅系列/淡雅LUT/log灰片使用/淡雅std.cube
TITLE "Generated by Resolve"
LUT_3D_SIZE 9
0 0 0
1.5259e-05 0 0
0.0159915 3.0518e-05 0.000183108
0.15639 0.00759899 0.00492866
0.433402 0.0336767 0.0157015
0.704173 0.0697795 0.0230106
0.94229 0.098909 0.0297856
0.96347 0.100328 0.0301518
0.96347 0.100328 0.0301518
0 0 0
0 0 0
0.0394903 0.000442512 0.000732433
0.284108 0.0176852 0.00978103
0.58085 0.053193 0.0202335
0.838804 0.0867018 0.026566
0.962234 0.100328 0.0301518
0.96347 0.100328 0.0301518
0.96347 0.100725 0.0301518
4.57771e-05 0.000564584 0.000518807
0.00105287 0.00741588 0.00451667
0.034638 0.0206455 0.00488289
0.357122 0.0368811 0.0124361
0.681773 0.0704814 0.0226596
0.932799 0.100008 0.029572
0.96347 0.103365 0.0301518
0.96347 0.113252 0.0302281
0.963424 0.141054 0.030869
0.00816358 0.0628672 0.0555123
0.012192 0.116228 0.104509
0.0411231 0.202747 0.121614
0.278569 0.206561 0.0336919
0.66334 0.209506 0.0166171
0.93164 0.226215 0.0271458
0.963333 0.231464 0.0281529
0.963317 0.255497 0.0280156
0.963302 0.297414 0.0320745
0.0195621 0.255924 0.231693
0.0210422 0.327764 0.299077
0.0499886 0.435584 0.343786
0.215885 0.543801 0.265629
0.594217 0.491661 0.104311
0.882887 0.498848 0.064332
0.963073 0.494347 0.0688945
0.963272 0.513512 0.0930953
0.963317 0.55201 0.135271
0.016022 0.506737 0.467613
0.0124666 0.56286 0.523461
0.0372015 0.642161 0.565057
0.168872 0.716274 0.548806
0.409903 0.790509 0.32018
0.81387 0.727184 0.263951
0.954604 0.742535 0.299184
0.959701 0.755978 0.348867
0.959411 0.772732 0.404608
0.00631724 0.712764 0.671016
0.0068513 0.753185 0.705989
0.0489662 0.810849 0.736309
0.187045 0.869383 0.740108
0.441291 0.920287 0.616846
0.739849 0.938735 0.425605
0.934142 0.877424 0.486397
0.955932 0.883986 0.595163
0.957153 0.895827 0.655833
0.00787366 0.890608 0.843015
0.0189975 0.916762 0.86482
0.0881056 0.943999 0.881468
0.277516 0.958328 0.874525
0.539956 0.962722 0.802319
0.76202 0.959945 0.66273
0.912093 0.937377 0.667124
0.956924 0.924102 0.687678
0.960357 0.941772 0.805051
0.0367895 0.964706 0.944015
0.0963912 0.966155 0.948867
0.225711 0.966552 0.94873
0.414511 0.966049 0.937865
0.618662 0.965393 0.895018
0.78172 0.963211 0.817319
0.912306 0.953277 0.843839
0.956344 0.947951 0.842023
0.961975 0.951156 0.862837
1.5259e-05 1.5259e-05 9.15541e-05
1.5259e-05 0 4.57771e-05
0.031754 0.000244144 0.000671397
0.236942 0.014023 0.0080415
0.526223 0.0458839 0.0187839
0.788205 0.0805219 0.0252689
0.960082 0.100206 0.0301213
0.96347 0.100328 0.0301518
0.96347 0.100252 0.0303044
0 0 0
1.5259e-05 1.5259e-05 9.15541e-05
0.0471656 0.00062562 0.000869764
0.32604 0.0216526 0.0113222
0.636042 0.0604257 0.0214542
0.901076 0.0944686 0.0283513
0.963455 0.100328 0.0301518
0.96347 0.100328 0.0301518
0.96347 0.101091 0.0306706
0.00157168 0.0116274 0.00375372
0.00315862 0.0207523 0.0177157
0.0369879 0.0279088 0.0110018
0.377172 0.0449836 0.0134585
0.700801 0.0751507 0.0231327
0.943038 0.102464 0.0298314
0.96347 0.107912 0.0301823
0.963455 0.121035 0.03093
0.963424 0.157519 0.033875
0.0148775 0.123186 0.0949264
0.0151827 0.162234 0.1505
0.0427253 0.225574 0.16791
0.276661 0.22594 0.0478676
0.666773 0.228962 0.0231785
0.933135 0.242329 0.0305943
0.963333 0.24773 0.0317082
0.963317 0.273945 0.0358129
0.963317 0.319234 0.0540475
0.025742 0.331014 0.284215
0.0188754 0.384192 0.354421
0.0436866 0.469642 0.406638
0.200641 0.548821 0.323568
0.591928 0.51603 0.145174
0.882841 0.519188 0.115084
0.96318 0.513054 0.114672
0.963363 0.531502 0.138247
0.963394 0.567452 0.180972
0.0169223 0.563165 0.513909
0.00965896 0.604501 0.567193
0.0369116 0.66688 0.609308
0.184527 0.731975 0.606394
0.437507 0.790326 0.388952
0.815381 0.743923 0.317128
0.954681 0.758099 0.35993
0.959869 0.767803 0.401785
0.95967 0.783917 0.452384
0.00653086 0.749905 0.704143
0.00703441 0.782788 0.739406
0.0574502 0.831525 0.770657
0.224063 0.881926 0.777478
0.483803 0.924254 0.677852
0.743679 0.939498 0.4963
0.934569 0.886763 0.533089
0.956817 0.892164 0.633875
0.957732 0.902312 0.68513
0.0107576 0.912612 0.868147
0.0252232 0.932342 0.889616
0.119661 0.94995 0.903914
0.321675 0.960555 0.897276
0.570459 0.963302 0.841581
0.775418 0.95993 0.721019
0.909194 0.940627 0.70959
0.957702 0.929061 0.719966
0.960922 0.945296 0.827146
0.0552529 0.96614 0.951095
0.135439 0.966506 0.953704
0.271916 0.966445 0.95285
0.451331 0.965957 0.946136
0.640497 0.965408 0.920501
0.796674 0.963638 0.857877
0.91809 0.955581 0.870512
0.957473 0.951522 0.865324
0.962402 0.954055 0.880186
0.00401312 0.00839246 0.0371557
0.00598154 0.0127565 0.0538338
0.0355383 0.00973526 0.0450141
0.264805 0.0124514 0.031632
0.583719 0.0458381 0.0328374
0.856519 0.0844587 0.036408
0.963363 0.0959335 0.0392615
0.963623 0.0937819 0.0438392
0.964401 0.0852979 0.062211
0.00733959 0.0153658 0.0650187
0.0109407 0.0223392 0.0886549
0.0523842 0.0152895 0.0722057
0.370428 0.0182803 0.0426947
0.70132 0.0593881 0.0391546
0.939406 0.0940566 0.039292
0.963607 0.0953231 0.0405432
0.963745 0.0933394 0.0448615
0.96437 0.0881361 0.0620737
0.00730907 0.0522621 0.0600748
0.00790417 0.0612497 0.0705425
0.0397345 0.0537575 0.0707103
0.386419 0.0542 0.0383612
0.71809 0.0827497 0.0364233
0.948272 0.110765 0.0386053
0.963531 0.117556 0.0390021
0.963516 0.142611 0.0437629
0.963439 0.19469 0.0556954
0.0514382 0.244739 0.109361
0.0480812 0.270359 0.149096
0.0472877 0.2813 0.251255
0.276112 0.266453 0.127565
0.667994 0.262867 0.078233
0.933989 0.273381 0.0637522
0.963378 0.279118 0.0637827
0.963394 0.308675 0.0811475
0.963424 0.357839 0.120302
0.0822156 0.477653 0.289998
0.0380407 0.48954 0.403632
0.0436713 0.52546 0.488838
0.211048 0.562188 0.442466
0.582879 0.552789 0.239094
0.881254 0.547219 0.20415
0.963363 0.538476 0.194156
0.9635 0.554833 0.216022
0.963546 0.591638 0.262501
0.0330968 0.653544 0.557214
0.0107271 0.669749 0.619959
0.0484321 0.705821 0.666987
0.243336 0.755688 0.678752
0.4851 0.792874 0.521431
0.815702 0.768215 0.404654
0.954711 0.777935 0.452399
0.960403 0.784695 0.47985
0.960433 0.800443 0.519753
0.0119783 0.808469 0.746456
0.0123751 0.830732 0.783566
0.0847334 0.862379 0.817594
0.290761 0.900053 0.82887
0.544305 0.930175 0.775265
0.750683 0.940169 0.602838
0.934859 0.898939 0.599756
0.957809 0.903655 0.688258
0.958572 0.910979 0.726314
0.0155184 0.93904 0.898268
0.0465858 0.947311 0.916838
0.182559 0.957916 0.928222
0.388312 0.963043 0.925887
0.603708 0.964218 0.888655
0.790494 0.961273 0.798337
0.913573 0.945556 0.774731
0.958801 0.935607 0.764446
0.961746 0.950225 0.856519
0.104952 0.966552 0.955459
0.20058 0.966552 0.9561
0.34342 0.966278 0.956176
0.506737 0.96585 0.953933
0.664607 0.965408 0.940963
0.812085 0.964202 0.899809
0.925994 0.958663 0.90396
0.959243 0.956268 0.895644
0.962936 0.957824 0.903014
0.0319524 0.06804 0.212909
0.0399176 0.0876783 0.25803
0.0584115 0.0778668 0.265354
0.266011 0.00775158 0.269627
0.638178 0.0215763 0.17644
0.900862 0.040528 0.141741
0.966873 0.044419 0.146822
0.966781 0.0376287 0.162432
0.966491 0.0346685 0.202213
0.0444648 0.0997482 0.285435
0.0557565 0.133013 0.359152
0.082948 0.113909 0.369299
0.366934 0.00569161 0.348913
0.740566 0.024033 0.236744
0.954772 0.0370642 0.171771
0.966781 0.0369421 0.16524
0.966628 0.0366522 0.184176
0.966415 0.0365454 0.204852
0.0200198 0.143389 0.293996
0.0230869 0.17171 0.348302
0.0531014 0.166461 0.37734
0.38201 0.0355077 0.361059
0.757977 0.0411383 0.242573
0.957671 0.0569314 0.174472
0.966201 0.0742657 0.161822
0.96582 0.10956 0.167147
0.965103 0.177478 0.203082
0.0266117 0.322286 0.308278
0.0280766 0.349981 0.329854
0.0347448 0.347494 0.329534
0.273091 0.326589 0.318044
0.662943 0.304723 0.214923
0.929183 0.325719 0.187564
0.963653 0.335241 0.18381
0.963623 0.368475 0.205814
0.963668 0.419821 0.246571
0.0986343 0.593454 0.372869
0.105501 0.613306 0.37789
0.0752117 0.61883 0.476722
0.279316 0.602365 0.564889
0.58996 0.592782 0.411505
0.877119 0.576867 0.336706
0.963623 0.572427 0.320638
0.963714 0.590539 0.340337
0.96376 0.625666 0.384039
0.111574 0.766506 0.508278
0.0859236 0.780621 0.572656
0.0695964 0.774227 0.706249
0.324804 0.791714 0.752407
0.555566 0.80206 0.677806
0.81445 0.798184 0.524361
0.954803 0.801587 0.559426
0.961166 0.806851 0.572671
0.960861 0.818662 0.601068
0.0759747 0.907683 0.712871
0.0385138 0.91014 0.793652
0.138094 0.904738 0.863508
0.382834 0.920623 0.882628
0.606165 0.939193 0.863981
0.77409 0.940414 0.730449
0.934493 0.912947 0.683207
0.959121 0.916976 0.753109
0.959701 0.921721 0.776761
0.0164797 0.962676 0.904692
0.0923171 0.962997 0.937041
0.271336 0.96524 0.946731
0.476356 0.96437 0.947875
0.651682 0.96492 0.936034
0.815457 0.963119 0.874769
0.920241 0.952377 0.846769
0.960266 0.943893 0.818051
0.962722 0.955825 0.889799
0.188128 0.966659 0.956771
0.299123 0.9664 0.957778
0.438941 0.966033 0.958968
0.577523 0.965682 0.959747
0.702556 0.965347 0.957549
0.831525 0.964721 0.937652
0.935088 0.961486 0.931945
0.961059 0.96083 0.926604
0.963592 0.961242 0.926162
0.0710613 0.189578 0.483604
0.0754253 0.211048 0.530602
0.100481 0.206775 0.55378
0.235798 0.0687419 0.580591
0.659709 0.00242618 0.588312
0.922713 0.0179904 0.525246
0.962264 0.019501 0.521813
0.961868 0.0180667 0.546471
0.961563 0.0154116 0.587182
0.0777447 0.222385 0.55584
0.0829786 0.259037 0.635538
0.119615 0.254612 0.666789
0.313085 0.053727 0.682261
0.741421 0.00205997 0.663386
0.953246 0.013489 0.609262
0.961563 0.0152285 0.58819
0.961578 0.0154726 0.588266
0.961456 0.0234073 0.602853
0.0368048 0.258045 0.554009
0.0392462 0.287694 0.617395
0.0713359 0.292271 0.660365
0.306249 0.0903639 0.702174
0.741375 0.0354009 0.668009
0.95259 0.0406653 0.610452
0.961715 0.0521706 0.580163
0.961959 0.0923018 0.566674
0.96228 0.171389 0.568917
0.032639 0.429862 0.613199
0.0346075 0.460792 0.66305
0.0373083 0.467735 0.679194
0.205432 0.433646 0.628
0.67628 0.325658 0.615991
0.936065 0.320119 0.545708
0.963745 0.330755 0.511742
0.964019 0.378729 0.506844
0.964126 0.449256 0.523613
0.0174105 0.643015 0.596521
0.0191043 0.665034 0.614618
0.0209659 0.663249 0.613046
0.180072 0.651682 0.609445
0.600198 0.635798 0.611841
0.868406 0.620371 0.519234
0.96379 0.627619 0.507134
0.964034 0.644846 0.516411
0.964065 0.676753 0.54374
0.0789807 0.850523 0.65388
0.0862898 0.868803 0.657343
0.0889754 0.8663 0.667094
0.261707 0.85214 0.746441
0.617639 0.830854 0.794491
0.81474 0.827543 0.668345
0.954681 0.825376 0.666133
0.961822 0.829831 0.673686
0.961654 0.842115 0.693736
0.0955825 0.957595 0.709346
0.087129 0.959411 0.727077
0.1093 0.955764 0.799527
0.436698 0.946395 0.908003
0.673838 0.948592 0.922438
0.810025 0.943481 0.846601
0.932982 0.928786 0.784024
0.960708 0.931533 0.821485
0.960998 0.934234 0.832654
0.0394141 0.966705 0.821134
0.0594949 0.966796 0.87892
0.291005 0.966186 0.940139
0.572427 0.964645 0.957305
0.713542 0.965026 0.955871
0.848386 0.964431 0.936645
0.93135 0.958846 0.908873
0.96202 0.953628 0.875975
0.963638 0.960937 0.92221
0.173999 0.966705 0.948028
0.341314 0.966293 0.957427
0.5393 0.965789 0.96083
0.660853 0.965469 0.96199
0.757305 0.96524 0.962356
0.861448 0.964752 0.955962
0.943252 0.963516 0.950957
0.962371 0.963836 0.950042
0.964248 0.963561 0.945708
0.0857099 0.303639 0.725399
0.0872663 0.321645 0.760555
0.123629 0.323629 0.79498
0.236774 0.200214 0.816068
0.657679 0.00137331 0.868772
0.929641 0.000717174 0.861738
0.961181 0.000854505 0.847135
0.961013 0.000701915 0.852049
0.961028 0.00148013 0.868879
0.0877546 0.33135 0.778332
0.0945449 0.356268 0.836652
0.133532 0.350179 0.862104
0.258701 0.196628 0.881621
0.721904 0.000915541 0.92607
0.948821 0.000549325 0.906508
0.960937 0.000595102 0.885557
0.960952 0.00436408 0.876966
0.961257 0.0375372 0.875181
0.0366979 0.363622 0.757916
0.0429389 0.380621 0.804501
0.075227 0.377523 0.837964
0.26215 0.241413 0.889921
0.710964 0.0343023 0.92723
0.944533 0.0654917 0.897658
0.961196 0.0854658 0.875914
0.961456 0.137667 0.865446
0.961791 0.219867 0.860609
0.0399176 0.535409 0.845548
0.041062 0.556298 0.885725
0.0374609 0.559091 0.896925
0.143114 0.510338 0.799176
0.626902 0.32578 0.89514
0.925048 0.36669 0.867918
0.962417 0.374823 0.845731
0.962463 0.416114 0.833265
0.962493 0.483207 0.827192
0.0387274 0.696361 0.830045
0.0416114 0.717693 0.861509
0.0448157 0.718975 0.866773
0.195651 0.717403 0.865446
0.547753 0.693355 0.821439
0.873304 0.653498 0.809995
0.962829 0.655985 0.792477
0.963409 0.673808 0.78265
0.963516 0.70692 0.78262
0.0132448 0.895064 0.834302
0.0116884 0.903593 0.840848
0.0171054 0.897002 0.835248
0.181888 0.884215 0.8262
0.559884 0.868299 0.823835
0.821927 0.857191 0.815335
0.952682 0.852567 0.780011
0.962295 0.861204 0.785153
0.962081 0.872129 0.796582
0.0084535 0.966552 0.881193
0.0081178 0.966552 0.879866
0.0417182 0.965881 0.873167
0.295857 0.96376 0.873793
0.661173 0.957382 0.92047
0.844633 0.951797 0.922774
0.937789 0.944595 0.882612
0.962325 0.945251 0.883192
0.962554 0.946914 0.887602
0.00820935 0.96701 0.896315
0.0482643 0.966903 0.896712
0.229679 0.966461 0.906859
0.530022 0.965728 0.939178
0.765927 0.965194 0.960891
0.880873 0.96463 0.958297
0.945968 0.962829 0.945602
0.9635 0.961883 0.928847
0.964233 0.963409 0.944762
0.199649 0.966583 0.928985
0.329168 0.966293 0.941817
0.516091 0.965835 0.955993
0.699779 0.965377 0.962264
0.816266 0.965072 0.963378
0.894514 0.964843 0.962829
0.950256 0.964446 0.960586
0.963638 0.964599 0.960525
0.964599 0.964492 0.957671
0.102861 0.364645 0.872389
0.103471 0.365026 0.874662
0.143709 0.353796 0.887266
0.247196 0.233875 0.900038
0.655055 0.00260929 0.966064
0.927703 0.000686656 0.968612
0.95906 0.000640879 0.968444
0.95906 0.00103761 0.968566
0.959091 0.0110475 0.968811
0.103655 0.365118 0.875288
0.103944 0.365194 0.876234
0.13959 0.355138 0.886473
0.255482 0.222339 0.902159
0.701488 0.00103761 0.967422
0.939315 0.000991836 0.968994
0.959075 0.00660716 0.969024
0.959152 0.0303349 0.96875
0.959426 0.105013 0.967956
0.0263981 0.40296 0.822934
0.0290837 0.401556 0.825788
0.0583505 0.392401 0.840177
0.252995 0.291661 0.898619
0.674296 0.0441138 0.966033
0.931243 0.0910506 0.968338
0.959609 0.156054 0.967941
0.959838 0.21561 0.966613
0.960174 0.3028 0.965072
0.0303807 0.573114 0.92752
0.0324865 0.576501 0.932174
0.0328832 0.571481 0.923903
0.130434 0.527596 0.828367
0.563989 0.364599 0.939712
0.910628 0.370108 0.966491
0.960647 0.444602 0.965286
0.960845 0.487434 0.962936
0.961135 0.54432 0.960159
0.0506142 0.739178 0.966583
0.0492409 0.745159 0.967636
0.053254 0.743816 0.968734
0.209277 0.744854 0.973098
0.495827 0.709865 0.888747
0.862562 0.655772 0.95761
0.960739 0.696498 0.955352
0.961746 0.711818 0.952987
0.961944 0.738521 0.950088
0.00642405 0.910948 0.951888
0.00627146 0.912657 0.952926
0.0190433 0.907332 0.952102
0.20531 0.899199 0.950835
0.551064 0.89279 0.951568
0.805173 0.878492 0.943206
0.951614 0.875288 0.938277
0.962539 0.881117 0.935439
0.962692 0.890425 0.932372
0 0.967025 0.953002
0.00389105 0.967071 0.952758
0.0950484 0.966888 0.951934
0.360861 0.965713 0.950545
0.634455 0.962097 0.947234
0.82977 0.958068 0.949325
0.944595 0.955596 0.942824
0.963943 0.955795 0.933593
0.964111 0.957809 0.935271
0.0270237 0.967102 0.955032
0.102022 0.966918 0.95491
0.286534 0.96643 0.955139
0.528878 0.965805 0.955627
0.723171 0.965301 0.959091
0.88397 0.964889 0.963439
0.953292 0.964538 0.961196
0.964111 0.964416 0.957366
0.964553 0.964431 0.957412
0.290181 0.966415 0.956664
0.407156 0.966125 0.9579
0.551324 0.965759 0.959869
0.685389 0.965408 0.961715
0.815671 0.965072 0.963302
0.918425 0.964813 0.964263
0.95552 0.964706 0.964034
0.964492 0.964691 0.963836
0.964691 0.964691 0.963165
0.103944 0.365194 0.876234
0.104097 0.365179 0.876295
0.160143 0.346059 0.890822
0.255009 0.221347 0.902403
0.662959 0.00178531 0.966842
0.925734 0.000686656 0.969055
0.959045 0.00270085 0.969284
0.959152 0.0290837 0.969162
0.959411 0.103807 0.968795
0.0991989 0.367071 0.873259
0.100984 0.36643 0.874372
0.158419 0.347463 0.890486
0.262196 0.212558 0.905074
0.679118 0.002121 0.967025
0.930419 0.00808728 0.969055
0.959228 0.0506142 0.969055
0.959548 0.14226 0.968627
0.959884 0.236118 0.96817
0.000198367 0.438331 0.804242
0.00015259 0.437659 0.80441
0.0265812 0.429847 0.814618
0.250813 0.366033 0.89073
0.627146 0.10663 0.962173
0.91693 0.142977 0.968307
0.959869 0.234134 0.968185
0.960296 0.347265 0.967636
0.960586 0.432715 0.967224
0.0500038 0.60734 0.963119
0.0514229 0.609827 0.965225
0.0594797 0.604364 0.952605
0.156191 0.559548 0.840116
0.531029 0.462272 0.9252
0.887709 0.407858 0.966705
0.960723 0.490929 0.966949
0.961105 0.579461 0.966522
0.961288 0.629358 0.966278
0.047837 0.752941 0.966964
0.0473182 0.755917 0.966278
0.0646677 0.754543 0.967346
0.242115 0.758373 0.973434
0.494072 0.728328 0.895399
0.828443 0.678264 0.956497
0.959014 0.707958 0.965881
0.961776 0.764538 0.96556
0.961868 0.790158 0.965393
0.00588998 0.914778 0.956207
0.0059968 0.913619 0.956344
0.0424811 0.908324 0.956634
0.252766 0.90103 0.958328
0.564874 0.894957 0.963195
0.79501 0.885573 0.959762
0.94934 0.878538 0.964324
0.962997 0.907912 0.964446
0.963226 0.914824 0.964294
0.00544747 0.967147 0.956252
0.0484169 0.967025 0.956664
0.195071 0.966552 0.957946
0.443336 0.964721 0.960128
0.659815 0.962219 0.961913
0.826337 0.960082 0.963348
0.939666 0.95845 0.96379
0.964599 0.960922 0.96405
0.964675 0.962127 0.963836
0.224628 0.966598 0.958206
0.346166 0.966278 0.959274
0.50074 0.965881 0.960616
0.642573 0.96553 0.961852
0.765026 0.965209 0.962936
0.875364 0.964935 0.963897
0.948699 0.964736 0.964492
0.964385 0.964691 0.963897
0.964691 0.964691 0.963195
0.525444 0.96582 0.960845
0.586954 0.965667 0.961379
0.659678 0.965484 0.96202
0.739925 0.96527 0.962722
0.82533 0.965057 0.963455
0.907378 0.964843 0.964187
0.95613 0.964721 0.964599
0.964569 0.964691 0.96466
0.964691 0.964691 0.964691
0.0990311 0.367224 0.873213
0.113725 0.364034 0.878782
0.19884 0.321157 0.895949
0.277943 0.174731 0.912077
0.674266 0.00502022 0.966873
0.917357 0.013489 0.968933
0.959258 0.0588693 0.969024
0.959655 0.171542 0.968475
0.960189 0.319844 0.967773
0.0148318 0.402304 0.818448
0.0226596 0.400732 0.822736
0.159594 0.384527 0.875288
0.274235 0.252506 0.904845
0.658366 0.06215 0.965393
0.911482 0.0928206 0.968505
0.95964 0.168353 0.96849
0.960098 0.298985 0.967865
0.960616 0.442466 0.967178
0.00358587 0.508751 0.848463
0.0043946 0.508629 0.847745
0.027863 0.493599 0.819272
0.257664 0.465019 0.864134
0.591302 0.258534 0.951156
0.893294 0.270481 0.967514
0.960281 0.349142 0.96762
0.960739 0.473564 0.967025
0.961135 0.585901 0.966491
0.0608835 0.658717 0.984405
0.0645304 0.659617 0.983917
0.124926 0.655756 0.969421
0.242878 0.616831 0.866224
0.547066 0.588449 0.911162
0.858213 0.509514 0.964965
0.960342 0.560754 0.966613
0.961334 0.645426 0.966201
0.961639 0.723583 0.96582
0.0432898 0.778927 0.962631
0.0496223 0.779614 0.962829
0.12871 0.78146 0.96495
0.328862 0.787213 0.970062
0.541405 0.768795 0.917327
0.807111 0.736416 0.950393
0.954971 0.738674 0.965682
0.961868 0.790845 0.965515
0.962097 0.846876 0.96524
0.00817884 0.918227 0.956298
0.0363317 0.916838 0.956573
0.154452 0.913252 0.957229
0.383474 0.907652 0.959686
0.619074 0.903227 0.963714
0.802228 0.897383 0.961425
0.941558 0.886839 0.963867
0.962997 0.909056 0.96495
0.964065 0.935622 0.964828
0.113939 0.966812 0.957244
0.211841 0.966323 0.958099
0.371878 0.964965 0.959518
0.553933 0.963012 0.96112
0.706264 0.960998 0.962493
0.839567 0.959381 0.963729
0.936843 0.958511 0.963973
0.964553 0.960311 0.964706
0.964691 0.964141 0.964691
0.485267 0.965927 0.960494
0.558129 0.965743 0.961135
0.639689 0.96553 0.961837
0.724849 0.965316 0.9626
0.810269 0.965087 0.963333
0.891157 0.964889 0.96405
0.947799 0.964736 0.964538
0.964019 0.964691 0.964691
0.964691 0.964691 0.964691
0.759182 0.965209 0.96289
0.786542 0.965148 0.963134
0.82298 0.965057 0.963455
0.865293 0.96495 0.963821
0.907301 0.964843 0.964187
0.940368 0.964752 0.964462
0.95874 0.964706 0.964645
0.964614 0.964691 0.964691
0.964691 0.964691 0.964691
