LUT预设1/LUT全系打包/6.FAKE5207&淡雅系列/淡雅LUT/log灰片使用/淡雅std.cube
TITLE "Generated by Resolve"
LUT_3D_SIZE 33
0 0 0
0 0 0
0 0 0
0 0 0
1.5259e-05 0 0
0.000122072 0 0
0.000808728 0 0
0.00546273 1.5259e-05 1.5259e-05
0.0159915 3.0518e-05 0.000183108
0.0339666 0.000244144 0.000717174
0.0613565 0.00105287 0.00166323
0.101411 0.00329595 0.00303655
0.15639 0.00759899 0.00492866
0.220172 0.0126955 0.00735485
0.289174 0.0184024 0.0101015
0.360586 0.0252537 0.0129397
0.433402 0.0336767 0.0157015
0.505302 0.0430915 0.018143
0.573419 0.0522164 0.0201572
0.638712 0.0609293 0.021622
0.704173 0.0697795 0.0230106
0.772061 0.0784924 0.0248112
0.841566 0.0872358 0.0269017
0.902068 0.0945907 0.0287022
0.94229 0.098909 0.0297856
0.959716 0.100191 0.0301061
0.963256 0.100328 0.0301518
0.963455 0.100328 0.0301518
0.96347 0.100328 0.0301518
0.96347 0.100328 0.0301518
0.96347 0.100328 0.0301518
0.96347 0.100328 0.0301518
0.96347 0.100328 0.0301518
0 0 0
0 0 0
0 0 0
0 0 0
1.5259e-05 0 0
0.000137331 0 0
0.00177005 0 0
0.0083772 1.5259e-05 4.57771e-05
0.0221561 4.57771e-05 0.000350958
0.045304 0.000442512 0.00111391
0.079942 0.00192264 0.00230411
0.128374 0.00534066 0.00387579
0.19237 0.0104829 0.0062562
0.261082 0.0158999 0.00898756
0.332189 0.0222629 0.011841
0.404135 0.0300603 0.0146181
0.475654 0.0391089 0.0171664
0.544488 0.0483558 0.0193332
0.610361 0.0571145 0.021088
0.674479 0.0657816 0.0223087
0.740307 0.0745403 0.0239261
0.809018 0.0831006 0.0258946
0.874937 0.0913558 0.0278935
0.925643 0.097322 0.0293584
0.953094 0.0998093 0.0299992
0.962295 0.100313 0.0301518
0.96347 0.100328 0.0301518
0.96347 0.100328 0.0301518
0.96347 0.100328 0.0301518
0.96347 0.100328 0.0301518
0.96347 0.100328 0.0301518
0.96347 0.100328 0.0301518
0.96347 0.100328 0.0301518
0 0 0
0 0 0
0 0 0
0 0 0
0 0 0
0.000106813 0 0
0.00300603 0 0
0.0116274 1.5259e-05 0.000122072
0.028397 0.000137331 0.000549325
0.0560006 0.000854505 0.00143435
0.0968948 0.00299077 0.00280766
0.15288 0.00730907 0.00463874
0.223362 0.0129091 0.00746166
0.296376 0.0188449 0.0104067
0.369482 0.0260777 0.0132906
0.441093 0.0345922 0.0159457
0.510674 0.0437934 0.0182803
0.577157 0.0527352 0.0202335
0.641596 0.0612802 0.0217288
0.705516 0.0699626 0.0229801
0.772381 0.0785687 0.0248112
0.84033 0.0870375 0.0268254
0.899748 0.0943008 0.0285801
0.939284 0.0986496 0.0296635
0.957717 0.100099 0.0300755
0.962875 0.100328 0.0301518
0.96347 0.100328 0.0301518
0.96347 0.100328 0.0301518
0.96347 0.100328 0.0301518
0.96347 0.100328 0.0301518
0.96347 0.100328 0.0301518
0.96347 0.100328 0.0301518
0.96347 0.100328 0.0301518
0 0 0
0 0 0
0 0 0
0 0 0
0 0 0
7.62951e-05 0 0
0.00392157 1.5259e-05 1.5259e-05
0.014725 1.5259e-05 0.000198367
0.035172 0.000320439 0.000717174
0.06804 0.00151064 0.00172427
0.115312 0.0043183 0.00326543
0.178592 0.00924697 0.00553903
0.25449 0.0153201 0.00866712
0.331044 0.0220951 0.0117342
0.406088 0.0302739 0.0146181
0.477699 0.039353 0.0171664
0.545495 0.0484627 0.0193027
0.610742 0.0571603 0.0210117
0.674311 0.0657054 0.0223239
0.738201 0.0742809 0.0238193
0.805478 0.0825666 0.0257115
0.870909 0.0908827 0.0276646
0.92105 0.0967575 0.0291142
0.949935 0.0995499 0.0298924
0.960967 0.100282 0.0301366
0.963333 0.100328 0.0301518
0.96347 0.100328 0.0301518
0.96347 0.100328 0.0301518
0.96347 0.100328 0.0301518
0.96347 0.100328 0.0301518
0.96347 0.100328 0.0301518
0.96347 0.100359 0.0301518
0.96347 0.100389 0.0301518
0 0 0
0 0 0
0 0 0
0 0 0
0 0 0
6.10361e-05 0 0
0.0039826 1.5259e-05 1.5259e-05
0.0159457 3.0518e-05 0.000198367
0.0394903 0.000442512 0.000732433
0.0777447 0.00201419 0.00184634
0.132631 0.00550851 0.00369268
0.204913 0.0112612 0.00656138
0.284108 0.0176852 0.00978103
0.364462 0.0253605 0.0129549
0.441855 0.0346227 0.0158694
0.513939 0.0442206 0.0183108
0.58085 0.053193 0.0202335
0.644831 0.0616312 0.0217288
0.708003 0.070161 0.0230564
0.772061 0.0784924 0.0246281
0.838804 0.0867018 0.026566
0.897002 0.0939345 0.0283055
0.935973 0.0982681 0.0294652
0.955444 0.0999619 0.0300145
0.962234 0.100328 0.0301518
0.96347 0.100328 0.0301518
0.96347 0.100328 0.0301518
0.96347 0.100328 0.0301518
0.96347 0.100328 0.0301518
0.96347 0.100328 0.0301518
0.96347 0.100404 0.0301518
0.96347 0.100587 0.0301518
0.96347 0.100725 0.0301518
0 0 0
0 0 0
0 0 0
0 0 0
0 0 0
6.10361e-05 0 0
0.00329595 1.5259e-05 1.5259e-05
0.0151369 3.0518e-05 0.000122072
0.040238 0.000442512 0.000656138
0.0827802 0.00213626 0.00198367
0.14551 0.0061799 0.00428778
0.227192 0.0131075 0.00741588
0.310002 0.0201419 0.0107118
0.393027 0.0287633 0.013962
0.472786 0.0387274 0.0168612
0.546883 0.0486 0.0191806
0.614969 0.0576486 0.0209812
0.67895 0.0661784 0.0224613
0.741527 0.0746166 0.0237278
0.807721 0.0827039 0.0255741
0.872526 0.0909895 0.0274662
0.920287 0.0966354 0.0289921
0.947936 0.099382 0.0298314
0.959899 0.100237 0.0301213
0.963149 0.100328 0.0301518
0.96347 0.100328 0.0301518
0.96347 0.100328 0.0301518
0.96347 0.100328 0.0301518
0.96347 0.100374 0.0301518
0.96347 0.100511 0.0301518
0.96347 0.100771 0.0301518
0.96347 0.101778 0.0301976
0.96347 0.102556 0.0302434
0 0 0
0 0 0
0 3.0518e-05 0
0 9.15541e-05 3.0518e-05
1.5259e-05 0.000167849 0.000122072
4.57771e-05 0.000228885 0.000167849
0.00210575 0.00015259 6.10361e-05
0.0136263 9.15541e-05 9.15541e-05
0.0403449 0.000518807 0.000732433
0.0870527 0.0024567 0.00233463
0.156039 0.00709544 0.00492866
0.242863 0.0144656 0.00808728
0.331472 0.0220035 0.0115969
0.417884 0.0316777 0.0149691
0.499092 0.0422217 0.0177615
0.574182 0.0522469 0.0199588
0.643885 0.0614633 0.0216831
0.710155 0.0702983 0.0231479
0.775692 0.0788434 0.0246433
0.841611 0.0870069 0.026566
0.898299 0.0940871 0.028336
0.935729 0.0982376 0.0295109
0.954803 0.0999313 0.0300298
0.961929 0.100313 0.0301518
0.963439 0.100328 0.0301518
0.96347 0.100328 0.0301518
0.96347 0.100343 0.0301518
0.96347 0.10042 0.0301518
0.96347 0.100725 0.0301518
0.96347 0.101823 0.0301518
0.96347 0.103273 0.0302129
0.96347 0.105699 0.0303044
0.96347 0.10724 0.0303502
0 1.5259e-05 0
0 0.000106813 6.10361e-05
3.0518e-05 0.000366217 0.00015259
9.15541e-05 0.000885023 0.000366217
0.000213626 0.00181582 0.000839246
0.000411994 0.00328069 0.00117494
0.00144961 0.00433356 0.000961318
0.0113222 0.00457771 0.000717174
0.0386816 0.00474556 0.00115969
0.0890364 0.00642405 0.00267033
0.162646 0.0111238 0.00518807
0.254444 0.0182345 0.00854505
0.346883 0.0256352 0.012253
0.436683 0.035584 0.015671
0.519402 0.0459754 0.0184329
0.595407 0.0557107 0.0206149
0.666224 0.0648508 0.0222934
0.735256 0.0739452 0.0237125
0.804349 0.0824445 0.0255894
0.870832 0.0906996 0.0275731
0.919051 0.0965133 0.0290837
0.946777 0.0993057 0.0298619
0.959167 0.100191 0.0301213
0.962936 0.100343 0.0301518
0.96347 0.100481 0.0301518
0.96347 0.100908 0.0301518
0.96347 0.101579 0.0301518
0.96347 0.102434 0.0301518
0.96347 0.103593 0.0301671
0.96347 0.106661 0.0302129
0.96347 0.110979 0.0302892
0.963455 0.116411 0.0304112
0.963455 0.119173 0.0304875
4.57771e-05 0.000564584 0.000518807
0.000106813 0.0010071 0.000808728
0.000244144 0.00205997 0.00135805
0.000534066 0.00408942 0.00248722
0.00105287 0.00741588 0.00451667
0.00172427 0.0120699 0.00627146
0.00277714 0.0169375 0.00675975
0.00991836 0.0203708 0.00634775
0.034638 0.0206455 0.00488289
0.0858473 0.0202335 0.00381476
0.16466 0.0239109 0.00537118
0.261662 0.0302586 0.00863661
0.357122 0.0368811 0.0124361
0.448157 0.0452735 0.0158541
0.532174 0.0540322 0.018677
0.609186 0.0622873 0.0209354
0.681773 0.0704814 0.0226596
0.752758 0.0789349 0.0242161
0.82475 0.0871901 0.0263523
0.890745 0.0952468 0.0283513
0.932799 0.100008 0.029572
0.953765 0.101884 0.030045
0.961532 0.102403 0.0301518
0.963348 0.102617 0.0301518
0.96347 0.103365 0.0301518
0.96347 0.105028 0.0301671
0.96347 0.107378 0.0301671
0.96347 0.110094 0.0301976
0.96347 0.113252 0.0302281
0.963455 0.119097 0.0302892
0.963455 0.127367 0.030457
0.963439 0.136522 0.0307164
0.963424 0.141054 0.030869
0.000396735 0.00334173 0.00308232
0.00062562 0.0049897 0.00434882
0.00105287 0.00784314 0.00624094
0.00183108 0.0129244 0.00972
0.00297551 0.0203555 0.0150607
0.00434882 0.0293889 0.0195926
0.00646983 0.0404059 0.021973
0.0117037 0.0496071 0.0212711
0.0304265 0.0530709 0.0163729
0.075639 0.0514229 0.00987259
0.155688 0.0502937 0.00695811
0.262074 0.0553445 0.00860609
0.360571 0.0607309 0.0119478
0.452247 0.0667124 0.0153353
0.536812 0.0726329 0.0183261
0.615381 0.0787213 0.020737
0.689921 0.0849775 0.0227054
0.763165 0.0919051 0.0246281
0.836606 0.0994278 0.0269627
0.901488 0.106706 0.0289464
0.939376 0.110338 0.0298466
0.956603 0.111604 0.0301213
0.962264 0.1122 0.0301823
0.963378 0.113024 0.0301823
0.96347 0.114809 0.0301976
0.963455 0.118242 0.0302129
0.963455 0.122698 0.0302281
0.963455 0.127779 0.0302892
0.963439 0.133944 0.0303502
0.963424 0.142779 0.0304112
0.963424 0.154238 0.0307164
0.963409 0.166476 0.0311894
0.963394 0.172076 0.0314641
0.00158694 0.0115816 0.0104829
0.00222782 0.0158999 0.0141604
0.00311284 0.0220188 0.019028
0.00442512 0.0312963 0.0263523
0.00611887 0.043473 0.0360876
0.00805676 0.0569772 0.0441138
0.0111849 0.0733654 0.0485542
0.0173648 0.0884413 0.0475776
0.0302129 0.10013 0.0399939
0.0620279 0.103243 0.0272374
0.130709 0.0948501 0.0142061
0.24622 0.0938888 0.0103456
0.354192 0.0982834 0.0112306
0.448463 0.102632 0.0139773
0.533883 0.106752 0.0170748
0.612802 0.110765 0.0198367
0.688807 0.115267 0.0222019
0.763897 0.120897 0.0245365
0.839429 0.127413 0.0273594
0.905089 0.133288 0.0293584
0.941573 0.13547 0.0300298
0.957519 0.13637 0.0301976
0.962585 0.137179 0.0302129
0.963439 0.139086 0.0302129
0.963439 0.142306 0.0302281
0.963424 0.146654 0.0302434
0.963424 0.152056 0.0302892
0.963424 0.158618 0.0303655
0.963394 0.167056 0.0305791
0.963394 0.177752 0.0306859
0.963378 0.190326 0.0307469
0.963363 0.203311 0.0310979
0.963363 0.208942 0.0314031
0.00444038 0.0307012 0.0269932
0.00563058 0.0393072 0.035111
0.00680552 0.0491646 0.0441596
0.0081178 0.0617075 0.0550851
0.00949111 0.0764324 0.0672465
0.0112154 0.0925765 0.0772869
0.0138705 0.109957 0.0830854
0.0215305 0.131701 0.0837568
0.0361639 0.1505 0.0766155
0.0618448 0.162524 0.0603037
0.10898 0.165637 0.0373846
0.198413 0.141726 0.0198062
0.329137 0.142748 0.0122377
0.434897 0.146761 0.0117342
0.523705 0.150561 0.0142977
0.602838 0.154467 0.01738
0.678721 0.158618 0.0202792
0.754253 0.163699 0.0231327
0.829755 0.169268 0.0260624
0.897475 0.174914 0.0283818
0.937911 0.177554 0.0294804
0.956374 0.178775 0.0298314
0.962325 0.179873 0.0298772
0.963378 0.181689 0.0298619
0.963394 0.184482 0.0298619
0.963378 0.188464 0.0298924
0.963378 0.193668 0.0299535
0.963363 0.200549 0.029984
0.963363 0.209339 0.0298161
0.963348 0.21976 0.0299382
0.963348 0.231769 0.0300755
0.963333 0.244251 0.0299992
0.963333 0.249744 0.0299382
0.00816358 0.0628672 0.0555123
0.00917067 0.0742199 0.0668193
0.0100557 0.0861219 0.0783551
0.0110323 0.100221 0.0911421
0.012192 0.116228 0.104509
0.0140078 0.1346 0.116304
0.0163729 0.155016 0.124437
0.0239872 0.178439 0.126787
0.0411231 0.202747 0.121614
0.068986 0.223911 0.107561
0.108156 0.238132 0.0851911
0.16495 0.237308 0.057435
0.278569 0.206561 0.0336919
0.400015 0.202594 0.0200351
0.502663 0.205295 0.0144961
0.587579 0.207446 0.0142672
0.66334 0.209506 0.0166171
0.738201 0.212985 0.0196994
0.814649 0.217853 0.0228733
0.885481 0.223194 0.0256352
0.93164 0.226215 0.0271458
0.95378 0.227253 0.0277256
0.961532 0.227832 0.0278782
0.963211 0.229191 0.0280003
0.963333 0.231464 0.0281529
0.963333 0.235096 0.028275
0.963333 0.240162 0.0283665
0.963317 0.247013 0.0282902
0.963317 0.255497 0.0280156
0.963317 0.265812 0.0282902
0.963302 0.278019 0.0296025
0.963302 0.291478 0.0312352
0.963302 0.297414 0.0320745
0.0111543 0.102174 0.0914778
0.0118105 0.114794 0.104509
0.0125277 0.127932 0.117403
0.0135348 0.143679 0.131594
0.0149233 0.161822 0.146792
0.016495 0.181949 0.160403
0.0190738 0.204959 0.170565
0.0272374 0.230518 0.174701
0.0460212 0.258824 0.17142
0.0762951 0.286503 0.15906
0.114549 0.309148 0.138277
0.159899 0.324712 0.112596
0.23978 0.310399 0.0775158
0.360571 0.280461 0.0483864
0.474891 0.270451 0.0299687
0.570123 0.271885 0.0197452
0.649271 0.273304 0.0154116
0.722286 0.272969 0.0157321
0.79707 0.274388 0.0188144
0.869978 0.278035 0.0221256
0.922255 0.280461 0.0241855
0.949737 0.28101 0.0250553
0.960372 0.281254 0.0252842
0.963012 0.281971 0.0253452
0.963287 0.284001 0.0255131
0.963287 0.28777 0.0258335
0.963287 0.292943 0.026215
0.963287 0.299565 0.0268254
0.963287 0.308095 0.0274968
0.963272 0.31841 0.0285954
0.963272 0.331426 0.0325475
0.963287 0.346044 0.0388495
0.963287 0.352346 0.0421302
0.0138094 0.147616 0.133089
0.014313 0.161227 0.147524
0.0150301 0.175784 0.161852
0.0161593 0.192844 0.176974
0.0175631 0.212192 0.193194
0.0187076 0.234333 0.208896
0.0218662 0.259449 0.220661
0.0306859 0.287129 0.226902
0.0493782 0.31696 0.225681
0.0798199 0.347616 0.215579
0.120134 0.376806 0.196948
0.165545 0.399527 0.168734
0.219928 0.407752 0.13846
0.323384 0.383062 0.0974289
0.44155 0.353704 0.0650645
0.547463 0.341634 0.0441596
0.634073 0.344076 0.0312657
0.708995 0.346731 0.0242466
0.780987 0.345602 0.0227054
0.853361 0.345006 0.023331
0.910872 0.344915 0.0242618
0.944488 0.343908 0.0246738
0.958831 0.343404 0.0246891
0.962768 0.343587 0.0246281
0.963241 0.345296 0.0251469
0.963256 0.348928 0.0266423
0.963256 0.353811 0.0287175
0.963256 0.360189 0.031754
0.963256 0.368643 0.0357977
0.963256 0.379568 0.0408789
0.963272 0.393347 0.0488289
0.963287 0.408408 0.0593576
0.963287 0.414603 0.0643626
0.0166629 0.199054 0.179904
0.0171206 0.213718 0.195499
0.017792 0.229038 0.210498
0.0187839 0.247166 0.226734
0.0198672 0.267964 0.244282
0.0204776 0.291478 0.261341
0.0241703 0.318013 0.274266
0.0330968 0.346609 0.282277
0.0506905 0.376303 0.283635
0.0794232 0.406485 0.277394
0.119341 0.436866 0.263249
0.168734 0.463676 0.231601
0.216739 0.484199 0.200473
0.291417 0.482826 0.159518
0.405661 0.45449 0.113909
0.520394 0.42475 0.0817884
0.614298 0.414054 0.064271
0.69424 0.420218 0.05066
0.766491 0.423819 0.0417334
0.836896 0.422004 0.037644
0.897627 0.419516 0.0365148
0.937133 0.417273 0.0363928
0.95613 0.415518 0.0366064
0.962188 0.415045 0.0371862
0.963195 0.416495 0.0387884
0.963256 0.41915 0.0415808
0.963256 0.423377 0.0455177
0.963256 0.429999 0.0509957
0.963256 0.438315 0.0581216
0.963272 0.449363 0.0668193
0.963287 0.462547 0.0776379
0.963302 0.476646 0.0903792
0.963317 0.482261 0.0961166
0.0195621 0.255924 0.231693
0.0198062 0.271534 0.24802
0.0201877 0.287678 0.263767
0.0206455 0.30634 0.280995
0.0210422 0.327764 0.299077
0.0211948 0.35198 0.316869
0.0250553 0.378943 0.330495
0.0336004 0.407279 0.339895
0.0499886 0.435584 0.343786
0.0763714 0.463706 0.34255
0.113313 0.491295 0.334234
0.164935 0.52047 0.303777
0.215885 0.543801 0.265629
0.270039 0.559716 0.226108
0.366796 0.553216 0.174411
0.486824 0.52282 0.129763
0.594217 0.491661 0.104311
0.674189 0.484245 0.0911727
0.750286 0.495094 0.0780194
0.82063 0.50013 0.0685893
0.882887 0.498848 0.064332
0.927596 0.496284 0.0632181
0.951904 0.494499 0.0641489
0.96112 0.493538 0.0659495
0.963073 0.494347 0.0688945
0.963256 0.496208 0.0727245
0.963256 0.499855 0.0780194
0.963256 0.505852 0.0846876
0.963272 0.513512 0.0930953
0.963272 0.523323 0.103197
0.963287 0.534615 0.115023
0.963317 0.547097 0.129
0.963317 0.55201 0.135271
0.0215152 0.318029 0.288762
0.021149 0.333364 0.304906
0.020798 0.349706 0.321248
0.0204318 0.368231 0.338766
0.0202792 0.389364 0.356191
0.0204929 0.413092 0.373556
0.0243076 0.439643 0.387747
0.0323186 0.466575 0.397925
0.0475624 0.492897 0.403937
0.0719158 0.518654 0.406531
0.105867 0.543801 0.40296
0.155856 0.571328 0.375875
0.206882 0.59556 0.338689
0.259632 0.614221 0.292576
0.327138 0.626352 0.242603
0.441993 0.617807 0.187549
0.567803 0.585184 0.147326
0.653422 0.550469 0.135958
0.728939 0.551843 0.126665
0.802792 0.566842 0.113512
0.867292 0.572061 0.104585
0.916503 0.572869 0.101625
0.946365 0.572244 0.102602
0.959381 0.571542 0.105425
0.962737 0.572137 0.109575
0.963149 0.573678 0.114397
0.963165 0.576989 0.120851
0.963165 0.581277 0.128176
0.96318 0.587427 0.137331
0.96318 0.595346 0.148409
0.963195 0.604639 0.161166
0.963195 0.61471 0.176394
0.963195 0.61912 0.183871
0.0213169 0.383078 0.349126
0.0199435 0.397528 0.36527
0.0185855 0.412863 0.381521
0.0174868 0.430152 0.398322
0.0176089 0.450019 0.413901
0.0192569 0.472679 0.429816
0.0230259 0.497459 0.443824
0.030457 0.522454 0.454383
0.0442359 0.54667 0.461936
0.0664378 0.569848 0.466667
0.0984207 0.592584 0.46453
0.145403 0.61709 0.436957
0.196887 0.64303 0.403128
0.241947 0.661952 0.362173
0.302373 0.677455 0.306111
0.386725 0.686381 0.250538
0.50663 0.676829 0.205554
0.63917 0.643107 0.176837
0.706294 0.605692 0.175555
0.780789 0.614206 0.167391
0.849973 0.629969 0.155657
0.904204 0.637293 0.149599
0.939406 0.64007 0.150454
0.956436 0.641093 0.155245
0.961761 0.641871 0.161181
0.962646 0.643534 0.167819
0.962722 0.645731 0.175036
0.962722 0.649226 0.183825
0.962722 0.653712 0.19353
0.962753 0.659831 0.205127
0.962768 0.667491 0.219409
0.962676 0.675258 0.236957
0.962615 0.678828 0.246143
0.0187686 0.446754 0.409033
0.0170291 0.459388 0.424079
0.0157321 0.473365 0.439155
0.0152438 0.489433 0.454383
0.0155947 0.507866 0.46981
0.01738 0.529335 0.484199
0.0202335 0.551904 0.497185
0.0268711 0.574578 0.507576
0.0402991 0.596414 0.515526
0.0619669 0.617304 0.521614
0.092134 0.637201 0.522835
0.132586 0.656382 0.510063
0.182742 0.68098 0.472404
0.235798 0.70544 0.426642
0.28806 0.722683 0.372717
0.346456 0.73637 0.307347
0.444312 0.742901 0.248157
0.588205 0.73138 0.220768
0.701839 0.699016 0.220203
0.76022 0.665766 0.218021
0.828656 0.67129 0.211917
0.888319 0.683513 0.207996
0.929015 0.691661 0.210117
0.950576 0.695552 0.217197
0.959014 0.698329 0.226902
0.961212 0.700877 0.236316
0.961532 0.703182 0.245274
0.961578 0.706447 0.254856
0.961593 0.710491 0.265415
0.961547 0.715434 0.278737
0.961471 0.720653 0.294163
0.961334 0.726833 0.31252
0.961257 0.73022 0.322789
0.016022 0.506737 0.467613
0.0146029 0.518837 0.481666
0.0136263 0.531914 0.495308
0.0129244 0.546487 0.509133
0.0124666 0.56286 0.523461
0.0138399 0.582025 0.53579
0.0164797 0.601999 0.547478
0.0232242 0.622324 0.557198
0.0372015 0.642161 0.565057
0.0594186 0.661387 0.571359
0.0886702 0.679744 0.573587
0.125154 0.697353 0.568154
0.168872 0.716274 0.548806
0.228138 0.740475 0.504479
0.281956 0.762722 0.449439
0.337743 0.779248 0.387198
0.409903 0.790509 0.32018
0.514763 0.795026 0.262165
0.658869 0.783749 0.247349
0.755306 0.752712 0.265446
0.81387 0.727184 0.263951
0.871046 0.724697 0.26479
0.915297 0.731334 0.272114
0.942214 0.737865 0.28452
0.954604 0.742535 0.299184
0.958831 0.746273 0.312947
0.959701 0.749493 0.325048
0.959731 0.752728 0.336934
0.959701 0.755978 0.348867
0.959625 0.75996 0.362448
0.959548 0.764538 0.377676
0.959442 0.769894 0.394934
0.959411 0.772732 0.404608
0.0124056 0.563043 0.523903
0.0112001 0.57438 0.536477
0.0104524 0.586099 0.548348
0.00996414 0.599191 0.560616
0.00994888 0.613977 0.572519
0.0110628 0.631128 0.583841
0.0135042 0.64918 0.5944
0.0211795 0.667399 0.603387
0.0364691 0.685679 0.6112
0.0593423 0.703761 0.61735
0.0881361 0.721553 0.620127
0.122927 0.73843 0.617914
0.166629 0.754589 0.607187
0.227939 0.775586 0.572671
0.285924 0.798398 0.523003
0.335485 0.818906 0.461311
0.395819 0.833478 0.391608
0.487617 0.841138 0.32723
0.603326 0.842908 0.284077
0.71667 0.831586 0.29012
0.802777 0.80296 0.309636
0.859251 0.77998 0.316045
0.9028 0.772457 0.326863
0.932921 0.774639 0.344686
0.949172 0.779263 0.365087
0.955779 0.783536 0.383993
0.957382 0.787778 0.400946
0.957534 0.791608 0.415686
0.957626 0.795056 0.428916
0.957656 0.798779 0.44239
0.957687 0.802808 0.456611
0.957687 0.80737 0.472221
0.957702 0.81004 0.481697
0.00927749 0.615503 0.57615
0.00848402 0.626047 0.587533
0.00808728 0.636515 0.597925
0.00794995 0.648569 0.608667
0.00827039 0.662242 0.618723
0.00927749 0.677684 0.62887
0.0126955 0.694041 0.638117
0.0221866 0.711192 0.647013
0.0387579 0.728313 0.65478
0.0615854 0.745342 0.66067
0.090013 0.762264 0.663432
0.124636 0.778515 0.662654
0.170626 0.793927 0.654704
0.233555 0.811902 0.629404
0.295705 0.831968 0.59089
0.345647 0.853208 0.536721
0.395529 0.870878 0.465965
0.470283 0.880446 0.391409
0.576547 0.883665 0.337987
0.679103 0.884291 0.319554
0.773587 0.871962 0.339666
0.846891 0.846662 0.359777
0.894621 0.824369 0.374075
0.925063 0.813809 0.392355
0.943801 0.813519 0.416999
0.952712 0.817136 0.442039
0.955428 0.821576 0.464149
0.955886 0.825818 0.482368
0.956176 0.829664 0.497795
0.956344 0.833265 0.511788
0.956512 0.836835 0.525429
0.956634 0.840696 0.539681
0.956725 0.843198 0.548989
0.00735485 0.665232 0.624857
0.00697337 0.674998 0.635218
0.00682078 0.684581 0.644358
0.0068513 0.695491 0.653559
0.00709544 0.70837 0.663066
0.00881971 0.722591 0.671962
0.0142061 0.737789 0.680446
0.0256199 0.75378 0.688853
0.0430915 0.769894 0.696223
0.0658732 0.786099 0.701732
0.093904 0.802182 0.704707
0.129244 0.817884 0.704829
0.177493 0.832685 0.698436
0.242222 0.84799 0.680369
0.308629 0.864378 0.652399
0.364965 0.882124 0.609567
0.413581 0.899336 0.545464
0.473625 0.910826 0.46421
0.569818 0.91342 0.397101
0.662898 0.916152 0.360128
0.748592 0.916335 0.372808
0.827283 0.90312 0.4
0.884398 0.877958 0.416892
0.919051 0.856458 0.431983
0.938857 0.847105 0.455024
0.949767 0.847501 0.48394
0.953826 0.851423 0.511116
0.954971 0.855894 0.534279
0.955566 0.85977 0.552987
0.955917 0.863157 0.568689
0.956191 0.86627 0.582879
0.956451 0.869535 0.59675
0.956603 0.871778 0.606317
0.00631724 0.712764 0.671016
0.00610361 0.722011 0.680354
0.00605783 0.730922 0.688426
0.00616464 0.741115 0.696941
0.0068513 0.753185 0.705989
0.00991836 0.766567 0.714153
0.0174258 0.780789 0.722118
0.0305638 0.795712 0.729778
0.0489662 0.810849 0.736309
0.0720836 0.826398 0.741573
0.100313 0.841581 0.744732
0.136904 0.856138 0.745113
0.187045 0.869383 0.740108
0.25391 0.882124 0.727916
0.323827 0.894591 0.707362
0.386664 0.907347 0.672419
0.441291 0.920287 0.616846
0.499077 0.930694 0.54107
0.579599 0.934554 0.464027
0.665934 0.936141 0.422843
0.739849 0.938735 0.425605
0.809979 0.936004 0.44477
0.870085 0.919112 0.461921
0.911116 0.895094 0.472435
0.934142 0.877424 0.486397
0.946639 0.872999 0.512718
0.952377 0.875792 0.543603
0.954726 0.879835 0.571542
0.955932 0.883986 0.595163
0.95639 0.887419 0.614054
0.956695 0.890593 0.630518
0.956954 0.893629 0.645274
0.957153 0.895827 0.655833
0.00553903 0.758846 0.715969
0.00550851 0.767651 0.72433
0.00569161 0.776074 0.731807
0.00631724 0.785946 0.739879
0.00820935 0.797375 0.747662
0.0125734 0.809827 0.75552
0.0218357 0.82327 0.763088
0.0366522 0.837186 0.769909
0.0561685 0.851209 0.775662
0.0799115 0.865263 0.780285
0.10988 0.879011 0.783108
0.148653 0.891569 0.783093
0.201312 0.902419 0.778958
0.269825 0.911971 0.770291
0.34168 0.920806 0.754162
0.406592 0.929397 0.722438
0.46511 0.93756 0.671061
0.527352 0.943877 0.604074
0.602106 0.947036 0.537331
0.676066 0.948318 0.504845
0.74287 0.94963 0.49543
0.803891 0.948745 0.499489
0.856809 0.940215 0.511574
0.899168 0.921599 0.518685
0.927932 0.901961 0.523003
0.943145 0.892866 0.537987
0.950957 0.893767 0.56733
0.954894 0.897017 0.598321
0.956786 0.901198 0.626596
0.95729 0.905318 0.650507
0.957565 0.90901 0.670481
0.957778 0.912245 0.687144
0.957977 0.914763 0.69958
0.0053254 0.80415 0.760296
0.00553903 0.812619 0.768292
0.00627146 0.820996 0.775296
0.00799573 0.830335 0.781888
0.0104219 0.84097 0.788907
0.0165103 0.852598 0.795895
0.027985 0.864713 0.802502
0.0440375 0.876844 0.80853
0.0643168 0.889128 0.813962
0.0896925 0.900908 0.817777
0.122621 0.911879 0.819547
0.165087 0.920867 0.818021
0.221607 0.928512 0.813993
0.291371 0.935332 0.806653
0.362982 0.941436 0.791012
0.428321 0.946685 0.763241
0.486305 0.951125 0.71783
0.543893 0.954299 0.654078
0.612634 0.954757 0.592798
0.688167 0.955184 0.570764
0.751644 0.954864 0.565927
0.804242 0.952636 0.562982
0.851057 0.946731 0.564294
0.889372 0.935515 0.568917
0.918486 0.920623 0.570703
0.938964 0.908553 0.57203
0.949371 0.906126 0.588907
