LUT预设1/LUT全系打包/6.FAKE5207&淡雅系列/淡雅LUT/log灰片使用/淡雅warm.cube
TITLE "Generated by Resolve"
LUT_3D_SIZE 33
0 0 0
0 0 0
0 0 0
0 0 0
1.5259e-05 0 0
0.000137331 0 0
0.00102235 0 0
0.00593576 1.5259e-05 1.5259e-05
0.0168002 4.57771e-05 0.000213626
0.0352789 0.00030518 0.000747692
0.0633555 0.00117494 0.00172427
0.104189 0.00352483 0.00314336
0.159838 0.00788891 0.00505074
0.224201 0.0130312 0.00750744
0.293797 0.0188602 0.0102846
0.365652 0.025864 0.0131228
0.438651 0.0343786 0.0158694
0.510582 0.0438087 0.0182803
0.578958 0.0529641 0.0202792
0.644526 0.0617227 0.0217441
0.710597 0.0706035 0.0231785
0.778988 0.0793622 0.0250248
0.847639 0.0879683 0.0270695
0.90602 0.0949874 0.028809
0.943984 0.0990311 0.0298161
0.960067 0.100206 0.0301213
0.963287 0.100328 0.0301518
0.963455 0.100328 0.0301518
0.96347 0.100328 0.0301518
0.96347 0.100328 0.0301518
0.96347 0.100328 0.0301518
0.96347 0.100328 0.0301518
0.96347 0.100328 0.0301518
0 0 0
0 0 0
0 0 0
0 0 0
1.5259e-05 0 0
0.000213626 0 0
0.00207523 0 0
0.00907912 1.5259e-05 6.10361e-05
0.0234073 7.62951e-05 0.000396735
0.0472725 0.000549325 0.00117494
0.0828107 0.00213626 0.00239567
0.13225 0.0056611 0.00402838
0.196628 0.0108186 0.00642405
0.265766 0.0163424 0.00917067
0.33724 0.0228428 0.0120241
0.409445 0.0307469 0.0148013
0.481086 0.0398413 0.0173342
0.549966 0.0490883 0.0194705
0.616068 0.0578927 0.0211948
0.680735 0.0666209 0.0224613
0.747173 0.0753948 0.0241245
0.815824 0.0839551 0.0261082
0.88011 0.0919356 0.0280461
0.928359 0.0975509 0.0294194
0.953964 0.099855 0.0300145
0.962402 0.100313 0.0301518
0.96347 0.100328 0.0301518
0.96347 0.100328 0.0301518
0.96347 0.100328 0.0301518
0.96347 0.100328 0.0301518
0.96347 0.100328 0.0301518
0.96347 0.100328 0.0301518
0.96347 0.100328 0.0301518
0 0 0
0 0 0
0 0 0
0 0 0
1.5259e-05 0 0
0.000259403 0 0
0.0034638 0 1.5259e-05
0.0125887 1.5259e-05 0.000137331
0.0301061 0.000183108 0.000610361
0.0586862 0.0010071 0.0015259
0.100664 0.00328069 0.00292973
0.157824 0.00770581 0.00483711
0.228611 0.0133364 0.00766003
0.301823 0.0194095 0.010605
0.37499 0.0267491 0.013489
0.446662 0.0353399 0.0161288
0.516365 0.0445563 0.0184482
0.582986 0.0534981 0.0203555
0.647639 0.0621042 0.0218509
0.71223 0.0708324 0.0231785
0.779706 0.0794842 0.0250248
0.846723 0.0878157 0.0270085
0.903929 0.0947433 0.0287022
0.941207 0.0988022 0.0297093
0.958236 0.100114 0.0300908
0.962951 0.100328 0.0301518
0.96347 0.100328 0.0301518
0.96347 0.100328 0.0301518
0.96347 0.100328 0.0301518
0.96347 0.100328 0.0301518
0.96347 0.100328 0.0301518
0.96347 0.100328 0.0301518
0.96347 0.100328 0.0301518
0 0 0
0 0 0
0 0 0
0 0 0
1.5259e-05 0 0
0.00030518 0 0
0.00456245 1.5259e-05 1.5259e-05
0.0160525 4.57771e-05 0.000228885
0.0374304 0.000411994 0.000793469
0.0714733 0.00172427 0.00183108
0.120012 0.00468452 0.00344854
0.184283 0.00970474 0.00576791
0.260655 0.0158694 0.00891127
0.337133 0.0227665 0.0119631
0.41207 0.0310521 0.0148318
0.483711 0.0401617 0.0173495
0.551598 0.0492714 0.0194553
0.616876 0.0579843 0.021149
0.680858 0.0665751 0.0224918
0.745266 0.0751354 0.0240177
0.81268 0.0834974 0.0259403
0.876478 0.0915236 0.0278325
0.924132 0.0970321 0.0292058
0.951019 0.0996109 0.0299229
0.961181 0.100282 0.0301366
0.963348 0.100328 0.0301518
0.96347 0.100328 0.0301518
0.96347 0.100328 0.0301518
0.96347 0.100328 0.0301518
0.96347 0.100328 0.0301518
0.96347 0.100343 0.0301518
0.96347 0.100359 0.0301518
0.96347 0.100389 0.0301518
0 0 0
0 0 0
0 0 0
0 0 0
1.5259e-05 0 0
0.000320439 0 0
0.00480659 1.5259e-05 3.0518e-05
0.0176699 6.10361e-05 0.000244144
0.0424811 0.000579843 0.000823987
0.0822766 0.00231937 0.00199893
0.138552 0.00598154 0.00393683
0.211551 0.0117952 0.00683604
0.29102 0.0183566 0.0100557
0.371374 0.026215 0.0132143
0.448447 0.0355077 0.0160983
0.520195 0.0450599 0.0184939
0.587106 0.0540169 0.0203708
0.651469 0.0625315 0.0218662
0.714839 0.0710613 0.0232242
0.779568 0.0794232 0.0248417
0.845472 0.087541 0.0267643
0.901473 0.0944228 0.0284428
0.938201 0.0984512 0.0295415
0.956207 0.0999924 0.0300298
0.962356 0.100328 0.0301518
0.963455 0.100328 0.0301518
0.96347 0.100328 0.0301518
0.96347 0.100328 0.0301518
0.96347 0.100328 0.0301518
0.96347 0.100343 0.0301518
0.96347 0.10045 0.0301518
0.96347 0.100603 0.0301518
0.96347 0.10071 0.0301518
0 0 0
0 0 0
0 0 0
0 0 0
1.5259e-05 0 0
0.000289921 0 0
0.00422675 1.5259e-05 3.0518e-05
0.0172122 6.10361e-05 0.000167849
0.0438849 0.000610361 0.00077821
0.0883345 0.00251774 0.00218204
0.152804 0.00680552 0.00456245
0.234714 0.0137484 0.00770581
0.3178 0.0209659 0.011017
0.400732 0.0297398 0.0142367
0.480247 0.0397192 0.0170901
0.553948 0.049546 0.0193637
0.621729 0.0585641 0.0211337
0.685863 0.0670939 0.0226139
0.749111 0.0755322 0.0239414
0.815305 0.0836805 0.0257877
0.878141 0.0916457 0.0276493
0.923491 0.0969406 0.029099
0.949264 0.0994736 0.0298619
0.960235 0.100237 0.0301213
0.96318 0.100328 0.0301518
0.96347 0.100328 0.0301518
0.96347 0.100328 0.0301518
0.96347 0.100328 0.0301518
0.96347 0.100404 0.0301518
0.96347 0.100542 0.0301518
0.96347 0.100954 0.0301671
0.96347 0.101884 0.0301976
0.96347 0.102495 0.0302281
0 0 0
0 0 0
0 3.0518e-05 0
0 9.15541e-05 3.0518e-05
1.5259e-05 0.000167849 0.000122072
0.000198367 0.000228885 0.00015259
0.00311284 0.000137331 6.10361e-05
0.0160525 0.000137331 0.00015259
0.0447242 0.000717174 0.000900282
0.0935988 0.00291447 0.00259403
0.164355 0.00779736 0.00523384
0.251743 0.0152132 0.00843824
0.340291 0.0230106 0.0119478
0.426337 0.0327916 0.015259
0.50721 0.0433051 0.0179904
0.581994 0.0532845 0.0201419
0.651514 0.0624857 0.0218662
0.717891 0.0713054 0.023331
0.783597 0.0798199 0.0248722
0.848661 0.0878767 0.0267948
0.902892 0.0945907 0.0284733
0.938033 0.098436 0.029572
0.955627 0.0999619 0.030045
0.962081 0.100313 0.0301518
0.963424 0.100328 0.0301518
0.96347 0.100328 0.0301518
0.96347 0.100359 0.0301518
0.96347 0.10045 0.0301518
0.96347 0.100923 0.0301518
0.96347 0.102052 0.0301671
0.96347 0.103716 0.0302129
0.96347 0.105882 0.0303044
0.96347 0.107042 0.0303502
0 1.5259e-05 0
0 0.000122072 6.10361e-05
3.0518e-05 0.000396735 0.000167849
0.000106813 0.000946059 0.000396735
0.000228885 0.00190738 0.000839246
0.000488289 0.00332647 0.00112917
0.00234989 0.00428778 0.000915541
0.0140688 0.00451667 0.000762951
0.0438239 0.00485237 0.00131228
0.0966049 0.00683604 0.00292973
0.172045 0.0117647 0.00553903
0.264363 0.0189517 0.00894179
0.356832 0.0267033 0.0126345
0.446006 0.0367285 0.0159762
0.528206 0.0470588 0.018677
0.603922 0.0567941 0.0208133
0.674815 0.0659648 0.0224765
0.744106 0.0750134 0.0239567
0.812848 0.0834821 0.0258335
0.877226 0.0914778 0.0277714
0.922667 0.0968795 0.0291752
0.948333 0.0993973 0.0298924
0.959609 0.100206 0.0301213
0.962982 0.100359 0.0301518
0.96347 0.100557 0.0301518
0.96347 0.100999 0.0301518
0.96347 0.101717 0.0301518
0.96347 0.102586 0.0301671
0.96347 0.104097 0.0301823
0.96347 0.107378 0.0302281
0.96347 0.111925 0.0303044
0.963455 0.11667 0.0304112
0.963455 0.118761 0.0304875
4.57771e-05 0.000579843 0.000534066
0.000106813 0.00106813 0.000839246
0.000259403 0.00216678 0.00141909
0.000564584 0.00427253 0.00256352
0.00108339 0.00767529 0.00456245
0.00178531 0.0123598 0.00619516
0.00341802 0.0170291 0.00657664
0.0125887 0.0200351 0.00602731
0.0403754 0.0203098 0.00471504
0.094667 0.0203708 0.0039826
0.175448 0.0243381 0.00573739
0.272648 0.0307469 0.00906386
0.368078 0.037644 0.0128481
0.458442 0.0461433 0.0162051
0.541833 0.0548867 0.018967
0.618524 0.0632334 0.021149
0.691295 0.0715038 0.0228733
0.762615 0.0800031 0.024506
0.83386 0.0882277 0.026627
0.896773 0.0958724 0.0285191
0.935714 0.100221 0.029633
0.954803 0.1019 0.030045
0.961761 0.102388 0.0301518
0.963363 0.102708 0.0301518
0.96347 0.103593 0.0301518
0.96347 0.105348 0.0301671
0.96347 0.107744 0.0301823
0.96347 0.110475 0.0301976
0.96347 0.114168 0.0302281
0.963455 0.120424 0.0303197
0.963455 0.128923 0.0305028
0.963439 0.136858 0.0307317
0.963424 0.140291 0.0308537
0.000411994 0.00337224 0.00309758
0.000656138 0.00511177 0.00440986
0.00109865 0.00810254 0.00639353
0.00189212 0.0133059 0.00991836
0.0030518 0.0208438 0.0151675
0.00448615 0.0300603 0.01944
0.0069276 0.0408331 0.0214542
0.0137942 0.0492409 0.0202792
0.0359655 0.0521248 0.0153658
0.0854963 0.05066 0.00941482
0.168536 0.0502632 0.00712596
0.274464 0.055436 0.00901808
0.372457 0.0608835 0.0124056
0.463447 0.0669718 0.0157473
0.547417 0.0729686 0.0186618
0.625711 0.0791943 0.0210117
0.700435 0.0856184 0.0229953
0.773907 0.0926986 0.024979
0.84625 0.100237 0.0272526
0.907423 0.106996 0.0290684
0.942016 0.110277 0.0298772
0.957443 0.111467 0.0301366
0.962417 0.112108 0.0301823
0.963394 0.113146 0.0301823
0.96347 0.115175 0.0301976
0.963455 0.118746 0.0302129
0.963455 0.123278 0.0302434
0.963455 0.128481 0.0302892
0.963439 0.135195 0.0303502
0.963424 0.144488 0.0304723
0.963424 0.156207 0.0307927
0.963409 0.166751 0.0312047
0.963394 0.170901 0.0314183
0.0016022 0.0116274 0.0105135
0.00225834 0.016083 0.0142824
0.00317388 0.0224155 0.0193027
0.00450141 0.0318761 0.0267033
0.00622568 0.0441291 0.0362249
0.00828565 0.0579843 0.0438392
0.01178 0.0741741 0.0475929
0.0187228 0.0887922 0.0458839
0.0343633 0.0990921 0.0377356
0.0715801 0.10103 0.0252384
0.145907 0.0936446 0.0135805
0.260822 0.0934768 0.0104067
0.367376 0.0978561 0.0116426
0.460578 0.102251 0.0144656
0.545434 0.106462 0.0175021
0.624155 0.110613 0.0202029
0.700435 0.115312 0.0225834
0.775845 0.121141 0.024979
0.849928 0.127626 0.0276493
0.911269 0.132982 0.0294652
0.944274 0.134936 0.0300603
0.958358 0.135851 0.0301976
0.962722 0.136873 0.0302129
0.963439 0.138994 0.0302129
0.963439 0.142382 0.0302281
0.963424 0.146944 0.0302586
0.963424 0.15259 0.0303044
0.963424 0.159365 0.030396
0.963394 0.168276 0.0305791
0.963394 0.179385 0.0306706
0.963378 0.192187 0.0308232
0.963363 0.203357 0.0311284
0.963363 0.207492 0.0313725
0.00444038 0.0307774 0.0271305
0.00563058 0.0394751 0.0352941
0.00682078 0.0495003 0.0444038
0.00814832 0.0621958 0.0552987
0.00958267 0.0771496 0.0673228
0.0114137 0.0934005 0.0767987
0.014725 0.111437 0.0819715
0.02327 0.132753 0.0816358
0.0394141 0.150729 0.0733043
0.0686351 0.160952 0.0564736
0.122301 0.161013 0.0345464
0.217975 0.140551 0.0184634
0.344945 0.142046 0.0121462
0.448402 0.146136 0.012192
0.536126 0.149981 0.0148318
0.615 0.153994 0.0178836
0.691112 0.158297 0.0207828
0.766873 0.163516 0.0236515
0.841428 0.1691 0.0264897
0.904982 0.174334 0.0286107
0.941314 0.176654 0.029572
0.957443 0.177737 0.0298619
0.962509 0.178943 0.0298924
0.963378 0.180957 0.0298619
0.963394 0.184009 0.0298772
0.963378 0.188281 0.0299077
0.963378 0.193881 0.0299535
0.963363 0.201144 0.0299382
0.963363 0.210285 0.0298466
0.963348 0.221149 0.0299535
0.963348 0.233463 0.030045
0.963333 0.244053 0.0299992
0.963333 0.24799 0.0299687
0.00813306 0.0628519 0.0556802
0.00914015 0.0742962 0.0669871
0.0100557 0.0864424 0.0785992
0.0110781 0.100801 0.0914015
0.012314 0.117052 0.104601
0.0141909 0.135714 0.115938
0.017258 0.156512 0.123232
0.0261997 0.180056 0.124498
0.0448157 0.204105 0.118181
0.0744335 0.22417 0.103075
0.117144 0.235691 0.0800793
0.182498 0.230335 0.0529488
0.298192 0.204456 0.0311284
0.416632 0.201617 0.0189975
0.516594 0.204242 0.0144656
0.600397 0.206394 0.014725
0.676371 0.208698 0.0172122
0.751781 0.21239 0.020325
0.827466 0.21738 0.0234379
0.894484 0.222339 0.0259861
0.935973 0.22501 0.0273136
0.955276 0.225956 0.0278019
0.961868 0.226658 0.0279545
0.963241 0.22826 0.0280613
0.963333 0.230823 0.0281987
0.963333 0.23473 0.0283207
0.963333 0.240116 0.0283665
0.963317 0.247318 0.0282444
0.963317 0.256245 0.0280919
0.963317 0.267018 0.0285649
0.963302 0.279774 0.0299077
0.963302 0.291173 0.0312963
0.963302 0.295369 0.0319524
0.0111086 0.102068 0.0915694
0.0117952 0.114794 0.104585
0.0125582 0.128206 0.117571
0.013611 0.144289 0.131853
0.0150301 0.162783 0.147005
0.0167391 0.183352 0.160159
0.0200961 0.206806 0.169482
0.0298619 0.232868 0.172519
0.0502937 0.261143 0.16791
0.0817731 0.28806 0.154314
0.121721 0.309224 0.132708
0.172015 0.320211 0.105638
0.260273 0.302571 0.0715648
0.380209 0.276799 0.0446174
0.491295 0.268879 0.0278477
0.584039 0.270191 0.0188449
0.662562 0.271366 0.0154574
0.736202 0.271489 0.0163424
0.810864 0.27335 0.0194858
0.880537 0.27689 0.0225834
0.927901 0.27892 0.0244144
0.951904 0.279271 0.0251621
0.960906 0.279667 0.0253605
0.963073 0.28069 0.0254368
0.963287 0.283055 0.0256199
0.963287 0.28719 0.0259251
0.963287 0.292653 0.0263218
0.963287 0.299718 0.0269322
0.963287 0.308644 0.0276341
0.963272 0.319631 0.0293736
0.963272 0.333181 0.0338293
0.963287 0.345418 0.0390784
0.963287 0.349767 0.041413
0.0137484 0.147478 0.133227
0.0142977 0.161257 0.147662
0.0150759 0.176165 0.162097
0.0162509 0.193637 0.177401
0.0176242 0.213397 0.193637
0.0190738 0.236027 0.208759
0.0230259 0.261463 0.219654
0.033402 0.289586 0.22472
0.0539864 0.319738 0.222095
0.0860151 0.350164 0.210498
0.127291 0.378286 0.190448
0.173846 0.398947 0.162081
0.237705 0.400717 0.129717
0.344625 0.374975 0.090486
0.460838 0.349355 0.0603952
0.563439 0.33994 0.0410925
0.648173 0.342138 0.0294347
0.722972 0.344091 0.0235294
0.795254 0.343221 0.0225528
0.865385 0.342779 0.0233463
0.918059 0.342626 0.0242466
0.947524 0.341634 0.0246128
0.959655 0.34136 0.0246281
0.96286 0.341909 0.0247044
0.963241 0.343984 0.025391
0.963256 0.347906 0.0269169
0.963256 0.353079 0.029099
0.963256 0.35996 0.0322728
0.963256 0.369024 0.0364385
0.963256 0.380636 0.0420691
0.963272 0.394965 0.0506905
0.963287 0.407477 0.0594186
0.963287 0.411582 0.0629129
0.0165866 0.19884 0.180056
0.0170901 0.213733 0.195651
0.0178225 0.229465 0.210819
0.0188449 0.24802 0.227237
0.0198825 0.26923 0.244785
0.0209812 0.293309 0.261219
0.0254368 0.320134 0.273335
0.0357977 0.34902 0.280247
0.055314 0.379065 0.280385
0.0861067 0.409415 0.272343
0.127596 0.439368 0.255467
0.176638 0.465324 0.224033
0.229496 0.481758 0.191257
0.313207 0.474434 0.149096
0.427512 0.445945 0.106584
0.538537 0.42031 0.0771801
0.629984 0.412726 0.0604562
0.708766 0.418235 0.0478676
0.780941 0.420783 0.0400244
0.850019 0.418769 0.0366217
0.906416 0.416327 0.0357977
0.94136 0.414298 0.0357977
0.957473 0.412879 0.0361181
0.962417 0.412772 0.0368811
0.963211 0.414572 0.0387121
0.963256 0.417594 0.0416876
0.963256 0.422248 0.0458228
0.963256 0.429343 0.0515908
0.963256 0.438392 0.0590372
0.963272 0.449973 0.0681315
0.963287 0.463645 0.0795605
0.963302 0.475273 0.0901198
0.963317 0.478874 0.0940719
0.0194705 0.255589 0.231708
0.0197452 0.271397 0.248081
0.0201724 0.287984 0.264057
0.0206302 0.307118 0.281407
0.0210422 0.328954 0.299458
0.0217899 0.353719 0.316625
0.0264134 0.381048 0.329625
0.0363165 0.409613 0.338155
0.0544594 0.438056 0.341131
0.0830091 0.466407 0.338048
0.12256 0.494423 0.325887
0.174105 0.522728 0.294102
0.225422 0.544854 0.256046
0.289021 0.555856 0.213794
0.39115 0.543847 0.163806
0.508324 0.513726 0.123186
0.610727 0.4878 0.100069
0.690044 0.483925 0.0868544
0.765393 0.4934 0.0743877
0.834546 0.496956 0.066041
0.893187 0.495308 0.0625925
0.933257 0.492821 0.0619516
0.95404 0.491341 0.0631266
0.961578 0.490684 0.0651102
0.963119 0.491814 0.0682383
0.963256 0.494102 0.072343
0.963256 0.498283 0.0779126
0.963256 0.504753 0.0849928
0.963272 0.513054 0.0938125
0.963272 0.523293 0.104326
0.963302 0.535058 0.116899
0.963317 0.545449 0.128557
0.963317 0.548592 0.13283
0.0214084 0.317571 0.288655
0.0210727 0.333135 0.304891
0.0207523 0.349935 0.321431
0.0204623 0.368978 0.33901
0.0203708 0.39057 0.356527
0.0211795 0.41474 0.373266
0.0256962 0.44155 0.386862
0.03505 0.468681 0.396399
0.0519112 0.495064 0.401801
0.0783093 0.520958 0.40267
0.115175 0.546715 0.394934
0.165682 0.573999 0.365881
0.216983 0.597345 0.327092
0.272877 0.614862 0.280308
0.352102 0.621927 0.228855
0.468269 0.607385 0.177615
0.586221 0.575174 0.143053
0.670024 0.548379 0.131823
0.745434 0.55259 0.12163
0.817731 0.565393 0.1093
0.879011 0.569314 0.101762
0.923674 0.56968 0.0997635
0.949462 0.569085 0.101274
0.960189 0.568551 0.104326
0.962844 0.569375 0.108659
0.963149 0.571191 0.11371
0.963165 0.574899 0.120424
0.963165 0.579705 0.128206
0.96318 0.586343 0.137819
0.96318 0.594797 0.149371
0.963195 0.604715 0.163226
0.963195 0.61326 0.176043
0.963211 0.616144 0.181064
0.0211337 0.382345 0.348882
0.0198215 0.396994 0.365026
0.0185702 0.412772 0.381353
0.0176699 0.430655 0.398138
0.0179904 0.451194 0.414008
0.0199741 0.474327 0.429648
0.0243992 0.499367 0.443153
0.033051 0.524437 0.453208
0.0484169 0.548669 0.460288
0.0727092 0.571984 0.463172
0.107454 0.595102 0.456474
0.155825 0.62031 0.427619
0.206058 0.644877 0.392096
0.254749 0.663325 0.347662
0.320699 0.677394 0.292027
0.414893 0.681376 0.238407
0.53576 0.665888 0.197421
0.654459 0.632425 0.174426
0.723552 0.605432 0.171359
0.797482 0.615854 0.162036
0.86334 0.629145 0.151522
0.912978 0.635096 0.147127
0.943633 0.637354 0.148943
0.957778 0.638361 0.15404
0.962005 0.639292 0.160082
0.962692 0.641199 0.166918
0.962737 0.643748 0.174456
0.962737 0.647684 0.183597
0.962753 0.65275 0.193896
0.962768 0.659159 0.205966
0.962753 0.667155 0.221607
0.962676 0.673762 0.236454
0.962646 0.676081 0.242618
0.0185855 0.445884 0.408789
0.0169375 0.458869 0.423926
0.0157778 0.473335 0.439109
0.0154269 0.489891 0.454368
0.016022 0.508995 0.469734
0.0179904 0.530755 0.483909
0.0215915 0.553445 0.496391
0.0295415 0.576211 0.506432
0.0445563 0.598108 0.514076
0.0679942 0.619043 0.51902
0.100359 0.639139 0.517174
0.142977 0.659663 0.49929
0.194034 0.684489 0.459648
0.24686 0.707286 0.412284
0.30071 0.723888 0.355276
0.37052 0.7355 0.292302
0.47834 0.737057 0.240742
0.614511 0.720348 0.218402
0.715541 0.68809 0.217227
0.777188 0.664744 0.213809
0.843854 0.672343 0.207874
0.898817 0.683345 0.205341
0.93463 0.69041 0.20882
0.952819 0.69395 0.21648
0.959655 0.69659 0.226062
0.961349 0.699016 0.235218
0.961593 0.701534 0.244251
0.961624 0.705104 0.254185
0.961639 0.709407 0.265461
0.961578 0.714595 0.279469
0.961471 0.720317 0.296101
0.961364 0.725582 0.311711
0.961318 0.727855 0.31873
0.0159152 0.505776 0.467094
0.0145571 0.518181 0.481224
0.013611 0.53167 0.495048
0.0130007 0.546715 0.50901
0.0128634 0.563714 0.52311
0.0144808 0.583246 0.535485
0.0179294 0.603464 0.546792
0.0261082 0.623896 0.556237
0.0417029 0.643793 0.563775
0.0653849 0.66305 0.569192
0.0961776 0.6813 0.569589
0.134264 0.699336 0.561257
0.181842 0.719829 0.535607
0.239475 0.743648 0.488716
0.294087 0.764599 0.431998
0.354223 0.780011 0.368215
0.435981 0.789242 0.304646
0.55021 0.789181 0.257481
0.682994 0.772915 0.249714
0.769604 0.742855 0.262425
0.828717 0.724269 0.261173
0.882918 0.724559 0.263523
0.92256 0.731167 0.272053
0.945632 0.737102 0.284779
0.955825 0.741482 0.299123
0.959136 0.745083 0.312428
0.959777 0.748272 0.324331
0.959792 0.751598 0.336294
0.959762 0.755016 0.348547
0.959686 0.759197 0.36257
0.959594 0.76408 0.378637
0.959503 0.768734 0.393652
0.959487 0.770657 0.400397
0.0123751 0.562173 0.523262
0.0112306 0.57377 0.535927
0.0105135 0.58587 0.547982
0.0101167 0.599329 0.56022
0.0102998 0.614572 0.572076
0.0116426 0.632105 0.583352
0.0151369 0.650446 0.593729
0.0243381 0.668833 0.602518
0.0411383 0.687251 0.609995
0.0652781 0.705379 0.615412
0.0954604 0.723064 0.617029
0.131914 0.739895 0.61326
0.17995 0.757351 0.596475
0.240299 0.77908 0.558282
0.296193 0.801465 0.505043
0.349325 0.820523 0.441413
0.418051 0.833448 0.373144
0.516228 0.839338 0.314931
0.633036 0.837354 0.283726
0.739788 0.821118 0.293385
0.817502 0.793927 0.308476
0.871061 0.775845 0.315984
0.911147 0.771221 0.328481
0.93753 0.77409 0.34667
0.951095 0.778622 0.366506
0.956329 0.782834 0.384695
0.957519 0.786969 0.400977
0.957641 0.790768 0.415396
0.957717 0.794247 0.428565
0.957748 0.798108 0.44239
0.957748 0.80235 0.457267
0.957748 0.806409 0.471153
0.957778 0.80827 0.477928
0.00929274 0.614649 0.575479
0.00854505 0.62536 0.586847
0.00819409 0.636225 0.59736
0.0081178 0.648676 0.608087
0.00854505 0.662715 0.618219
0.00999466 0.678538 0.62829
0.0146334 0.695201 0.637522
0.0255283 0.71252 0.646265
0.0434119 0.729747 0.65359
0.0675059 0.746822 0.658778
0.0974289 0.763775 0.660777
0.134249 0.780011 0.658763
0.184283 0.796078 0.646464
0.247181 0.814878 0.617639
0.306065 0.835508 0.574441
0.356588 0.855879 0.515663
0.413703 0.87155 0.444251
0.496651 0.879561 0.375448
0.603174 0.881926 0.330907
0.705196 0.878904 0.322805
0.794034 0.862242 0.342885
0.859968 0.837797 0.360723
0.903166 0.819379 0.376287
0.930449 0.811917 0.39617
0.946426 0.812802 0.420676
0.953582 0.816693 0.444739
0.955642 0.821134 0.465797
0.956039 0.825208 0.483101
0.956283 0.828916 0.497963
0.956451 0.832578 0.512001
0.956588 0.836301 0.52607
0.95671 0.839841 0.538979
0.956771 0.841627 0.545846
0.00737011 0.664363 0.624186
0.00701915 0.67422 0.634424
0.00689708 0.684169 0.643656
0.00697337 0.695476 0.652903
0.00746166 0.708766 0.662425
0.00987259 0.723369 0.671351
0.0164797 0.738872 0.679896
0.0291142 0.755077 0.688151
0.0477455 0.771298 0.695094
0.0718242 0.787579 0.700038
0.101595 0.803708 0.702373
0.139544 0.819394 0.701244
0.191882 0.834455 0.691936
0.257084 0.850141 0.670893
0.320867 0.867262 0.63856
0.375036 0.885054 0.589151
0.427695 0.900816 0.520943
0.497276 0.910201 0.443473
0.593713 0.912795 0.384268
0.686168 0.91487 0.360693
0.771191 0.910704 0.378073
0.843641 0.893538 0.401862
0.894286 0.869551 0.418326
0.924819 0.851911 0.435935
0.942107 0.845548 0.460639
0.951019 0.847059 0.488945
0.954208 0.851148 0.51487
0.955184 0.855512 0.536782
0.955688 0.859159 0.554345
0.956008 0.862531 0.569665
0.956283 0.865751 0.583932
0.956497 0.868757 0.596628
0.956634 0.87039 0.603784
0.00633249 0.711925 0.670283
0.00613413 0.721263 0.679545
0.00611887 0.730495 0.687739
0.00636301 0.741039 0.696315
0.00743114 0.753506 0.705272
0.0113832 0.767285 0.713542
0.0200504 0.781781 0.721492
0.034287 0.796918 0.728985
0.0537423 0.812222 0.735225
0.078172 0.827848 0.740063
0.108339 0.843046 0.742596
0.147723 0.85742 0.741802
0.202182 0.870665 0.734829
0.269886 0.883497 0.720134
0.337911 0.896345 0.695445
0.398398 0.909499 0.654139
0.454444 0.92192 0.592767
0.518303 0.930739 0.516854
0.601587 0.934005 0.448859
0.685725 0.935988 0.419348
0.759625 0.937133 0.427756
0.827756 0.92961 0.446769
0.882246 0.910124 0.46186
0.917998 0.888243 0.474006
0.937911 0.874632 0.491875
0.948425 0.87245 0.519615
0.953109 0.875639 0.549508
0.955093 0.879759 0.576226
0.956039 0.883741 0.598321
0.956436 0.887068 0.616342
0.956741 0.890257 0.63238
0.956985 0.89308 0.64593
0.957137 0.894682 0.653941
0.00556954 0.758022 0.715099
0.00556954 0.766949 0.723491
0.00585946 0.775784 0.731167
0.00672923 0.786068 0.739269
0.00900282 0.797726 0.747097
0.0144045 0.810513 0.754925
0.0248417 0.82417 0.762341
0.0406348 0.838224 0.768963
0.0611734 0.852354 0.774456
0.0864118 0.866453 0.778668
0.118364 0.880064 0.780865
0.160037 0.892409 0.779934
0.216876 0.903105 0.774563
0.286549 0.912703 0.763806
0.356588 0.921752 0.743252
0.420005 0.93048 0.705776
0.479957 0.938399 0.649699
0.545449 0.94406 0.582467
0.620737 0.946746 0.523491
0.69398 0.948119 0.496834
0.760006 0.948989 0.492195
0.819486 0.945708 0.499763
0.869856 0.933425 0.510307
0.908064 0.914427 0.516915
0.932662 0.898085 0.5252
0.945602 0.892073 0.544915
0.952178 0.893751 0.574899
0.955474 0.897337 0.605127
0.956893 0.901473 0.631922
0.957321 0.90544 0.654429
0.95758 0.90901 0.673365
0.957809 0.912016 0.688701
0.957961 0.913954 0.698375
0.00537118 0.803494 0.759579
0.00570687 0.812024 0.767391
0.00660716 0.820661 0.77438
0.0084535 0.830182 0.781003
0.0115663 0.841169 0.788128
0.0188449 0.853025 0.795087
0.0312657 0.865324 0.801663
0.0482338 0.877607 0.807523
0.0697795 0.889967 0.81265
0.0969406 0.901701 0.815991
0.132082 0.912444 0.81706
0.177401 0.921294 0.814969
0.237537 0.928893 0.810132
0.308064 0.935683 0.800443
0.378241 0.941756 0.781521
0.441871 0.947021 0.74815
0.500465 0.951278 0.697246
0.561685 0.953918 0.634287
0.632929 0.954498 0.58265
0.705501 0.954818 0.565011
0.7664 0.954055 0.560479
0.818219 0.950774 0.559487
0.862837 0.942901 0.562387
0.898695 0.930037 0.565866
0.925109 0.915969 0.568139
