LUT预设1/LUT全系打包/6.FAKE5207&淡雅系列/淡雅LUT/log灰片使用/淡雅cold.cube
TITLE "Generated by Resolve"
LUT_3D_SIZE 9
0 0 0
1.5259e-05 0 0
0.0153506 3.0518e-05 0.000183108
0.152575 0.00730907 0.00479133
0.42652 0.0328679 0.0154421
0.696498 0.0687724 0.0228275
0.937133 0.0983749 0.0296483
0.96347 0.100328 0.0301518
0.96347 0.100328 0.0301518
0 0 0
0 0 0
0.0370184 0.000381476 0.000686656
0.27538 0.0169528 0.00943008
0.572473 0.0520638 0.0199893
0.82916 0.0855116 0.026276
0.961196 0.100267 0.0301213
0.96347 0.100328 0.0301518
0.96347 0.100725 0.0301518
4.57771e-05 0.000610361 0.000564584
0.00103761 0.00732433 0.00457771
0.0305943 0.0212863 0.00534066
0.342473 0.0363928 0.011841
0.669184 0.069398 0.0223545
0.925017 0.0994125 0.0293584
0.963455 0.103502 0.0301518
0.96347 0.112917 0.0302281
0.963424 0.141085 0.030869
0.00820935 0.0633555 0.0558022
0.0121157 0.11548 0.104204
0.0380865 0.200641 0.124743
0.256046 0.214099 0.0394293
0.64651 0.211429 0.0160678
0.920897 0.227649 0.0267185
0.963302 0.232822 0.0280766
0.963317 0.255238 0.0280919
0.963302 0.298207 0.0323339
0.0196689 0.257252 0.232425
0.0209506 0.326833 0.298756
0.0460822 0.432441 0.346273
0.203662 0.540825 0.277928
0.56669 0.502632 0.112779
0.865797 0.502403 0.0679179
0.962539 0.497795 0.0704509
0.963272 0.514458 0.092958
0.963317 0.553903 0.136385
0.0161135 0.508507 0.468879
0.012314 0.562203 0.523415
0.0333562 0.639811 0.56614
0.156588 0.713085 0.558602
0.387045 0.789609 0.343633
0.793683 0.738201 0.266911
0.950515 0.743374 0.298955
0.959609 0.757259 0.349996
0.959319 0.774136 0.406653
0.00633249 0.714122 0.672175
0.0065919 0.753002 0.70663
0.0441444 0.809354 0.737514
0.172519 0.867597 0.744869
0.425589 0.917494 0.640452
0.714214 0.938903 0.430762
0.925658 0.885084 0.484031
0.95552 0.883711 0.588846
0.957137 0.896315 0.655161
0.0077821 0.892012 0.844678
0.017792 0.916762 0.865934
0.0813611 0.943236 0.882933
0.259602 0.958144 0.878813
0.52195 0.962707 0.817411
0.739467 0.960586 0.669367
0.902296 0.940673 0.673152
0.955627 0.923339 0.681926
0.960159 0.940566 0.797162
0.0358434 0.964752 0.944259
0.0906539 0.96614 0.948974
0.214649 0.966567 0.949386
0.397436 0.966094 0.939986
0.602045 0.965469 0.904845
0.763348 0.963684 0.821775
0.901335 0.954528 0.843809
0.954498 0.949081 0.848325
0.961685 0.949554 0.853254
1.5259e-05 3.0518e-05 0.000183108
1.5259e-05 1.5259e-05 0.000122072
0.0304723 0.000228885 0.000640879
0.23241 0.0136416 0.0078584
0.520745 0.0451514 0.018616
0.781918 0.0797284 0.0251011
0.958434 0.100099 0.0300755
0.96347 0.100328 0.0301671
0.96347 0.100237 0.0303349
0 1.5259e-05 4.57771e-05
3.0518e-05 7.62951e-05 0.000366217
0.0445258 0.000564584 0.000854505
0.318029 0.0209049 0.011017
0.628 0.0593576 0.0212558
0.894102 0.0935988 0.0281529
0.963256 0.100328 0.0301518
0.96347 0.100328 0.0301518
0.96347 0.101152 0.0307469
0.00184634 0.013138 0.00395209
0.00332647 0.0220035 0.018143
0.0327916 0.0290684 0.0129091
0.361975 0.044892 0.0130159
0.688045 0.0743725 0.0228428
0.936461 0.102312 0.0296788
0.963455 0.108248 0.0302129
0.963455 0.120668 0.0310216
0.963424 0.157961 0.0341802
0.0160372 0.127947 0.0951705
0.0153964 0.164599 0.151476
0.0394293 0.226246 0.174182
0.253483 0.234546 0.0575418
0.649393 0.231922 0.0245975
0.922377 0.244602 0.0309758
0.963302 0.24979 0.0322118
0.963317 0.274174 0.0364691
0.963317 0.320836 0.0555581
0.0265049 0.336461 0.286809
0.0191196 0.386587 0.355596
0.039704 0.468925 0.410498
0.187854 0.547463 0.341787
0.560891 0.527352 0.156024
0.865171 0.523369 0.121614
0.962661 0.517021 0.118654
0.963363 0.532937 0.140154
0.963394 0.569833 0.184436
0.0172732 0.567224 0.516533
0.00972 0.606241 0.568505
0.0328222 0.666209 0.611582
0.171664 0.730251 0.615396
0.41799 0.789105 0.418326
0.794095 0.755169 0.321004
0.950469 0.759533 0.362417
0.959808 0.769574 0.405234
0.959625 0.785779 0.456519
0.00671397 0.752972 0.706371
0.0068513 0.784222 0.740978
0.0524758 0.831174 0.772839
0.208988 0.880919 0.782788
0.468544 0.922454 0.701015
0.720455 0.939696 0.509438
0.925704 0.894072 0.532448
0.956436 0.892393 0.630167
0.957748 0.903136 0.686198
0.0107729 0.914534 0.870237
0.0242008 0.932982 0.891249
0.112398 0.949752 0.905989
0.305638 0.960494 0.901732
0.552056 0.963409 0.85478
0.755154 0.9608 0.7308
0.900206 0.943694 0.718471
0.95642 0.928512 0.715801
0.960769 0.944366 0.82121
0.0541695 0.966217 0.951339
0.130419 0.966506 0.953964
0.26215 0.966476 0.953368
0.437171 0.966003 0.947738
0.62356 0.965469 0.926375
0.77734 0.964187 0.864317
0.907912 0.956619 0.871717
0.955749 0.952743 0.872648
0.962173 0.952819 0.872786
0.00486763 0.0101472 0.0440223
0.00723278 0.0153353 0.063035
0.0342565 0.0120546 0.0543832
0.257359 0.0114137 0.03888
0.578317 0.043061 0.0366674
0.850599 0.0819257 0.0399329
0.963088 0.0942702 0.04271
0.963745 0.0917067 0.048249
0.964675 0.0829328 0.0675212
0.00875868 0.0182498 0.0747539
0.0129091 0.0265202 0.101259
0.0495308 0.0191043 0.0867018
0.357565 0.0162051 0.0533608
0.693462 0.0551461 0.0450294
0.934905 0.091249 0.0440223
0.96376 0.0932631 0.0450446
0.963958 0.0909743 0.0500649
0.964706 0.08542 0.06804
0.00761425 0.0559854 0.0703746
0.0083772 0.0661479 0.0831006
0.0356756 0.0591897 0.0847334
0.368185 0.0527047 0.0488441
0.706722 0.0804761 0.0416724
0.942809 0.110018 0.0426184
0.963623 0.117494 0.0424353
0.963561 0.142092 0.0467842
0.963455 0.195697 0.0599985
0.0520943 0.252537 0.116869
0.0518502 0.278538 0.147463
0.0452277 0.28809 0.253254
0.253407 0.273472 0.148745
0.64918 0.267002 0.0876326
0.92314 0.277531 0.0703288
0.963348 0.283131 0.0693828
0.963394 0.310674 0.0860761
0.963439 0.361273 0.12639
0.0885786 0.488716 0.286213
0.0471504 0.500542 0.394049
0.0404059 0.529641 0.492897
0.201785 0.565148 0.464607
0.551583 0.562936 0.259541
0.862318 0.552132 0.217014
0.962951 0.543328 0.203326
0.9635 0.557168 0.222431
0.963561 0.594873 0.270176
0.039353 0.663676 0.554131
0.0129549 0.676509 0.620401
0.0442359 0.708583 0.670466
0.230503 0.756176 0.68751
0.473045 0.792279 0.556115
0.791257 0.779431 0.413794
0.950286 0.780118 0.458686
0.960372 0.787228 0.487007
0.960403 0.802853 0.526574
0.0140536 0.815457 0.748394
0.0124819 0.835142 0.786206
0.0793622 0.864408 0.820966
0.27834 0.900191 0.834745
0.531853 0.92961 0.7944
0.732586 0.940566 0.624765
0.925216 0.905577 0.60238
0.957473 0.904448 0.688304
0.958648 0.912245 0.729854
0.0157321 0.941268 0.900771
0.0457008 0.948653 0.918776
0.176394 0.958251 0.930266
0.376989 0.963256 0.929534
0.590082 0.964279 0.900298
0.775692 0.962097 0.810101
0.905791 0.948272 0.787198
0.957534 0.935546 0.763439
0.961654 0.949752 0.853651
0.105623 0.966598 0.955596
0.198001 0.966567 0.956237
0.337041 0.966293 0.956497
0.4972 0.965866 0.954925
0.652323 0.965454 0.945037
0.797269 0.964614 0.908812
0.916945 0.959472 0.906371
0.957839 0.957305 0.902815
0.962798 0.957015 0.898192
0.0354467 0.0767529 0.233036
0.043534 0.0975814 0.280385
0.0610056 0.0885786 0.289403
0.253101 0.0112459 0.299275
0.632639 0.0199435 0.210712
0.895186 0.0368353 0.162707
0.966644 0.0408942 0.165698
0.966613 0.0354467 0.182864
0.966232 0.0328222 0.227665
0.0479896 0.109926 0.30808
0.059205 0.144625 0.38471
0.085359 0.129488 0.399817
0.346593 0.00843824 0.384848
0.730526 0.021561 0.28098
0.950927 0.0342412 0.20267
0.966522 0.0343786 0.192233
0.966369 0.0341344 0.210697
0.966094 0.0348974 0.234424
0.0218967 0.153735 0.317113
0.0248569 0.183383 0.374426
0.0515602 0.181445 0.405325
0.355947 0.040238 0.400549
0.743099 0.0393683 0.292271
0.95317 0.0529946 0.20824
0.966064 0.068101 0.190127
0.965835 0.100984 0.192599
0.965194 0.170397 0.227359
0.0260319 0.330953 0.334493
0.0272526 0.358633 0.359396
0.0320439 0.358007 0.359762
0.246036 0.338094 0.35079
0.646647 0.307713 0.249912
0.91841 0.328344 0.213443
0.963714 0.338933 0.206027
0.963668 0.371344 0.224643
0.963745 0.42446 0.264775
0.0910658 0.600977 0.396445
0.0988174 0.6206 0.3991
0.0769513 0.628077 0.469871
0.259998 0.610574 0.572381
0.569543 0.600366 0.445762
0.856977 0.583032 0.357748
0.963211 0.579324 0.338308
0.963729 0.594598 0.354192
0.963775 0.630701 0.398093
0.112978 0.77702 0.515145
0.0949111 0.79118 0.564858
0.066804 0.787106 0.69218
0.312276 0.795544 0.758755
0.54876 0.805432 0.70367
0.787305 0.807904 0.543862
0.950057 0.804578 0.570016
0.96112 0.810025 0.583246
0.960861 0.82182 0.611017
0.084184 0.915755 0.703822
0.0478828 0.919142 0.779492
0.124849 0.911238 0.862303
0.372854 0.922484 0.887739
0.59675 0.939956 0.876585
0.76228 0.941146 0.755581
0.922881 0.918883 0.693538
0.958831 0.918395 0.757137
0.959838 0.923476 0.782895
0.0165103 0.964065 0.897307
0.0832532 0.964141 0.93489
0.26833 0.965469 0.947692
0.470497 0.964538 0.949874
0.641978 0.964904 0.941604
0.801144 0.963928 0.887678
0.915221 0.954406 0.860685
0.959014 0.944488 0.821515
0.962722 0.955886 0.890211
0.185763 0.966674 0.956664
0.299535 0.9664 0.957855
0.437049 0.966033 0.959121
0.573648 0.965682 0.960067
0.695003 0.965377 0.959136
0.8215 0.964874 0.942672
0.927886 0.962005 0.934997
0.960128 0.961517 0.932204
0.963516 0.961044 0.92459
0.0736706 0.202243 0.51136
0.0775006 0.223011 0.556741
0.102083 0.220768 0.581384
0.225635 0.0865797 0.606775
0.648234 0.00148013 0.623728
0.917906 0.0147707 0.571969
0.961807 0.0166934 0.56582
0.961517 0.0154116 0.586435
0.961288 0.0127871 0.623346
0.0795453 0.233906 0.581033
0.0838178 0.270039 0.658213
0.118166 0.269764 0.692256
0.288273 0.0773327 0.709224
0.724941 0.0011902 0.698695
0.949676 0.0102998 0.652918
0.961227 0.0121767 0.630793
0.961273 0.012665 0.628641
0.961212 0.021912 0.640223
0.0369573 0.269444 0.577218
0.0392767 0.298833 0.639155
0.0677195 0.306798 0.684688
0.279637 0.124971 0.72932
0.720836 0.0359655 0.704585
0.947372 0.0417182 0.653803
0.961425 0.0537881 0.624643
0.961669 0.0935073 0.61033
0.961975 0.173907 0.609812
0.0330358 0.443336 0.642893
0.035462 0.473548 0.692363
0.0375219 0.482658 0.712489
0.179706 0.452262 0.658366
0.651606 0.328237 0.657786
0.924529 0.326772 0.595056
0.963287 0.333669 0.559045
0.963607 0.378195 0.549249
0.963836 0.450614 0.560204
0.0148775 0.648569 0.621134
0.0163882 0.670207 0.641093
0.0173342 0.66949 0.640726
0.155215 0.659739 0.634379
0.57377 0.644694 0.638483
0.849561 0.627253 0.556466
0.963119 0.635386 0.540673
0.964111 0.650736 0.545068
0.964111 0.682445 0.568276
0.0707713 0.858335 0.676875
0.0773175 0.876188 0.681407
0.0799268 0.874556 0.684642
0.212955 0.861952 0.735149
0.600076 0.838331 0.80296
0.79469 0.833677 0.699596
0.949691 0.829801 0.681102
0.961883 0.834089 0.687648
0.961715 0.846372 0.706661
0.0866865 0.960021 0.726482
0.0814984 0.961547 0.737224
0.100938 0.959014 0.78819
0.386023 0.951308 0.894148
0.668528 0.949752 0.928344
0.803662 0.945342 0.867475
0.922957 0.933471 0.802563
0.960464 0.933455 0.828717
0.961212 0.936461 0.840742
0.040589 0.966705 0.818448
0.0588388 0.966781 0.866148
0.255299 0.966354 0.929839
0.560204 0.964904 0.957061
0.711116 0.965026 0.957565
0.839307 0.964691 0.943221
0.928649 0.960082 0.918257
0.960693 0.954955 0.884764
0.963699 0.961227 0.924575
0.162844 0.96672 0.943404
0.317281 0.966354 0.955535
0.525307 0.96582 0.960586
0.661707 0.965469 0.96202
0.755291 0.96524 0.962524
0.854902 0.964843 0.958099
0.938323 0.963699 0.952651
0.961883 0.96405 0.952972
0.964248 0.963592 0.94609
0.0871748 0.318776 0.755276
0.0895552 0.334249 0.78764
0.124758 0.335241 0.819654
0.236667 0.22002 0.839551
0.642832 0.00302129 0.896635
0.922591 0.000595102 0.892454
0.960876 0.000610361 0.879744
0.960739 0.000549325 0.881407
0.960662 0.00167849 0.896147
0.0903487 0.342306 0.803067
0.0973068 0.36022 0.85034
0.131289 0.354192 0.870802
0.251759 0.215015 0.889296
0.704509 0.00141909 0.942916
0.942061 0.000579843 0.928328
0.960464 0.000762951 0.911986
0.960555 0.0052491 0.904005
0.960876 0.0420233 0.900786
0.0359655 0.373754 0.777142
0.0416266 0.385565 0.813916
0.0690318 0.381613 0.841276
0.25214 0.263493 0.89369
0.686107 0.0349126 0.944076
0.934676 0.0693523 0.921828
0.96083 0.0923934 0.903563
0.961105 0.143114 0.894041
0.961563 0.22678 0.888457
0.0394293 0.545632 0.866682
0.0389868 0.562417 0.899672
0.0348211 0.563592 0.90782
0.12285 0.518929 0.81326
0.584772 0.342138 0.909911
0.910643 0.368338 0.898909
0.962158 0.384451 0.878798
0.96231 0.422385 0.867674
0.962448 0.489158 0.860761
0.0432441 0.707103 0.86099
0.0452583 0.72636 0.889921
0.0478065 0.728679 0.897246
0.181308 0.727367 0.896651
0.514549 0.705257 0.846983
0.851987 0.656321 0.849302
0.961517 0.662486 0.831098
0.963165 0.677333 0.821103
0.963241 0.710414 0.817685
0.00935378 0.90042 0.859846
0.00772107 0.908339 0.867002
0.0123751 0.902296 0.861631
0.165087 0.890745 0.85275
0.530785 0.876493 0.845762
0.801465 0.863966 0.843549
0.947417 0.857313 0.808118
0.96231 0.865003 0.809644
0.962173 0.875959 0.817777
0.00396735 0.966796 0.901427
0.00361639 0.966827 0.900267
0.032639 0.966415 0.894301
0.264073 0.964797 0.889555
0.620661 0.959533 0.915312
0.834699 0.95375 0.932982
0.932448 0.947616 0.898726
0.962173 0.947326 0.892058
0.962829 0.949187 0.896239
0.00531014 0.967056 0.914122
0.0419928 0.966964 0.912749
0.20911 0.966537 0.915709
0.499031 0.96582 0.935699
0.742748 0.965255 0.959182
0.875914 0.964782 0.960678
0.943557 0.963363 0.950179
0.96257 0.962661 0.936736
0.964324 0.963729 0.947921
0.20087 0.966598 0.933028
0.324025 0.966293 0.942046
0.499962 0.965881 0.953948
0.677409 0.965423 0.961761
0.811215 0.965103 0.963333
0.8916 0.964874 0.9635
0.947158 0.964538 0.961669
0.963302 0.96463 0.961578
0.964614 0.964538 0.958663
0.103548 0.365072 0.874922
0.103807 0.365164 0.875792
0.143114 0.354253 0.887556
0.244617 0.238544 0.899596
0.639658 0.00434882 0.96556
0.920287 0.000701915 0.968994
0.959045 0.000656138 0.969162
0.959045 0.00146487 0.969192
0.959106 0.0170291 0.969207
0.103883 0.365179 0.87602
0.103944 0.365194 0.876234
0.137942 0.355932 0.886183
0.250904 0.232151 0.900923
0.680995 0.002121 0.966827
0.931701 0.00125124 0.969085
0.959075 0.00923171 0.969253
0.959182 0.0389563 0.969116
0.959472 0.118807 0.968612
0.0219425 0.40734 0.819974
0.0240787 0.406043 0.821897
0.0496681 0.39765 0.834607
0.244572 0.312886 0.895872
0.641901 0.0525216 0.964004
0.920089 0.0933852 0.968521
0.959609 0.165774 0.968414
0.959869 0.229892 0.967742
0.960189 0.318776 0.966812
0.032517 0.577829 0.932921
0.0352178 0.581353 0.937179
0.0358892 0.577111 0.930343
0.119005 0.535531 0.834684
0.526955 0.396185 0.930297
0.892989 0.368734 0.966888
0.960571 0.450721 0.966674
0.960845 0.499916 0.965331
0.961074 0.556161 0.96347
0.049958 0.741588 0.968505
0.0487984 0.747097 0.968109
0.0522316 0.745846 0.96875
0.194736 0.747051 0.973709
0.472206 0.715801 0.896178
0.833265 0.661112 0.956405
0.958938 0.698848 0.961257
0.961685 0.720623 0.959487
0.961837 0.746349 0.957519
0.00622568 0.912337 0.95465
0.00601205 0.91397 0.955062
0.0174258 0.909026 0.954818
0.188418 0.901244 0.954986
0.526879 0.894896 0.957885
0.783093 0.883833 0.951782
0.946258 0.876707 0.949783
0.962524 0.886275 0.947143
0.962768 0.894636 0.944701
4.57771e-05 0.967117 0.954726
0.00650034 0.967117 0.954696
0.100465 0.966903 0.954665
0.355169 0.965805 0.954696
0.621408 0.962753 0.953033
0.812253 0.959365 0.952987
0.937423 0.957046 0.951308
0.963867 0.95729 0.942946
0.964309 0.959045 0.943542
0.0443427 0.967071 0.956024
0.127291 0.966857 0.956405
0.304509 0.966384 0.957259
0.527184 0.96582 0.958297
0.708797 0.965347 0.960082
0.864347 0.96495 0.963272
0.949813 0.964645 0.962692
0.963867 0.964538 0.959869
0.964599 0.964523 0.959045
0.317769 0.966354 0.958206
0.42327 0.966079 0.959197
0.553475 0.965743 0.96051
0.678187 0.965438 0.961776
0.800244 0.965118 0.963149
0.907423 0.964843 0.964172
0.953796 0.964721 0.964263
0.964279 0.964691 0.964157
0.964691 0.964691 0.963699
0.103944 0.365194 0.876234
0.104051 0.365179 0.87628
0.16376 0.344656 0.891661
0.256077 0.2215 0.902922
0.651713 0.00289921 0.966278
0.918166 0.000793469 0.968994
0.95906 0.00492866 0.969284
0.959197 0.0448157 0.969085
0.959518 0.133928 0.968658
0.0932937 0.369406 0.869535
0.0968185 0.368109 0.871794
0.158556 0.347494 0.889677
0.256779 0.2206 0.903792
0.657649 0.00561532 0.966278
0.919463 0.0133669 0.968948
0.959258 0.0632029 0.968994
0.959625 0.164492 0.968521
0.960006 0.270466 0.968002
0 0.449378 0.804822
0 0.449088 0.804913
0.0185397 0.441337 0.810239
0.23917 0.393103 0.882811
0.588418 0.13637 0.95697
0.900984 0.159319 0.968109
0.959854 0.245563 0.968124
0.960357 0.366461 0.967544
0.960693 0.462242 0.967086
0.0534218 0.616999 0.969268
0.0545968 0.619593 0.970977
0.0663615 0.615061 0.95964
0.158968 0.573816 0.853071
0.504463 0.500542 0.913344
0.864042 0.422675 0.966064
0.960266 0.495644 0.966918
0.961151 0.588876 0.966476
0.961364 0.648524 0.966186
0.0469978 0.757839 0.965927
0.0464942 0.760708 0.965377
0.0668956 0.759625 0.966552
0.236973 0.76379 0.972747
0.483375 0.739055 0.906935
0.797086 0.69485 0.950317
0.955612 0.708293 0.965835
0.961776 0.767575 0.965606
0.961913 0.802533 0.965408
0.00553903 0.916365 0.956237
0.00598154 0.915206 0.956359
0.047303 0.910475 0.956664
0.250736 0.903746 0.958267
0.550576 0.89749 0.96289
0.77554 0.889662 0.960296
0.94052 0.878782 0.963958
0.962844 0.907164 0.964828
0.963424 0.920119 0.964721
0.0128023 0.967147 0.956329
0.0625467 0.96701 0.956786
0.208728 0.966491 0.958068
0.442267 0.964721 0.960128
0.65069 0.962371 0.961959
0.813382 0.960357 0.963455
0.931228 0.958892 0.963958
0.964324 0.960876 0.964599
0.964691 0.962997 0.964446
0.275334 0.966461 0.958648
0.387182 0.966186 0.95964
0.524208 0.965835 0.96083
0.651209 0.965515 0.961944
0.765072 0.965209 0.962936
0.8692 0.96495 0.963851
0.942977 0.964752 0.964508
0.963989 0.964691 0.964416
0.964691 0.964691 0.964034
0.574472 0.965698 0.961273
0.624094 0.96556 0.9617
0.685618 0.965408 0.962249
0.755276 0.965225 0.96286
0.830228 0.965042 0.963516
0.902815 0.964858 0.964141
0.951751 0.964721 0.964569
0.964446 0.964691 0.964675
0.964691 0.964691 0.964691
0.0981918 0.367575 0.872694
0.113787 0.364141 0.878645
0.198383 0.321813 0.895796
0.274006 0.181308 0.910765
0.662043 0.00656138 0.966445
0.908553 0.0150454 0.968856
0.959258 0.0616464 0.969009
0.959655 0.173648 0.968475
0.960204 0.32781 0.967727
0.00776684 0.405417 0.813764
0.0152438 0.403937 0.817929
0.151385 0.390478 0.871061
0.271763 0.268406 0.903349
0.638437 0.0693065 0.963928
0.900465 0.0973373 0.968399
0.95964 0.170169 0.96849
0.960098 0.297597 0.967865
0.960647 0.447425 0.967147
0.00425727 0.512947 0.852995
0.00509651 0.512734 0.85211
0.025864 0.498161 0.82211
0.244099 0.472572 0.857618
0.566949 0.276402 0.946685
0.878706 0.275685 0.967376
0.95993 0.349676 0.96762
0.960723 0.470375 0.967041
0.961135 0.588495 0.966476
0.0607919 0.661509 0.984604
0.0641947 0.66247 0.98407
0.123415 0.659358 0.971679
0.239231 0.623621 0.875883
0.527535 0.600778 0.902327
0.837674 0.514977 0.963607
0.958938 0.560845 0.966598
0.961334 0.641657 0.966217
0.961639 0.724605 0.96582
0.0428626 0.781003 0.962356
0.0489357 0.78172 0.962539
0.125063 0.783444 0.964492
0.317754 0.789227 0.969833
0.531395 0.774121 0.924804
0.784817 0.74519 0.945647
0.949828 0.739315 0.96553
0.961837 0.787411 0.96553
0.962097 0.847135 0.96524
0.00840772 0.919142 0.956283
0.0374456 0.917967 0.956573
0.151293 0.914565 0.957198
0.373022 0.909422 0.959533
0.6065 0.904875 0.963424
0.787655 0.899794 0.961929
0.932784 0.888685 0.963394
0.962722 0.906752 0.96495
0.96405 0.935409 0.964828
0.123674 0.966812 0.957321
0.218173 0.966323 0.958144
0.371984 0.965026 0.959518
0.548104 0.96318 0.961074
0.697536 0.961257 0.962402
0.829267 0.959701 0.963638
0.929656 0.958801 0.963912
0.964034 0.960052 0.964706
0.964691 0.964096 0.964691
0.50016 0.965896 0.960632
0.565866 0.965728 0.961212
0.642069 0.96553 0.961868
0.723156 0.965316 0.962585
0.805798 0.965103 0.963302
0.885359 0.964904 0.963989
0.943572 0.964736 0.964508
0.963546 0.964691 0.964691
0.964691 0.964691 0.964691
0.76965 0.965194 0.962982
0.794125 0.965133 0.963195
0.827756 0.965042 0.963485
0.86772 0.96495 0.963851
0.907683 0.964843 0.964187
0.939345 0.964752 0.964462
0.957641 0.964706 0.96463
0.964294 0.964691 0.964691
0.964691 0.964691 0.964691
