LUT预设1/LUT全系打包/阿勒泰系列lut/各机型Log灰片/动漫肤色优化.cube
TITLE "Generated by Resolve"
LUT_3D_SIZE 5
0.0157321 0 0
0.171649 0 0
0.458961 0.00143435 0.00132753
0.458915 0.00140383 0.00132753
0.458915 0.00140383 0.00132753
0.0294194 0.0796674 0
0.0713817 0.0750591 7.62951e-05
0.522332 0.0520943 0.00851453
0.469871 0.00756847 0.00149538
0.46186 0.00299077 0.00132753
0.204746 0.476249 0.0669871
0.179858 0.427939 0.0510262
0.570047 0.470848 0.0330968
0.927108 0.405417 0.165652
0.892851 0.373556 0.157992
0.348409 0.727749 0.16408
0.348424 0.727733 0.16408
0.39733 0.76173 0.160967
0.955779 0.808606 0.12491
0.985412 0.783078 0.123629
0.348409 0.727749 0.16408
0.348409 0.727749 0.16408
0.350515 0.729473 0.164462
0.838911 0.848646 0.123629
0.978668 0.805356 0.126085
0.00546273 0.000259403 0.131685
0.136004 0 0.0880751
0.426322 0 0.036408
0.428885 0 0.0168154
0.429755 0 0.00944533
0.0140536 0.0790112 0.0879835
0.0699168 0.0694591 0.0608377
0.479713 0.0340581 0.0132143
0.455848 0.00230411 0.00132753
0.456641 0.0012665 0.0012665
0.193378 0.454505 0.0595254
0.170382 0.40856 0.0452583
0.544778 0.450813 0.0265507
0.909133 0.388525 0.161975
0.873686 0.35639 0.152453
0.348409 0.727749 0.16408
0.348424 0.727733 0.16408
0.388724 0.75613 0.162097
0.94876 0.808652 0.124422
0.988846 0.771267 0.122347
0.348409 0.727749 0.16408
0.348409 0.727749 0.16408
0.34963 0.728756 0.164324
0.822477 0.85185 0.123323
0.978668 0.805356 0.126085
0.00421149 0.0245212 0.348394
0.0749218 0.0140841 0.324392
0.361654 0.000106813 0.30811
0.362188 0.000106813 0.307515
0.366766 9.15541e-05 0.302373
0.0142977 0.128161 0.444846
0.0267948 0.105684 0.429465
0.356069 0.00820935 0.312779
0.416556 0 0.229892
0.42327 0 0.20882
0.0379187 0.377798 0.470359
0.0348669 0.347845 0.43679
0.452644 0.517357 0.516274
0.83473 0.432639 0.395941
0.808637 0.387289 0.349447
0.27808 0.585138 0.181399
0.3028 0.617609 0.17705
0.362142 0.713222 0.189578
0.934432 0.798795 0.124468
0.994736 0.74786 0.121141
0.333471 0.690227 0.172183
0.341848 0.712688 0.168078
0.348028 0.72668 0.164553
0.797238 0.856367 0.122866
0.978668 0.805356 0.126085
0.00421149 0.0245212 0.348394
0.0628367 0.0134585 0.320943
0.361654 0.000106813 0.30811
0.361639 0.000106813 0.30811
0.361639 0.000106813 0.30811
0.0129244 0.112688 0.432792
0.0217136 0.0870222 0.414206
0.315007 0.00537118 0.344884
0.361654 0.000106813 0.308125
0.361654 0.000106813 0.30811
0.0386664 0.367086 0.594095
0.035584 0.342031 0.585794
0.229068 0.473472 0.702831
0.687007 0.378714 0.660822
0.66717 0.334615 0.629511
0.0731212 0.571588 0.678584
0.073106 0.571572 0.678325
0.0777905 0.577295 0.680125
0.977142 0.986725 0.969162
1 0.96849 0.955413
0.0731975 0.571786 0.673198
0.0732128 0.571801 0.662089
0.0726024 0.569619 0.625528
0.801221 0.953155 0.75172
1 0.996063 0.712261
0.00421149 0.0245212 0.348394
0.0563668 0.0130922 0.31928
0.360739 0.000122072 0.308705
0.361639 0.000106813 0.30811
0.361639 0.000106813 0.30811
0.0122377 0.105303 0.426902
0.019501 0.0776379 0.40415
0.307149 0.00508125 0.345861
0.361654 0.000106813 0.308125
0.361654 0.000106813 0.30811
0.037583 0.358618 0.591333
0.0346532 0.334081 0.583154
0.213855 0.457389 0.692088
0.679713 0.360861 0.648386
0.657877 0.315587 0.615717
0.0731518 0.571649 0.67863
0.073106 0.571527 0.678553
0.0759289 0.573358 0.680339
0.95845 0.974426 0.997192
0.999664 0.950195 0.992935
0.0731518 0.571649 0.678645
0.0731518 0.571649 0.678645
0.073106 0.571572 0.678553
0.640467 0.930266 0.951675
1 1 1
