LUT预设1/LUT全系打包/阿勒泰系列lut/各机型Log灰片/动漫肤色优化.cube
TITLE "Generated by Resolve"
LUT_3D_SIZE 33
0.0157321 0 0
0.0158083 0 0
0.0179294 0 0
0.0272374 0 0
0.0416419 0 0
0.0609293 0 0
0.0881819 0 0
0.12604 0 0
0.171649 0 0
0.22182 0.000320439 0.000320439
0.276707 0.00198367 0.000808728
0.333181 0.00350958 0.000961318
0.387701 0.00350958 0.00111391
0.432074 0.00175479 0.00125124
0.454231 0.00129702 0.00129702
0.458793 0.00141909 0.00132753
0.458961 0.00143435 0.00132753
0.458946 0.00141909 0.00132753
0.458946 0.00141909 0.00132753
0.458946 0.00141909 0.00132753
0.458915 0.00140383 0.00132753
0.458915 0.00140383 0.00132753
0.458915 0.00140383 0.00132753
0.458915 0.00140383 0.00132753
0.458915 0.00140383 0.00132753
0.458915 0.00140383 0.00132753
0.458915 0.00140383 0.00132753
0.458915 0.00140383 0.00132753
0.458915 0.00140383 0.00132753
0.458915 0.00140383 0.00132753
0.458915 0.00140383 0.00132753
0.458915 0.00140383 0.00132753
0.458915 0.00140383 0.00132753
0.0157321 0 0
0.0157473 0 0
0.0167391 0 0
0.0241855 0 0
0.0373693 0 0
0.0550088 0 0
0.0798199 0 0
0.115038 0 0
0.159518 0 0
0.20856 3.0518e-05 3.0518e-05
0.262791 0.00144961 0.000762951
0.319326 0.00326543 0.0009308
0.375006 0.00369268 0.00108339
0.422843 0.00215152 0.00122072
0.451164 0.00128176 0.00128176
0.458396 0.00140383 0.00132753
0.458961 0.00143435 0.00132753
0.458946 0.00141909 0.00132753
0.458946 0.00141909 0.00132753
0.458946 0.00141909 0.00132753
0.458915 0.00140383 0.00132753
0.458915 0.00140383 0.00132753
0.458915 0.00140383 0.00132753
0.458915 0.00140383 0.00132753
0.458915 0.00140383 0.00132753
0.458915 0.00140383 0.00132753
0.458915 0.00140383 0.00132753
0.458915 0.00140383 0.00132753
0.458915 0.00140383 0.00132753
0.458915 0.00140383 0.00132753
0.458915 0.00140383 0.00132753
0.458915 0.00140383 0.00132753
0.458915 0.00140383 0.00132753
0.0156863 0 0
0.0157015 0 0
0.0161898 0 0
0.0210574 0 0
0.03299 0 0
0.0498054 0 0
0.072694 0 0
0.10544 0 0
0.148699 0 0
0.19704 0 0
0.250416 0.00105287 0.000732433
0.30695 0.00294499 0.000885023
0.363348 0.00378424 0.00105287
0.414267 0.00251774 0.00120546
0.446708 0.00132753 0.00129702
0.457954 0.00138857 0.00132753
0.458961 0.00143435 0.00132753
0.458946 0.00141909 0.00132753
0.458946 0.00141909 0.00132753
0.458946 0.00141909 0.00132753
0.45893 0.00141909 0.00132753
0.458915 0.00140383 0.00132753
0.458915 0.00140383 0.00132753
0.458915 0.00140383 0.00132753
0.458915 0.00140383 0.00132753
0.458915 0.00140383 0.00132753
0.458915 0.00140383 0.00132753
0.458915 0.00140383 0.00132753
0.458915 0.00140383 0.00132753
0.458915 0.00140383 0.00132753
0.458915 0.00140383 0.00132753
0.458915 0.00140383 0.00132753
0.458915 0.00140383 0.00132753
0.0153048 0.000518807 4.57771e-05
0.0153506 0.00030518 4.57771e-05
0.0155337 0.000259403 4.57771e-05
0.0178988 0.000137331 4.57771e-05
0.0269932 4.57771e-05 4.57771e-05
0.042771 3.0518e-05 3.0518e-05
0.0637522 3.0518e-05 3.0518e-05
0.0931563 1.5259e-05 1.5259e-05
0.133669 1.5259e-05 1.5259e-05
0.181308 0 0
0.233951 0.000595102 0.000595102
0.290684 0.00244144 0.000839246
0.348287 0.00376898 0.0010071
0.401556 0.00302129 0.00117494
0.440665 0.00148013 0.00128176
0.456397 0.00134279 0.00132753
0.458946 0.00143435 0.00132753
0.458946 0.00141909 0.00132753
0.458946 0.00141909 0.00132753
0.458946 0.00141909 0.00132753
0.45893 0.00141909 0.00132753
0.458915 0.00140383 0.00132753
0.458915 0.00140383 0.00132753
0.458915 0.00140383 0.00132753
0.458915 0.00140383 0.00132753
0.458915 0.00140383 0.00132753
0.458915 0.00140383 0.00132753
0.458915 0.00140383 0.00132753
0.458915 0.00140383 0.00132753
0.458915 0.00140383 0.00132753
0.458915 0.00140383 0.00132753
0.458915 0.00140383 0.00132753
0.458915 0.00140383 0.00132753
0.0151827 0.00531014 0.000564584
0.0151064 0.00434882 0.00047303
0.0150454 0.00387579 0.000320439
0.0157168 0.00306706 7.62951e-05
0.0213474 0.00233463 6.10361e-05
0.0359808 0.00210575 0.000106813
0.0581369 0.00175479 0.000167849
0.0858625 0.0012665 0.000244144
0.121813 0.0010071 0.000350958
0.165713 0.000579843 0.000488289
0.214969 0.000518807 0.000518807
0.270161 0.00189212 0.00077821
0.328023 0.00344854 0.000946059
0.384115 0.00358587 0.00111391
0.429358 0.00190738 0.00125124
0.453193 0.00129702 0.00129702
0.458747 0.00141909 0.00132753
0.458961 0.00143435 0.00132753
0.458961 0.00143435 0.00132753
0.458961 0.00143435 0.00132753
0.458946 0.00141909 0.00132753
0.45893 0.00140383 0.00132753
0.458915 0.00140383 0.00132753
0.458915 0.00140383 0.00132753
0.458915 0.00140383 0.00132753
0.458915 0.00140383 0.00132753
0.458915 0.00140383 0.00132753
0.458915 0.00140383 0.00132753
0.458915 0.00140383 0.00132753
0.458915 0.00140383 0.00132753
0.458915 0.00140383 0.00132753
0.458915 0.00140383 0.00132753
0.458915 0.00140383 0.00132753
0.0146334 0.0180362 1.5259e-05
0.0146487 0.0167086 1.5259e-05
0.0146487 0.0154726 1.5259e-05
0.0147707 0.0137484 1.5259e-05
0.0171511 0.0119478 3.0518e-05
0.0284581 0.0111391 0.000991836
0.0513619 0.0110475 0.000396735
0.0856947 0.00965896 0.000244144
0.124315 0.00877394 0.000350958
0.165743 0.00769055 0.00047303
0.209964 0.00646983 0.000610361
0.258198 0.00570687 0.000747692
0.309209 0.00471504 0.000885023
0.364309 0.00427253 0.00105287
0.41442 0.00285344 0.00120546
0.447135 0.00146487 0.00129702
0.457969 0.00140383 0.00132753
0.458961 0.00143435 0.00132753
0.458961 0.00143435 0.00132753
0.458961 0.00143435 0.00132753
0.458961 0.00143435 0.00132753
0.458946 0.00141909 0.00132753
0.45893 0.00140383 0.00132753
0.45893 0.00140383 0.00132753
0.45893 0.00140383 0.00132753
0.45893 0.00140383 0.00132753
0.45893 0.00140383 0.00132753
0.45893 0.00140383 0.00132753
0.45893 0.00140383 0.00132753
0.458915 0.00140383 0.00132753
0.458915 0.00140383 0.00132753
0.458915 0.00140383 0.00132753
0.458915 0.00140383 0.00132753
0.0158541 0.034287 0
0.0156863 0.0327764 0
0.0155184 0.0314183 0
0.0153353 0.029633 0
0.0157931 0.0270542 0
0.0210727 0.0256809 1.5259e-05
0.0375067 0.0270848 6.10361e-05
0.0761273 0.0269474 0.00289921
0.128176 0.0268711 0.000885023
0.181659 0.0271458 0.000488289
0.230915 0.0272068 0.000640879
0.275334 0.0247044 0.000793469
0.316884 0.0189364 0.0009308
0.36347 0.0137942 0.00103761
0.408865 0.00895705 0.00117494
0.442527 0.00466926 0.00128176
0.45832 0.00267033 0.00132753
0.459937 0.0019379 0.00134279
0.45948 0.00169375 0.00134279
0.459266 0.00158694 0.00132753
0.459098 0.00151064 0.00132753
0.458991 0.00144961 0.00132753
0.458946 0.00141909 0.00132753
0.458946 0.00141909 0.00132753
0.458946 0.00141909 0.00132753
0.45893 0.00141909 0.00132753
0.45893 0.00141909 0.00132753
0.45893 0.00141909 0.00132753
0.45893 0.00141909 0.00132753
0.45893 0.00141909 0.00132753
0.45893 0.00141909 0.00132753
0.45893 0.00141909 0.00132753
0.45893 0.00141909 0.00132753
0.0205386 0.0543832 0
0.0199435 0.05243 0
0.0195163 0.050782 0
0.019028 0.0488594 0
0.0183413 0.0459907 0
0.0201114 0.0430915 0
0.0293126 0.0435798 0
0.0518654 0.0479438 7.62951e-05
0.108476 0.0497444 0.00263981
0.18471 0.0511025 0.00552377
0.250492 0.0553902 0.00244144
0.304097 0.0548867 0.00131228
0.350454 0.0487678 0.00178531
0.394812 0.0395514 0.00154116
0.433265 0.030045 0.00137331
0.462806 0.0224765 0.00172427
0.476936 0.0159762 0.00180056
0.474723 0.0101625 0.00143435
0.46891 0.00675975 0.00135805
0.465568 0.00495918 0.00134279
0.463233 0.0037232 0.00134279
0.461479 0.00277714 0.00134279
0.460502 0.00225834 0.00132753
0.459831 0.00189212 0.00132753
0.459388 0.00164797 0.00132753
0.459281 0.0016022 0.00134279
0.459236 0.00157168 0.00132753
0.459159 0.0015259 0.00132753
0.459113 0.00151064 0.00132753
0.459052 0.00146487 0.00134279
0.459007 0.00144961 0.00132753
0.459007 0.00144961 0.00132753
0.459007 0.00144961 0.00132753
0.0294194 0.0796674 0
0.0284276 0.0772564 0
0.0276188 0.0751659 0
0.026688 0.0727855 0
0.0255741 0.069688 0
0.0247654 0.0658122 0
0.0294041 0.0635233 0
0.041413 0.0674601 0
0.0713817 0.0750591 7.62951e-05
0.146609 0.0801099 0.000823987
0.251026 0.0842145 0.0112001
0.326284 0.0864424 0.00935378
0.378943 0.0814832 0.00666819
0.429541 0.0717632 0.00500496
0.473121 0.0627451 0.0040589
0.505684 0.0583658 0.00662242
0.522332 0.0520943 0.00851453
0.518685 0.0411536 0.00631724
0.505547 0.0303349 0.00354009
0.495109 0.0229953 0.00236515
0.48748 0.0181888 0.00204471
0.480797 0.0140841 0.00180056
0.476234 0.0113222 0.00166323
0.472892 0.00935378 0.00155642
0.469871 0.00756847 0.00149538
0.467094 0.0059205 0.00140383
0.464805 0.00457771 0.00134279
0.464012 0.00415045 0.00134279
0.463203 0.00370794 0.00134279
0.462394 0.00328069 0.00134279
0.46186 0.00299077 0.00132753
0.46186 0.00299077 0.00132753
0.46186 0.00299077 0.00132753
0.0429236 0.110353 0
0.0415656 0.10753 0
0.0404364 0.105104 0
0.0390784 0.102251 0
0.0374762 0.0987716 0
0.035462 0.0941939 0
0.0356298 0.089662 0
0.0432441 0.0903487 0
0.0562448 0.0990463 0
0.096376 0.11043 7.62951e-05
0.194461 0.118456 0.000396735
0.325978 0.121263 0.0165713
0.405325 0.116884 0.0198062
0.458839 0.105791 0.0130617
0.507271 0.0976577 0.0110018
0.546304 0.0987564 0.0172732
0.570352 0.0989242 0.0246891
0.574868 0.090074 0.0249485
0.56289 0.0761883 0.0198672
0.549065 0.0641337 0.0149233
0.538109 0.0551003 0.0112459
0.52784 0.0470283 0.00825513
0.51989 0.0411536 0.00656138
0.514031 0.0369421 0.0056611
0.508568 0.0330053 0.00488289
0.502983 0.0290074 0.00408942
0.497749 0.0252232 0.00331121
0.493202 0.0218662 0.00259403
0.488792 0.0187228 0.00196841
0.485359 0.0167086 0.00187686
0.482963 0.0152895 0.00183108
0.482963 0.0152895 0.00183108
0.482963 0.0152895 0.00183108
0.0610361 0.146838 0
0.0594492 0.143709 0
0.0580148 0.140871 0
0.0564279 0.137728 0
0.05449 0.133928 0
0.0519417 0.128862 0
0.0493324 0.122942 0
0.051545 0.119341 0
0.0595407 0.125246 0
0.0751507 0.138216 0
0.128679 0.153079 9.15541e-05
0.254658 0.159243 0.000579843
0.410574 0.158511 0.0256199
0.489586 0.146761 0.0296635
0.538796 0.136355 0.0234836
0.580697 0.1402 0.0309758
0.610849 0.145953 0.0420233
0.623941 0.141299 0.046479
0.618677 0.12871 0.0433051
0.606165 0.11577 0.0377508
0.59556 0.105623 0.0331273
0.58587 0.0965286 0.0290532
0.577722 0.0890059 0.025803
0.571588 0.0835126 0.0234531
0.565652 0.0784314 0.0211795
0.559625 0.0732891 0.0189059
0.553643 0.0681926 0.0166018
0.547524 0.062974 0.0142824
0.541588 0.0579538 0.0120394
0.535912 0.0532235 0.00991836
0.531929 0.0499123 0.0084535
0.531929 0.0499123 0.0084535
0.531929 0.0499123 0.0084535
0.0809796 0.191089 0
0.079408 0.187137 0
0.0779889 0.183703 0
0.0763256 0.179934 0
0.0744488 0.175814 0
0.0719921 0.170459 0
0.0689403 0.163851 0
0.0669261 0.157259 0
0.0700694 0.158358 0
0.0786145 0.169543 0
0.102724 0.185199 0
0.172198 0.201831 0.000122072
0.329641 0.200458 0.00137331
0.502739 0.197665 0.036759
0.575265 0.186786 0.0467689
0.619043 0.186938 0.0516213
0.651881 0.194629 0.0624399
0.669917 0.193149 0.0681468
0.670771 0.181857 0.0665293
0.659266 0.168032 0.060914
0.648157 0.156985 0.0560006
0.63888 0.147738 0.051957
0.63061 0.139513 0.0483864
0.624842 0.133745 0.0458839
0.619776 0.12874 0.0437018
0.614664 0.123751 0.0415045
0.6094 0.11873 0.0392004
0.604105 0.113664 0.0368811
0.598795 0.108598 0.0345617
0.593408 0.103471 0.0321965
0.589776 0.100008 0.0306096
0.589776 0.100008 0.0306096
0.589776 0.100008 0.0306096
0.100725 0.241581 0.00503548
0.0990921 0.237308 0.00393683
0.097673 0.233555 0.00300603
0.0960555 0.229328 0.00192264
0.094255 0.224659 0.00077821
0.0920577 0.218982 1.5259e-05
0.0893111 0.212024 1.5259e-05
0.086183 0.203952 1.5259e-05
0.0848249 0.199329 0
0.090837 0.207874 0
0.107561 0.222858 0
0.145373 0.241627 0
0.23032 0.254765 0.000228885
0.41561 0.245045 0.00303655
0.588022 0.244221 0.0519875
0.658869 0.240925 0.0740063
0.698573 0.24535 0.0871901
0.72105 0.24622 0.0940871
0.726024 0.237095 0.0926375
0.716548 0.22295 0.086717
0.703273 0.210193 0.0805676
0.692638 0.200168 0.0757153
0.683268 0.191241 0.0715038
0.676417 0.184619 0.068452
0.670939 0.179309 0.066041
0.665644 0.174136 0.0637369
0.660365 0.168948 0.0614633
0.655116 0.16379 0.0592203
0.650065 0.158801 0.0569467
0.644953 0.153735 0.0546731
0.64155 0.150332 0.0531624
0.64155 0.150332 0.0531624
0.64155 0.150332 0.0531624
0.122087 0.296376 0.0176242
0.120272 0.291814 0.0166323
0.1187 0.287846 0.0157321
0.116915 0.28336 0.0147707
0.114992 0.278508 0.0137026
0.112764 0.272847 0.0124361
0.109926 0.265644 0.0107881
0.106676 0.257206 0.00881971
0.103243 0.248249 0.00679026
0.105089 0.249485 0.0052491
0.121324 0.265126 0.00164797
0.147585 0.283268 0.000259403
0.196323 0.303716 0.000213626
0.310307 0.307454 0.000518807
0.501335 0.294301 0.0101167
0.665522 0.297215 0.0717937
0.7355 0.297841 0.100725
0.772076 0.300374 0.117021
0.787182 0.294926 0.122255
0.782315 0.281224 0.11751
0.767971 0.266957 0.110155
0.754894 0.255802 0.104173
0.74345 0.246036 0.0989242
0.734707 0.238422 0.0948348
0.728222 0.232685 0.0918135
0.722133 0.227253 0.0889754
0.716106 0.221836 0.086244
0.710155 0.216434 0.0835737
0.70428 0.211063 0.0809949
0.698482 0.205692 0.0784772
0.694621 0.20209 0.0767224
0.694621 0.20209 0.0767224
0.694621 0.20209 0.0767224
0.145541 0.35404 0.0303197
0.143465 0.349233 0.029099
0.141772 0.345098 0.0281834
0.139849 0.340444 0.0271763
0.137881 0.335531 0.0261082
0.135637 0.330007 0.0249332
0.132799 0.323003 0.0234073
0.129503 0.314855 0.021622
0.125536 0.30515 0.0195468
0.123171 0.297749 0.0171206
0.134615 0.308751 0.0126802
0.159503 0.32903 0.00869764
0.194247 0.349447 0.00689708
0.263462 0.365194 0.00326543
0.405432 0.358587 0.00306706
0.577264 0.3467 0.0218814
0.729976 0.35172 0.0880293
0.803784 0.352987 0.12195
0.838773 0.352316 0.139788
0.848646 0.34226 0.144915
0.839155 0.327199 0.140826
0.82504 0.314397 0.135088
0.81239 0.303777 0.129839
0.801877 0.295018 0.125353
0.794278 0.288731 0.122072
0.787427 0.283024 0.118944
0.780652 0.277348 0.115816
0.773922 0.271733 0.112703
0.767193 0.266117 0.109606
0.76054 0.260502 0.106554
0.756008 0.256703 0.104524
0.756008 0.256703 0.104524
0.756008 0.256703 0.104524
0.173159 0.414481 0.0468605
0.170779 0.409705 0.0454566
0.168582 0.40528 0.0441291
0.166217 0.400458 0.04271
0.163821 0.395422 0.0412451
0.161334 0.389792 0.0397345
0.158312 0.383032 0.0379034
0.154818 0.375082 0.0358434
0.15079 0.365728 0.0334783
0.146242 0.355047 0.0308232
0.149554 0.355367 0.0286107
0.171603 0.374731 0.028275
0.204868 0.397787 0.0267643
0.255573 0.417411 0.0193942
0.351934 0.423819 0.0089723
0.493355 0.413458 0.0141756
0.642969 0.400671 0.0388647
0.785351 0.404776 0.0984512
0.864347 0.406012 0.138033
0.898924 0.400763 0.155856
0.904372 0.388113 0.160403
0.894194 0.374868 0.158282
0.882338 0.36408 0.155047
0.871611 0.354528 0.151843
0.863935 0.347784 0.149432
0.857176 0.341878 0.147204
0.85037 0.335988 0.1449
0.843717 0.330266 0.142428
0.836851 0.324407 0.139742
0.829831 0.318425 0.13695
0.825086 0.314412 0.135012
0.825086 0.314412 0.135012
0.825086 0.314412 0.135012
0.204746 0.476249 0.0669871
0.202121 0.471244 0.0652628
0.199817 0.466865 0.0637369
0.197269 0.461967 0.0620279
0.194537 0.456779 0.0602274
0.191653 0.45124 0.0583047
0.188296 0.44477 0.0561532
0.184329 0.436912 0.0537118
0.179858 0.427939 0.0510262
0.174777 0.417624 0.0479896
0.171023 0.408545 0.0450752
0.184405 0.419409 0.0463722
0.21767 0.445045 0.0473487
0.262776 0.467994 0.0408331
0.335454 0.481666 0.0276951
0.442527 0.484138 0.0231022
0.570047 0.470848 0.0330968
0.703883 0.453422 0.0549783
0.832685 0.454475 0.104173
0.917876 0.454688 0.148577
0.951446 0.444709 0.165805
0.952941 0.432044 0.169421
0.943725 0.421424 0.16846
0.934218 0.412207 0.166918
0.927108 0.405417 0.165652
0.921157 0.399786 0.164492
0.915251 0.394247 0.163272
0.909331 0.388693 0.162036
0.903319 0.383124 0.160678
0.897154 0.377462 0.159136
0.892851 0.373556 0.157992
0.892851 0.373556 0.157992
0.892851 0.373556 0.157992
0.239704 0.542443 0.0902724
0.236835 0.537087 0.088365
0.234302 0.532341 0.0866865
0.23151 0.527092 0.0848096
0.228565 0.521508 0.0828412
0.225544 0.515801 0.0808423
0.222034 0.509087 0.0784772
0.2177 0.500862 0.0755779
0.21294 0.491829 0.072343
0.207599 0.481727 0.0688182
0.201572 0.470192 0.0648814
0.202533 0.467002 0.0632334
0.228489 0.489113 0.0653239
0.273487 0.516365 0.0613565
0.332998 0.534768 0.0494392
0.417655 0.548257 0.0419471
0.521263 0.547341 0.0436866
0.637644 0.525124 0.0515145
0.759945 0.504662 0.0704814
0.875456 0.499992 0.108095
0.965881 0.496956 0.153719
0.995758 0.484565 0.169711
0.993988 0.47364 0.172442
0.986526 0.464958 0.172503
0.980133 0.458137 0.172213
0.975204 0.452949 0.171878
0.970291 0.447868 0.171466
0.965331 0.442878 0.170977
0.96025 0.437781 0.170459
0.955169 0.432715 0.169909
0.951644 0.429191 0.169482
0.951644 0.429191 0.169482
0.951644 0.429191 0.169482
0.27892 0.613489 0.116487
0.275746 0.607935 0.114366
0.272847 0.602899 0.112428
0.269673 0.59733 0.110292
0.266407 0.591485 0.10811
0.263035 0.585458 0.105852
0.259312 0.578683 0.103365
0.254841 0.570443 0.100389
0.249805 0.561105 0.0970169
0.244236 0.550759 0.0933089
0.237842 0.538857 0.0890516
0.231418 0.526558 0.0846113
0.241169 0.532876 0.0838941
0.281117 0.561761 0.0825513
0.335088 0.584787 0.0720684
0.403952 0.603296 0.0636149
0.491005 0.615549 0.0629129
0.590066 0.604913 0.0641794
0.69839 0.577081 0.0695201
0.812284 0.553033 0.084596
0.922057 0.54078 0.112505
1 0.534997 0.15285
1 0.524041 0.166262
1 0.514916 0.169055
1 0.507546 0.170306
1 0.502495 0.170993
1 0.497627 0.171527
1 0.492729 0.171893
1 0.487892 0.172152
1 0.483162 0.172335
1 0.479881 0.172396
1 0.479881 0.172396
1 0.479881 0.172396
0.319463 0.681697 0.143938
0.316274 0.676524 0.141772
0.313497 0.671977 0.139864
0.310353 0.66685 0.137728
0.306996 0.661387 0.135439
0.303563 0.655772 0.133104
0.299947 0.649714 0.130648
0.295598 0.642298 0.127672
0.290425 0.633417 0.124178
0.284703 0.623529 0.120348
0.278279 0.612253 0.116014
0.270924 0.599222 0.11107
0.266194 0.589029 0.106737
0.289433 0.605219 0.10602
0.339635 0.632837 0.0970779
0.398871 0.653437 0.0855726
0.471962 0.671443 0.0827192
0.557427 0.676097 0.0830091
0.651316 0.65803 0.0824903
0.754253 0.625818 0.0852522
0.865965 0.596613 0.0951095
0.965347 0.579904 0.114595
1 0.572488 0.139986
1 0.56405 0.149554
1 0.556527 0.154192
1 0.551263 0.157015
1 0.546532 0.15935
1 0.541802 0.161456
1 0.537011 0.163439
1 0.532204 0.165072
1 0.528862 0.16611
1 0.528862 0.16611
1 0.528862 0.16611
0.343984 0.720897 0.160891
0.342626 0.718746 0.15996
0.341421 0.716823 0.159106
0.339696 0.714107 0.157916
0.337896 0.711269 0.156649
0.336019 0.708324 0.155337
0.334066 0.705257 0.153964
0.331563 0.701305 0.152224
0.328206 0.695949 0.149874
0.324224 0.689555 0.147127
0.319493 0.68188 0.143862
0.312764 0.670832 0.139193
0.304967 0.657923 0.133913
0.308034 0.655192 0.130922
0.346059 0.677638 0.125521
0.400443 0.700984 0.111009
0.462531 0.720439 0.102937
0.535317 0.733654 0.100923
0.616831 0.730755 0.0990463
0.707393 0.706401 0.0962997
0.810193 0.66952 0.0959487
0.915602 0.638697 0.102831
0.98587 0.621103 0.114275
1 0.610834 0.122988
1 0.602655 0.126696
1 0.596841 0.12932
1 0.592325 0.131655
1 0.587915 0.134234
1 0.583535 0.137011
1 0.579126 0.140002
1 0.57612 0.142123
1 0.57612 0.142123
1 0.57612 0.142123
0.348348 0.727657 0.164019
0.348333 0.727642 0.164019
0.348302 0.727581 0.163989
0.348028 0.727169 0.16379
0.347753 0.726757 0.163592
0.347463 0.726314 0.163394
0.347158 0.725841 0.163165
0.346716 0.725155 0.162844
0.346014 0.724071 0.162325
0.345068 0.722637 0.161639
0.343816 0.720699 0.160739
0.341329 0.716793 0.158984
0.337957 0.711391 0.156649
0.334783 0.705287 0.153765
0.352804 0.714778 0.151156
0.401389 0.739956 0.139284
0.457542 0.762158 0.126314
0.519829 0.780118 0.119829
0.591562 0.788617 0.115267
0.673136 0.77882 0.109834
0.76582 0.749523 0.10486
0.862791 0.711513 0.103822
0.950607 0.681727 0.109621
0.995468 0.664805 0.116014
1 0.654475 0.117845
1 0.646952 0.118166
1 0.641779 0.118425
1 0.636637 0.118837
1 0.631632 0.119371
1 0.626551 0.120104
1 0.623117 0.120729
1 0.623117 0.120729
1 0.623117 0.120729
0.348394 0.727733 0.16408
0.348394 0.727733 0.16408
0.348394 0.727733 0.16408
0.348394 0.727733 0.16408
0.348394 0.727733 0.164065
0.348394 0.727733 0.164065
0.348379 0.727718 0.164065
0.348394 0.727703 0.16405
0.348379 0.727687 0.16405
0.348348 0.727672 0.164034
0.348333 0.727642 0.164019
0.348241 0.727489 0.163943
0.347936 0.727001 0.163729
0.347112 0.725673 0.163073
0.353613 0.729595 0.162951
0.389303 0.752255 0.158206
0.444495 0.781155 0.145556
0.502312 0.805417 0.136446
0.567956 0.824079 0.130007
0.644251 0.828977 0.121798
0.729931 0.816251 0.114931
0.816312 0.789075 0.111879
0.900908 0.754253 0.1122
0.970962 0.725978 0.115679
0.998734 0.710933 0.11812
1 0.702022 0.118181
1 0.696284 0.11809
1 0.690898 0.117983
1 0.685466 0.117906
1 0.680049 0.117815
1 0.676265 0.117754
1 0.676265 0.117754
1 0.676265 0.117754
0.348409 0.727749 0.16408
0.348409 0.727749 0.16408
0.348409 0.727749 0.16408
0.348409 0.727749 0.16408
0.348409 0.727749 0.16408
0.348424 0.727733 0.16408
0.348394 0.727733 0.16408
0.348394 0.727733 0.16408
0.348394 0.727733 0.164065
0.348379 0.727718 0.164065
0.348379 0.727718 0.16405
0.348379 0.727718 0.164065
0.348394 0.727703 0.164065
0.348363 0.727687 0.16405
0.350591 0.729412 0.16437
0.371527 0.744625 0.164202
0.421576 0.77557 0.155566
0.479438 0.805814 0.145159
0.540841 0.831678 0.13901
0.612924 0.849271 0.130953
0.69395 0.852064 0.122576
0.774762 0.842466 0.119585
0.852522 0.821088 0.1196
0.929625 0.791455 0.120317
0.981308 0.769238 0.121523
0.991638 0.759136 0.121294
0.993255 0.752789 0.120821
0.994492 0.747234 0.120424
0.995727 0.741756 0.120027
0.996979 0.736217 0.119631
0.997803 0.732494 0.119341
0.997803 0.732494 0.119341
0.997803 0.732494 0.119341
0.348409 0.727749 0.16408
0.348409 0.727749 0.16408
0.348409 0.727749 0.16408
0.348409 0.727749 0.16408
0.348409 0.727749 0.16408
0.348409 0.727749 0.16408
0.348409 0.727749 0.16408
0.348409 0.727749 0.16408
0.348424 0.727733 0.16408
0.348394 0.727733 0.164065
0.348394 0.727733 0.164065
0.348394 0.727733 0.164065
0.348394 0.727733 0.164065
0.348379 0.727718 0.164065
0.348898 0.728145 0.164157
0.358572 0.735546 0.164736
0.39733 0.76173 0.160967
0.454994 0.794507 0.149691
0.513771 0.823133 0.142336
0.581292 0.847059 0.135927
0.65922 0.859434 0.126848
0.739544 0.859525 0.122255
0.814328 0.851057 0.12282
0.890181 0.831342 0.123903
0.955779 0.808606 0.12491
0.980148 0.798123 0.125185
0.981689 0.795529 0.124956
0.982208 0.793835 0.124804
0.983352 0.789975 0.124376
0.984588 0.785855 0.123919
0.985412 0.783078 0.123629
0.985412 0.783078 0.123629
0.985412 0.783078 0.123629
0.348409 0.727749 0.16408
0.348409 0.727749 0.16408
0.348409 0.727749 0.16408
0.348409 0.727749 0.16408
0.348409 0.727749 0.16408
0.348409 0.727749 0.16408
0.348409 0.727749 0.16408
0.348409 0.727749 0.16408
0.348409 0.727749 0.16408
0.348424 0.727733 0.16408
0.348394 0.727733 0.164065
0.348394 0.727733 0.164065
0.348394 0.727733 0.164065
0.348394 0.727733 0.164065
0.348409 0.727749 0.164065
0.352056 0.730541 0.164294
0.381018 0.751125 0.163119
0.434455 0.78349 0.153506
0.491951 0.813169 0.144442
0.554788 0.839536 0.138796
0.628702 0.857053 0.130419
0.709026 0.861372 0.123293
0.784863 0.857176 0.122576
0.8589 0.843153 0.123903
0.93315 0.82034 0.125063
0.973724 0.806851 0.125963
0.978744 0.805097 0.126055
0.978775 0.805035 0.12604
0.978821 0.804852 0.126024
0.978912 0.804578 0.125994
0.979019 0.804227 0.125963
0.979019 0.804227 0.125963
0.979019 0.804227 0.125963
0.348409 0.727749 0.16408
0.348409 0.727749 0.16408
0.348409 0.727749 0.16408
0.348409 0.727749 0.16408
0.348409 0.727749 0.16408
0.348409 0.727749 0.16408
0.348409 0.727749 0.16408
0.348409 0.727749 0.16408
0.348409 0.727749 0.16408
0.348424 0.727733 0.16408
0.348394 0.727733 0.164065
0.348394 0.727733 0.164065
0.348394 0.727733 0.164065
0.348394 0.727733 0.164065
0.348394 0.727733 0.164065
0.350164 0.729152 0.164324
0.369314 0.74313 0.164279
0.418631 0.774411 0.156603
0.475685 0.805295 0.146441
0.535943 0.832471 0.140414
0.606958 0.853483 0.132876
0.686397 0.861341 0.12462
0.764279 0.859052 0.122332
0.836744 0.848905 0.123568
0.911299 0.827695 0.124712
0.967544 0.809079 0.125872
0.978668 0.805356 0.126085
