LUT预设1/LUT全系打包/阿勒泰系列lut/各机型Log灰片/动漫肤色优化.cube
TITLE "Generated by Resolve"
LUT_3D_SIZE 9
0.0157321 0 0
0.0416419 0 0
0.171649 0 0
0.387701 0.00350958 0.00111391
0.458961 0.00143435 0.00132753
0.458915 0.00140383 0.00132753
0.458915 0.00140383 0.00132753
0.458915 0.00140383 0.00132753
0.458915 0.00140383 0.00132753
0.0151827 0.00531014 0.000564584
0.0213474 0.00233463 6.10361e-05
0.121813 0.0010071 0.000350958
0.328023 0.00344854 0.000946059
0.458747 0.00141909 0.00132753
0.458946 0.00141909 0.00132753
0.458915 0.00140383 0.00132753
0.458915 0.00140383 0.00132753
0.458915 0.00140383 0.00132753
0.0294194 0.0796674 0
0.0255741 0.069688 0
0.0713817 0.0750591 7.62951e-05
0.378943 0.0814832 0.00666819
0.522332 0.0520943 0.00851453
0.48748 0.0181888 0.00204471
0.469871 0.00756847 0.00149538
0.463203 0.00370794 0.00134279
0.46186 0.00299077 0.00132753
0.100725 0.241581 0.00503548
0.094255 0.224659 0.00077821
0.0848249 0.199329 0
0.23032 0.254765 0.000228885
0.698573 0.24535 0.0871901
0.703273 0.210193 0.0805676
0.670939 0.179309 0.066041
0.650065 0.158801 0.0569467
0.64155 0.150332 0.0531624
0.204746 0.476249 0.0669871
0.194537 0.456779 0.0602274
0.179858 0.427939 0.0510262
0.21767 0.445045 0.0473487
0.570047 0.470848 0.0330968
0.951446 0.444709 0.165805
0.927108 0.405417 0.165652
0.903319 0.383124 0.160678
0.892851 0.373556 0.157992
0.343984 0.720897 0.160891
0.337896 0.711269 0.156649
0.328206 0.695949 0.149874
0.304967 0.657923 0.133913
0.462531 0.720439 0.102937
0.810193 0.66952 0.0959487
1 0.602655 0.126696
1 0.583535 0.137011
1 0.57612 0.142123
0.348409 0.727749 0.16408
0.348409 0.727749 0.16408
0.348424 0.727733 0.16408
0.348394 0.727733 0.164065
0.39733 0.76173 0.160967
0.65922 0.859434 0.126848
0.955779 0.808606 0.12491
0.983352 0.789975 0.124376
0.985412 0.783078 0.123629
0.348409 0.727749 0.16408
0.348409 0.727749 0.16408
0.348409 0.727749 0.16408
0.348394 0.727733 0.164065
0.355993 0.733577 0.164584
0.56817 0.843748 0.137453
0.872206 0.839734 0.124117
0.978668 0.805356 0.126085
0.978668 0.805356 0.126085
0.348409 0.727749 0.16408
0.348409 0.727749 0.16408
0.348409 0.727749 0.16408
0.348394 0.727733 0.164065
0.350515 0.729473 0.164462
0.537804 0.833249 0.140352
0.838911 0.848646 0.123629
0.978668 0.805356 0.126085
0.978668 0.805356 0.126085
0.0134432 0 0.00386053
0.0356603 0 0.00256352
0.155978 0 0.00157168
0.371801 0.00234989 0.00106813
0.458289 0.00135805 0.00132753
0.458839 0.00140383 0.00132753
0.458961 0.00143435 0.00132753
0.458946 0.00141909 0.00132753
0.458946 0.00141909 0.00132753
0.0140536 0.00343328 0.000289921
0.0192721 0.00164797 6.10361e-05
0.114183 0.000411994 0.000335698
0.321019 0.00323491 0.0009308
0.458518 0.00141909 0.00132753
0.458946 0.00141909 0.00132753
0.45893 0.00141909 0.00132753
0.45893 0.00140383 0.00132753
0.458915 0.00140383 0.00132753
0.0275883 0.0750744 0
0.0243381 0.0659953 0
0.066331 0.0701305 7.62951e-05
0.366644 0.0773327 0.00546273
0.513252 0.0465248 0.00616464
0.482902 0.0154116 0.00189212
0.465995 0.00527962 0.00137331
0.462119 0.0031281 0.00134279
0.460761 0.00239567 0.00134279
0.0978714 0.234089 0.00314336
0.0914931 0.217487 1.5259e-05
0.082063 0.192279 0
0.222721 0.246067 0.000213626
0.686763 0.236484 0.082002
0.696239 0.203601 0.0773175
0.663691 0.172213 0.0628824
0.643183 0.151965 0.0538949
0.634745 0.143557 0.0501869
0.200229 0.467597 0.0639963
0.190066 0.448218 0.0572518
0.175967 0.419959 0.0486305
0.210086 0.434379 0.0448768
0.559884 0.462425 0.0305028
0.944396 0.438422 0.164752
0.919142 0.397894 0.16408
0.894987 0.375494 0.158572
0.884276 0.36582 0.155596
0.341619 0.717159 0.159258
0.334905 0.706584 0.154559
0.324956 0.690669 0.147662
0.299901 0.649409 0.13051
0.453529 0.710933 0.100282
0.801862 0.66305 0.0945602
1 0.596826 0.129305
1 0.5776 0.141039
1 0.570184 0.145968
0.348409 0.727749 0.16408
0.348409 0.727749 0.16408
0.348424 0.727733 0.16408
0.348409 0.727718 0.164065
0.393317 0.759121 0.161501
0.652323 0.858656 0.127626
0.952407 0.808804 0.124697
0.985016 0.78439 0.123766
0.987091 0.777493 0.123003
0.348409 0.727749 0.16408
0.348409 0.727749 0.16408
0.348409 0.727749 0.16408
0.348394 0.727733 0.164065
0.354086 0.732113 0.164431
0.560525 0.841489 0.138277
0.863996 0.842084 0.12401
0.978668 0.805356 0.126085
0.978668 0.805356 0.126085
0.348409 0.727749 0.16408
0.348409 0.727749 0.16408
0.348409 0.727749 0.16408
0.348394 0.727733 0.164065
0.350057 0.729091 0.164401
0.530953 0.830594 0.141024
0.831144 0.850187 0.123476
0.978668 0.805356 0.126085
0.978668 0.805356 0.126085
0.00546273 0.000259403 0.131685
0.0204471 0.000183108 0.102113
0.136004 0 0.0880751
0.322835 0 0.058793
0.426322 0 0.036408
0.428077 0 0.0233616
0.428885 0 0.0168154
0.429313 0 0.0113375
0.429755 0 0.00944533
0.00869764 0.00270085 0.0939193
0.0119326 0.00103761 0.0726024
0.0990921 0 0.0532387
0.27425 0 0.0334478
0.427924 0 0.0175937
0.43006 0 0.00880446
0.43125 0 0.00584421
0.434012 0 0.00445563
0.435508 0 0.00404364
0.0140536 0.0790112 0.0879835
0.0134432 0.0684215 0.0735485
0.0699168 0.0694591 0.0608377
0.327306 0.0726024 0.0452583
0.479713 0.0340581 0.0132143
0.463935 0.00874342 0.00167849
0.455848 0.00230411 0.00132753
0.456214 0.00154116 0.00132753
0.456641 0.0012665 0.0012665
0.0793469 0.209049 0.00720226
0.0760815 0.196506 0.00317388
0.0734264 0.177752 0.00062562
0.209873 0.23212 0.000350958
0.667826 0.222187 0.0735332
0.685695 0.193576 0.0725567
0.653498 0.162173 0.0585184
0.633829 0.142641 0.0497902
0.62565 0.134447 0.0462501
0.193378 0.454505 0.0595254
0.183719 0.43566 0.053315
0.170382 0.40856 0.0452583
0.199619 0.419318 0.0410468
0.544778 0.450813 0.0265507
0.934249 0.429908 0.162966
0.909133 0.388525 0.161975
0.884565 0.366079 0.155688
0.873686 0.35639 0.152453
0.337652 0.710903 0.156481
0.3308 0.700099 0.151675
0.319203 0.68127 0.143725
0.293675 0.638987 0.126329
0.442283 0.699184 0.0972457
0.791653 0.655467 0.0927596
1 0.590097 0.132906
1 0.570855 0.145556
1 0.56347 0.150057
0.348409 0.727749 0.16408
0.348409 0.727749 0.16408
0.348424 0.727733 0.16408
0.348409 0.727718 0.164065
0.388724 0.75613 0.162097
0.644511 0.857816 0.12845
0.94876 0.808652 0.124422
0.986893 0.778149 0.123079
0.988846 0.771267 0.122347
0.348409 0.727749 0.16408
0.348409 0.727749 0.16408
0.348409 0.727749 0.16408
0.348394 0.727733 0.164065
0.352514 0.730907 0.16437
0.552239 0.838682 0.139055
0.854917 0.844541 0.123873
0.978668 0.805356 0.126085
0.978668 0.805356 0.126085
0.348409 0.727749 0.16408
0.348409 0.727749 0.16408
0.348409 0.727749 0.16408
0.348394 0.727733 0.164065
0.34963 0.728756 0.164324
0.523186 0.827558 0.141772
0.822477 0.85185 0.123323
0.978668 0.805356 0.126085
0.978668 0.805356 0.126085
0.00428778 0.0225834 0.336156
0.0117342 0.00825513 0.294728
0.09897 0.00596628 0.277852
0.282734 9.15541e-05 0.239094
0.430014 0 0.173434
0.428489 0 0.148363
0.427039 0 0.133791
0.425589 0 0.120546
0.42501 0 0.115282
0.00540169 0.0213321 0.29218
0.00582895 0.0120699 0.266239
0.0681621 0.000732433 0.223011
0.241581 4.57771e-05 0.195468
0.424949 0 0.135515
0.424811 0 0.113664
0.423514 0 0.101503
0.42266 0 0.091249
0.422385 0 0.0870222
0.0144198 0.103517 0.304204
0.0135805 0.0910506 0.285557
0.0325475 0.0838331 0.268452
0.245533 0.0419318 0.200275
0.425559 0.0172122 0.113725
0.4271 0.000991836 0.0707866
0.424079 0 0.0599222
0.423987 0 0.0527657
0.424262 0 0.0498207
0.0244144 0.219883 0.284871
0.0233921 0.206714 0.266133
0.0220798 0.184939 0.236347
0.205509 0.261921 0.272206
0.61941 0.289769 0.254673
0.66511 0.194461 0.156512
0.626978 0.152453 0.11632
0.60325 0.12694 0.0924392
0.593362 0.116823 0.0835279
0.0964065 0.358312 0.117525
0.0975204 0.345113 0.103197
0.0971084 0.32668 0.0829023
0.19675 0.379461 0.0899977
0.557015 0.45359 0.0621195
0.928328 0.428672 0.171359
0.894835 0.375662 0.160327
0.868223 0.351781 0.151644
0.856733 0.341726 0.147662
0.327535 0.692805 0.152804
0.321401 0.684215 0.146212
0.307668 0.66186 0.136584
0.283528 0.621485 0.119554
0.422873 0.679377 0.0922255
0.775113 0.64358 0.0898299
1 0.579828 0.1393
1 0.56022 0.151949
1 0.552819 0.156024
0.348409 0.727749 0.16408
0.348394 0.727733 0.164065
0.348394 0.727733 0.16408
0.348379 0.727718 0.16405
0.381506 0.751293 0.16286
0.63299 0.85597 0.12958
0.942397 0.803525 0.123171
0.98938 0.769345 0.122164
0.99118 0.762448 0.121477
0.348409 0.727749 0.16408
0.348409 0.727749 0.16408
0.348409 0.727749 0.16408
0.348394 0.727733 0.164065
0.351217 0.729976 0.164431
0.541787 0.834775 0.139986
0.843687 0.847517 0.12372
0.978668 0.805356 0.126085
0.978668 0.805356 0.126085
0.348409 0.727749 0.16408
0.348409 0.727749 0.16408
0.348409 0.727749 0.16408
0.348394 0.727733 0.164065
0.349157 0.728374 0.164233
0.51397 0.823499 0.142504
0.811933 0.853864 0.123125
0.978683 0.805371 0.126085
0.978683 0.805371 0.126085
0.00421149 0.0245212 0.348394
0.00883497 0.0156405 0.330007
0.0749218 0.0140841 0.324392
0.254841 0.00799573 0.352911
0.361654 0.000106813 0.30811
0.3617 0.000106813 0.308034
0.362188 0.000106813 0.307515
0.364599 0.000106813 0.304799
0.366766 9.15541e-05 0.302373
0.00451667 0.0271611 0.351339
0.00457771 0.0236362 0.346471
0.0445869 0.0119631 0.316091
0.208804 0.0120394 0.350042
0.359136 0.000122072 0.309346
0.367315 9.15541e-05 0.301747
0.374472 6.10361e-05 0.293584
0.384604 1.5259e-05 0.281712
0.389288 0 0.275868
0.0142977 0.128161 0.444846
0.0134585 0.118395 0.436713
0.0267948 0.105684 0.429465
0.136889 0.0719921 0.39028
0.356069 0.00820935 0.312779
0.408164 0 0.248646
0.416556 0 0.229892
0.421607 0 0.215122
0.42327 0 0.20882
0.0251469 0.246952 0.502327
0.0242161 0.235798 0.487098
0.0226749 0.215579 0.461875
0.0941176 0.272938 0.493156
0.45893 0.244251 0.451484
0.640208 0.176562 0.327108
0.599664 0.131731 0.272786
0.573678 0.105455 0.24007
0.562417 0.0948653 0.226581
0.0379187 0.377798 0.470359
0.0365606 0.365438 0.45658
0.0348669 0.347845 0.43679
0.0470588 0.348486 0.42031
0.452644 0.517357 0.516274
0.845029 0.515419 0.47863
0.83473 0.432639 0.395941
0.816693 0.400565 0.362768
0.808637 0.387289 0.349447
0.103517 0.521553 0.323598
0.105516 0.511482 0.307378
0.105165 0.495628 0.287022
0.105241 0.468986 0.251499
0.40824 0.6336 0.315526
0.82388 0.707942 0.275257
1 0.662684 0.306004
1 0.628824 0.283635
1 0.616129 0.275685
0.27808 0.585138 0.181399
0.291295 0.600122 0.178378
0.3028 0.617609 0.17705
0.315709 0.644053 0.175845
0.362142 0.713222 0.189578
0.622232 0.858381 0.150713
0.934432 0.798795 0.124468
0.993042 0.757244 0.12221
0.994736 0.74786 0.121141
0.323308 0.661402 0.174731
0.328817 0.678477 0.173632
0.335042 0.694331 0.171527
0.341512 0.711299 0.168154
0.347631 0.724361 0.165942
0.527596 0.829206 0.141817
0.828229 0.850965 0.123461
0.978668 0.805356 0.126085
0.978668 0.805356 0.126085
0.333471 0.690227 0.172183
0.338567 0.703716 0.169818
0.341848 0.712688 0.168078
0.345266 0.720974 0.166049
0.348028 0.72668 0.164553
0.500999 0.817548 0.143633
0.797238 0.856367 0.122866
0.978698 0.805356 0.126085
0.978668 0.805356 0.126085
0.00421149 0.0245212 0.348394
0.00726329 0.0179446 0.334966
0.0676738 0.0137331 0.322301
0.244297 0.00929274 0.353124
0.361654 0.000106813 0.30811
0.361639 0.000106813 0.30811
0.361639 0.000106813 0.30811
0.361639 0.000106813 0.30811
0.361639 0.000106813 0.30811
0.0043183 0.0254215 0.349386
0.00434882 0.024033 0.347433
0.0401617 0.0115053 0.315099
0.198978 0.0125582 0.348653
0.356435 0.000122072 0.311543
0.361639 0.000106813 0.30811
0.361639 0.000106813 0.30811
0.361639 0.000106813 0.30811
0.361639 0.000106813 0.30811
0.0134127 0.118166 0.43714
0.0125429 0.108415 0.429389
0.0233463 0.0928664 0.419776
0.120562 0.0574502 0.381826
0.323842 0.00819409 0.347112
0.361654 0.000106813 0.30811
0.361654 0.000106813 0.308125
0.361654 0.000106813 0.308125
0.361654 0.000106813 0.30811
0.0243076 0.241062 0.530449
0.0234379 0.231617 0.522805
0.022034 0.215686 0.510384
0.0725414 0.259052 0.563348
0.281498 0.239429 0.554223
0.540383 0.136309 0.476402
0.505684 0.0860456 0.43299
0.48481 0.0603342 0.407813
0.475151 0.0504005 0.39733
0.0396735 0.375174 0.596719
0.0383154 0.36466 0.593042
0.0365606 0.350317 0.58764
0.0448157 0.346578 0.588556
0.25658 0.495277 0.709224
0.651377 0.470771 0.697887
0.762905 0.402472 0.607782
0.757031 0.370947 0.570062
0.753216 0.358114 0.554528
0.0646982 0.529 0.631251
0.0624704 0.517418 0.620096
0.0595865 0.502541 0.605081
0.0550698 0.478614 0.580118
0.153887 0.565438 0.620264
0.731029 0.759716 0.736446
0.984924 0.752728 0.715434
0.973983 0.71725 0.678294
0.970321 0.70457 0.665537
0.0709392 0.559396 0.534417
0.0708629 0.557351 0.517205
0.0713664 0.555505 0.498787
0.0731212 0.553048 0.470207
0.0989242 0.566033 0.431357
0.633555 0.852934 0.535515
0.990463 0.930907 0.516457
1 0.894835 0.50135
1 0.885405 0.494667
0.0754253 0.551598 0.447257
0.0802625 0.550866 0.42501
0.0872358 0.550454 0.398627
0.101976 0.550423 0.361807
0.133333 0.551644 0.30663
0.531487 0.796719 0.412528
0.868544 0.935409 0.366155
0.999466 0.887221 0.284718
0.998428 0.881727 0.268406
0.0847944 0.550454 0.405966
0.0933089 0.550423 0.381826
0.105241 0.550393 0.353368
0.126833 0.551247 0.31516
0.165957 0.553017 0.262959
0.497688 0.777188 0.370184
0.825177 0.924651 0.319463
0.996094 0.868315 0.232288
0.995163 0.862593 0.218036
0.00421149 0.0245212 0.348394
0.00666819 0.0188144 0.336782
0.0628367 0.0134585 0.320943
0.237095 0.00988785 0.352621
0.361654 0.000106813 0.30811
0.361639 0.000106813 0.30811
0.361639 0.000106813 0.30811
0.361639 0.000106813 0.30811
0.361639 0.000106813 0.30811
0.00421149 0.0245212 0.348394
0.0043183 0.0241398 0.347662
0.037583 0.0112306 0.314534
0.19295 0.0128634 0.347768
0.354208 0.000137331 0.313039
0.361639 0.000106813 0.30811
0.361639 0.000106813 0.30811
0.361639 0.000106813 0.30811
0.361639 0.000106813 0.30811
0.0129244 0.112688 0.432792
0.0120394 0.102983 0.425025
0.0217136 0.0870222 0.414206
0.115068 0.0497292 0.37293
0.315007 0.00537118 0.344884
0.361654 0.000106813 0.308125
0.361654 0.000106813 0.308125
0.361654 0.000106813 0.30811
0.361654 0.000106813 0.30811
0.023743 0.234913 0.52546
0.0228733 0.22533 0.517876
0.0214694 0.209415 0.505562
0.0667887 0.244923 0.553307
0.265583 0.224994 0.542641
0.525963 0.119844 0.462974
0.488045 0.0675975 0.417105
0.462119 0.0437171 0.392493
0.450996 0.0339818 0.382162
0.0386664 0.367086 0.594095
0.0373083 0.356329 0.590585
0.035584 0.342031 0.585794
0.0414588 0.334005 0.586603
0.229068 0.473472 0.702831
0.571923 0.452232 0.722362
0.687007 0.378714 0.660822
0.673381 0.347402 0.638773
0.66717 0.334615 0.629511
0.0626688 0.518059 0.65539
0.0603037 0.505455 0.649943
0.0575723 0.490425 0.643458
0.0535592 0.467201 0.633509
0.123491 0.530999 0.687114
0.555535 0.738018 0.891829
0.870466 0.699641 0.857786
0.840574 0.661265 0.835584
0.83061 0.64831 0.828046
0.0731212 0.571588 0.678584
0.0731212 0.571588 0.678569
0.073106 0.571572 0.678325
0.0730297 0.571298 0.677836
0.0777905 0.577295 0.680125
0.33434 0.795972 0.82829
0.977142 0.986725 0.969162
1 0.976974 0.964446
1 0.96849 0.955413
0.0731365 0.571649 0.677134
0.0731518 0.571694 0.675731
0.0731823 0.571786 0.672068
0.073167 0.57174 0.665507
0.0729992 0.571084 0.647135
0.211444 0.717266 0.700389
0.83856 0.969696 0.801358
1 0.998932 0.785977
1 0.998657 0.76875
0.0731975 0.571786 0.673198
0.0731975 0.571786 0.669505
0.0732128 0.571801 0.662089
0.0730907 0.571481 0.65008
0.0726024 0.569619 0.625528
0.183581 0.688045 0.652659
0.801221 0.953155 0.75172
1 0.997528 0.728618
1 0.996063 0.712261
0.00421149 0.0245212 0.348394
0.00604257 0.0196689 0.338552
0.0582895 0.0132143 0.319768
0.229938 0.0104982 0.352132
0.361013 0.000122072 0.308522
0.361639 0.000106813 0.30811
0.361639 0.000106813 0.30811
0.361639 0.000106813 0.30811
0.361639 0.000106813 0.30811
0.00421149 0.0245212 0.348394
0.00430304 0.0242313 0.347829
0.035523 0.0110018 0.314351
0.186969 0.013138 0.346868
0.35201 0.000137331 0.314504
0.361639 0.000106813 0.30811
0.361639 0.000106813 0.30811
0.361639 0.000106813 0.30811
0.361639 0.000106813 0.30811
0.0124514 0.1075 0.428656
0.0115663 0.0978714 0.420935
0.0201724 0.0803693 0.407095
0.110155 0.0432441 0.365286
0.309468 0.005066 0.345464
0.361654 0.000106813 0.308125
0.361654 0.000106813 0.308125
0.361654 0.000106813 0.30811
0.361654 0.000106813 0.30811
0.0232547 0.229679 0.521233
0.0224155 0.220066 0.513817
0.0210574 0.204486 0.501793
0.0629435 0.235386 0.546212
0.255055 0.214878 0.534356
0.517052 0.109163 0.454017
0.477394 0.0571298 0.406699
0.450935 0.0338903 0.382086
0.440116 0.0243839 0.372015
0.0379034 0.361166 0.592172
0.0366217 0.35053 0.588647
0.0349279 0.336477 0.583947
0.0397803 0.32665 0.583764
0.218143 0.461952 0.695094
0.556817 0.441444 0.715312
0.682033 0.366186 0.652155
0.66688 0.333989 0.629084
0.660548 0.321065 0.619699
0.0613565 0.511025 0.652354
0.0590219 0.498497 0.646952
0.0564431 0.483879 0.640696
0.0525216 0.46096 0.630869
0.117113 0.519478 0.68069
0.540398 0.725734 0.884428
0.856504 0.685283 0.850202
0.826627 0.645274 0.827314
0.816403 0.631937 0.819852
0.0731518 0.571649 0.67863
0.0731365 0.571633 0.678614
0.0731212 0.571557 0.678569
0.0729992 0.57116 0.678355
0.0762951 0.574502 0.680888
0.317281 0.783261 0.831373
0.963348 0.97879 0.997589
0.999878 0.964019 0.99501
0.999741 0.95436 0.993561
0.0731518 0.571649 0.678645
0.0731518 0.571649 0.678645
0.0731518 0.571649 0.678645
0.0731212 0.571603 0.678584
0.073106 0.571557 0.678553
0.189792 0.705394 0.76527
0.728542 0.958495 0.972
1 1 1
1 1 1
0.0731518 0.571649 0.678645
0.0731518 0.571649 0.678645
0.0731518 0.571649 0.678645
0.0731212 0.571603 0.678584
0.073106 0.571572 0.678553
0.158877 0.676127 0.745113
0.650584 0.933654 0.954162
1 1 1
1 1 1
0.00421149 0.0245212 0.348394
0.00584421 0.0202182 0.339651
0.0563668 0.0130922 0.31928
0.226871 0.0107576 0.351904
0.360739 0.000122072 0.308705
0.361639 0.000106813 0.30811
0.361639 0.000106813 0.30811
0.361639 0.000106813 0.30811
0.361639 0.000106813 0.30811
0.00421149 0.0245212 0.348394
0.00428778 0.0242771 0.347906
0.0346685 0.0108949 0.31426
0.184329 0.0132448 0.346441
0.350896 0.00015259 0.315251
0.361639 0.000106813 0.30811
0.361639 0.000106813 0.30811
0.361639 0.000106813 0.30811
0.361639 0.000106813 0.30811
0.0122377 0.105303 0.426902
0.011368 0.0956893 0.419165
0.019501 0.0776379 0.40415
0.108125 0.0410163 0.362585
0.307149 0.00508125 0.345861
0.361654 0.000106813 0.308125
0.361654 0.000106813 0.308125
0.361654 0.000106813 0.30811
0.361654 0.000106813 0.30811
0.0230716 0.227405 0.519493
0.0222171 0.217823 0.512062
0.0208743 0.20238 0.500221
0.0614786 0.231815 0.543557
0.25098 0.210834 0.530724
0.51339 0.104631 0.450202
0.472663 0.0529793 0.402304
0.446326 0.0298466 0.377783
0.435462 0.0211032 0.367849
0.037583 0.358618 0.591333
0.0363012 0.348074 0.587823
0.0346532 0.334081 0.583154
0.0390936 0.323613 0.582544
0.213855 0.457389 0.692088
0.550454 0.437018 0.712352
0.679713 0.360861 0.648386
0.664179 0.328496 0.625101
0.657877 0.315587 0.615717
0.0607919 0.508095 0.651087
0.0585031 0.495628 0.645701
0.0559701 0.481086 0.639521
0.0520943 0.458412 0.629786
0.114458 0.514748 0.678035
0.534386 0.720806 0.881346
0.851331 0.679988 0.847318
0.822126 0.639536 0.824079
0.8121 0.626261 0.816678
0.0731518 0.571649 0.67863
0.0731365 0.571618 0.678614
0.073106 0.571527 0.678553
0.0729686 0.57113 0.67834
0.0759289 0.573358 0.680339
0.312123 0.779049 0.82858
0.95845 0.974426 0.997192
0.999832 0.959884 0.9944
0.999664 0.950195 0.992935
0.0731518 0.571649 0.678645
0.0731518 0.571649 0.678645
0.0731518 0.571649 0.678645
0.0731212 0.571603 0.678584
0.073106 0.571557 0.678553
0.185519 0.701534 0.762539
0.718181 0.955688 0.969985
1 1 1
1 1 1
0.0731518 0.571649 0.678645
0.0731518 0.571649 0.678645
0.0731518 0.571649 0.678645
0.0731212 0.571603 0.678599
0.073106 0.571572 0.678553
0.155322 0.672374 0.742611
0.640467 0.930266 0.951675
1 1 1
1 1 1
