LUT预设1/LUT全系打包/阿勒泰系列lut/各机型Log灰片/阿勒泰仿色.cube
TITLE "Generated by Resolve"
LUT_3D_SIZE 5
0.030396 0.0455634 0.0431678
0.157 0.0575723 0.0375525
0.541787 0.0012665 0.00047303
0.664714 0.015671 0.00567636
0.65893 0.0146487 0.00523384
0 0.161608 0.0662394
0.0937514 0.15288 0.0420844
0.549462 0.174258 0.00540169
0.715023 0.0876478 0.0132906
0.702052 0.0247959 0.00892653
0.0392004 0.361761 0.0127871
0.0252537 0.340932 0.00334173
0.386419 0.391745 0.0218204
0.787869 0.41709 0.0917678
0.830472 0.372808 0.0873579
0.153704 0.464286 0.033753
0.150286 0.461875 0.0262608
0.23711 0.525063 0.0524605
0.837186 0.710384 0.186954
1 0.75584 0.220523
0.2392 0.526009 0.252079
0.24094 0.527321 0.25655
0.188602 0.492271 0.0777905
0.830869 0.788647 0.204593
1 0.85861 0.24361
0.00122072 0.0533455 0.114137
0.156954 0.0305486 0.206821
0.584222 0.00520333 0.192233
0.709285 0.0282292 0.184192
0.703471 0.0255741 0.106477
0 0.184894 0.219989
0.0982071 0.182971 0.203876
0.60885 0.136995 0.1234
0.759609 0.0551003 0.0835737
0.741405 0.0372015 0.0230564
0.0863203 0.398154 0.206958
0.0779889 0.389761 0.226841
0.473213 0.437461 0.0439612
0.846891 0.439033 0.111421
0.859129 0.383352 0.097322
0.205097 0.49688 0.224598
0.235828 0.517983 0.301015
0.233112 0.519692 0.117968
0.91725 0.761959 0.208621
1 0.776333 0.225132
0.298238 0.567651 0.420829
0.319539 0.582605 0.486168
0.311299 0.57731 0.457755
0.86096 0.798962 0.210071
1 0.854551 0.242695
0 0.000610361 0.337942
0.000122072 0 0.469261
0.584253 0.0208286 0.558206
0.737316 0.0624857 0.527871
0.733562 0.0508278 0.452964
0.00259403 0.229572 0.443748
4.57771e-05 0.188403 0.491966
0.582773 0.106523 0.581979
0.779477 0.0815137 0.521691
0.7673 0.0648203 0.449104
0.250172 0.498527 0.570001
0.281086 0.52781 0.579767
0.500664 0.482963 0.485832
0.853513 0.441764 0.457877
0.857908 0.382101 0.430518
0.327413 0.581384 0.557733
0.340108 0.595438 0.561807
0.398932 0.665568 0.583566
0.942123 0.804669 0.451942
1 0.818326 0.461891
0.35494 0.608133 0.594949
0.37229 0.621683 0.644221
0.430411 0.687114 0.711238
0.620554 0.795727 0.615366
1 0.916106 0.648325
1.5259e-05 0 0.568154
0 4.57771e-05 0.591821
0.34844 0.000915541 0.64271
0.750515 0.0928054 0.641535
0.762722 0.0970474 0.634745
0.014374 0.2309 0.65388
0.00216678 0.164019 0.670329
0.245151 0.190814 0.707362
0.791806 0.125261 0.68986
0.797436 0.122179 0.667964
0.285649 0.519783 0.666423
0.282506 0.515236 0.677333
0.300649 0.531899 0.689967
0.858701 0.472282 0.738216
0.877668 0.414557 0.724468
0.383246 0.6215 0.732738
0.433433 0.682597 0.764752
0.638483 0.82678 0.801373
0.981781 0.882048 0.82797
1 0.895811 0.853178
0.398138 0.63798 0.747875
0.456092 0.711788 0.77908
0.543954 0.814862 0.798306
0.882582 0.905074 0.853513
1 0.969162 0.887114
0 3.0518e-05 0.640345
1.5259e-05 0 0.632883
0 1.5259e-05 0.613123
0.673808 0.0584115 0.63975
0.768933 0.104051 0.650217
0.0390173 0.269383 0.710491
0.0294804 0.251545 0.711498
0 0.111315 0.702785
0.686168 0.0917372 0.703288
0.801083 0.127855 0.683314
0.303059 0.53109 0.715816
0.300938 0.528008 0.719509
0.295476 0.520394 0.733364
0.696056 0.545846 0.753719
0.87744 0.411948 0.746929
0.38407 0.621271 0.741039
0.406775 0.647303 0.759258
0.48983 0.760433 0.792462
0.843412 0.873915 0.847883
1 0.905333 0.8907
0.414191 0.656489 0.763409
0.48278 0.749187 0.795148
0.808469 0.885847 0.848554
1 0.967956 0.903944
1 0.974548 0.909194
