LUT预设1/LUT全系打包/阿勒泰系列lut/各机型Log灰片/阿勒泰仿色.cube
TITLE "Generated by Resolve"
LUT_3D_SIZE 33
0.030396 0.0455634 0.0431678
0.0265507 0.0454261 0.0432593
0.0268864 0.0455024 0.0432746
0.0397345 0.046067 0.0431525
0.0565347 0.0479591 0.0432136
0.0736248 0.0510567 0.0433814
0.08925 0.0547799 0.0435798
0.119036 0.057084 0.042359
0.157 0.0575723 0.0375525
0.198444 0.0561837 0.025452
0.242344 0.0522316 0.00961318
0.290578 0.04477 0.000106813
0.344381 0.0250553 1.5259e-05
0.396826 0.00868238 0
0.44799 0.000488289 0
0.496849 0.000122072 4.57771e-05
0.541787 0.0012665 0.00047303
0.575097 0.00337224 0.00122072
0.601587 0.00590524 0.002121
0.622583 0.00849927 0.00306706
0.638407 0.0110475 0.00392157
0.649149 0.0126955 0.00459297
0.656992 0.0142977 0.00511177
0.662058 0.0152438 0.00547799
0.664714 0.015671 0.00567636
0.666285 0.0160525 0.00578317
0.664469 0.015671 0.0056611
0.662531 0.0153353 0.00550851
0.661448 0.0150912 0.00544747
0.660243 0.014847 0.00535592
0.659785 0.014786 0.00531014
0.659312 0.0147097 0.0052491
0.65893 0.0146487 0.00523384
0.0292668 0.0506905 0.0443885
0.0286564 0.0503853 0.0439155
0.026688 0.0504768 0.0442359
0.0359808 0.0512398 0.0445563
0.0537423 0.0531319 0.0445411
0.0718853 0.056199 0.0443885
0.0910658 0.0598764 0.0439307
0.117052 0.0630808 0.0426642
0.157488 0.0642863 0.0372931
0.199908 0.0641184 0.0227817
0.245472 0.0626535 0.0087129
0.29575 0.0573892 0.000122072
0.349813 0.0446326 0
0.403784 0.015671 0
0.455314 0.00363165 0
0.504204 0.000564584 0.000137331
0.547036 0.0015259 0.000579843
0.581949 0.00401312 0.00141909
0.607706 0.00657664 0.00238041
0.627924 0.00927749 0.00334173
0.643595 0.0117952 0.00422675
0.654108 0.0136416 0.00491341
0.661234 0.0150759 0.00543221
0.666606 0.0161593 0.00581369
0.66833 0.016495 0.00595102
0.669078 0.0166476 0.0059968
0.666117 0.016022 0.00576791
0.663386 0.0155032 0.00556954
0.661479 0.0150301 0.00543221
0.659678 0.0147097 0.00529488
0.658839 0.0145724 0.0052491
0.658015 0.0144808 0.00518807
0.658015 0.0144808 0.00518807
0.0274205 0.0563668 0.0466011
0.0276493 0.0559091 0.0458991
0.0265965 0.0553902 0.0452277
0.0289006 0.0559701 0.0456092
0.0488594 0.0575723 0.0454414
0.0690318 0.060853 0.0448768
0.0901656 0.0647135 0.0440986
0.11725 0.0684215 0.0422217
0.155795 0.0709392 0.0378729
0.200458 0.0721904 0.026154
0.247547 0.0725719 0.00941482
0.299382 0.0700847 0.000900282
0.354971 0.0626841 0
0.410529 0.0477302 0
0.461479 0.0169375 0
0.510552 0.00509651 0.000137331
0.552254 0.00204471 0.000671397
0.587121 0.00440986 0.0016022
0.614389 0.00740063 0.00268559
0.63386 0.010132 0.00367742
0.649439 0.0127718 0.00460822
0.660227 0.0148928 0.0053254
0.666987 0.0162509 0.00584421
0.672267 0.0173953 0.0062562
0.67454 0.0178225 0.00642405
0.674678 0.0178531 0.00643931
0.671351 0.0171511 0.0061799
0.668269 0.0166018 0.00593576
0.665797 0.0158999 0.00576791
0.663539 0.0155032 0.00560006
0.66183 0.0151827 0.00544747
0.660288 0.0149081 0.00534066
0.659678 0.0146944 0.00531014
0.0160983 0.0652934 0.0501564
0.0201419 0.0643778 0.0472419
0.0205081 0.0636149 0.0457618
0.0237888 0.063508 0.046067
0.0373999 0.0645151 0.0463722
0.0637522 0.0669718 0.0461128
0.0852522 0.0708934 0.0454719
0.11371 0.0749218 0.0435035
0.151415 0.0783703 0.0384985
0.198428 0.0805676 0.0280308
0.246784 0.0818799 0.00526436
0.301106 0.08159 0.00062562
0.358709 0.0771649 0
0.415396 0.0658274 0
0.467567 0.045716 0.000122072
0.515297 0.0111391 0.000213626
0.556283 0.00436408 0.00077821
0.591196 0.00482185 0.00173953
0.619181 0.00813306 0.00289921
0.639155 0.0110628 0.00396735
0.654215 0.0137026 0.00491341
0.665415 0.0159152 0.00570687
0.672007 0.0172732 0.00622568
0.677089 0.0185245 0.00662242
0.680354 0.0191806 0.00691234
0.680308 0.0190738 0.00691234
0.677623 0.0185855 0.00668345
0.675258 0.0180514 0.00648508
0.672984 0.0175479 0.00630198
0.670741 0.0169375 0.00613413
0.66833 0.016556 0.00595102
0.665705 0.0159915 0.00573739
0.663233 0.0153353 0.0055848
0.00213626 0.0793927 0.0544137
0.00408942 0.0795758 0.050782
0.00766003 0.0759442 0.0479744
0.0119173 0.0744488 0.0476387
0.0256046 0.0751202 0.0481117
0.0538491 0.0768597 0.0478065
0.0788891 0.0804761 0.046891
0.105608 0.0851911 0.0447547
0.144244 0.0890059 0.0396277
0.191821 0.0917372 0.0278477
0.243977 0.0936751 0.00918593
0.299626 0.0949721 0.000961318
0.35996 0.0927138 1.5259e-05
0.417594 0.0852369 1.5259e-05
0.470298 0.0691386 0.000213626
0.51751 0.0416571 0.000549325
0.560037 0.0128328 0.000991836
0.594324 0.0053254 0.00184634
0.622614 0.00857557 0.00308232
0.644327 0.0120089 0.00427253
0.658961 0.0145724 0.00526436
0.670237 0.0168765 0.00608835
0.677012 0.0185702 0.00662242
0.682536 0.0197147 0.00708019
0.686244 0.0205386 0.00743114
0.686458 0.020737 0.00743114
0.685023 0.0204166 0.00729381
0.682719 0.0196994 0.0071107
0.680049 0.0191958 0.00686656
0.677485 0.018555 0.00668345
0.674861 0.0178378 0.00646983
0.672343 0.0173495 0.0062562
0.669993 0.0169375 0.00605783
7.62951e-05 0.0962081 0.0573892
0.000137331 0.0961929 0.0552071
0.00296025 0.0917678 0.051194
0.00265507 0.0894789 0.0498665
0.0150912 0.0891585 0.0494087
0.0378882 0.0909133 0.0492103
0.0685283 0.0940414 0.0479896
0.0958419 0.0988022 0.045655
0.133669 0.103182 0.0406043
0.181781 0.106722 0.0278782
0.236866 0.11014 0.0121309
0.294347 0.1131 0.000244144
0.355322 0.113146 3.0518e-05
0.415091 0.108095 0.000167849
0.469001 0.0974746 0.000457771
0.517784 0.0797589 0.00108339
0.560342 0.0479286 0.00163272
0.594934 0.0274205 0.00236515
0.624231 0.0161593 0.00335698
0.647623 0.0155642 0.00457771
0.663172 0.0166781 0.00561532
0.675715 0.0181735 0.00653086
0.684153 0.0201419 0.00723278
0.689586 0.0215457 0.00770581
0.693233 0.0223545 0.00805676
0.693355 0.0224613 0.00805676
0.692226 0.0222019 0.00794995
0.68986 0.0214542 0.00775158
0.687007 0.020737 0.00747692
0.684367 0.0201572 0.00723278
0.681819 0.0195468 0.00703441
0.679454 0.0189517 0.00683604
0.677058 0.0185397 0.00662242
0 0.114427 0.0605783
0 0.114199 0.0589151
1.5259e-05 0.112261 0.0562753
0 0.105562 0.0519875
0.00137331 0.104952 0.0518349
0.0221103 0.106126 0.0508736
0.0538033 0.109224 0.0489357
0.0889143 0.113771 0.0460517
0.120562 0.119188 0.0412757
0.170001 0.123796 0.0294652
0.224674 0.128359 0.013901
0.283085 0.132509 0.00201419
0.343999 0.135225 0
0.407782 0.133165 0.000213626
0.464057 0.127443 0.000823987
0.514611 0.116243 0.00170901
0.559823 0.0993057 0.00277714
0.59585 0.0773175 0.0037232
0.625742 0.0584878 0.0047303
0.651301 0.0432593 0.00576791
0.667948 0.031281 0.00648508
0.681422 0.0246433 0.00720226
0.690288 0.0254673 0.00793469
0.695903 0.0260319 0.0084535
0.69958 0.0265202 0.00875868
0.700389 0.0254368 0.0087892
0.700374 0.0243687 0.00875868
0.69781 0.0235904 0.00849927
0.694896 0.0228733 0.00820935
0.692195 0.0221256 0.00794995
0.68957 0.0214847 0.00772107
0.687129 0.0207675 0.00749218
0.684688 0.0203098 0.00726329
0 0.13611 0.064271
1.5259e-05 0.136461 0.0628824
0 0.134173 0.0597238
0 0.12958 0.0553902
1.5259e-05 0.121691 0.0545815
0.011429 0.122271 0.0533303
0.0400549 0.125261 0.0510109
0.0749371 0.129793 0.0475624
0.110292 0.135561 0.0425879
0.154009 0.140932 0.0335088
0.208881 0.146227 0.0154421
0.267887 0.151629 0.00399786
0.329473 0.156222 4.57771e-05
0.393439 0.157534 0.000366217
0.45417 0.155138 0.00122072
0.509377 0.149569 0.00256352
0.557183 0.14081 0.00415045
0.596109 0.125109 0.00547799
0.627726 0.10988 0.00675975
0.65388 0.095079 0.00799573
0.671458 0.0785077 0.00868238
0.685832 0.0655375 0.00932326
0.695552 0.0576791 0.00984207
0.702113 0.0517891 0.0101472
0.7066 0.0465248 0.0103304
0.708232 0.0395514 0.0101625
0.709453 0.0331426 0.0100099
0.70692 0.0301671 0.00959792
0.704067 0.0276646 0.00921645
0.701152 0.0257115 0.00889601
0.698222 0.0241093 0.00852979
0.695506 0.0231479 0.00827039
0.692836 0.0223545 0.00801099
0 0.161608 0.0662394
0 0.16318 0.0642405
3.0518e-05 0.162875 0.0599069
0 0.156054 0.0566262
0 0.1449 0.0558785
0 0.141085 0.0562753
0.019852 0.143343 0.0530098
0.0530404 0.14757 0.0485237
0.0937514 0.15288 0.0420844
0.136263 0.158862 0.0326238
0.191485 0.164569 0.0146334
0.250156 0.171344 0.00433356
0.311086 0.177066 0.000167849
0.374716 0.18114 0.000564584
0.439506 0.181399 0.00167849
0.497093 0.178866 0.00328069
0.549462 0.174258 0.00540169
0.592905 0.165347 0.00747692
0.62742 0.155627 0.00935378
0.655894 0.144625 0.011017
0.675029 0.131807 0.0119173
0.690639 0.119722 0.0126497
0.701656 0.108965 0.0131075
0.709484 0.098436 0.0133211
0.715023 0.0876478 0.0132906
0.717754 0.0724651 0.0127718
0.719478 0.0558328 0.0121004
0.716945 0.0455634 0.0113069
0.714 0.0386969 0.0106813
0.711009 0.0335088 0.010132
0.708034 0.0286107 0.0096437
0.705119 0.0265507 0.00926223
0.702052 0.0247959 0.00892653
1.5259e-05 0.187945 0.0653086
0 0.18999 0.062501
0 0.190799 0.0576486
3.0518e-05 0.187457 0.0539864
1.5259e-05 0.178561 0.0532387
6.10361e-05 0.163272 0.0554513
0.000457771 0.163653 0.0538796
0.0274815 0.166598 0.0485237
0.0679026 0.171771 0.0396735
0.11696 0.178302 0.0273442
0.171115 0.184741 0.0116426
0.23032 0.192111 0.00344854
0.290562 0.199069 0.000198367
0.35198 0.204379 0.000808728
0.418677 0.20679 0.00210575
0.479454 0.206348 0.00401312
0.536187 0.204181 0.00656138
0.585107 0.198367 0.00929274
0.625147 0.191592 0.0120089
0.658015 0.1841 0.0144808
0.680278 0.176074 0.0161288
0.69868 0.168368 0.0175326
0.710918 0.161364 0.0184176
0.719921 0.15285 0.0187533
0.725872 0.142947 0.0185855
0.729229 0.134752 0.0182803
0.731304 0.12668 0.0179141
0.728954 0.113802 0.0165866
0.725811 0.100023 0.0152438
0.722393 0.0821698 0.0138094
0.718898 0.0638743 0.0124208
0.715526 0.0493629 0.0113375
0.712154 0.0376593 0.0104524
3.0518e-05 0.213657 0.0614939
0 0.216312 0.0592355
0 0.217395 0.0546731
0 0.216693 0.0492866
0 0.208423 0.0479896
3.0518e-05 0.195819 0.0492561
9.15541e-05 0.184878 0.0525521
0.00556954 0.186481 0.0472572
0.0344854 0.191058 0.0357671
0.0838636 0.197589 0.0208438
0.145907 0.205783 0.00694286
0.20705 0.213855 0.00209049
0.268605 0.221424 0.000381476
0.328191 0.228 0.00112917
0.3935 0.232197 0.00259403
0.457984 0.234363 0.00483711
0.519875 0.234791 0.00802625
0.572976 0.231342 0.0114443
0.61883 0.226108 0.0149538
0.656977 0.219776 0.0183108
0.683085 0.2121 0.0205539
0.704829 0.204593 0.0225376
0.719341 0.198413 0.0237736
0.730495 0.192233 0.0246433
0.737484 0.185412 0.0248112
0.741695 0.179843 0.0247654
0.74432 0.174914 0.0245823
0.742763 0.164065 0.0230564
0.740414 0.152056 0.0214237
0.736233 0.134951 0.0192416
0.732052 0.117876 0.0172885
0.728099 0.102419 0.015671
0.724178 0.086244 0.0142367
0 0.239673 0.0545052
4.57771e-05 0.24213 0.0517586
4.57771e-05 0.244022 0.047303
0.000106813 0.244648 0.0394598
1.5259e-05 0.240208 0.0347295
0 0.229557 0.035584
3.0518e-05 0.209598 0.0471199
0.000549325 0.208331 0.0425879
0.012192 0.210803 0.0287022
0.043595 0.216632 0.0133211
0.110903 0.225437 0.00318914
0.178683 0.234272 0.00103761
0.243854 0.242802 0.000640879
0.306477 0.250996 0.00164797
0.370077 0.257008 0.00331121
0.434241 0.261036 0.00579843
0.497597 0.263478 0.00935378
0.553597 0.262104 0.0132753
0.604532 0.259342 0.0177615
0.648569 0.254337 0.0221408
0.680964 0.248096 0.0255131
0.707942 0.241489 0.0284733
0.725505 0.234867 0.0302129
0.739651 0.229053 0.031632
0.748394 0.223926 0.0322423
0.754482 0.21973 0.032639
0.758236 0.216114 0.0327306
0.758083 0.209339 0.0315862
0.756954 0.202502 0.0303655
0.752071 0.188952 0.0275578
0.747494 0.175891 0.0251774
0.742596 0.162188 0.0228122
0.738094 0.14728 0.0206455
0.00166323 0.2654 0.0457313
0.00189212 0.268132 0.0428779
0.00222782 0.27042 0.037705
0.00234989 0.271489 0.0279393
0.00222782 0.27097 0.020325
0.00109865 0.261723 0.0212711
6.10361e-05 0.244038 0.0310826
1.5259e-05 0.232761 0.032578
1.5259e-05 0.231601 0.0211185
0.0157321 0.23653 0.00830091
0.0610819 0.24538 0.00135805
0.141314 0.25478 0.000610361
0.216373 0.264271 0.00102235
0.28278 0.272953 0.00224308
0.346075 0.280247 0.0041352
0.409247 0.285466 0.00683604
0.472694 0.289586 0.0106966
0.531334 0.290532 0.0151675
0.586572 0.290517 0.0205997
0.635828 0.287709 0.026215
0.675242 0.283436 0.0310979
0.709117 0.278752 0.0356603
0.729747 0.271656 0.0378119
0.747997 0.265629 0.0399481
0.75903 0.260395 0.04094
0.767254 0.256367 0.0417639
0.772656 0.25275 0.0420996
0.774411 0.248096 0.0414893
0.775219 0.243549 0.0407874
0.770336 0.232227 0.0377203
0.765408 0.220981 0.0348363
0.760449 0.208957 0.0320287
0.755581 0.197055 0.0293278
0.00643931 0.292699 0.0351263
0.00724804 0.295338 0.0324102
0.00761425 0.297398 0.0263523
0.00794995 0.298924 0.0149386
0.00788891 0.299077 0.00810254
0.00669871 0.295171 0.00448615
0.00448615 0.285161 0.00534066
0.000946059 0.25951 0.0180514
0.000183108 0.253819 0.0137636
0.000869764 0.256901 0.00569161
0.00204471 0.264607 0.000610361
0.0955978 0.274052 0.000579843
0.183536 0.283635 0.00143435
0.256428 0.292515 0.0028687
0.321553 0.301244 0.00502022
0.38468 0.308095 0.0080415
0.447776 0.313878 0.012192
0.508827 0.316899 0.017319
0.567056 0.319478 0.0236973
0.618845 0.318807 0.0302434
0.663691 0.316655 0.0364843
0.703502 0.313756 0.0425574
0.730068 0.30837 0.0461585
0.75317 0.303334 0.0495308
0.767452 0.29897 0.0513619
0.778454 0.295125 0.0527199
0.786023 0.291646 0.0534981
0.789624 0.28777 0.0533608
0.791989 0.284108 0.0530251
0.788006 0.274128 0.0497902
0.784131 0.263874 0.0467689
0.779187 0.252659 0.0433661
0.774334 0.241688 0.0402228
0.0146639 0.317968 0.026566
0.0157626 0.320684 0.0233005
0.0165408 0.322728 0.0172427
0.0171359 0.324529 0.00819409
0.0171359 0.324758 0.00654612
0.0162814 0.322759 0.00503548
0.0137179 0.316716 0.00387579
0.00706493 0.296132 0.00816358
0.00418097 0.283803 0.00619516
0.00332647 0.278843 0.00294499
0.00448615 0.285222 0.000869764
0.0542763 0.294774 0.00102235
0.125887 0.304448 0.0018616
0.221515 0.314443 0.00367742
0.293996 0.323735 0.00622568
0.361639 0.332601 0.00985733
0.425116 0.339269 0.0144656
0.488212 0.344427 0.0204623
0.547356 0.348638 0.0276341
0.60177 0.350072 0.0350958
0.651102 0.349722 0.0426642
0.695933 0.348531 0.0502174
0.728389 0.344533 0.055436
0.756619 0.341192 0.0604257
0.774868 0.336858 0.0632029
0.788815 0.333471 0.0653239
0.798459 0.330587 0.0666819
0.803815 0.327199 0.0670176
0.807431 0.323812 0.0669108
0.805295 0.315633 0.0641184
0.80235 0.306645 0.0610361
0.797803 0.295659 0.0571603
0.793256 0.285344 0.0535744
0.0261692 0.341619 0.0169223
0.0275578 0.344182 0.0135805
0.0289158 0.346563 0.0108797
0.0296483 0.34786 0.00770581
0.0296788 0.348028 0.00767529
0.0291752 0.347326 0.0062562
0.0267338 0.343236 0.00376898
0.0195315 0.329839 0.00256352
0.0125124 0.31342 0.00180056
0.00839246 0.301411 0.00141909
0.00981155 0.305867 0.00129702
0.0290379 0.314549 0.00170901
0.0788128 0.324437 0.00259403
0.17496 0.335317 0.00450141
0.260853 0.345602 0.00753796
0.338903 0.356008 0.0120394
0.405219 0.364813 0.0175937
0.469169 0.371878 0.024506
0.530724 0.377981 0.0327764
0.586969 0.381308 0.0412757
0.63946 0.383078 0.0501869
0.688014 0.383291 0.0591592
0.726146 0.38114 0.0661173
0.759319 0.378973 0.0725261
0.781888 0.375357 0.0764782
0.798856 0.372091 0.0793774
0.81091 0.369467 0.0816358
0.81738 0.366232 0.0821698
0.821973 0.362661 0.0821698
0.822324 0.356756 0.0802167
0.820539 0.349264 0.0774548
0.816251 0.339086 0.0733959
0.812177 0.32929 0.0695506
0.0392004 0.361761 0.0127871
0.0410468 0.363973 0.0119478
0.0423133 0.365652 0.0105592
0.0431983 0.366934 0.00889601
0.0436103 0.367422 0.00825513
0.0428779 0.36669 0.00701915
0.0409247 0.364096 0.0055848
0.0353246 0.356603 0.00466926
0.0252537 0.340932 0.00334173
0.0183871 0.327398 0.0024567
0.0178073 0.326375 0.00227359
0.0258946 0.333715 0.00276188
0.052903 0.344289 0.00375372
0.118059 0.355993 0.00552377
0.21265 0.368124 0.00888075
0.314931 0.380102 0.0148318
0.386419 0.391745 0.0218204
0.453132 0.40087 0.0300755
0.517052 0.409354 0.0397803
0.575967 0.414649 0.049836
0.63093 0.419074 0.0604257
0.681056 0.420798 0.0701915
0.723354 0.42063 0.0787518
0.760861 0.419577 0.0867018
0.787869 0.41709 0.0917678
0.808652 0.414145 0.0953689
0.823941 0.411383 0.0979019
0.832227 0.408087 0.0986954
0.838376 0.404669 0.0990158
0.840406 0.399985 0.0980545
0.838834 0.392645 0.0953841
0.834684 0.382803 0.0914015
0.830472 0.372808 0.0873579
0.0550393 0.380667 0.00852979
0.056672 0.382528 0.00860609
0.0578012 0.383917 0.00840772
0.0591287 0.385107 0.00813306
0.059556 0.385519 0.00816358
0.0589761 0.384985 0.00808728
0.0571756 0.383413 0.00782788
0.0536049 0.379324 0.00729381
0.0430152 0.367071 0.00575265
0.0336767 0.354299 0.00440986
0.0288243 0.346838 0.00375372
0.0323796 0.352407 0.00424201
0.0475013 0.362325 0.00531014
0.0892195 0.375387 0.00726329
0.178073 0.388663 0.0109102
0.284596 0.402213 0.0175631
0.365469 0.416266 0.0261997
0.437827 0.427924 0.0361181
0.505226 0.439231 0.0478218
0.566232 0.446952 0.0593271
0.623926 0.453895 0.071458
0.67599 0.458061 0.0829786
0.721965 0.459709 0.0925765
0.762982 0.460151 0.100847
0.794522 0.459358 0.106996
0.81883 0.457328 0.111177
0.838666 0.455482 0.114748
0.848692 0.452628 0.115984
0.856504 0.4495 0.116625
0.860319 0.446265 0.116411
0.85951 0.439445 0.114214
0.856565 0.4309 0.110979
0.851591 0.420371 0.106722
0.0717174 0.39733 0.0106813
0.0738689 0.399237 0.0108339
0.075639 0.400702 0.0108339
0.0768139 0.401892 0.0108186
0.0778821 0.402777 0.0110018
0.0775464 0.402518 0.010956
0.0763104 0.40148 0.0107576
0.0742657 0.399588 0.0104219
0.0655375 0.391592 0.00909438
0.0550088 0.380957 0.00749218
0.0428626 0.366979 0.00573739
0.045716 0.370504 0.00614939
0.0549172 0.379782 0.00735485
0.071809 0.394003 0.00953689
0.157839 0.408591 0.0137636
0.255528 0.42388 0.0209506
0.345418 0.43978 0.0311131
0.424506 0.454444 0.0431678
0.494865 0.468482 0.0567788
0.558679 0.478859 0.0699321
0.619303 0.48809 0.0839246
0.673533 0.495079 0.0961624
0.722438 0.498634 0.106249
0.766125 0.500984 0.115068
0.801984 0.501991 0.122072
0.829862 0.501472 0.127092
0.853574 0.500465 0.13135
0.866712 0.498924 0.133318
0.876539 0.496406 0.134493
0.882506 0.494163 0.135012
0.883253 0.488899 0.133639
0.882277 0.482582 0.13164
0.876661 0.471794 0.127382
0.0912184 0.413489 0.0130922
0.0932937 0.415366 0.013489
0.0948196 0.416587 0.0137331
0.0958267 0.417594 0.013962
0.0970474 0.418509 0.0141756
0.0967269 0.418173 0.0140841
0.0955673 0.41709 0.0138705
0.0935683 0.415747 0.0135348
0.0867628 0.410071 0.0123751
0.076936 0.402029 0.0108644
0.0656291 0.391516 0.00909438
0.0646677 0.390799 0.00895705
0.070573 0.396033 0.00981155
0.0881361 0.410285 0.0124361
0.139956 0.426322 0.016846
0.201633 0.44329 0.0232242
0.313237 0.460365 0.0348516
0.404456 0.477501 0.049073
0.481376 0.493874 0.0644999
0.549508 0.507103 0.0795758
0.613199 0.518746 0.0946822
0.671992 0.528862 0.108049
0.722774 0.534981 0.118761
0.768734 0.539544 0.128008
0.80943 0.542779 0.13608
0.840497 0.543816 0.141833
0.867475 0.544518 0.146746
0.885115 0.544701 0.149889
0.897795 0.543954 0.151934
0.907332 0.543313 0.153429
0.911192 0.541787 0.15375
0.911757 0.537606 0.152697
0.906889 0.528359 0.149279
0.109148 0.428367 0.0164797
0.111315 0.430106 0.0169223
0.113054 0.43151 0.0172732
0.114336 0.4327 0.0175784
0.115312 0.433539 0.017792
0.114809 0.433066 0.0176852
0.113451 0.432227 0.0174258
0.111574 0.430549 0.016968
0.106874 0.426703 0.0160525
0.100786 0.421576 0.014847
0.0920882 0.414527 0.0132906
0.0853285 0.408835 0.0121462
0.0882582 0.411185 0.0126192
0.105043 0.425071 0.0156558
0.133364 0.443198 0.0206149
0.18677 0.461204 0.027512
0.287358 0.479744 0.039292
0.381582 0.499016 0.0547036
0.467506 0.517922 0.0722057
0.538979 0.534005 0.0890516
0.606394 0.548531 0.104738
0.669841 0.56144 0.119112
0.72372 0.570336 0.130602
0.772564 0.577249 0.14052
0.817563 0.582788 0.149447
0.851484 0.585855 0.155779
0.881056 0.587884 0.161181
0.903304 0.589303 0.165255
0.918105 0.589578 0.167727
0.929793 0.590051 0.169741
0.9364 0.58999 0.170825
0.938796 0.587289 0.170504
0.938354 0.582895 0.169299
0.124147 0.440528 0.0202945
0.125566 0.441733 0.0205539
0.12694 0.442725 0.0204471
0.127779 0.443397 0.0205234
0.128267 0.443778 0.0206302
0.128008 0.443549 0.0205234
0.126528 0.442557 0.0204318
0.124651 0.440894 0.0199893
0.120775 0.437949 0.0189975
0.115846 0.433967 0.0178531
0.109972 0.42916 0.0166476
0.102373 0.422995 0.0151675
0.105882 0.425772 0.0158389
0.119051 0.436515 0.018555
0.145357 0.457145 0.0247044
0.19501 0.477821 0.0329442
0.264698 0.4981 0.0441444
0.359014 0.519493 0.0603037
0.453025 0.540581 0.0796368
0.530068 0.560235 0.0981918
0.600473 0.577005 0.114351
0.66717 0.592386 0.12929
0.725078 0.604517 0.141787
0.777371 0.613703 0.152331
0.826215 0.621454 0.161898
0.86331 0.626429 0.168872
0.895216 0.629831 0.174578
0.921492 0.63267 0.179294
0.938354 0.634455 0.182254
0.952148 0.635981 0.184726
0.961852 0.637583 0.186618
0.966506 0.636713 0.187076
0.968475 0.634424 0.186877
0.137209 0.450935 0.0243992
0.138064 0.451774 0.0240024
0.139178 0.452628 0.02327
0.139269 0.452827 0.0234531
0.139406 0.452796 0.0246281
0.139147 0.452461 0.0252842
0.137606 0.451316 0.0244602
0.135546 0.449729 0.0227817
0.132662 0.447486 0.0217746
0.128573 0.444205 0.0207065
0.123949 0.440406 0.0196231
0.117586 0.435309 0.0182345
0.118746 0.436255 0.0184939
0.125536 0.441688 0.0199741
0.153323 0.464393 0.0270542
0.193378 0.487022 0.0358892
0.23592 0.509758 0.0465248
0.333379 0.533165 0.0633402
0.431708 0.556481 0.0839704
0.515877 0.579507 0.103838
0.591257 0.599557 0.121202
0.661372 0.617975 0.13698
0.725353 0.634684 0.151141
0.781476 0.646769 0.162631
0.832807 0.657435 0.172686
0.875486 0.665217 0.180758
0.909529 0.670527 0.186877
0.938704 0.67454 0.191928
0.958892 0.67805 0.195605
0.974746 0.680797 0.198459
0.986847 0.683085 0.200626
0.993484 0.684504 0.201862
0.995987 0.683009 0.201862
0.145846 0.458152 0.0261234
0.146853 0.458793 0.0275883
0.147539 0.459434 0.0294957
0.148043 0.459739 0.03122
0.148257 0.459892 0.0321965
0.148287 0.459892 0.0318914
0.147005 0.458701 0.0281071
0.144671 0.457267 0.0247044
0.142733 0.455482 0.0241398
0.139437 0.452857 0.0233158
0.135744 0.449866 0.022385
0.130785 0.445945 0.0212253
0.128328 0.443839 0.0206302
0.13341 0.44799 0.0218509
0.158312 0.468635 0.0284581
0.189212 0.49276 0.037644
0.231418 0.51899 0.0497749
0.315984 0.543908 0.0661936
0.407141 0.568948 0.0863508
0.502327 0.594797 0.107973
0.579965 0.617548 0.126055
0.6533 0.63856 0.142672
0.723018 0.658213 0.157946
0.781216 0.672633 0.169787
0.835172 0.685389 0.180423
0.883452 0.695811 0.189441
0.920012 0.703258 0.196078
0.951476 0.709606 0.201648
0.975677 0.714244 0.205875
0.9935 0.719081 0.209155
1 0.723049 0.211856
1 0.725338 0.213153
1 0.725765 0.213687
0.153704 0.464286 0.033753
0.154482 0.464912 0.0360113
0.155093 0.465476 0.0382086
0.155688 0.465797 0.0390936
0.155627 0.465797 0.0378729
0.155123 0.465553 0.0345159
0.153506 0.464439 0.0292821
0.151705 0.463172 0.0266423
0.150286 0.461875 0.0262608
0.147631 0.459724 0.0255589
0.144686 0.457267 0.0247349
0.141085 0.454353 0.0237583
0.13817 0.451926 0.0230411
0.142321 0.455299 0.0240787
0.154879 0.465705 0.0274815
0.190097 0.495369 0.0386206
0.23711 0.525063 0.0524605
0.295918 0.551461 0.0675975
0.384726 0.57879 0.0880751
0.487343 0.606775 0.11075
0.569024 0.632639 0.130007
0.64564 0.655955 0.147265
0.718379 0.677821 0.163088
0.780941 0.695613 0.176043
0.837186 0.710384 0.186954
0.889769 0.723339 0.19675
0.929061 0.73254 0.203784
0.962463 0.740215 0.209598
0.990539 0.746517 0.214374
1 0.751873 0.217746
1 0.755367 0.219867
1 0.756283 0.220523
1 0.75584 0.220523
0.160601 0.469856 0.0417487
0.161593 0.470481 0.0446174
0.162036 0.470863 0.0457771
0.162631 0.471244 0.04654
0.162188 0.47097 0.0433509
0.161196 0.470466 0.0393835
0.159991 0.469581 0.0354162
0.158633 0.468513 0.0328527
0.156909 0.467231 0.0301671
0.154589 0.465415 0.027985
0.151614 0.463066 0.0265965
0.148516 0.460349 0.0257115
0.144945 0.457557 0.0247807
0.146273 0.458625 0.0251164
0.152255 0.463447 0.0267491
0.187152 0.492882 0.037583
0.228809 0.5234 0.0512551
0.271077 0.556497 0.0676585
0.367102 0.585412 0.0890822
0.471061 0.615091 0.112062
0.55845 0.644388 0.132753
0.637522 0.670314 0.150759
0.712032 0.694072 0.166934
0.779522 0.715038 0.181033
