LUT预设1/LUT全系打包/阿勒泰系列lut/各机型Log灰片/阿勒泰最终版.cube
TITLE "Generated by Resolve"
LUT_3D_SIZE 5
0.0265049 0.0597086 0.0465248
0.0910964 0.0669718 0.0451057
0.526085 0.009308 0.000381476
0.660716 0.0233158 0.00515755
0.658686 0.0229648 0.0049897
0.000381476 0.111269 0.0583047
0.0415808 0.108171 0.0488899
0.566064 0.0423743 0.00103761
0.6701 0.0252842 0.00582895
0.658839 0.0229343 0.00502022
0.0631418 0.387381 0.0647746
0.0799573 0.414801 0.0569009
0.302708 0.362264 0.00776684
0.799344 0.326162 0.0591135
0.766125 0.240909 0.0338598
0.236362 0.562463 0.133654
0.251865 0.574166 0.179599
0.241215 0.566369 0.142275
0.949264 0.811185 0.207721
0.986496 0.817975 0.217807
0.311894 0.619257 0.324773
0.311894 0.619257 0.324773
0.311635 0.619165 0.323796
0.798566 0.795041 0.187671
0.985595 0.872557 0.229206
0.00799573 0.0646067 0.0921187
0.0787823 0.0634775 0.126879
0.552361 0.0106355 0.0276036
0.678203 0.0271305 0.00648508
0.660792 0.0234073 0.00514229
0 0.113405 0.107439
0.0429541 0.118212 0.116594
0.613596 0.023331 0.0146181
0.690425 0.0301213 0.00753796
0.667277 0.0246738 0.00561532
0.066804 0.392966 0.119478
0.091371 0.42623 0.145266
0.342031 0.381674 0.011902
0.803433 0.333654 0.0621805
0.771756 0.254856 0.037583
0.241596 0.566461 0.149203
0.265538 0.584009 0.222065
0.256733 0.578103 0.187366
0.969131 0.823102 0.212329
0.986358 0.826673 0.219593
0.311894 0.619257 0.324773
0.311894 0.619257 0.324773
0.310323 0.61825 0.320363
0.835004 0.808179 0.194354
0.985595 0.872557 0.229206
0 0.00836194 0.409674
0 0.00822461 0.436194
0.535119 0.0209201 0.546044
0.727092 0.05243 0.398215
0.716686 0.0408637 0.255802
0 0.111727 0.42118
0 0.0663462 0.471382
0.594903 0.0376593 0.598032
0.739391 0.0619364 0.447807
0.72369 0.0480201 0.3552
0.190539 0.467384 0.525582
0.227329 0.497124 0.555856
0.394934 0.455299 0.465064
0.829419 0.320958 0.368338
0.79971 0.208515 0.278477
0.324605 0.619058 0.43151
0.332525 0.621271 0.474022
0.339498 0.618799 0.549813
0.985412 0.857084 0.270207
0.985977 0.849546 0.243473
0.352255 0.642512 0.480232
0.351019 0.638865 0.497612
0.342 0.620996 0.554101
0.868788 0.8215 0.21532
0.985595 0.872709 0.298497
0 0.00823987 0.639109
0 0.00822461 0.637446
0.00103761 0.00820935 0.612222
0.763363 0.110582 0.646799
0.764889 0.110674 0.644083
0 0.0587472 0.670802
0 0.0658122 0.673869
0.00221256 0.00856031 0.655039
0.768658 0.114061 0.650309
0.767178 0.112886 0.648386
0.237659 0.48661 0.694545
0.262776 0.510689 0.701823
0.224674 0.471244 0.715007
0.838788 0.320989 0.72488
0.821942 0.212116 0.716243
0.378042 0.638987 0.732601
0.385168 0.647181 0.739452
0.498833 0.80032 0.787274
0.984054 0.964599 0.874693
0.984024 0.965957 0.880369
0.386435 0.649744 0.733867
0.390906 0.654414 0.741665
0.469261 0.761303 0.780056
0.96257 0.949783 0.86186
0.983703 0.98613 0.880735
0 0.00823987 0.640345
0 0.00822461 0.639323
1.5259e-05 0.00820935 0.613794
0.743908 0.0999161 0.642435
0.767193 0.112963 0.648478
0 0.0285191 0.665232
0 0.0380102 0.668162
1.5259e-05 0.00822461 0.646571
0.764584 0.111543 0.648157
0.767193 0.112963 0.648478
0.22472 0.473045 0.701823
0.250492 0.497826 0.703471
0.207156 0.454566 0.713771
0.8271 0.296742 0.721508
0.818982 0.187121 0.713878
0.376593 0.637064 0.73344
0.381018 0.6421 0.737377
0.475776 0.771298 0.782986
0.983581 0.955673 0.871992
0.984039 0.965469 0.886305
0.403174 0.669093 0.752392
0.403174 0.669093 0.752392
0.481102 0.7794 0.785168
0.983764 0.982651 0.887709
0.983703 0.989319 0.892897
