LUT预设1/LUT全系打包/阿勒泰系列lut/各机型Log灰片/阿勒泰最终版.cube
TITLE "Generated by Resolve"
LUT_3D_SIZE 9
0.0265049 0.0597086 0.0465248
0.0279545 0.059678 0.0467231
0.0910964 0.0669718 0.0451057
0.262119 0.0598459 0.00775158
0.526085 0.009308 0.000381476
0.654673 0.0222019 0.00474556
0.660716 0.0233158 0.00515755
0.658686 0.0229648 0.0049897
0.658686 0.0229648 0.0049897
0.0242771 0.066041 0.0477913
0.0237125 0.0660716 0.0472877
0.0877546 0.0724498 0.045594
0.282887 0.0699168 0.0030518
0.557855 0.0105592 0.000808728
0.660365 0.02327 0.00512703
0.659724 0.0231174 0.00508125
0.658686 0.0229648 0.0049897
0.658686 0.0229648 0.0049897
0.000381476 0.111269 0.0583047
0.000839246 0.114595 0.0567636
0.0415808 0.108171 0.0488899
0.254124 0.121706 0.0065919
0.566064 0.0423743 0.00103761
0.681086 0.027863 0.00666819
0.6701 0.0252842 0.00582895
0.66128 0.0233616 0.00520333
0.658839 0.0229343 0.00502022
0.0106203 0.223819 0.0738689
0.0124666 0.235599 0.073579
0.0112459 0.22443 0.0601053
0.126345 0.209613 0.0147402
0.498619 0.225284 0.00228885
0.709102 0.160433 0.0153658
0.712016 0.0583963 0.0103609
0.697826 0.0331426 0.00817884
0.691752 0.0305638 0.00758373
0.0631418 0.387381 0.0647746
0.0711833 0.401785 0.0635538
0.0799573 0.414801 0.0569009
0.051667 0.36524 0.0411383
0.302708 0.362264 0.00776684
0.698146 0.374762 0.0506447
0.799344 0.326162 0.0591135
0.776883 0.267491 0.0408484
0.766125 0.240909 0.0338598
0.17142 0.508675 0.0779889
0.180102 0.515953 0.0805676
0.187976 0.522576 0.0823835
0.185718 0.52076 0.0817578
0.190585 0.522042 0.081529
0.608698 0.582452 0.104967
0.908049 0.612421 0.160204
0.920302 0.579828 0.154147
0.904875 0.551492 0.144137
0.236362 0.562463 0.133654
0.24419 0.568414 0.156359
0.251865 0.574166 0.179599
0.260563 0.580728 0.202747
0.241215 0.566369 0.142275
0.448997 0.666087 0.131685
0.949264 0.811185 0.207721
0.986358 0.82591 0.219425
0.986496 0.817975 0.217807
0.311894 0.619257 0.324773
0.311894 0.619257 0.324773
0.311894 0.619257 0.324773
0.316396 0.622553 0.337041
0.306813 0.615747 0.311482
0.282597 0.604898 0.125109
0.882124 0.824582 0.20267
0.985595 0.872572 0.229206
0.985595 0.872557 0.229206
0.311894 0.619257 0.324773
0.311894 0.619257 0.324773
0.311894 0.619257 0.324773
0.315297 0.62179 0.333944
0.311635 0.619165 0.323796
0.261189 0.583963 0.147082
0.798566 0.795041 0.187671
0.98558 0.872847 0.229252
0.985595 0.872557 0.229206
0.0253452 0.0608835 0.0493477
0.022385 0.0607156 0.0532235
0.0899062 0.0672618 0.0501106
0.264363 0.0575723 0.0109102
0.531395 0.00952163 0.000457771
0.655467 0.0223545 0.00479133
0.660609 0.0233005 0.00515755
0.658686 0.0229648 0.0049897
0.658686 0.0229648 0.0049897
0.022446 0.0666514 0.0507362
0.0192874 0.0672007 0.0527352
0.0903182 0.0738079 0.0519112
0.29099 0.0666056 0.00494392
0.567315 0.0112459 0.00105287
0.662547 0.0237125 0.00527962
0.659663 0.0231174 0.005066
0.658686 0.0229648 0.0049897
0.658686 0.0229648 0.0049897
0.000442512 0.109575 0.0609598
0.000289921 0.113664 0.0616312
0.0462501 0.111406 0.0534066
0.269337 0.123888 0.00636301
0.576577 0.0423896 0.00138857
0.683207 0.0283665 0.0068513
0.670481 0.0253605 0.00585946
0.66186 0.0234989 0.00523384
0.659251 0.0229953 0.00505074
0.010956 0.22678 0.0764782
0.0127565 0.239048 0.0783398
0.0120089 0.230732 0.0637064
0.132601 0.214176 0.0103609
0.507103 0.22948 0.00299077
0.712337 0.166598 0.0161593
0.713039 0.0602426 0.0105135
0.699336 0.0337835 0.00833143
0.693355 0.0309758 0.00773632
0.0657511 0.392142 0.0643626
0.0742046 0.406134 0.0635843
0.0831311 0.419043 0.0583658
0.0533913 0.368704 0.0417792
0.309972 0.368536 0.00935378
0.704234 0.381064 0.053727
0.802502 0.332876 0.0617075
0.780468 0.276204 0.0435798
0.769985 0.250629 0.0363165
0.174197 0.510994 0.0788128
0.183185 0.518532 0.0814984
0.190951 0.525063 0.0831311
0.188083 0.522728 0.0823529
0.199283 0.528405 0.0834363
0.620935 0.591516 0.109789
0.916609 0.62266 0.164096
0.927077 0.592264 0.158556
0.912093 0.565042 0.148989
0.238254 0.563943 0.138399
0.247501 0.570886 0.166522
0.255879 0.577142 0.191546
0.26511 0.584115 0.215564
0.244343 0.568933 0.147326
0.463951 0.670832 0.132601
0.961898 0.818494 0.210513
0.986282 0.83061 0.220371
0.986404 0.823194 0.218875
0.311894 0.619257 0.324773
0.311894 0.619257 0.324773
0.311894 0.619257 0.324773
0.316457 0.622599 0.337194
0.305837 0.615015 0.309209
0.287449 0.609552 0.122255
0.897963 0.830137 0.205478
0.985595 0.872557 0.229206
0.985595 0.872557 0.229206
0.311894 0.619257 0.324773
0.311894 0.619257 0.324773
0.311894 0.619257 0.324773
0.315541 0.621958 0.3346
0.311055 0.618769 0.322179
0.259388 0.582773 0.135943
0.819684 0.80267 0.191546
0.985595 0.872633 0.229221
0.985595 0.872557 0.229206
0.00799573 0.0646067 0.0921187
0.00631724 0.0629129 0.105577
0.0787823 0.0634775 0.126879
0.265141 0.049958 0.094377
0.552361 0.0106355 0.0276036
0.677836 0.027039 0.00968948
0.678203 0.0271305 0.00648508
0.666178 0.024506 0.00552377
0.660792 0.0234073 0.00514229
0.00706493 0.0709392 0.0872511
0.00502022 0.0708629 0.0984512
0.080766 0.0729076 0.132342
0.29752 0.0543526 0.103929
0.59292 0.0136873 0.0495003
0.68809 0.0295415 0.0184024
0.681849 0.027985 0.00682078
0.672953 0.0259098 0.00604257
0.666514 0.024567 0.00555428
0 0.113405 0.107439
0 0.116655 0.113436
0.0429541 0.118212 0.116594
0.296803 0.124132 0.0847791
0.613596 0.023331 0.0146181
0.713649 0.0366217 0.0111696
0.690425 0.0301213 0.00753796
0.675105 0.0264439 0.00621042
0.667277 0.0246738 0.00561532
0.0071107 0.223865 0.114351
0.00817884 0.235889 0.122087
0.00643931 0.232578 0.128588
0.164355 0.230884 0.0385901
0.561288 0.237003 0.00703441
0.735973 0.166171 0.0192874
0.72282 0.0597391 0.0115053
0.703746 0.0348058 0.00877394
0.696391 0.0316472 0.00802625
0.066804 0.392966 0.119478
0.0769513 0.408164 0.126574
0.091371 0.42623 0.145266
0.0751202 0.404532 0.0752117
0.342031 0.381674 0.011902
0.718929 0.384558 0.0577859
0.803433 0.333654 0.0621805
0.78172 0.278996 0.0445411
0.771756 0.254856 0.037583
0.179965 0.515343 0.0945602
0.191211 0.524392 0.107179
0.203326 0.533928 0.126177
0.20444 0.535531 0.110826
0.2009 0.528328 0.0832685
0.634562 0.597314 0.113695
0.92195 0.62826 0.166186
0.930373 0.598245 0.160494
0.91632 0.573022 0.151843
0.241596 0.566461 0.149203
0.253758 0.575448 0.187167
0.265538 0.584009 0.222065
0.278279 0.593378 0.25388
0.256733 0.578103 0.187366
0.478141 0.674662 0.134035
0.969131 0.823102 0.212329
0.986236 0.833432 0.220981
0.986358 0.826673 0.219593
0.311894 0.619257 0.324773
0.311955 0.619303 0.324926
0.312276 0.619547 0.325811
0.316976 0.622965 0.338689
0.305119 0.614481 0.30753
0.292622 0.613443 0.121187
0.908705 0.83389 0.20737
0.985595 0.872557 0.229206
0.985595 0.872557 0.229206
0.311894 0.619257 0.324773
0.311894 0.619257 0.324773
0.311894 0.619257 0.324773
0.315694 0.622065 0.335058
0.310323 0.61825 0.320363
0.258274 0.58204 0.127962
0.835004 0.808179 0.194354
0.985595 0.872557 0.229206
0.985595 0.872557 0.229206
0 0.0494392 0.207401
0 0.0411383 0.215946
0.0129549 0.016968 0.266743
0.249409 0.00958267 0.309804
0.557824 0.0126802 0.264988
0.698756 0.0343023 0.208637
0.704631 0.0346227 0.120638
0.695338 0.0315709 0.0367132
0.689891 0.0299992 0.0140536
0 0.0673381 0.202731
0 0.0608072 0.215915
0.010193 0.0232242 0.280079
0.284062 0.0103914 0.343984
0.600183 0.0175937 0.303014
0.708278 0.0382391 0.250507
0.708202 0.0361334 0.159274
0.701106 0.033341 0.085359
0.69604 0.031754 0.0412146
0 0.132403 0.210986
0 0.135012 0.223041
1.5259e-05 0.124117 0.256916
0.270222 0.105913 0.352728
0.620493 0.0221103 0.2916
0.734356 0.0462196 0.23624
0.718257 0.0391699 0.155032
0.705303 0.0346838 0.102098
0.70013 0.032929 0.0673838
0.00131228 0.261921 0.305882
0.00323491 0.278477 0.329366
0.00047303 0.268925 0.32369
0.139727 0.257664 0.283772
0.584054 0.221164 0.214191
0.756024 0.0855573 0.135027
0.755306 0.0526131 0.0862898
0.738735 0.0451667 0.0427253
0.730526 0.0421759 0.0289158
0.10074 0.426642 0.274235
0.122637 0.44535 0.293385
0.111254 0.435523 0.287358
0.0929732 0.417807 0.282582
0.390997 0.411627 0.0782788
0.780316 0.402548 0.0787366
0.83418 0.339071 0.0714885
0.80827 0.282002 0.0510567
0.796094 0.257298 0.0431525
0.213657 0.536599 0.230579
0.229084 0.548669 0.2495
0.244495 0.559884 0.277638
0.266163 0.574472 0.326482
0.253071 0.566629 0.2
0.707286 0.646357 0.139178
0.957641 0.655283 0.177752
0.943999 0.60827 0.165087
0.925719 0.578882 0.154864
0.282612 0.594354 0.287861
0.293675 0.602167 0.315435
0.30367 0.60914 0.341588
0.323507 0.622278 0.400198
0.325078 0.624247 0.397925
0.469444 0.673045 0.140108
0.981338 0.839094 0.218418
0.986145 0.839338 0.222263
0.986297 0.830869 0.220508
0.336889 0.636164 0.40177
0.339803 0.637858 0.412924
0.342061 0.639139 0.422171
0.34844 0.642191 0.451957
0.349111 0.642405 0.456489
0.326024 0.63267 0.312688
0.930129 0.841459 0.211307
0.985626 0.870909 0.228855
0.985611 0.871397 0.228946
0.326253 0.629419 0.365881
0.330846 0.632517 0.380316
0.334554 0.634806 0.393286
0.340673 0.638498 0.416739
0.343023 0.639658 0.427268
0.31458 0.622507 0.319341
0.858381 0.816541 0.198581
0.985595 0.872129 0.229114
0.985595 0.872328 0.229145
0 0.00836194 0.409674
0 0.00825513 0.415152
0 0.00822461 0.436194
0.0533303 0.00820935 0.51162
0.535119 0.0209201 0.546044
0.713924 0.057145 0.48983
0.727092 0.05243 0.398215
0.720134 0.0440375 0.306249
0.716686 0.0408637 0.255802
0 0.0104524 0.408347
0 0.0099794 0.428061
1.5259e-05 0.00822461 0.462394
0.0704051 0.00822461 0.543923
0.581247 0.0306249 0.573281
0.726497 0.0669718 0.525002
0.730724 0.0571756 0.434424
0.724163 0.0487984 0.363119
0.720897 0.0448768 0.318013
0 0.111727 0.42118
0 0.112001 0.444511
0 0.0663462 0.471382
0.0306554 0.0426032 0.557671
0.594903 0.0376593 0.598032
0.752575 0.0809033 0.538125
0.739391 0.0619364 0.447807
0.72784 0.0519417 0.390188
0.72369 0.0480201 0.3552
0.0140993 0.287678 0.463371
0.0214694 0.302602 0.481209
0.0163424 0.290761 0.49189
0.0115969 0.269413 0.521508
0.525582 0.216159 0.578729
0.765133 0.0912184 0.507561
0.773037 0.0755779 0.433082
0.758953 0.0631266 0.374945
0.752804 0.0582284 0.344869
0.190539 0.467384 0.525582
0.210178 0.483085 0.540566
0.227329 0.497124 0.555856
0.228016 0.501137 0.536706
0.394934 0.455299 0.465064
0.784436 0.401663 0.414221
0.829419 0.320958 0.368338
0.808118 0.243641 0.307881
0.79971 0.208515 0.278477
0.285542 0.570352 0.468193
0.294545 0.576699 0.487526
0.300938 0.581674 0.501106
0.31426 0.596201 0.505699
0.356863 0.643259 0.516869
0.735454 0.684138 0.303639
0.968414 0.673487 0.265888
0.954467 0.624369 0.240116
0.943099 0.595972 0.214939
0.324605 0.619058 0.43151
0.330755 0.622126 0.456199
0.332525 0.621271 0.474022
0.329091 0.612787 0.505211
0.339498 0.618799 0.549813
0.46247 0.746624 0.530053
0.985412 0.857084 0.270207
0.985901 0.853407 0.260197
0.985977 0.849546 0.243473
0.350378 0.637705 0.500862
0.348821 0.634958 0.507179
0.347463 0.632654 0.51252
0.341756 0.622751 0.538994
0.346303 0.622599 0.581811
0.38645 0.670817 0.588922
0.929808 0.842771 0.261357
0.985458 0.880659 0.370321
0.985504 0.877897 0.351568
0.352255 0.642512 0.480232
0.351705 0.640681 0.489738
0.351019 0.638865 0.497612
0.345998 0.630381 0.517342
0.342 0.620996 0.554101
0.363241 0.645914 0.557748
0.868788 0.8215 0.21532
0.985565 0.87393 0.312673
0.985595 0.872709 0.298497
0 0.00822461 0.582834
0 0.00823987 0.581872
0 0.00823987 0.586465
0 0.00823987 0.585657
0.27921 0.00944533 0.629267
0.710674 0.0807202 0.62916
0.757824 0.0990158 0.611917
0.750179 0.085771 0.570855
0.744839 0.0773632 0.539422
0 0.00822461 0.589502
0 0.00822461 0.597955
1.5259e-05 0.00822461 0.605875
1.5259e-05 0.00822461 0.601205
0.329885 0.00987259 0.640299
0.725978 0.0891432 0.634638
0.759594 0.102525 0.622461
0.755596 0.0950179 0.599847
0.751659 0.0884108 0.579904
0 0.0319982 0.611704
0 0.0409705 0.622858
0 0.0242924 0.634409
0 0.00854505 0.638727
0.303731 0.0204471 0.679606
0.753597 0.108461 0.657191
0.765209 0.107546 0.631128
0.758419 0.099443 0.61149
0.755657 0.0949416 0.599008
0.0347906 0.290379 0.637354
0.0473487 0.308766 0.647303
0.0471809 0.306142 0.662699
0.0176852 0.248966 0.673274
0.167224 0.249928 0.70193
0.762158 0.124117 0.690379
0.799741 0.132525 0.663035
0.787747 0.120089 0.636591
0.781598 0.1131 0.620584
0.219959 0.4804 0.623789
0.238758 0.496803 0.634104
0.242084 0.499168 0.641688
0.2365 0.492668 0.652186
0.239567 0.487922 0.660136
0.752483 0.425528 0.695811
0.841672 0.331197 0.6795
0.820935 0.236988 0.653452
0.814618 0.205066 0.639063
0.339315 0.600153 0.673243
0.347738 0.608454 0.684947
0.355718 0.616526 0.696376
0.394324 0.662104 0.7234
0.463462 0.754589 0.732692
0.761685 0.75584 0.706035
0.981826 0.733944 0.719448
0.968154 0.679683 0.688838
0.954971 0.646815 0.665827
0.355886 0.622431 0.661173
0.362432 0.628107 0.676951
0.367956 0.632929 0.690196
0.391699 0.660304 0.712703
0.448646 0.737865 0.7346
0.564263 0.833707 0.756313
0.98468 0.926406 0.71194
0.984588 0.932464 0.70959
0.984726 0.924193 0.686992
0.357092 0.629389 0.625574
0.362097 0.632883 0.643549
0.366186 0.635737 0.658244
0.37261 0.641062 0.676707
0.41709 0.695094 0.713924
0.470527 0.768231 0.749386
0.824689 0.897978 0.728222
0.984237 0.95404 0.738567
0.984283 0.951415 0.72697
0.346258 0.622644 0.580331
0.350988 0.625422 0.60145
0.355962 0.628748 0.620569
0.36173 0.632822 0.64181
0.392401 0.666178 0.68246
0.447807 0.737087 0.731563
0.716701 0.89659 0.742535
0.984375 0.945205 0.699336
0.984421 0.94287 0.688869
0 0.00823987 0.639109
0 0.00822461 0.638743
0 0.00822461 0.637446
0 0.00822461 0.629221
0.00103761 0.00820935 0.612222
0.527779 0.0314336 0.642618
0.763363 0.110582 0.646799
0.766766 0.112428 0.647562
0.764889 0.110674 0.644083
1.5259e-05 0.00822461 0.644007
0 0.00823987 0.645518
0 0.00822461 0.64271
0 0.00822461 0.631235
0.00106813 0.00822461 0.612879
0.568109 0.039353 0.641886
0.766018 0.112108 0.647776
0.767178 0.112871 0.648402
0.766812 0.112352 0.647654
0 0.0587472 0.670802
0 0.0770275 0.675273
0 0.0658122 0.673869
0 0.0253605 0.664393
0.00221256 0.00856031 0.655039
0.588678 0.0483253 0.66804
0.768658 0.114061 0.650309
0.767269 0.113008 0.648539
0.767178 0.112886 0.648386
0.0562753 0.306889 0.704158
0.0727855 0.326986 0.705959
0.0763867 0.331136 0.708034
0.054551 0.305882 0.709072
0.00727855 0.203922 0.710414
0.537255 0.14374 0.7122
0.803265 0.140749 0.688136
0.795041 0.133761 0.676692
0.790829 0.13048 0.671901
0.237659 0.48661 0.694545
0.254246 0.502495 0.698009
0.262776 0.510689 0.701823
0.253452 0.500862 0.704402
0.224674 0.471244 0.715007
0.450141 0.481575 0.718196
0.838788 0.320989 0.72488
0.825864 0.239322 0.718578
0.821942 0.212116 0.716243
0.349248 0.606027 0.712322
0.355596 0.613016 0.716991
0.360311 0.618235 0.720684
0.369131 0.627955 0.729549
0.410544 0.679957 0.751232
0.518364 0.751461 0.763714
0.980529 0.751904 0.825589
0.975341 0.69395 0.811536
0.964752 0.663172 0.801892
0.378042 0.638987 0.732601
0.381048 0.642405 0.735698
0.385168 0.647181 0.739452
0.421592 0.693233 0.76202
0.498833 0.80032 0.787274
0.891005 0.931456 0.85565
0.984054 0.964599 0.874693
0.983963 0.969879 0.882506
0.984024 0.965957 0.880369
0.391104 0.654643 0.742046
0.393423 0.657298 0.744213
0.395254 0.659449 0.745846
0.424933 0.697643 0.763943
0.486946 0.788083 0.785641
0.823072 0.921904 0.853651
0.983993 0.965606 0.873671
0.983703 0.987381 0.886015
0.983703 0.987152 0.8851
0.386435 0.649744 0.733867
0.388846 0.652064 0.739071
0.390906 0.654414 0.741665
0.409918 0.677974 0.75436
0.469261 0.761303 0.780056
0.704814 0.885176 0.828199
0.96257 0.949783 0.86186
0.983703 0.986419 0.881987
0.983703 0.98613 0.880735
0 0.00823987 0.640345
0 0.00823987 0.640314
0 0.00823987 0.639033
0 0.00820935 0.632105
3.0518e-05 0.00820935 0.612039
0.345418 0.0116884 0.639948
0.749401 0.102892 0.64332
0.767193 0.112963 0.648478
0.767193 0.112963 0.648478
0 0.00822461 0.642756
0 0.00823987 0.64329
1.5259e-05 0.00822461 0.640803
0 0.00822461 0.630457
1.5259e-05 0.00820935 0.611292
0.474876 0.0224308 0.643305
0.762615 0.110063 0.646052
0.767193 0.112963 0.648478
0.767193 0.112963 0.648478
0 0.0451362 0.668681
0 0.0596323 0.671717
0 0.0508278 0.670893
0 0.0196536 0.662318
0.000289921 0.00825513 0.650294
0.522637 0.0324712 0.668589
0.766308 0.112596 0.648981
0.767193 0.112963 0.648478
0.767193 0.112963 0.648478
0.0492103 0.298207 0.706386
0.0628672 0.315877 0.706813
0.0665904 0.320439 0.708202
0.0492103 0.299321 0.709438
0.00563058 0.183169 0.705257
0.454398 0.151659 0.713024
0.799695 0.13846 0.685618
0.791791 0.131258 0.67306
0.787015 0.12755 0.667857
0.233967 0.481895 0.701839
0.249393 0.496895 0.702266
0.257633 0.504982 0.704128
0.251102 0.498253 0.705791
0.216129 0.462959 0.714519
0.343267 0.474739 0.716716
0.831052 0.308644 0.722957
0.823316 0.222644 0.716854
0.820081 0.196719 0.714748
0.348852 0.604471 0.719921
0.354849 0.611521 0.721965
0.359213 0.61651 0.723751
0.362768 0.620127 0.728908
0.385489 0.646952 0.745235
0.454749 0.730434 0.764492
0.956207 0.76202 0.824933
0.969543 0.678294 0.808316
0.958328 0.647105 0.7991
0.377203 0.637766 0.734051
0.379675 0.640574 0.736217
0.382147 0.643381 0.738262
0.410376 0.678355 0.75671
0.47982 0.777523 0.784024
0.806027 0.915587 0.85066
0.983932 0.958267 0.873549
0.983963 0.970382 0.88748
0.984009 0.966903 0.886641
0.403174 0.669093 0.752392
0.403174 0.669093 0.752392
0.403174 0.669093 0.752392
0.431174 0.705943 0.76791
0.496056 0.800153 0.788327
0.888426 0.933501 0.857816
0.983719 0.985 0.889448
0.983703 0.989319 0.892897
0.983703 0.989319 0.892897
0.403113 0.669017 0.752331
0.403174 0.669093 0.752392
0.403174 0.669093 0.752392
0.420859 0.692058 0.763043
0.482536 0.781643 0.785504
0.834638 0.924453 0.855589
0.983749 0.983001 0.887953
0.983703 0.989319 0.892897
0.983703 0.989319 0.892897
0 0.00823987 0.640345
0 0.00823987 0.640345
0 0.00822461 0.639323
1.5259e-05 0.00820935 0.633173
1.5259e-05 0.00820935 0.613794
0.290974 0.0099794 0.636774
0.743908 0.0999161 0.642435
0.767193 0.112963 0.648478
0.767193 0.112963 0.648478
0 0.00823987 0.641093
0 0.00823987 0.641306
0 0.00822461 0.639185
1.5259e-05 0.00820935 0.631083
1.5259e-05 0.00820935 0.611475
0.435508 0.0178531 0.643061
0.760479 0.108888 0.64535
0.767193 0.112963 0.648478
0.767193 0.112963 0.648478
0 0.0285191 0.665232
0 0.0428168 0.668193
0 0.0380102 0.668162
1.5259e-05 0.0139315 0.66038
1.5259e-05 0.00822461 0.646571
0.489876 0.0272374 0.666911
0.764584 0.111543 0.648157
0.767193 0.112963 0.648478
0.767193 0.112963 0.648478
0.0395819 0.282918 0.705623
0.0527504 0.302586 0.706371
0.0572518 0.308827 0.707744
0.0426947 0.287327 0.708492
0.00392157 0.164157 0.701839
0.427451 0.143877 0.712886
0.797436 0.136919 0.683986
0.789914 0.129793 0.670954
0.785 0.12604 0.665782
0.22472 0.473045 0.701823
0.241276 0.488884 0.701823
0.250492 0.497826 0.703471
0.24445 0.491722 0.705318
0.207156 0.454566 0.713771
0.321462 0.464881 0.716884
0.8271 0.296742 0.721508
0.821927 0.211734 0.715984
0.818982 0.187121 0.713878
0.346014 0.601083 0.718975
0.352483 0.608759 0.721126
0.357046 0.613993 0.722942
0.360601 0.617578 0.727718
0.380224 0.640391 0.742992
0.446494 0.722164 0.763043
0.947265 0.753231 0.8215
0.964981 0.665324 0.804486
0.953429 0.634363 0.795407
0.376593 0.637064 0.73344
0.378866 0.639658 0.735531
0.381018 0.6421 0.737377
0.406455 0.67332 0.754467
0.475776 0.771298 0.782986
0.787106 0.909972 0.84712
0.983581 0.955673 0.871992
0.983978 0.968917 0.887114
0.984039 0.965469 0.886305
0.403159 0.669078 0.752377
0.403174 0.669093 0.752392
0.403174 0.669093 0.752392
0.429709 0.703929 0.767208
0.493706 0.79765 0.787869
0.881529 0.932448 0.857633
0.983719 0.984756 0.889281
0.983703 0.989319 0.892897
0.983703 0.989319 0.892897
0.403174 0.669093 0.752392
0.403174 0.669093 0.752392
0.403174 0.669093 0.752392
0.419608 0.690394 0.762402
0.481102 0.7794 0.785168
0.827893 0.923156 0.855146
0.983764 0.982651 0.887709
0.983703 0.989319 0.892882
0.983703 0.989319 0.892897
