LUT预设1/LUT全系打包/阿勒泰系列lut/各机型Log灰片/阿勒泰仿色.cube
TITLE "Generated by Resolve"
LUT_3D_SIZE 9
0.030396 0.0455634 0.0431678
0.0565347 0.0479591 0.0432136
0.157 0.0575723 0.0375525
0.344381 0.0250553 1.5259e-05
0.541787 0.0012665 0.00047303
0.638407 0.0110475 0.00392157
0.664714 0.015671 0.00567636
0.661448 0.0150912 0.00544747
0.65893 0.0146487 0.00523384
0.00213626 0.0793927 0.0544137
0.0256046 0.0751202 0.0481117
0.144244 0.0890059 0.0396277
0.35996 0.0927138 1.5259e-05
0.560037 0.0128328 0.000991836
0.658961 0.0145724 0.00526436
0.686244 0.0205386 0.00743114
0.680049 0.0191958 0.00686656
0.669993 0.0169375 0.00605783
0 0.161608 0.0662394
0 0.1449 0.0558785
0.0937514 0.15288 0.0420844
0.311086 0.177066 0.000167849
0.549462 0.174258 0.00540169
0.675029 0.131807 0.0119173
0.715023 0.0876478 0.0132906
0.714 0.0386969 0.0106813
0.702052 0.0247959 0.00892653
0.00166323 0.2654 0.0457313
0.00222782 0.27097 0.020325
1.5259e-05 0.231601 0.0211185
0.216373 0.264271 0.00102235
0.472694 0.289586 0.0106966
0.675242 0.283436 0.0310979
0.75903 0.260395 0.04094
0.775219 0.243549 0.0407874
0.755581 0.197055 0.0293278
0.0392004 0.361761 0.0127871
0.0436103 0.367422 0.00825513
0.0252537 0.340932 0.00334173
0.052903 0.344289 0.00375372
0.386419 0.391745 0.0218204
0.63093 0.419074 0.0604257
0.787869 0.41709 0.0917678
0.838376 0.404669 0.0990158
0.830472 0.372808 0.0873579
0.109148 0.428367 0.0164797
0.115312 0.433539 0.017792
0.106874 0.426703 0.0160525
0.0882582 0.411185 0.0126192
0.287358 0.479744 0.039292
0.606394 0.548531 0.104738
0.817563 0.582788 0.149447
0.918105 0.589578 0.167727
0.938354 0.582895 0.169299
0.153704 0.464286 0.033753
0.155627 0.465797 0.0378729
0.150286 0.461875 0.0262608
0.13817 0.451926 0.0230411
0.23711 0.525063 0.0524605
0.569024 0.632639 0.130007
0.837186 0.710384 0.186954
0.990539 0.746517 0.214374
1 0.75584 0.220523
0.1888 0.489281 0.133837
0.196994 0.495094 0.157122
0.193851 0.49308 0.145052
0.180499 0.484321 0.0923934
0.20499 0.508354 0.0441138
0.534508 0.661357 0.135912
0.836927 0.769787 0.201053
1 0.827558 0.234089
1 0.831968 0.237598
0.2392 0.526009 0.252079
0.244205 0.529686 0.264988
0.24094 0.527321 0.25655
0.225772 0.516304 0.220203
0.188602 0.492271 0.0777905
0.460365 0.655619 0.126009
0.830869 0.788647 0.204593
1 0.856611 0.241047
1 0.85861 0.24361
0.0254215 0.0500649 0.0558633
0.0486 0.0489204 0.0826123
0.161669 0.0576028 0.0790723
0.360784 0.00537118 0.0429389
0.570581 0.0030518 0.0158389
0.66714 0.0162356 0.0151217
0.691066 0.0217899 0.0137026
0.688212 0.0210269 0.00828565
0.683482 0.0199435 0.00723278
0.0037232 0.0791028 0.0733654
0.0266423 0.0789349 0.0781567
0.165209 0.0931106 0.0732128
0.387839 0.079881 0.009308
0.598596 0.00788891 0.00425727
0.692912 0.0222629 0.00881971
0.715312 0.0284428 0.0106661
0.70518 0.0254826 0.00923171
0.691112 0.0217746 0.0078584
0 0.155703 0.0898756
0 0.155306 0.097612
0.114504 0.164965 0.0637675
0.360174 0.183505 0.00285344
0.595789 0.174838 0.00831617
0.7084 0.123369 0.0148623
0.738979 0.0773632 0.0155032
0.732982 0.0453956 0.0130007
0.714153 0.0281987 0.0102083
0.00234989 0.268055 0.0995804
0.00297551 0.271748 0.112184
0.00311284 0.254231 0.0374914
0.256291 0.28217 0.00227359
0.520653 0.304326 0.0163424
0.708782 0.290349 0.0381018
0.776547 0.264744 0.0453651
0.783307 0.243183 0.0423285
0.757946 0.195651 0.0295109
0.0457313 0.366155 0.0882277
0.0571908 0.378225 0.106172
0.0488594 0.371313 0.056611
0.0737926 0.351522 0.00457771
0.422126 0.40737 0.0287785
0.655848 0.426612 0.0675059
0.799786 0.417426 0.0944686
0.840223 0.402365 0.0987411
0.829007 0.368948 0.0858167
0.122362 0.43566 0.0925154
0.136339 0.445838 0.114717
0.131823 0.444205 0.072282
0.0999924 0.420859 0.016083
0.312245 0.483253 0.0424659
0.624979 0.553338 0.109346
0.827115 0.582986 0.151034
0.92076 0.588434 0.167865
0.935927 0.578805 0.167865
0.174929 0.477119 0.136858
0.184894 0.484108 0.160082
0.182849 0.483299 0.14609
0.162631 0.470771 0.0564584
0.235798 0.516823 0.0492103
0.58854 0.638651 0.134432
0.850111 0.713359 0.189303
0.99588 0.747921 0.215274
1 0.756191 0.220569
0.217563 0.508247 0.223362
0.231174 0.517952 0.257252
0.236652 0.522072 0.268193
0.228656 0.516884 0.242527
0.187472 0.491661 0.0698711
0.54995 0.667613 0.139681
0.853056 0.775219 0.20412
1 0.829908 0.235325
1 0.83238 0.237613
0.270344 0.548089 0.337926
0.278111 0.553628 0.361929
0.280858 0.555413 0.36997
0.274586 0.55111 0.350652
0.251286 0.534447 0.286564
0.378378 0.617273 0.103288
0.848234 0.794888 0.207858
1 0.858503 0.2421
1 0.857816 0.243427
0.00122072 0.0533455 0.114137
0.0116274 0.0378729 0.166812
0.156954 0.0305486 0.206821
0.3682 0.000213626 0.199145
0.584222 0.00520333 0.192233
0.684245 0.021622 0.18819
0.709285 0.0282292 0.184192
0.707897 0.0272526 0.151293
0.703471 0.0255741 0.106477
1.5259e-05 0.0912337 0.131533
0.000717174 0.0875563 0.152956
0.15462 0.0935836 0.212573
0.390341 0.0677653 0.194644
0.610925 0.00802625 0.169635
0.709758 0.0279088 0.159182
0.733349 0.0353246 0.155474
0.725368 0.0323796 0.122484
0.71191 0.0278019 0.078996
0 0.184894 0.219989
1.5259e-05 0.177157 0.210483
0.0982071 0.182971 0.203876
0.385092 0.188952 0.178943
0.60885 0.136995 0.1234
0.725689 0.06804 0.0858625
0.759609 0.0551003 0.0835737
0.755581 0.0453803 0.0569772
0.741405 0.0372015 0.0230564
0.0188449 0.312734 0.246052
0.00929274 0.289937 0.223285
0.00834669 0.286976 0.223331
0.280919 0.298543 0.117082
0.561502 0.301885 0.0588235
0.741894 0.282673 0.0486915
0.801007 0.257588 0.0489509
0.805203 0.233417 0.045243
0.785443 0.189334 0.0335241
0.0863203 0.398154 0.206958
0.0763409 0.389487 0.21265
0.0779889 0.389761 0.226841
0.116548 0.391974 0.104402
0.473213 0.437461 0.0439612
0.716167 0.456733 0.0903487
0.846891 0.439033 0.111421
0.87303 0.418402 0.110887
0.859129 0.383352 0.097322
0.154589 0.455985 0.191272
0.168078 0.464607 0.225772
0.18117 0.473503 0.252415
0.165484 0.465019 0.192721
0.374197 0.524071 0.0637064
0.696742 0.604929 0.137774
0.894179 0.631815 0.174929
0.965805 0.622705 0.183566
0.967758 0.603586 0.179339
0.205097 0.49688 0.224598
0.222309 0.50837 0.268284
0.235828 0.517983 0.301015
0.229191 0.514031 0.276585
0.233112 0.519692 0.117968
0.639521 0.671656 0.151446
0.91725 0.761959 0.208621
1 0.785763 0.227146
1 0.776333 0.225132
0.244846 0.526772 0.300694
0.262684 0.53904 0.349004
0.277104 0.549386 0.387549
0.278691 0.550927 0.388998
0.27248 0.549722 0.345708
0.505714 0.661067 0.14345
0.893278 0.799329 0.213642
1 0.85124 0.241642
1 0.848814 0.241398
0.298238 0.567651 0.420829
0.310811 0.576318 0.458671
0.319539 0.582605 0.486168
0.320577 0.583368 0.489311
0.311299 0.57731 0.457755
0.338125 0.608774 0.277256
0.86096 0.798962 0.210071
1 0.85771 0.24213
1 0.854551 0.242695
0 0.0345769 0.208133
0 0.00437934 0.259907
0.0914168 1.5259e-05 0.367102
0.370001 1.5259e-05 0.399756
0.588769 0.0104524 0.39324
0.693263 0.0310216 0.378103
0.721004 0.0387427 0.364614
0.721584 0.0366064 0.324025
0.718959 0.0335088 0.27895
0 0.103456 0.235203
0 0.084062 0.263081
0.0567636 0.0696269 0.366003
0.383169 0.0087892 0.418967
0.61297 0.014023 0.391943
0.718059 0.0378424 0.366094
0.744549 0.0462654 0.352132
0.73904 0.041886 0.312596
0.727123 0.0360113 0.269581
4.57771e-05 0.212726 0.326772
0 0.198093 0.319783
0.000885023 0.196048 0.346136
0.357519 0.193179 0.412573
0.603494 0.1346 0.366629
0.730083 0.0630503 0.329213
0.767742 0.0537423 0.312825
0.767391 0.051957 0.286351
0.755413 0.0455024 0.244678
0.0688945 0.358373 0.434028
0.0607614 0.350759 0.429587
0.0430152 0.334752 0.392096
0.272877 0.325902 0.354772
0.577249 0.314687 0.317433
0.74377 0.272419 0.272923
0.797467 0.230655 0.250935
0.800214 0.194415 0.240467
0.784802 0.12369 0.200259
0.193332 0.46566 0.424857
0.18349 0.458564 0.412695
0.158404 0.441276 0.37792
0.158099 0.439948 0.356466
0.486656 0.454261 0.257771
0.730495 0.447791 0.204501
0.84538 0.419852 0.175479
0.864485 0.399619 0.187701
0.853498 0.364141 0.158587
0.233783 0.508476 0.369467
0.229389 0.504616 0.367147
0.226047 0.501518 0.366247
0.24419 0.51667 0.383581
0.295659 0.54873 0.252567
0.716731 0.620554 0.18471
0.913497 0.642023 0.183551
0.978668 0.6336 0.18996
0.973068 0.611292 0.193835
0.255039 0.530495 0.357733
0.262242 0.535302 0.3776
0.273991 0.543725 0.406836
0.289143 0.556008 0.435843
0.305058 0.577478 0.405066
0.673167 0.705898 0.176211
0.937713 0.780362 0.218463
1 0.799512 0.230243
1 0.791897 0.228504
0.278614 0.549767 0.397574
0.291737 0.558877 0.434638
0.308019 0.570459 0.482307
0.323766 0.583001 0.518364
0.342794 0.605158 0.518425
0.41677 0.665049 0.31075
0.910842 0.811566 0.224613
1 0.84979 0.263478
1 0.846036 0.275074
0.322789 0.584909 0.496254
0.334462 0.593225 0.533211
0.348119 0.603006 0.575174
0.357534 0.610147 0.602564
0.373587 0.629679 0.605524
0.396979 0.665934 0.563912
0.837568 0.79823 0.285634
1 0.85977 0.356954
1 0.875181 0.44213
0 0.000610361 0.337942
0 0 0.386175
0.000122072 0 0.469261
0.299641 6.10361e-05 0.550652
0.584253 0.0208286 0.558206
0.70425 0.0517433 0.542214
0.737316 0.0624857 0.527871
0.738445 0.0582132 0.494194
0.733562 0.0508278 0.452964
1.5259e-05 0.0793164 0.373007
3.0518e-05 0.0422522 0.40264
0 0.00204471 0.478477
0.286793 0.00415045 0.584192
0.607172 0.0281224 0.579278
0.728222 0.0625162 0.550591
0.759396 0.0732738 0.531182
0.754101 0.0653391 0.497734
0.740566 0.0535286 0.45301
0.00259403 0.229572 0.443748
0.000747692 0.208148 0.453864
4.57771e-05 0.188403 0.491966
0.171664 0.200137 0.575265
0.582773 0.106523 0.581979
0.734096 0.066743 0.545007
0.779477 0.0815137 0.521691
0.780179 0.0770275 0.493477
0.7673 0.0648203 0.449104
0.106203 0.378851 0.521385
0.102312 0.375265 0.523354
0.0814374 0.359289 0.507622
0.12462 0.348272 0.505287
0.549722 0.328939 0.547585
0.738094 0.283635 0.508385
0.798993 0.234501 0.483009
0.804166 0.196201 0.47245
0.791058 0.130846 0.434684
0.250172 0.498527 0.570001
0.26865 0.514107 0.586786
0.281086 0.52781 0.579767
0.273442 0.508995 0.528557
0.500664 0.482963 0.485832
0.744778 0.471168 0.477867
0.853513 0.441764 0.457877
0.870604 0.422171 0.458106
0.857908 0.382101 0.430518
0.314443 0.56408 0.576852
0.324269 0.573434 0.587198
0.347005 0.59884 0.59353
0.353719 0.613108 0.552697
0.382712 0.620478 0.522774
0.733837 0.658045 0.455085
0.920851 0.66099 0.43505
0.971023 0.648997 0.440986
0.964675 0.626505 0.436576
0.327413 0.581384 0.557733
0.331456 0.585168 0.563073
0.340108 0.595438 0.561807
0.363928 0.623514 0.567651
0.398932 0.665568 0.583566
0.501122 0.721263 0.496437
0.942123 0.804669 0.451942
1 0.822339 0.452705
1 0.818326 0.461891
0.331823 0.587198 0.553307
0.336568 0.590585 0.567346
0.347784 0.601251 0.584344
0.372168 0.62652 0.614023
0.410544 0.669749 0.653727
0.449653 0.726329 0.641047
0.902968 0.833112 0.462943
1 0.881193 0.524712
1 0.885222 0.542489
0.35494 0.608133 0.594949
0.361868 0.613321 0.617151
0.37229 0.621683 0.644221
0.399603 0.650767 0.680659
0.430411 0.687114 0.711238
0.462058 0.732326 0.713832
0.620554 0.795727 0.615366
1 0.894179 0.572976
1 0.916106 0.648325
0 3.0518e-05 0.468727
0 1.5259e-05 0.509407
0 1.5259e-05 0.539117
0.0880293 1.5259e-05 0.591104
0.518959 0.0163577 0.626871
0.703365 0.0658885 0.619989
0.748577 0.0852369 0.614435
0.758053 0.0874495 0.60473
0.753185 0.079942 0.582696
0 0.0235142 0.504448
0 0.00383001 0.540276
4.57771e-05 3.0518e-05 0.571923
0.0411536 0.00608835 0.626917
0.523857 0.0208743 0.65922
0.726818 0.0813001 0.640757
0.770977 0.100191 0.631586
0.77171 0.096437 0.613886
0.759579 0.0844282 0.587854
0.00823987 0.231144 0.565545
0.00483711 0.210971 0.585031
0.000198367 0.167269 0.602564
0.0126192 0.18088 0.654353
0.472114 0.129442 0.682628
0.731029 0.0894789 0.663996
0.791943 0.114641 0.648692
0.798337 0.114336 0.634089
0.786633 0.101732 0.604135
0.127062 0.387442 0.585458
0.113237 0.374029 0.592233
0.0960555 0.356481 0.605478
0.0981765 0.354681 0.626749
0.391638 0.357397 0.655985
0.720821 0.283864 0.659571
0.802533 0.221775 0.645182
0.814252 0.178866 0.640253
0.807172 0.13724 0.618311
0.274434 0.51371 0.630793
0.280781 0.519203 0.637613
0.302403 0.540795 0.645121
0.296529 0.537728 0.620752
0.374441 0.512383 0.602808
0.722042 0.493614 0.656077
0.86099 0.463935 0.650477
0.882841 0.443778 0.649821
0.869718 0.403815 0.629328
0.346899 0.586526 0.675578
0.361273 0.601038 0.689937
0.401083 0.647532 0.7131
0.438254 0.698146 0.712215
0.535683 0.701671 0.676387
0.753353 0.695186 0.665125
0.937652 0.697002 0.679118
0.987839 0.689815 0.688334
0.980346 0.664775 0.677134
0.370581 0.612131 0.69369
0.381735 0.623941 0.705623
0.414542 0.663264 0.726116
0.465324 0.732189 0.742458
0.50576 0.769772 0.71812
0.683787 0.800229 0.713024
0.961303 0.851789 0.695674
1 0.869734 0.703685
1 0.868452 0.7187
0.377584 0.620264 0.696086
0.387518 0.631128 0.707424
0.414008 0.663096 0.722866
0.450477 0.711696 0.735531
0.482963 0.759533 0.738598
0.539834 0.79794 0.746487
0.842023 0.867155 0.734066
1 0.924819 0.744305
1 0.931594 0.755459
0.385138 0.629358 0.699001
0.389883 0.633936 0.707759
0.417868 0.667353 0.729107
0.451286 0.710353 0.748516
0.48188 0.753216 0.764721
0.51339 0.790768 0.775814
0.687388 0.843946 0.790433
1 0.9299 0.760632
1 0.951934 0.80972
1.5259e-05 0 0.568154
0 1.5259e-05 0.585245
0 4.57771e-05 0.591821
0 1.5259e-05 0.604639
0.34844 0.000915541 0.64271
0.665995 0.0557565 0.640085
0.750515 0.0928054 0.641535
0.764874 0.0998398 0.641718
0.762722 0.0970474 0.634745
0 4.57771e-05 0.604776
3.0518e-05 0 0.620569
0 0 0.629114
0.000137331 3.0518e-05 0.645991
0.323796 0.00364691 0.682841
0.686244 0.0709239 0.670893
0.772045 0.108492 0.662058
0.778149 0.109545 0.654185
0.767239 0.100298 0.639307
0.014374 0.2309 0.65388
0.0111086 0.215885 0.666331
0.00216678 0.164019 0.670329
3.0518e-05 0.117525 0.684001
0.245151 0.190814 0.707362
0.66598 0.0892042 0.702876
0.791806 0.125261 0.68986
0.805997 0.130007 0.682963
0.797436 0.122179 0.667964
0.149645 0.396139 0.65214
0.145602 0.390509 0.663127
0.113451 0.360449 0.672557
0.103075 0.347082 0.692378
0.163088 0.367315 0.70309
0.634821 0.315679 0.70959
0.798962 0.214939 0.707012
0.819165 0.179004 0.705531
0.817121 0.153796 0.696376
0.285649 0.519783 0.666423
0.282032 0.515785 0.669642
0.282506 0.515236 0.677333
0.290883 0.522423 0.685985
0.300649 0.531899 0.689967
0.610254 0.528679 0.717205
0.858701 0.472282 0.738216
0.887312 0.449393 0.735775
0.877668 0.414557 0.724468
0.358312 0.594736 0.7093
0.364935 0.601678 0.716274
0.393591 0.634241 0.734173
0.441016 0.695949 0.748196
0.474617 0.715663 0.733166
0.671565 0.717235 0.741192
0.929 0.720775 0.793515
0.996658 0.707118 0.800763
0.992752 0.685512 0.793835
0.383246 0.6215 0.732738
0.393622 0.633158 0.741741
0.433433 0.682597 0.764752
0.489601 0.7617 0.78471
0.638483 0.82678 0.801373
0.838788 0.866087 0.820554
0.981781 0.882048 0.82797
1 0.897734 0.849683
1 0.895811 0.853178
0.391592 0.630488 0.741268
0.413443 0.656641 0.757198
0.454444 0.709712 0.778439
0.500694 0.777371 0.793484
0.661997 0.842435 0.815183
0.843793 0.890669 0.840894
0.959548 0.919295 0.853742
1 0.951324 0.865049
1 0.958129 0.87483
0.398138 0.63798 0.747875
0.419959 0.664469 0.761334
0.456092 0.711788 0.77908
0.493263 0.76585 0.791424
0.543954 0.814862 0.798306
0.753338 0.867323 0.828763
0.882582 0.905074 0.853513
1 0.947616 0.873289
1 0.969162 0.887114
0 0 0.617227
0 3.0518e-05 0.621485
0 3.0518e-05 0.620584
0 1.5259e-05 0.610727
0.0703746 0 0.623255
0.548272 0.0236515 0.643748
0.736324 0.0863355 0.643168
0.768597 0.103853 0.650034
0.768872 0.103655 0.649912
0 0.00933852 0.649912
0 0.000244144 0.653925
0 0.00222782 0.654673
0 3.0518e-05 0.650523
0.0867475 0.00636301 0.668254
0.548074 0.0290074 0.679118
0.754726 0.101076 0.664424
0.779217 0.111666 0.660914
0.772229 0.106493 0.653315
0.024033 0.244495 0.695064
0.0213016 0.23682 0.699336
0.0127718 0.211124 0.700175
6.10361e-05 0.123949 0.695201
0.00762951 0.173068 0.714916
0.501305 0.122103 0.715434
0.769741 0.117113 0.697505
0.808911 0.134463 0.694621
0.80293 0.129137 0.685389
0.169467 0.406592 0.692973
0.168185 0.404471 0.699229
0.145663 0.383871 0.704143
0.108171 0.347967 0.713115
0.11957 0.355489 0.72784
0.452689 0.359686 0.719417
0.771405 0.249958 0.719417
0.819867 0.185473 0.719585
0.820462 0.165866 0.716472
0.292958 0.523278 0.69604
0.294026 0.523766 0.700206
0.283406 0.51223 0.70312
0.282521 0.509651 0.713573
0.302937 0.529427 0.726345
0.43238 0.547662 0.728573
0.813642 0.505592 0.756848
0.886763 0.452064 0.754681
0.880064 0.420035 0.747234
0.361151 0.596445 0.72108
0.362966 0.597757 0.724926
0.374807 0.610727 0.734722
0.403235 0.644434 0.749126
0.435172 0.686061 0.758465
0.53315 0.716808 0.763729
0.855512 0.748348 0.815702
0.996704 0.711971 0.83003
0.997055 0.692699 0.825513
0.3841 0.62153 0.739284
0.39118 0.629526 0.746807
0.422705 0.667506 0.765866
0.476356 0.740536 0.787106
0.55259 0.807523 0.797787
0.784054 0.860945 0.830549
0.927733 0.885985 0.851194
1 0.905699 0.882261
1 0.902922 0.886244
0.397269 0.636378 0.751217
0.420432 0.664378 0.766247
0.46389 0.722316 0.786877
0.509728 0.7906 0.8
0.742245 0.866392 0.835523
0.959915 0.928527 0.876356
1 0.95024 0.8907
1 0.958755 0.8963
1 0.964233 0.902205
0.409491 0.651148 0.759716
0.437568 0.686213 0.776394
0.477806 0.741833 0.7935
0.519921 0.800259 0.802152
0.756481 0.870802 0.838621
0.965911 0.931304 0.878431
1 0.956542 0.895232
1 0.966217 0.90135
1 0.97348 0.906081
0 3.0518e-05 0.640345
0 3.0518e-05 0.638788
1.5259e-05 0 0.632883
0 1.5259e-05 0.620447
0 1.5259e-05 0.613123
0.33434 0.000610361 0.641443
0.673808 0.0584115 0.63975
0.763058 0.100465 0.647105
0.768933 0.104051 0.650217
3.0518e-05 0.0378119 0.669535
0 0.026566 0.669108
3.0518e-05 0.00540169 0.66424
0 0.000747692 0.656504
0 7.62951e-05 0.656992
0.321675 0.00173953 0.683162
0.692714 0.0724346 0.666728
0.774289 0.108797 0.659159
0.771252 0.105562 0.652338
0.0390173 0.269383 0.710491
0.0373846 0.266224 0.71162
0.0294804 0.251545 0.711498
0.00755322 0.189059 0.705272
0 0.111315 0.702785
0.271626 0.181003 0.715084
0.686168 0.0917372 0.703288
0.801312 0.129931 0.691432
0.801083 0.127855 0.683314
0.185962 0.418952 0.710002
0.184588 0.417304 0.711467
0.173495 0.407065 0.713512
0.138964 0.375372 0.718013
0.114244 0.35021 0.72932
0.203937 0.37145 0.726513
0.678828 0.307439 0.720439
0.81387 0.182269 0.718853
0.819837 0.161578 0.715129
0.303059 0.53109 0.715816
0.304555 0.532311 0.718029
0.300938 0.528008 0.719509
0.286763 0.512917 0.721889
0.295476 0.520394 0.733364
0.33344 0.553307 0.73698
0.696056 0.545846 0.753719
0.879713 0.463355 0.75697
0.87744 0.411948 0.746929
0.363455 0.597757 0.731365
0.364874 0.598749 0.733089
0.366064 0.599695 0.737301
0.376394 0.610803 0.746715
0.408515 0.649424 0.762188
0.449302 0.703655 0.772702
0.738354 0.756786 0.808225
0.988373 0.738811 0.837751
0.996201 0.691722 0.827558
0.38407 0.621271 0.741039
0.388159 0.625559 0.745678
0.406775 0.647303 0.759258
0.445411 0.697124 0.777813
0.48983 0.760433 0.792462
0.575494 0.811826 0.803754
0.843412 0.873915 0.847883
1 0.914015 0.884703
1 0.905333 0.8907
0.395651 0.634226 0.751156
0.415381 0.657755 0.764233
0.454902 0.709072 0.784131
0.500954 0.776593 0.799451
0.652903 0.843458 0.821241
0.901946 0.912367 0.866178
1 0.943786 0.887602
1 0.957305 0.898253
1 0.965499 0.906126
0.414191 0.656489 0.763409
0.442603 0.692714 0.779416
0.48278 0.749187 0.795148
0.536309 0.809369 0.804318
0.808469 0.885847 0.848554
1 0.944274 0.887404
1 0.967956 0.903944
1 0.973037 0.907805
1 0.974548 0.909194
