LUT预设1/LUT全系打包/阿勒泰系列lut/各机型Log灰片/阿勒泰最终版.cube
TITLE "Generated by Resolve"
LUT_3D_SIZE 33
0.0265049 0.0597086 0.0465248
0.0265049 0.0597086 0.0465248
0.0263066 0.0596933 0.04654
0.0247349 0.0595865 0.0466773
0.0279545 0.059678 0.0467231
0.037583 0.0601968 0.0465705
0.0537728 0.0614328 0.0461585
0.0714733 0.0639353 0.0457618
0.0910964 0.0669718 0.0451057
0.120043 0.0690623 0.0429084
0.159182 0.069337 0.0363165
0.20734 0.0669261 0.0231327
0.262119 0.0598459 0.00775158
0.325536 0.0429847 0
0.394141 0.021149 0
0.462257 0.0100557 1.5259e-05
0.526085 0.009308 0.000381476
0.577249 0.0121157 0.00132753
0.614221 0.0158541 0.00260929
0.63917 0.0194553 0.00381476
0.654673 0.0222019 0.00474556
0.66276 0.0237125 0.00527962
0.665324 0.0242161 0.00547799
0.66302 0.0237736 0.0053254
0.660716 0.0233158 0.00515755
0.659434 0.0230716 0.00505074
0.658763 0.0229801 0.0049897
0.658686 0.0229648 0.0049897
0.658686 0.0229648 0.0049897
0.658686 0.0229648 0.0049897
0.658686 0.0229648 0.0049897
0.658686 0.0229648 0.0049897
0.658686 0.0229648 0.0049897
0.0265049 0.0597086 0.0465248
0.0265049 0.0597086 0.0465248
0.0263676 0.0596933 0.04654
0.0248417 0.0595865 0.0466773
0.0273442 0.0596475 0.0467231
0.035584 0.0600443 0.0466163
0.0505837 0.0611276 0.0462501
0.0675975 0.063386 0.0458534
0.0869001 0.0663157 0.045243
0.114717 0.0687877 0.0433661
0.154788 0.0694133 0.0372473
0.203983 0.0672007 0.0242466
0.259998 0.0602274 0.00823987
0.324468 0.0433661 0
0.394141 0.021149 0
0.463279 0.0100099 1.5259e-05
0.527855 0.00936904 0.000396735
0.578836 0.0122377 0.00137331
0.615747 0.016022 0.00267033
0.640406 0.0196536 0.00389105
0.655604 0.0223697 0.00480659
0.662989 0.0237583 0.00531014
0.665156 0.0241855 0.00546273
0.662791 0.0237278 0.00531014
0.660548 0.0232853 0.00514229
0.659358 0.0230716 0.00503548
0.658701 0.0229648 0.0049897
0.658686 0.0229648 0.0049897
0.658686 0.0229648 0.0049897
0.658686 0.0229648 0.0049897
0.658686 0.0229648 0.0049897
0.658686 0.0229648 0.0049897
0.658686 0.0229648 0.0049897
0.0264134 0.0602274 0.0466316
0.0264439 0.0600748 0.0466011
0.026276 0.0599985 0.0466011
0.0249332 0.059678 0.0466773
0.0267948 0.0596323 0.0467231
0.0347448 0.0599985 0.0466316
0.0508888 0.0611429 0.0462348
0.0686351 0.0635386 0.0458228
0.088777 0.0666056 0.045182
0.118608 0.068986 0.0430304
0.160723 0.0693217 0.035996
0.211521 0.0665904 0.0217441
0.26923 0.0585489 0.00614939
0.335683 0.0392767 0
0.405829 0.0181582 0
0.475196 0.00939956 3.0518e-05
0.538903 0.00973526 0.000534066
0.587243 0.0128939 0.00158694
0.622248 0.0168002 0.00292973
0.644251 0.0202945 0.00410468
0.657298 0.0226902 0.00491341
0.663706 0.0238956 0.00535592
0.664698 0.024094 0.00543221
0.662226 0.023621 0.00526436
0.660121 0.0231937 0.00511177
0.659175 0.0230411 0.00502022
0.658686 0.0229648 0.0049897
0.658686 0.0229648 0.0049897
0.658686 0.0229648 0.0049897
0.658686 0.0229648 0.0049897
0.658686 0.0229648 0.0049897
0.658686 0.0229648 0.0049897
0.658686 0.0229648 0.0049897
0.0260319 0.0624552 0.0470741
0.0260624 0.0622873 0.0470283
0.0260471 0.0623331 0.0470436
0.0247654 0.0622263 0.046952
0.0259251 0.0621347 0.046891
0.0325475 0.0623789 0.0468757
0.0491951 0.0633249 0.0465705
0.0684367 0.0657359 0.046067
0.0898451 0.0688945 0.0452735
0.121386 0.0713359 0.0428321
0.165972 0.0715953 0.0348974
0.218463 0.0687419 0.0193332
0.278416 0.0602121 0.0040589
0.347173 0.0387121 0
0.417807 0.016434 0
0.487587 0.00892653 4.57771e-05
0.549889 0.0101015 0.000656138
0.59472 0.0135348 0.00180056
0.62681 0.0174716 0.00315862
0.646906 0.0207828 0.00427253
0.658778 0.0229648 0.00502022
0.664393 0.024033 0.00540169
0.664256 0.0240024 0.00540169
0.661692 0.0235142 0.00523384
0.659831 0.0231327 0.00508125
0.659052 0.0230106 0.00500496
0.658686 0.0229648 0.0049897
0.658686 0.0229648 0.0049897
0.658686 0.0229648 0.0049897
0.658686 0.0229648 0.0049897
0.658686 0.0229648 0.0049897
0.658686 0.0229648 0.0049897
0.658686 0.0229648 0.0049897
0.0242771 0.066041 0.0477913
0.0243381 0.0659495 0.0477607
0.0241398 0.0662394 0.0478218
0.0232395 0.0662089 0.0475166
0.0237125 0.0660716 0.0472877
0.0283207 0.0660868 0.0472725
0.0438087 0.066804 0.0471504
0.0648051 0.0690623 0.0465553
0.0877546 0.0724498 0.045594
0.119814 0.0755627 0.0430152
0.165774 0.0768597 0.0350042
0.22034 0.0756695 0.0183566
0.282887 0.0699168 0.0030518
0.354131 0.0504158 0
0.427222 0.0198825 0
0.497688 0.00914015 0.000106813
0.557855 0.0105592 0.000808728
0.601007 0.0142519 0.00205997
0.631037 0.0181277 0.0033875
0.649744 0.0212863 0.00444038
0.660365 0.02327 0.00512703
0.665034 0.0241703 0.00544747
0.663981 0.0239567 0.00538643
0.661402 0.0234531 0.00520333
0.659724 0.0231174 0.00508125
0.658961 0.0230106 0.00500496
0.658686 0.0229648 0.0049897
0.658686 0.0229648 0.0049897
0.658686 0.0229648 0.0049897
0.658686 0.0229648 0.0049897
0.658686 0.0229648 0.0049897
0.658686 0.0229648 0.0049897
0.658686 0.0229648 0.0049897
0.0201267 0.071458 0.0488899
0.0200809 0.0715038 0.0489052
0.0194553 0.0721294 0.0490578
0.0189364 0.072343 0.0486152
0.0194705 0.0720836 0.0480659
0.0228122 0.0716411 0.0478065
0.0348974 0.071809 0.047837
0.0581826 0.0734569 0.0471962
0.0825666 0.0767224 0.0460975
0.114961 0.0803082 0.0433509
0.161379 0.0827344 0.035996
0.218402 0.0832532 0.0186618
0.283467 0.0806439 0.00297551
0.357336 0.0688945 6.10361e-05
0.432578 0.0384375 0
0.50399 0.0133822 6.10361e-05
0.563439 0.0110628 0.000961318
0.607172 0.0149844 0.00231937
0.636454 0.0189822 0.00367742
0.654337 0.0221256 0.0047303
0.664012 0.0240177 0.00538643
0.667353 0.0246586 0.00561532
0.664561 0.0240787 0.00541695
0.661295 0.0234073 0.00518807
0.659434 0.0230564 0.00505074
0.658717 0.0229648 0.0049897
0.658595 0.0229496 0.0049897
0.65864 0.0229496 0.0049897
0.658671 0.0229648 0.0049897
0.658686 0.0229648 0.0049897
0.658686 0.0229648 0.0049897
0.658686 0.0229648 0.0049897
0.658686 0.0229648 0.0049897
0.010193 0.0812085 0.0513313
0.00999466 0.0813916 0.0513771
0.00923171 0.0821546 0.0515755
0.00944533 0.0823224 0.0507668
0.0107881 0.081651 0.0495308
0.013901 0.0803388 0.0485542
0.0234379 0.0796979 0.0483406
0.0467689 0.0805371 0.0477913
0.0738231 0.0831006 0.04654
0.105425 0.0870222 0.0440223
0.151843 0.0902266 0.0368811
0.21117 0.091783 0.0192569
0.279088 0.0912795 0.00257877
0.356466 0.0842603 4.57771e-05
0.435019 0.061265 0
0.506706 0.0233158 6.10361e-05
0.566995 0.0122988 0.00103761
0.611872 0.0156252 0.002533
0.641779 0.0198978 0.0039826
0.659724 0.0231785 0.00509651
0.669413 0.0251774 0.00576791
0.672114 0.0257115 0.00598154
0.667613 0.0247349 0.00563058
0.662806 0.0237278 0.00529488
0.6598 0.0231327 0.00508125
0.658564 0.0229191 0.0049897
0.658396 0.0229038 0.00497444
0.658457 0.0229038 0.00497444
0.658549 0.0229343 0.0049897
0.65861 0.0229496 0.0049897
0.658656 0.0229648 0.0049897
0.658686 0.0229648 0.0049897
0.658686 0.0229648 0.0049897
0.00300603 0.0945296 0.0546273
0.00280766 0.0949874 0.0547341
0.00231937 0.0960708 0.0550088
0.00241093 0.0968338 0.0542763
0.0033875 0.0962234 0.0526131
0.00564584 0.093843 0.0504616
0.0116274 0.092134 0.0493172
0.031281 0.0921035 0.0486915
0.0601663 0.0937819 0.0473335
0.0922103 0.0973068 0.0446784
0.13698 0.100999 0.0383764
0.198123 0.103441 0.0222019
0.269963 0.104417 0.00411994
0.350942 0.100938 0.000122072
0.432563 0.0844434 0
0.505974 0.0472725 9.15541e-05
0.568612 0.0172732 0.00106813
0.614862 0.0161135 0.00267033
0.646403 0.0207523 0.00425727
0.664927 0.0242466 0.00544747
0.675029 0.0264286 0.0061799
0.678279 0.0271 0.00645457
0.67364 0.0260929 0.00608835
0.667994 0.0248264 0.00567636
0.663294 0.0238499 0.0053254
0.660136 0.0231785 0.00511177
0.659251 0.0230106 0.00505074
0.658793 0.0229343 0.00500496
0.658335 0.0228733 0.00497444
0.658045 0.0228275 0.00495918
0.65803 0.0228275 0.00495918
0.658122 0.022858 0.00495918
0.658244 0.0228733 0.00495918
0.000381476 0.111269 0.0583047
0.000366217 0.111971 0.0584421
0.000320439 0.113451 0.0587472
0.000457771 0.114656 0.0582742
0.000839246 0.114595 0.0567636
0.00173953 0.11223 0.054139
0.00326543 0.107988 0.0513161
0.0147402 0.107103 0.0504616
0.0415808 0.108171 0.0488899
0.0767987 0.110933 0.0457465
0.118929 0.115068 0.040177
0.17966 0.118853 0.0255131
0.254124 0.121706 0.0065919
0.337667 0.121569 0.000198367
0.423865 0.111147 0
0.500526 0.082948 9.15541e-05
0.566064 0.0423743 0.00103761
0.615351 0.0239109 0.00276188
0.649683 0.0227207 0.00450141
0.670008 0.0254978 0.00582895
0.681086 0.027863 0.00666819
0.685054 0.028748 0.00700389
0.681346 0.027924 0.00669871
0.675822 0.0265812 0.0062562
0.6701 0.0252842 0.00582895
0.664744 0.0241093 0.00544747
0.663142 0.0237583 0.0053254
0.662196 0.0235599 0.00526436
0.66128 0.0233616 0.00520333
0.66038 0.0231937 0.00512703
0.659648 0.0230411 0.00508125
0.659144 0.0229801 0.00503548
0.658839 0.0229343 0.00502022
0.000869764 0.131868 0.0625162
0.0009308 0.132906 0.0627298
0.00103761 0.13489 0.0631266
0.0011902 0.136751 0.0630045
0.00132753 0.137484 0.0619364
0.00148013 0.135927 0.0594492
0.00146487 0.131029 0.0554208
0.0043946 0.125612 0.0539559
0.0236057 0.125368 0.0521401
0.0584268 0.127764 0.0485084
0.10016 0.131609 0.0423133
0.156527 0.136339 0.0300755
0.23093 0.141115 0.0101015
0.315602 0.144381 0.000274662
0.406989 0.140291 0
0.489372 0.123461 0.000106813
0.559716 0.0912032 0.00115969
0.613748 0.0580301 0.00309758
0.651728 0.0381933 0.00491341
0.675273 0.0305486 0.00633249
0.687907 0.0307622 0.00729381
0.692592 0.0312657 0.00767529
0.689967 0.0301213 0.00743114
0.684321 0.0285954 0.00695811
0.678187 0.0271153 0.00645457
0.672282 0.0258183 0.00598154
0.670268 0.0253758 0.00582895
0.668894 0.0250553 0.00573739
0.667491 0.0247196 0.00563058
0.666026 0.0243839 0.00553903
0.664591 0.0240482 0.00544747
0.663371 0.0237583 0.00535592
0.662699 0.0236057 0.00531014
0.00273136 0.157717 0.0673075
0.00285344 0.159121 0.0675517
0.00308232 0.161822 0.0680095
0.00332647 0.164523 0.0680552
0.00357061 0.166522 0.067216
0.00378424 0.167239 0.0646372
0.0034638 0.162295 0.0605936
0.00294499 0.152163 0.0581369
0.00866712 0.147082 0.0568704
0.0351415 0.148043 0.0529946
0.0769207 0.151431 0.0458686
0.129625 0.155489 0.033875
0.201328 0.161166 0.0130922
0.286427 0.167132 0.000381476
0.379614 0.168841 0
0.470741 0.161303 0.00015259
0.548806 0.142809 0.00155642
0.609491 0.113939 0.00396735
0.652064 0.0835737 0.00596628
0.679408 0.0595865 0.00740063
0.694377 0.0478218 0.00831617
0.70071 0.0412451 0.00866712
0.69958 0.0351415 0.00840772
0.694026 0.031754 0.00782788
0.687572 0.0295567 0.00723278
0.681498 0.027985 0.00669871
0.679194 0.027451 0.0065156
0.677775 0.0271153 0.00640879
0.676326 0.0267948 0.00628672
0.674846 0.0264439 0.00616464
0.673365 0.0261082 0.00605783
0.671809 0.025742 0.00593576
0.670909 0.0255436 0.00587472
0.00590524 0.189044 0.0715953
0.00611887 0.190768 0.0717632
0.00650034 0.193942 0.0720836
0.00689708 0.197147 0.0721141
0.00729381 0.199985 0.0713664
0.0077821 0.202655 0.0686198
0.0077821 0.201144 0.0645151
0.00688182 0.193011 0.061326
0.00581369 0.178714 0.0601511
0.012726 0.173877 0.0579232
0.0460822 0.175677 0.0505074
0.0986954 0.178744 0.0359197
0.167117 0.183093 0.013901
0.251438 0.190707 0.000442512
0.343832 0.196414 0
0.441627 0.195499 0.000183108
0.529076 0.186343 0.00199893
0.599939 0.168658 0.00537118
0.650065 0.145006 0.00813306
0.682307 0.118334 0.00979629
0.700511 0.0952163 0.0105287
0.709606 0.0743572 0.0106508
0.710536 0.052842 0.00999466
0.705638 0.0402991 0.00910964
0.698833 0.0339055 0.00830091
0.692149 0.0307774 0.00762951
0.689387 0.0299535 0.00737011
0.687831 0.0295567 0.00723278
0.686275 0.0291752 0.0071107
0.684703 0.0287785 0.00695811
0.683146 0.0284123 0.00683604
0.681529 0.0280156 0.00671397
0.680659 0.0278019 0.00663767
0.0106203 0.223819 0.0738689
0.0109102 0.225757 0.0739147
0.0114595 0.229221 0.073991
0.0119936 0.2327 0.0739605
0.0124666 0.235599 0.073579
0.0131838 0.239643 0.0715038
0.0136263 0.24126 0.0673075
0.0131838 0.237476 0.0626993
0.0112459 0.22443 0.0601053
0.00944533 0.208545 0.0601663
0.018677 0.204288 0.055314
0.0588998 0.207309 0.0397498
0.126345 0.209613 0.0147402
0.210559 0.216037 0.000534066
0.302342 0.224262 0
0.400992 0.228107 0.000183108
0.498619 0.225284 0.00228885
0.582437 0.215335 0.00691234
0.645045 0.19939 0.0112001
0.685756 0.180087 0.0140536
0.709102 0.160433 0.0153658
0.720668 0.137896 0.015198
0.723445 0.112444 0.0140536
0.719219 0.0847639 0.0122225
0.712016 0.0583963 0.0103609
0.704692 0.0405432 0.00903334
0.70132 0.0358587 0.00857557
0.69958 0.0344549 0.0083772
0.697826 0.0331426 0.00817884
0.696132 0.0319524 0.00799573
0.694392 0.0312505 0.00782788
0.692622 0.0307927 0.00767529
0.691752 0.0305638 0.00758373
0.0170901 0.261204 0.0735332
0.0175479 0.263554 0.0734264
0.0182956 0.267384 0.0732586
0.0190127 0.271092 0.0730755
0.0195926 0.27396 0.0728771
0.0206149 0.278553 0.0710613
0.0215152 0.282139 0.0671397
0.0220035 0.283146 0.0600443
0.020798 0.276616 0.0542153
0.0169375 0.257115 0.0550393
0.0146181 0.240925 0.0551614
0.0276036 0.238911 0.0419623
0.0774701 0.242847 0.0205539
0.162036 0.24387 0.00134279
0.25716 0.251606 0
0.356023 0.259785 0.000183108
0.457496 0.26273 0.00248722
0.552605 0.258625 0.00827039
0.630365 0.247684 0.0144808
0.684581 0.232212 0.0192721
0.717113 0.215915 0.0218967
0.73344 0.1991 0.0224155
0.73904 0.181399 0.0214084
0.736263 0.156085 0.0187228
0.728283 0.119753 0.0150607
0.719692 0.084184 0.0121614
0.715328 0.0677806 0.0110475
0.713436 0.0615244 0.0106355
0.711543 0.0554971 0.0102235
0.70959 0.0496376 0.00982681
0.707622 0.0443885 0.00944533
0.705623 0.0401312 0.00909438
0.704677 0.0386664 0.00895705
0.0269474 0.301915 0.0710613
0.0277256 0.30457 0.0708629
0.0289464 0.308797 0.0705425
0.0300755 0.312688 0.0702525
0.0310521 0.315999 0.0699931
0.0324559 0.320287 0.0686046
0.0340124 0.324819 0.0648661
0.0353399 0.328237 0.0564279
0.0354162 0.32813 0.0480201
0.0320134 0.317159 0.0446632
0.0252689 0.293187 0.0462806
0.021088 0.276905 0.041001
0.0366064 0.278584 0.0281834
0.102037 0.282536 0.0144045
0.205402 0.280766 0.000381476
0.307378 0.289113 0.000198367
0.409873 0.296498 0.00273136
0.510811 0.298497 0.00920119
0.602411 0.293767 0.0175021
0.673808 0.283085 0.0252689
0.720333 0.268208 0.0301518
0.745296 0.253086 0.0320134
0.75613 0.239796 0.0318608
0.757321 0.223926 0.0297398
0.749416 0.196735 0.0248569
0.738491 0.163195 0.0195926
0.732265 0.140688 0.0168612
0.730205 0.131044 0.0160678
0.728038 0.120928 0.0152438
0.725872 0.110857 0.014435
0.723552 0.10013 0.0135805
0.721248 0.0897688 0.0127718
0.720226 0.0852979 0.0124361
0.0423133 0.345129 0.0680705
0.0434272 0.347845 0.0679026
0.0452583 0.352316 0.0676127
0.0469368 0.356405 0.0673533
0.0484474 0.360006 0.0671397
0.0501411 0.363775 0.0661631
0.05243 0.368414 0.0627909
0.0545815 0.372503 0.0557717
0.0556802 0.374624 0.0496223
0.0544137 0.371862 0.0456703
0.047715 0.356359 0.0432898
0.0372168 0.330419 0.0403449
0.0321202 0.317143 0.0337987
0.0536049 0.323384 0.029572
0.142916 0.321904 0.0154574
0.25243 0.319203 0.00196841
0.358709 0.327428 0.0033875
0.463722 0.334417 0.0103761
0.562921 0.335958 0.020264
0.649027 0.331609 0.0310369
0.713756 0.321386 0.0397192
0.752804 0.308186 0.0443732
0.771695 0.29572 0.0455024
0.779202 0.283009 0.0443885
0.774609 0.262715 0.0394446
0.763607 0.23476 0.0324865
0.755764 0.214878 0.0280461
0.752972 0.20737 0.0265507
0.750042 0.199069 0.0250095
0.74728 0.190295 0.0237125
0.744411 0.180819 0.022385
0.741482 0.170916 0.0210269
0.740307 0.166659 0.0204929
0.0631418 0.387381 0.0647746
0.0646982 0.390204 0.0645304
0.0669871 0.394385 0.0641642
0.0692149 0.398459 0.0638132
0.0711833 0.401785 0.0635538
0.0729992 0.404486 0.0631723
0.0757763 0.408667 0.0613718
0.0784009 0.412543 0.0588693
0.0799573 0.414801 0.0569009
0.0799878 0.414832 0.055375
0.0764172 0.409186 0.0522927
0.0650187 0.389807 0.0471962
0.051667 0.36524 0.0411383
0.050782 0.360647 0.0391546
0.0918898 0.369284 0.037232
0.188098 0.36405 0.0191806
0.302708 0.362264 0.00776684
0.416815 0.370977 0.0128939
0.521965 0.378225 0.024445
0.618067 0.379568 0.0379492
0.698146 0.374762 0.0506447
0.753887 0.365026 0.0593576
0.783703 0.353643 0.0627756
0.798337 0.342443 0.0630961
0.799344 0.326162 0.0591135
0.791089 0.301808 0.0513771
0.782635 0.281407 0.0449836
0.779858 0.274662 0.0429694
0.776883 0.267491 0.0408484
0.7738 0.260044 0.0386511
0.770687 0.252476 0.0364996
0.767452 0.244358 0.0345922
0.766125 0.240909 0.0338598
0.0872206 0.424567 0.0638895
0.0888838 0.426947 0.0639048
0.0915084 0.430701 0.0639506
0.0939956 0.433845 0.0640421
0.0964065 0.436576 0.0641794
0.0982528 0.438666 0.0642863
0.100969 0.441764 0.0642863
0.103914 0.445151 0.06392
0.106004 0.447547 0.0632944
0.106828 0.448493 0.062623
0.105364 0.44683 0.0613718
0.0987869 0.43859 0.0588388
0.0833448 0.417884 0.0534524
0.0711833 0.400992 0.0490578
0.0800488 0.405844 0.0496834
0.136706 0.415717 0.0453956
0.243931 0.408255 0.0247807
0.369223 0.40882 0.0183566
0.482902 0.420752 0.0306554
0.586938 0.428748 0.0473945
0.678447 0.430274 0.0640421
0.74844 0.424689 0.0766003
0.79295 0.415274 0.0833448
0.816159 0.404578 0.085359
0.823819 0.391318 0.0830854
0.819196 0.370809 0.0760052
0.810513 0.34934 0.0679942
0.807568 0.342184 0.0654002
0.804761 0.335332 0.0629435
0.801877 0.328252 0.0604105
0.798856 0.320851 0.0577707
0.795727 0.313222 0.0550698
0.794415 0.310018 0.0539254
0.114046 0.456535 0.0652476
0.115969 0.458717 0.0653544
0.118944 0.461738 0.0658274
0.121782 0.464393 0.0664683
0.124407 0.46688 0.0670634
0.126421 0.468788 0.0675212
0.129046 0.471305 0.0680858
0.13193 0.474052 0.0686351
0.134676 0.476646 0.0690929
0.136309 0.478141 0.069398
0.13611 0.477913 0.0693217
0.13341 0.475288 0.0686198
0.122606 0.46421 0.0656443
0.10576 0.446052 0.0608072
0.0993973 0.439704 0.0590829
0.1234 0.452811 0.0610208
0.202411 0.459007 0.050782
0.318929 0.452125 0.0328069
0.442786 0.461936 0.0390631
0.556558 0.476707 0.0586404
0.657862 0.486351 0.0794385
0.740215 0.486915 0.0951705
0.799817 0.482048 0.105272
0.835019 0.47335 0.109667
0.850553 0.462165 0.109575
0.850462 0.44509 0.104616
0.841749 0.423484 0.0965286
0.837674 0.414328 0.0930037
0.834485 0.407019 0.0901808
0.831281 0.399558 0.0872969
0.828092 0.392081 0.0843977
0.824872 0.384298 0.0813764
0.823636 0.381308 0.0802167
0.143038 0.484321 0.0712749
0.145144 0.486122 0.0717479
0.148226 0.488777 0.0724651
0.151019 0.491173 0.073106
0.153735 0.493523 0.0737163
0.155871 0.495354 0.0742046
0.158114 0.497307 0.0747234
0.161059 0.49984 0.0754101
0.163989 0.502388 0.076112
0.166293 0.504433 0.0766918
0.166873 0.504921 0.0768444
0.165164 0.503532 0.0764324
0.159533 0.498665 0.0750591
0.147799 0.488075 0.0721141
0.134981 0.476539 0.0689555
0.139208 0.479774 0.0696727
0.18439 0.499672 0.0718395
0.272831 0.50312 0.0595865
0.397604 0.502266 0.0517128
0.522377 0.519158 0.0693217
0.635447 0.537346 0.0934462
0.730037 0.546487 0.112383
0.803357 0.548058 0.125505
0.853056 0.544579 0.133288
0.880049 0.53782 0.136278
0.888472 0.526955 0.134859
0.882307 0.508843 0.128756
0.876692 0.497536 0.124575
0.872724 0.48957 0.121614
0.868711 0.481437 0.118563
0.864485 0.472831 0.115343
0.860334 0.464195 0.112093
0.858747 0.460838 0.110826
0.17142 0.508675 0.0779889
0.173098 0.510079 0.0784924
0.175647 0.512215 0.0792401
0.177951 0.514138 0.0799268
0.180102 0.515953 0.0805676
0.182025 0.517555 0.0811475
0.183536 0.518837 0.0816052
0.185534 0.520531 0.0820478
0.187976 0.522576 0.0823835
0.189609 0.523919 0.0826581
0.190265 0.524437 0.0830396
0.18912 0.523537 0.0828565
0.185718 0.52076 0.0817578
0.17911 0.515267 0.0798657
0.169253 0.50695 0.0773785
0.165393 0.50367 0.0764019
0.190585 0.522042 0.081529
0.253544 0.54519 0.0834821
0.355108 0.547723 0.0735332
0.483909 0.558816 0.0809491
0.608698 0.582452 0.104967
0.717037 0.60177 0.127367
0.804135 0.611353 0.143511
0.868208 0.614145 0.15433
0.908049 0.612421 0.160204
0.927016 0.607675 0.162097
0.928634 0.59704 0.159747
0.924346 0.587167 0.156634
0.920302 0.579828 0.154147
0.915953 0.571862 0.151339
0.91136 0.563455 0.148379
0.906584 0.554681 0.145266
0.904875 0.551492 0.144137
0.193454 0.527123 0.0845808
0.194766 0.528222 0.0849928
0.196704 0.529839 0.0855726
0.198505 0.531334 0.0861372
0.200137 0.532708 0.0866102
0.201556 0.533898 0.0870375
0.20267 0.534829 0.0873579
0.203983 0.535912 0.0879072
0.205692 0.537331 0.0890364
0.207065 0.538491 0.0906233
0.207736 0.53901 0.0919814
0.207019 0.538308 0.0908675
0.204211 0.536095 0.0874647
0.199893 0.532555 0.0852979
0.193744 0.527398 0.0835889
0.186694 0.521553 0.0817731
0.196399 0.529427 0.0842908
0.242252 0.56228 0.0948501
0.31989 0.583749 0.0960403
0.439902 0.592203 0.0943008
0.572961 0.61619 0.112276
0.697002 0.646555 0.137835
0.800061 0.667552 0.157977
0.879377 0.679026 0.171908
0.932555 0.683406 0.180392
0.962509 0.68394 0.184756
0.97229 0.679911 0.185351
0.971038 0.672557 0.183612
0.967834 0.666072 0.181765
0.964477 0.659419 0.179843
0.960815 0.652369 0.177813
0.956603 0.644755 0.175509
0.954986 0.64184 0.174578
0.209628 0.540612 0.0916152
0.210681 0.541482 0.0923323
0.212161 0.542718 0.0933852
0.213519 0.543847 0.0943313
0.214832 0.54493 0.0952926
0.215976 0.545892 0.0961929
0.216922 0.54667 0.0970016
0.217823 0.547433 0.0983902
0.219211 0.548638 0.101183
0.220645 0.549828 0.104067
0.221149 0.550179 0.10396
0.219989 0.549325 0.0996567
0.217578 0.547478 0.0941329
0.214649 0.545022 0.0909895
0.210422 0.541451 0.088838
0.204608 0.536568 0.0867018
0.205035 0.536919 0.0867628
0.232059 0.558907 0.0945449
0.298009 0.599695 0.108293
0.397955 0.619654 0.109941
0.532372 0.639857 0.118379
0.665995 0.674464 0.142031
0.784237 0.705928 0.16553
0.879103 0.727275 0.182727
0.947143 0.739971 0.194095
0.983825 0.747356 0.200885
0.987488 0.74815 0.202991
0.987289 0.744167 0.20238
0.987045 0.73933 0.201205
0.986755 0.734157 0.199924
0.986465 0.72871 0.198596
0.98613 0.722835 0.197131
0.986038 0.720928 0.196674
0.222538 0.551369 0.104021
0.223529 0.552193 0.105211
0.224872 0.553323 0.106844
0.226139 0.554376 0.10837
0.227436 0.555428 0.111162
0.228687 0.55642 0.114199
0.22974 0.557229 0.116808
0.230716 0.558007 0.119341
0.232151 0.559121 0.123232
0.234134 0.560662 0.128557
0.235096 0.561395 0.13048
0.23473 0.561166 0.128893
0.23328 0.560052 0.124788
0.230381 0.557778 0.117647
0.225788 0.554086 0.108141
0.219806 0.549233 0.0980697
0.21593 0.546075 0.0937514
0.225666 0.554376 0.0940414
0.273701 0.593439 0.108339
0.362585 0.634043 0.121294
0.489876 0.65565 0.124666
0.629343 0.690837 0.143359
0.759899 0.731106 0.168643
0.87013 0.762661 0.18909
0.952667 0.783368 0.203006
0.986557 0.795468 0.211551
0.986877 0.795621 0.213107
0.986923 0.792538 0.212619
0.986969 0.789593 0.212024
0.98703 0.786465 0.211368
0.987076 0.782986 0.210651
0.987137 0.779309 0.209888
0.987167 0.777996 0.209628
0.236362 0.562463 0.133654
0.237507 0.563363 0.136522
0.239551 0.56492 0.142138
0.241978 0.566735 0.149554
0.24419 0.568414 0.156359
0.246387 0.570062 0.163119
0.248249 0.57145 0.168765
0.249775 0.572595 0.173327
0.251865 0.574166 0.179599
0.255406 0.576791 0.190097
0.258396 0.579004 0.19826
0.260319 0.580514 0.202945
0.260563 0.580728 0.202747
0.258839 0.579446 0.197162
0.254307 0.576089 0.18352
0.247578 0.571099 0.16318
0.241215 0.566369 0.142275
0.235325 0.562234 0.114015
0.256092 0.580362 0.105409
0.330114 0.633204 0.124865
0.448997 0.666087 0.131685
0.593927 0.698009 0.143404
0.730648 0.742596 0.168124
0.852613 0.782361 0.191043
0.949264 0.811185 0.207721
0.986328 0.828351 0.218158
0.986297 0.830076 0.220233
0.986328 0.827939 0.219852
0.986358 0.82591 0.219425
0.986404 0.823697 0.218967
0.986435 0.821347 0.218494
0.986496 0.818799 0.217975
0.986496 0.817975 0.217807
0.259083 0.579538 0.201572
0.26186 0.581598 0.20853
0.265736 0.584466 0.21828
0.269291 0.587091 0.227176
0.272374 0.58938 0.234943
0.275593 0.59176 0.242908
0.278172 0.593698 0.249165
0.2804 0.595361 0.254459
0.282719 0.597101 0.26006
0.286595 0.59997 0.269429
0.290517 0.602899 0.278492
0.293263 0.604974 0.284535
0.294316 0.605844 0.28661
0.293111 0.60499 0.282979
0.289219 0.602289 0.271885
0.282948 0.597894 0.253712
0.274174 0.591882 0.224475
0.261067 0.582696 0.175113
0.253147 0.577874 0.117235
0.301289 0.617533 0.119524
