LUT预设1/iPhone 专用lut-合集1/iPhone 标准版合集1(REC709)/中性电影film-709.cube
TITLE "Generated by Resolve"
LUT_3D_SIZE 33
0.0540017 0.0707866 0.078233
0.0747387 0.072343 0.0775311
0.0975052 0.0731212 0.0770428
0.132723 0.0734264 0.0755932
0.173449 0.0737469 0.0723583
0.23418 0.0747997 0.0638743
0.283406 0.0782635 0.0590372
0.324819 0.0823987 0.0564279
0.362982 0.0873274 0.0556954
0.398489 0.0923323 0.0553445
0.431083 0.0978561 0.0563211
0.462287 0.103532 0.0573892
0.490349 0.109331 0.058732
0.517708 0.115419 0.0602121
0.543435 0.121324 0.0619211
0.568185 0.12723 0.0634165
0.592218 0.13315 0.0644083
0.614954 0.136263 0.0646677
0.637461 0.139422 0.0652781
0.659525 0.143145 0.0665141
0.681056 0.147173 0.0680552
0.702815 0.151644 0.0698711
0.724971 0.156222 0.0716411
0.74699 0.161044 0.0737011
0.769589 0.16611 0.0757458
0.79237 0.17174 0.0781109
0.815213 0.17763 0.0805219
0.838422 0.183566 0.0826429
0.861433 0.189364 0.0843061
0.883604 0.195346 0.0857862
0.903838 0.199359 0.0862593
0.924285 0.203082 0.0869917
0.939605 0.206027 0.088426
0.057435 0.0966506 0.0847028
0.0726787 0.0966506 0.0858473
0.101747 0.0979324 0.0838788
0.140581 0.0996719 0.0789044
0.186206 0.102327 0.074342
0.248539 0.103609 0.066865
0.296529 0.107347 0.0627756
0.336034 0.112551 0.0620737
0.372457 0.117754 0.0624094
0.405478 0.122377 0.0624857
0.436301 0.126726 0.0624857
0.465858 0.131304 0.0626993
0.493782 0.13608 0.063035
0.520562 0.140734 0.0631113
0.545464 0.144747 0.0636454
0.57026 0.148516 0.0643473
0.593301 0.152544 0.0659037
0.615839 0.156695 0.0677195
0.637873 0.161135 0.0698253
0.65951 0.166064 0.0722515
0.681102 0.171267 0.074815
0.703151 0.176455 0.077348
0.725322 0.181231 0.0794232
0.747402 0.185382 0.0805982
0.770855 0.190433 0.0818647
0.793927 0.195407 0.0828565
0.816892 0.200427 0.0833753
0.840085 0.205203 0.0830091
0.86334 0.209644 0.0834821
0.885222 0.214069 0.0848096
0.906554 0.218875 0.0869917
0.927901 0.223774 0.0893721
0.938857 0.226703 0.0921035
0.0627604 0.125216 0.08925
0.0768597 0.126055 0.0912947
0.102342 0.125368 0.0897993
0.128374 0.123827 0.0880293
0.180255 0.126284 0.08159
0.248356 0.127657 0.0712749
0.301076 0.131106 0.0658427
0.341573 0.135485 0.064683
0.378424 0.139895 0.0640269
0.410468 0.144305 0.0636912
0.441047 0.148775 0.0633402
0.468956 0.153185 0.0629435
0.49575 0.157366 0.0632792
0.521355 0.161944 0.0643778
0.546151 0.166476 0.0658732
0.570336 0.170809 0.0673991
0.593194 0.175097 0.0695811
0.615641 0.179385 0.0715801
0.637781 0.183658 0.0733959
0.659602 0.187945 0.0750744
0.6813 0.192187 0.0765393
0.703532 0.196445 0.0777142
0.725353 0.200671 0.0786297
0.747707 0.20502 0.0792248
0.770504 0.20972 0.0796216
0.793256 0.214343 0.0795605
0.816709 0.219287 0.080354
0.840482 0.224552 0.081651
0.864195 0.229908 0.0834211
0.88632 0.235187 0.0865949
0.908324 0.240223 0.0893111
0.927443 0.244556 0.0918135
0.937972 0.247105 0.094255
0.0666667 0.155627 0.0922866
0.079942 0.155535 0.0948653
0.0966659 0.153384 0.0947738
0.125521 0.152483 0.0917067
0.177798 0.152865 0.0843671
0.246769 0.152728 0.0748302
0.300694 0.155642 0.0697795
0.341924 0.159396 0.0673838
0.378866 0.163363 0.0657054
0.411017 0.166964 0.0649119
0.441764 0.170703 0.0646372
0.469551 0.174731 0.064683
0.496544 0.178897 0.0650187
0.521721 0.182879 0.0657511
0.545907 0.186938 0.0666514
0.569421 0.190997 0.0677958
0.592325 0.195041 0.0691386
0.614542 0.198993 0.0705882
0.636408 0.203006 0.0719463
0.658045 0.206989 0.0732586
0.679698 0.211261 0.0744793
0.701518 0.215747 0.0754711
0.723201 0.220371 0.0763714
0.746075 0.224872 0.0767834
0.7691 0.229465 0.07776
0.792004 0.234257 0.0791943
0.815763 0.239384 0.0805676
0.839521 0.244404 0.0820478
0.862715 0.249439 0.08365
0.885542 0.254414 0.0858625
0.907973 0.259297 0.087953
0.924651 0.263081 0.0902266
0.936675 0.266148 0.0925917
0.0815137 0.191897 0.0876326
0.0944228 0.192218 0.0863813
0.108644 0.192081 0.0836347
0.13106 0.189212 0.0832837
0.160815 0.182681 0.086717
0.225483 0.179171 0.0823377
0.283009 0.18085 0.0771496
0.331456 0.184207 0.0710613
0.372168 0.187167 0.0673533
0.406897 0.18941 0.0654002
0.43856 0.192279 0.0641184
0.466575 0.196765 0.0641794
0.494102 0.200839 0.0641794
0.518639 0.20473 0.064744
0.542794 0.208469 0.0653086
0.565972 0.212467 0.0664225
0.588647 0.216388 0.0676738
0.611017 0.220203 0.0689097
0.632807 0.224063 0.0701152
0.654307 0.228016 0.0712902
0.676051 0.232074 0.072221
0.697673 0.236423 0.0731518
0.719295 0.240757 0.07393
0.742123 0.24509 0.0745861
0.764599 0.249561 0.0758526
0.787442 0.253941 0.0768292
0.811185 0.259022 0.0780041
0.834913 0.264347 0.0796063
0.858457 0.269429 0.0814069
0.881727 0.274556 0.0835126
0.904875 0.279438 0.085359
0.920836 0.283177 0.0875715
0.934142 0.286473 0.0896162
0.0971847 0.235676 0.0842145
0.109483 0.236912 0.0836805
0.12253 0.237461 0.0826276
0.137545 0.235782 0.0826276
0.155032 0.229679 0.0841993
0.201282 0.2159 0.0831006
0.251469 0.208545 0.0812543
0.298543 0.212085 0.0758373
0.340719 0.216098 0.0713054
0.380453 0.220874 0.0661631
0.41854 0.225391 0.061387
0.448646 0.227253 0.0598917
0.478355 0.228962 0.0582742
0.504005 0.231174 0.0577707
0.528542 0.233646 0.0576486
0.551934 0.23653 0.0578927
0.574243 0.240192 0.0588846
0.596597 0.244083 0.0598459
0.618189 0.248051 0.0608072
0.639658 0.251789 0.0616922
0.660975 0.255726 0.062623
0.682414 0.259831 0.063859
0.703502 0.263951 0.0648814
0.725673 0.268116 0.0654459
0.748211 0.27216 0.0658274
0.770687 0.276417 0.0666972
0.793805 0.2813 0.068101
0.817258 0.286061 0.0696117
0.84036 0.290806 0.0714427
0.864332 0.295613 0.0730449
0.888075 0.300389 0.0745098
0.908263 0.304921 0.0759136
0.922957 0.308309 0.0776684
0.112963 0.278126 0.0922408
0.125719 0.279301 0.0925917
0.139467 0.280308 0.093431
0.152056 0.279561 0.0932631
0.162402 0.276448 0.0916609
0.198566 0.256703 0.0879988
0.239979 0.241581 0.0865339
0.281712 0.242023 0.0836957
0.321828 0.243381 0.0800641
0.365042 0.249195 0.0736706
0.404242 0.254292 0.0687114
0.437522 0.257832 0.0653697
0.470115 0.262135 0.0618448
0.497246 0.265293 0.0599222
0.523003 0.267781 0.0580606
0.547326 0.270161 0.0570687
0.569512 0.272084 0.0573281
0.591394 0.273854 0.0572518
0.612345 0.276097 0.0578317
0.633158 0.278447 0.0583658
0.653696 0.281056 0.0590219
0.674586 0.284443 0.0598459
0.695323 0.288457 0.0607004
0.717403 0.292668 0.0615244
0.739727 0.297002 0.0619669
0.761624 0.301167 0.0628367
0.784772 0.305913 0.064332
0.807721 0.310353 0.0657969
0.830503 0.31487 0.0671855
0.854368 0.3196 0.0684367
0.877897 0.324208 0.0696269
0.898939 0.328374 0.0709544
0.915663 0.332036 0.0725872
0.128573 0.320806 0.111574
0.141543 0.321813 0.112306
0.155505 0.322683 0.112917
0.165362 0.322408 0.113985
0.172473 0.320729 0.115023
0.212665 0.305852 0.0989242
0.252125 0.290379 0.0894942
0.283574 0.274067 0.0917983
0.319234 0.269306 0.0910506
0.359091 0.274434 0.0871595
0.396612 0.280674 0.0826886
0.433356 0.289097 0.0760052
0.469001 0.297246 0.0693217
0.4963 0.298421 0.066392
0.523339 0.300771 0.0634012
0.547478 0.302739 0.0620584
0.570138 0.304875 0.0609598
0.592371 0.307301 0.0598917
0.613474 0.309804 0.0598917
0.634134 0.311803 0.059968
0.654643 0.314229 0.0602274
0.674907 0.316716 0.060914
0.695003 0.318822 0.0614176
0.716304 0.321584 0.0620584
0.737697 0.32462 0.0627298
0.759091 0.32752 0.0635996
0.781811 0.331273 0.0647288
0.804395 0.335103 0.0656291
0.827283 0.33959 0.0667887
0.850843 0.344228 0.0679637
0.87425 0.348806 0.0690776
0.894896 0.352926 0.0703593
0.913695 0.356817 0.0720073
0.144427 0.361837 0.130938
0.157473 0.3626 0.130098
0.170871 0.363027 0.12932
0.179706 0.362936 0.130831
0.189151 0.362158 0.13283
0.218814 0.350576 0.112932
0.255497 0.33341 0.10338
0.293523 0.31664 0.10071
0.329854 0.310857 0.0988174
0.363043 0.306371 0.0982223
0.397589 0.308629 0.0948653
0.432441 0.314168 0.0900282
0.46482 0.319722 0.0855879
0.495262 0.326772 0.0805829
0.525383 0.334585 0.0753643
0.549844 0.338308 0.0714275
0.573938 0.342107 0.0673838
0.59649 0.344396 0.0644541
0.61706 0.345281 0.0637522
0.637308 0.345495 0.0629129
0.657374 0.346899 0.063386
0.677165 0.348791 0.0637675
0.697032 0.350958 0.0639353
0.71812 0.353964 0.0646525
0.739055 0.356695 0.0653544
0.760266 0.359564 0.0661173
0.782406 0.362615 0.0669413
0.804318 0.365499 0.0679179
0.826932 0.368658 0.0687724
0.85037 0.37203 0.0695964
0.873152 0.375433 0.0706188
0.893874 0.378973 0.0719921
0.914641 0.38233 0.0731975
0.160525 0.401083 0.144945
0.172869 0.401801 0.144747
0.185428 0.402457 0.145068
0.197528 0.402457 0.147234
0.207843 0.401007 0.147601
0.209491 0.392676 0.137728
0.262043 0.380087 0.118593
0.314763 0.370138 0.102205
0.341741 0.351507 0.106004
0.366781 0.332509 0.111025
0.400916 0.336248 0.107683
0.432761 0.338964 0.104875
0.46511 0.346197 0.0996262
0.497322 0.355077 0.0936751
0.527245 0.362264 0.0885481
0.552911 0.367346 0.0838483
0.578515 0.373159 0.0792248
0.600793 0.376761 0.0763561
0.62208 0.380224 0.0734112
0.642817 0.383825 0.0704662
0.662654 0.385382 0.0693065
0.682002 0.386816 0.0681926
0.70193 0.388434 0.0679332
0.722042 0.389792 0.0683909
0.741741 0.39057 0.0685588
0.762905 0.391745 0.0690776
0.784222 0.392935 0.0697032
0.805508 0.394903 0.0703593
0.828595 0.398367 0.0713207
0.851469 0.401801 0.0720531
0.873762 0.404807 0.0728313
0.895079 0.408179 0.0739147
0.916243 0.411551 0.0751202
0.175662 0.43888 0.159152
0.187686 0.439567 0.159197
0.200443 0.440131 0.160479
0.214359 0.440253 0.162875
0.220722 0.43888 0.163378
0.221546 0.431357 0.157702
0.270954 0.420722 0.134493
0.312016 0.410666 0.121965
0.354589 0.397513 0.118013
0.392416 0.387137 0.114763
0.415412 0.376287 0.115267
0.436698 0.364599 0.116518
0.46891 0.37055 0.11249
0.500008 0.376013 0.109285
0.528847 0.384146 0.104616
0.557107 0.394354 0.0987716
0.584237 0.404852 0.0929122
0.606332 0.411322 0.0870069
0.628077 0.41677 0.0816815
0.64828 0.418997 0.0793164
0.667887 0.419944 0.077821
0.687282 0.421897 0.0757763
0.70721 0.423377 0.075227
0.726696 0.424811 0.0744945
0.746487 0.426703 0.0734112
0.767529 0.428 0.07364
0.788418 0.42948 0.0737011
0.809796 0.431113 0.0737316
0.832029 0.432837 0.0742504
0.854154 0.434211 0.0746624
0.875792 0.435935 0.0755016
0.897231 0.438056 0.0763867
0.918807 0.44004 0.0772106
0.190417 0.475517 0.174044
0.202335 0.476493 0.174456
0.21622 0.47718 0.176745
0.231037 0.477531 0.179232
0.235843 0.476249 0.180835
0.243671 0.468544 0.173754
0.263325 0.460472 0.155016
0.314092 0.453925 0.13904
0.377325 0.447822 0.123095
0.408606 0.430243 0.120653
0.425483 0.40943 0.124956
0.449332 0.400153 0.126436
0.478218 0.401312 0.124437
0.504967 0.4009 0.12282
0.533196 0.409979 0.117693
0.560494 0.417655 0.113283
0.585306 0.424811 0.109087
0.608576 0.432425 0.104463
0.631983 0.440528 0.100053
0.652491 0.445411 0.0956893
0.673075 0.450752 0.0907149
0.693187 0.45568 0.0862593
0.712779 0.458289 0.0833753
0.732067 0.461311 0.080293
0.752163 0.462989 0.0786145
0.772473 0.463554 0.078294
0.792401 0.464256 0.0778821
0.814008 0.46479 0.0780499
0.835691 0.465705 0.0782483
0.857282 0.466712 0.0780804
0.878798 0.468803 0.0788739
0.900633 0.470802 0.0796368
0.921492 0.47274 0.0804761
0.204227 0.509972 0.188022
0.216388 0.510674 0.188937
0.230091 0.51136 0.191043
0.242969 0.511147 0.193027
0.250767 0.509926 0.195148
0.25037 0.502907 0.188678
0.244923 0.497688 0.178729
0.320302 0.489799 0.1523
0.389075 0.483085 0.128939
0.418082 0.468849 0.131456
0.448203 0.457237 0.133547
0.470619 0.446769 0.133776
0.488838 0.434287 0.13463
0.510323 0.42884 0.134447
0.536751 0.432502 0.132616
0.562341 0.435218 0.131395
0.587655 0.445609 0.126741
0.613046 0.456352 0.12166
0.636225 0.464836 0.116182
0.656962 0.471733 0.11017
0.677974 0.478828 0.104509
0.698116 0.483177 0.100328
0.717861 0.48716 0.0964065
0.73756 0.491783 0.0920882
0.757778 0.49366 0.0896315
0.777676 0.495857 0.0866712
0.797742 0.497932 0.084123
0.818936 0.499123 0.0834363
0.840009 0.500038 0.0827344
0.861097 0.501289 0.0827955
0.882856 0.502251 0.0833295
0.904326 0.503243 0.0834821
0.920943 0.504555 0.0842451
0.217685 0.543313 0.202243
0.230167 0.543908 0.203601
0.243427 0.544366 0.205112
0.255329 0.544182 0.207218
0.266712 0.543175 0.209827
0.248875 0.537179 0.206714
0.258747 0.531151 0.193545
0.33135 0.522774 0.163317
0.386236 0.515816 0.146136
0.428183 0.509773 0.14107
0.465843 0.502159 0.136477
0.483864 0.485664 0.140993
0.503136 0.471061 0.146944
0.525612 0.467216 0.146563
0.54609 0.462547 0.145281
0.567452 0.461814 0.143206
0.591684 0.468452 0.140017
0.615442 0.473854 0.137102
0.638117 0.482231 0.132448
0.66067 0.491615 0.127596
0.682643 0.50074 0.122866
0.703258 0.508049 0.116365
0.723781 0.515877 0.109285
0.743938 0.522118 0.1028
0.763577 0.526009 0.0975052
0.783017 0.52874 0.0933547
0.803204 0.530007 0.0917983
0.824063 0.5308 0.0910048
0.844404 0.532403 0.0896773
0.865705 0.533257 0.089189
0.887068 0.534005 0.0888533
0.908019 0.535149 0.0880751
0.921294 0.536767 0.0892805
0.22945 0.573312 0.213535
0.242069 0.57435 0.214618
0.255192 0.575158 0.215763
0.267063 0.574884 0.218418
0.279591 0.573526 0.22118
0.265263 0.567742 0.21915
0.28307 0.561105 0.203738
0.313527 0.555215 0.183993
0.368261 0.550561 0.163119
0.431159 0.547082 0.140383
0.472633 0.53843 0.137942
0.500816 0.527993 0.149706
0.525811 0.517525 0.158328
0.539193 0.502754 0.15761
0.550713 0.486229 0.157412
0.572152 0.485313 0.156252
0.595834 0.488304 0.154955
0.618708 0.492912 0.152636
0.641993 0.503288 0.14818
0.664836 0.512596 0.143938
0.686152 0.520821 0.138125
0.707164 0.529076 0.131579
0.727871 0.537438 0.125612
0.748043 0.542779 0.119921
0.768002 0.548486 0.114458
0.787945 0.554253 0.109178
0.808637 0.557168 0.105303
0.829023 0.560494 0.100816
0.849638 0.563378 0.0969253
0.870298 0.564584 0.0955367
0.891081 0.565774 0.093904
0.908736 0.567102 0.0935073
0.92314 0.568673 0.0944228
0.241276 0.603174 0.22385
0.253605 0.604303 0.225055
0.266178 0.604852 0.22681
0.279072 0.604273 0.229847
0.2878 0.602975 0.232166
0.285023 0.597833 0.231647
0.280018 0.591943 0.21944
0.287053 0.587777 0.205432
0.368673 0.583139 0.17142
0.445762 0.57879 0.14078
0.481437 0.571771 0.149676
0.516838 0.566369 0.155871
0.537652 0.553826 0.159655
0.552972 0.540002 0.164813
0.570123 0.52958 0.169268
0.588037 0.524224 0.167651
0.603983 0.51696 0.166293
0.624155 0.519142 0.163821
0.646021 0.524285 0.161349
0.667124 0.528969 0.158938
0.68896 0.538231 0.153964
0.710781 0.547677 0.149767
0.732341 0.556817 0.14461
0.75285 0.565499 0.137346
0.773236 0.574289 0.129747
0.793423 0.579385 0.123537
0.813687 0.583291 0.117739
0.833539 0.587747 0.112154
0.854185 0.589929 0.109041
0.874479 0.591821 0.106126
0.894774 0.594171 0.102403
0.91075 0.595911 0.101808
0.926284 0.597665 0.101625
0.25214 0.631281 0.233509
0.264088 0.631937 0.234424
0.276875 0.632151 0.236957
0.290593 0.632029 0.240131
0.297642 0.630945 0.242283
0.295918 0.625635 0.241367
0.271397 0.620859 0.235004
0.303868 0.615747 0.216251
0.38471 0.608392 0.185428
0.446723 0.603876 0.166018
0.489265 0.602884 0.157244
0.528969 0.601617 0.149279
0.550515 0.59147 0.16228
0.573098 0.582986 0.176974
0.587671 0.570123 0.180133
0.597498 0.554162 0.178668
0.610117 0.542748 0.177661
0.631296 0.545174 0.176318
0.65095 0.545861 0.175418
0.67155 0.550576 0.172854
0.693217 0.55874 0.169635
0.714214 0.565744 0.166659
0.735271 0.574029 0.1608
0.756008 0.582452 0.155169
0.776883 0.590677 0.149615
0.797421 0.597299 0.14258
0.817777 0.604379 0.135332
0.838193 0.611017 0.128176
0.858686 0.614755 0.121981
0.878874 0.619058 0.115206
0.897642 0.622766 0.110048
0.914092 0.625055 0.108598
0.930785 0.627039 0.107454
0.262745 0.658381 0.243412
0.274464 0.658625 0.244282
0.287877 0.659113 0.247425
0.301686 0.65919 0.250584
0.308583 0.658 0.252918
0.299168 0.652873 0.252537
0.269932 0.649332 0.250965
0.324651 0.641596 0.227253
0.3841 0.634134 0.202808
0.437858 0.632868 0.181079
0.49276 0.632731 0.158862
0.532677 0.628672 0.157229
0.560464 0.623148 0.170291
0.586511 0.617502 0.180514
0.599481 0.603967 0.183841
0.613367 0.592126 0.188968
0.628733 0.584421 0.190265
0.643244 0.577707 0.189136
0.656611 0.569818 0.188022
0.677089 0.573922 0.186114
0.696742 0.577081 0.184833
0.716869 0.581735 0.182574
0.738445 0.590738 0.178515
0.759991 0.599863 0.174853
0.78117 0.608957 0.168048
0.801709 0.617639 0.15938
0.822003 0.626108 0.151492
0.842222 0.631571 0.144152
0.862608 0.636378 0.136568
0.88275 0.641779 0.129213
0.900481 0.644892 0.125719
0.917906 0.647822 0.122072
0.935546 0.651255 0.117983
0.27248 0.683726 0.252628
0.284993 0.684291 0.254795
0.298589 0.685008 0.258
0.310323 0.684993 0.261158
0.319432 0.683848 0.264164
0.308248 0.678614 0.263462
0.298299 0.674479 0.258885
0.321691 0.668605 0.241657
0.352148 0.664088 0.223102
0.428077 0.660426 0.191211
0.504356 0.656535 0.15964
0.538613 0.655283 0.167376
0.572488 0.655116 0.17348
0.596033 0.649149 0.181369
0.614038 0.640223 0.192691
0.631495 0.631434 0.203555
0.641596 0.618036 0.201938
0.652094 0.605539 0.20148
0.666896 0.599893 0.201053
0.684855 0.599542 0.199924
0.701289 0.597772 0.198764
0.721523 0.603357 0.195834
0.742489 0.610086 0.193042
0.763058 0.616022 0.190249
0.784085 0.624704 0.183474
0.8047 0.633173 0.177386
0.82533 0.641306 0.171176
0.845869 0.648356 0.162707
0.866438 0.655924 0.153857
0.885954 0.662715 0.146304
0.904356 0.667308 0.139727
0.922789 0.672419 0.132738
0.936812 0.675929 0.129396
0.282246 0.708919 0.262257
0.295308 0.709804 0.264805
0.30898 0.710414 0.26746
0.319493 0.710292 0.270451
0.330251 0.709224 0.27364
0.32079 0.704005 0.273472
0.309255 0.699611 0.267857
0.297169 0.695827 0.258885
0.349828 0.690578 0.233875
0.43917 0.683772 0.20029
0.503731 0.680522 0.180087
0.540734 0.681483 0.171618
0.576532 0.682033 0.161944
0.600336 0.676249 0.179675
0.62504 0.671794 0.198642
0.642618 0.663462 0.208179
0.654932 0.652049 0.211093
0.667857 0.641642 0.215183
0.680812 0.634165 0.213703
0.692332 0.62565 0.212268
0.705745 0.620127 0.210788
0.725948 0.623468 0.209415
0.745586 0.626032 0.208545
0.76582 0.631662 0.205722
0.787366 0.640742 0.201007
0.808301 0.649348 0.196445
0.829099 0.657725 0.188617
0.849699 0.665995 0.180316
0.870054 0.674052 0.172641
0.889052 0.679667 0.165606
0.907912 0.685374 0.158709
0.926482 0.691295 0.151965
0.936019 0.693507 0.152941
0.291859 0.734264 0.270512
0.304997 0.73492 0.272862
0.317815 0.735195 0.275395
0.328939 0.735302 0.278828
0.337255 0.734234 0.281743
0.332845 0.728664 0.282109
0.305745 0.724254 0.277455
0.27892 0.721645 0.273304
0.368902 0.713481 0.243412
0.451591 0.706294 0.216724
0.499123 0.705898 0.189731
0.541527 0.706874 0.160159
0.578012 0.706538 0.158038
0.609339 0.70605 0.183459
0.640543 0.705943 0.208682
0.654322 0.695399 0.214435
0.669123 0.686107 0.22179
0.682017 0.675853 0.225895
0.691661 0.66424 0.224796
0.701686 0.653239 0.224765
0.718303 0.651041 0.224048
0.735546 0.650202 0.223011
0.751446 0.648188 0.221759
0.771969 0.654307 0.21828
0.791852 0.659617 0.215656
0.811643 0.664897 0.212238
0.832609 0.673106 0.205829
0.853391 0.681163 0.199863
0.873442 0.688853 0.193698
0.892653 0.696254 0.186099
0.911711 0.704005 0.17818
0.926513 0.709804 0.173831
0.936187 0.712596 0.173617
0.301762 0.759152 0.279271
0.314916 0.759838 0.281361
0.326955 0.760189 0.284398
0.338979 0.760098 0.28806
0.344793 0.758663 0.290639
0.341527 0.753124 0.291173
0.30399 0.749401 0.289021
0.312886 0.745068 0.278782
0.377264 0.73817 0.256413
0.433707 0.733394 0.232044
0.491539 0.731746 0.19826
0.552178 0.729442 0.165789
0.584314 0.729885 0.176364
0.614176 0.730922 0.18352
0.639002 0.728115 0.193408
0.660182 0.723079 0.210437
0.682826 0.71931 0.230076
0.694804 0.708827 0.233036
0.706706 0.698344 0.235981
0.719219 0.689509 0.238163
0.731731 0.682506 0.23711
0.74284 0.674098 0.236133
0.757931 0.67129 0.234806
0.776761 0.673106 0.233478
0.795026 0.674327 0.232822
0.815656 0.6813 0.228626
0.836561 0.689418 0.224125
0.85716 0.696666 0.22005
0.876677 0.704402 0.212497
0.896132 0.712337 0.205158
0.915419 0.72015 0.198352
0.925978 0.722957 0.198535
0.936553 0.725673 0.19855
0.311955 0.784131 0.288243
0.324681 0.784726 0.290379
0.336706 0.785046 0.294255
0.349508 0.784909 0.298238
0.353475 0.783307 0.300496
0.344701 0.777829 0.300816
0.317418 0.774487 0.300252
0.332219 0.769833 0.287816
0.352789 0.76553 0.273899
0.41561 0.760189 0.247257
0.498146 0.754086 0.216556
0.559869 0.75108 0.194308
0.588144 0.75317 0.179629
0.615686 0.75552 0.160113
0.643641 0.754559 0.186709
0.672297 0.754345 0.2159
0.693507 0.74992 0.233234
0.706996 0.740658 0.239322
0.721965 0.732784 0.248142
0.733394 0.723079 0.249821
0.743786 0.713191 0.249851
0.754574 0.703685 0.250294
0.770687 0.701976 0.248966
0.78558 0.698726 0.247578
0.800809 0.696956 0.245853
0.820844 0.701839 0.24303
0.840528 0.705959 0.24062
0.859815 0.711086 0.23714
0.879561 0.71902 0.231556
0.899382 0.726909 0.226154
0.914992 0.73254 0.22356
0.92636 0.735958 0.223453
0.938048 0.739635 0.223301
0.321981 0.809186 0.297673
0.33431 0.809613 0.300633
0.34699 0.809995 0.304662
0.357519 0.809674 0.308324
0.363455 0.808011 0.311086
0.352255 0.802838 0.311345
0.334249 0.79942 0.310262
0.324941 0.795651 0.301198
0.326177 0.792477 0.291234
0.421347 0.784298 0.261524
0.512047 0.776715 0.233783
0.553307 0.776913 0.209277
0.588205 0.777905 0.185321
0.621271 0.778592 0.180163
0.64892 0.778927 0.195361
0.675914 0.779751 0.206607
0.696056 0.775418 0.222354
0.717052 0.771389 0.24184
0.735851 0.766735 0.257786
0.747173 0.756542 0.260136
0.758846 0.747021 0.263401
0.770397 0.738216 0.264256
0.780835 0.729213 0.262776
0.78996 0.718776 0.261204
0.806332 0.717388 0.260151
0.825345 0.719158 0.259602
0.84361 0.720623 0.258808
0.863767 0.72813 0.254139
0.883604 0.735607 0.249729
0.902922 0.742046 0.24567
0.915282 0.745785 0.244755
0.92781 0.749599 0.24419
0.940246 0.753338 0.243915
0.331853 0.834241 0.307317
0.344518 0.834852 0.310887
0.357717 0.835325 0.314534
0.366552 0.834897 0.317861
0.374472 0.833371 0.321126
0.362676 0.827802 0.321386
0.342382 0.824002 0.318929
0.316228 0.821561 0.314488
0.349172 0.816464 0.298817
0.431525 0.809262 0.27396
0.499107 0.804395 0.249958
0.547799 0.802686 0.222919
0.598474 0.800793 0.196612
0.627268 0.801953 0.192493
0.652934 0.803723 0.186709
0.67834 0.804868 0.192248
0.704448 0.804578 0.222217
0.730419 0.804685 0.25098
0.7458 0.797314 0.260838
0.759472 0.788754 0.267735
0.774105 0.781292 0.276387
0.783658 0.770672 0.275669
0.793591 0.760525 0.275914
0.805402 0.752834 0.27628
0.820844 0.749859 0.274998
0.834714 0.745495 0.273716
0.850324 0.744381 0.271534
0.869139 0.748638 0.268589
0.887694 0.752102 0.266392
0.903288 0.755489 0.265385
0.916716 0.75938 0.265156
0.930251 0.76318 0.264729
0.93901 0.765499 0.266026
0.341741 0.859358 0.315648
0.35491 0.860288 0.319463
0.367529 0.860685 0.323293
0.376165 0.860151 0.326848
0.382727 0.858549 0.330037
0.374426 0.852918 0.330388
0.343557 0.849165 0.328557
0.310979 0.846983 0.327031
0.366369 0.841093 0.308354
0.421637 0.835981 0.290578
0.482399 0.83154 0.265965
0.548287 0.826841 0.239322
0.600763 0.824506 0.217533
0.627634 0.82652 0.201755
0.654536 0.828656 0.184192
0.681437 0.828946 0.201648
0.708064 0.829389 0.222354
0.732372 0.828748 0.239765
0.751736 0.824353 0.256245
0.772122 0.821561 0.274784
0.787549 0.81474 0.284749
0.79852 0.80499 0.287327
0.809873 0.795239 0.290898
0.820859 0.786282 0.290272
0.830411 0.775891 0.288502
0.838682 0.764324 0.287007
0.856886 0.765972 0.286076
0.874937 0.767712 0.285145
0.891752 0.768322 0.284169
0.905928 0.772381 0.283619
0.919844 0.776074 0.283192
0.933059 0.778988 0.283177
0.938796 0.780087 0.284962
0.352346 0.88481 0.325048
0.365759 0.885817 0.329061
0.376654 0.885924 0.332815
0.386252 0.885222 0.336477
0.389715 0.883665 0.339147
0.384161 0.878279 0.339971
0.350149 0.874205 0.338674
0.33901 0.871092 0.334279
0.364279 0.867155 0.321721
0.394583 0.863294 0.308232
0.476402 0.856565 0.282445
0.558175 0.849821 0.257786
0.59733 0.849867 0.232227
0.628244 0.851255 0.205585
0.658335 0.852232 0.192248
0.685176 0.853208 0.203311
0.711604 0.854353 0.211246
0.736278 0.85452 0.232486
0.760998 0.854505 0.258366
0.784573 0.854276 0.281987
0.796979 0.845075 0.287221
0.810895 0.83711 0.294942
0.824109 0.829068 0.301625
0.833768 0.818463 0.30161
0.843687 0.808225 0.302296
