LUT预设1/iPhone 专用lut-合集1/iPhone 标准版合集1(REC709)/中性电影film-709.cube
TITLE "Generated by Resolve"
LUT_3D_SIZE 9
0.0540017 0.0707866 0.078233
0.173449 0.0737469 0.0723583
0.362982 0.0873274 0.0556954
0.490349 0.109331 0.058732
0.592218 0.13315 0.0644083
0.681056 0.147173 0.0680552
0.769589 0.16611 0.0757458
0.861433 0.189364 0.0843061
0.939605 0.206027 0.088426
0.0815137 0.191897 0.0876326
0.160815 0.182681 0.086717
0.372168 0.187167 0.0673533
0.494102 0.200839 0.0641794
0.588647 0.216388 0.0676738
0.676051 0.232074 0.072221
0.764599 0.249561 0.0758526
0.858457 0.269429 0.0814069
0.934142 0.286473 0.0896162
0.144427 0.361837 0.130938
0.189151 0.362158 0.13283
0.329854 0.310857 0.0988174
0.46482 0.319722 0.0855879
0.573938 0.342107 0.0673838
0.657374 0.346899 0.063386
0.739055 0.356695 0.0653544
0.826932 0.368658 0.0687724
0.914641 0.38233 0.0731975
0.204227 0.509972 0.188022
0.250767 0.509926 0.195148
0.389075 0.483085 0.128939
0.488838 0.434287 0.13463
0.587655 0.445609 0.126741
0.677974 0.478828 0.104509
0.757778 0.49366 0.0896315
0.840009 0.500038 0.0827344
0.920943 0.504555 0.0842451
0.25214 0.631281 0.233509
0.297642 0.630945 0.242283
0.38471 0.608392 0.185428
0.550515 0.59147 0.16228
0.610117 0.542748 0.177661
0.693217 0.55874 0.169635
0.776883 0.590677 0.149615
0.858686 0.614755 0.121981
0.930785 0.627039 0.107454
0.291859 0.734264 0.270512
0.337255 0.734234 0.281743
0.368902 0.713481 0.243412
0.578012 0.706538 0.158038
0.669123 0.686107 0.22179
0.718303 0.651041 0.224048
0.791852 0.659617 0.215656
0.873442 0.688853 0.193698
0.936187 0.712596 0.173617
0.331853 0.834241 0.307317
0.374472 0.833371 0.321126
0.349172 0.816464 0.298817
0.598474 0.800793 0.196612
0.704448 0.804578 0.222217
0.774105 0.781292 0.276387
0.820844 0.749859 0.274998
0.887694 0.752102 0.266392
0.93901 0.765499 0.266026
0.372793 0.921798 0.344121
0.407019 0.920272 0.358907
0.328695 0.911925 0.350256
0.592889 0.897948 0.269657
0.714244 0.902724 0.203738
0.813947 0.901839 0.291066
0.872251 0.872801 0.329458
0.911254 0.837552 0.326284
0.945571 0.831983 0.327855
0.389105 0.958938 0.355917
0.414984 0.958312 0.373983
0.35346 0.956481 0.365545
0.614862 0.947341 0.288701
0.734218 0.958984 0.183124
0.833509 0.959808 0.30692
0.893889 0.925383 0.353399
0.923491 0.878447 0.347784
0.946212 0.871839 0.348806
0.0664683 0.107362 0.187991
0.14667 0.0800488 0.197223
0.351781 0.0656748 0.170336
0.498497 0.0769207 0.148287
0.610056 0.0886244 0.133181
0.698863 0.111543 0.139788
0.784314 0.132143 0.145159
0.870878 0.155871 0.150561
0.94078 0.176028 0.15935
0.0595865 0.200916 0.206241
0.160693 0.20473 0.215076
0.372839 0.197482 0.168124
0.499443 0.213519 0.167559
0.599313 0.229206 0.170245
0.686656 0.250202 0.178042
0.773602 0.274739 0.19057
0.86482 0.292027 0.195926
0.936584 0.30808 0.204395
0.117021 0.360388 0.165682
0.170062 0.362493 0.163333
0.329458 0.332753 0.178927
0.468727 0.334401 0.169329
0.570077 0.340291 0.152926
0.654169 0.349325 0.153765
0.73872 0.363256 0.158495
0.829313 0.379507 0.165621
0.917983 0.396841 0.173327
0.181033 0.508171 0.177539
0.237903 0.50985 0.178729
0.338125 0.491325 0.187533
0.490181 0.456306 0.225101
0.591455 0.470466 0.212314
0.675853 0.486244 0.191012
0.75436 0.491768 0.180713
0.837842 0.494911 0.177111
0.920714 0.502998 0.180591
0.230243 0.628946 0.207584
0.284688 0.630228 0.224094
0.330205 0.616327 0.234424
0.539376 0.602686 0.237903
0.617105 0.568353 0.270878
0.696651 0.581399 0.259251
0.77789 0.605203 0.237522
0.85922 0.618814 0.214572
0.933761 0.623377 0.208957
0.269688 0.731594 0.2421
0.323049 0.732326 0.264515
0.333074 0.720546 0.28307
0.560525 0.707652 0.217212
0.667521 0.69929 0.305776
0.723476 0.671214 0.317143
0.795392 0.678096 0.306981
0.876524 0.705028 0.2822
0.937926 0.723476 0.263172
0.308232 0.831128 0.264973
0.362203 0.832944 0.306966
0.328618 0.82118 0.329854
0.580423 0.802136 0.253117
0.690684 0.807172 0.287953
0.773159 0.793805 0.359182
0.823774 0.765454 0.365347
0.891173 0.768612 0.357366
0.94168 0.783566 0.356435
0.349172 0.920195 0.292454
0.394354 0.920531 0.336721
0.319509 0.91426 0.367636
0.551446 0.903868 0.317586
0.702953 0.902388 0.26099
0.802762 0.905226 0.358251
0.871855 0.884596 0.411719
0.913848 0.852186 0.415732
0.947814 0.846586 0.41976
0.364477 0.958358 0.286702
0.400824 0.958389 0.33521
0.328237 0.957397 0.378241
0.567864 0.950881 0.330648
0.722667 0.955245 0.240742
0.821714 0.960449 0.372915
0.896727 0.938827 0.440177
0.925307 0.892576 0.439048
0.947356 0.886015 0.44152
0.0978103 0.177981 0.353994
0.151278 0.129763 0.363821
0.352605 0.0658885 0.379141
0.501183 0.0697185 0.379751
0.614191 0.0761273 0.367819
0.707012 0.0851453 0.355322
0.793088 0.0956283 0.343801
0.875746 0.105531 0.332418
0.940856 0.116777 0.329213
0.0928054 0.268223 0.378576
0.180804 0.267872 0.373785
0.351873 0.193072 0.381079
0.506859 0.195148 0.375906
0.617853 0.203525 0.359976
0.707668 0.211902 0.344945
0.790936 0.224781 0.335744
0.873976 0.241596 0.331212
0.940139 0.252796 0.329519
0.0564126 0.363745 0.362737
0.141039 0.367025 0.364996
0.322362 0.3579 0.364004
0.467857 0.348394 0.332189
0.575235 0.361089 0.320531
0.663157 0.373327 0.324834
0.747539 0.389197 0.330861
0.834913 0.413687 0.342992
0.91989 0.438514 0.35819
0.101274 0.501884 0.37499
0.156283 0.50219 0.372915
0.35053 0.488106 0.403174
0.482612 0.485496 0.395132
0.583597 0.476738 0.352117
0.66508 0.481209 0.337942
0.747127 0.48957 0.338659
0.837263 0.503395 0.346731
0.920913 0.520272 0.356527
0.155688 0.621088 0.388998
0.203449 0.622507 0.382162
0.325582 0.612665 0.372793
0.510918 0.609094 0.394995
0.616876 0.597467 0.423651
0.69424 0.59884 0.403159
0.77171 0.607691 0.381903
0.85391 0.610285 0.371664
0.935622 0.618143 0.376181
0.197009 0.723308 0.404044
0.245579 0.723995 0.391806
0.304311 0.719097 0.337148
0.518578 0.711437 0.335668
0.6542 0.709514 0.432441
0.725063 0.692927 0.458106
0.796887 0.697932 0.4495
0.87689 0.71722 0.425528
0.940017 0.724788 0.419547
0.237156 0.823224 0.420386
0.288457 0.822919 0.400549
0.307805 0.818128 0.328023
0.524346 0.8094 0.307485
0.666758 0.807492 0.398154
0.7626 0.803891 0.482155
0.825116 0.784649 0.500252
0.893538 0.78941 0.494301
0.945235 0.807187 0.491585
0.278996 0.916899 0.436057
0.328771 0.918593 0.408133
0.30663 0.913069 0.316609
0.521614 0.905638 0.29424
0.675517 0.900877 0.344091
0.781094 0.904585 0.462974
0.865293 0.895811 0.530861
0.915831 0.870329 0.544244
0.949737 0.865064 0.549798
0.291112 0.960067 0.46363
0.332341 0.959869 0.435584
0.316762 0.957763 0.355688
0.542458 0.950881 0.293935
0.696925 0.949248 0.345434
0.804501 0.956558 0.476844
0.892607 0.951995 0.558877
0.927626 0.911864 0.567452
0.950347 0.905135 0.570871
0.122286 0.233738 0.472465
0.168536 0.188479 0.475883
0.356054 0.0690471 0.50457
0.506813 0.0729992 0.512871
0.618341 0.0807965 0.520912
0.710475 0.0895552 0.520623
0.795941 0.0991073 0.515526
0.878065 0.108904 0.507088
0.940826 0.120943 0.503532
0.118364 0.327657 0.496529
0.203128 0.322606 0.49163
0.347875 0.208682 0.502007
0.510307 0.198825 0.515557
0.62211 0.206287 0.519295
0.711131 0.215015 0.51635
0.79675 0.225315 0.504768
0.878355 0.237964 0.491188
0.941451 0.249744 0.487282
0.0783551 0.400076 0.4869
0.163836 0.40589 0.485588
0.32459 0.391485 0.463264
0.440574 0.376898 0.472389
0.585016 0.366125 0.480446
0.682933 0.374395 0.468376
0.766629 0.386465 0.459281
0.848081 0.402441 0.454429
0.925032 0.414496 0.451087
0.0543526 0.507256 0.503395
0.149187 0.505989 0.502449
0.372717 0.499397 0.506905
0.481773 0.505425 0.51017
0.584527 0.498711 0.486824
0.675013 0.498604 0.473167
0.758419 0.51281 0.476173
0.845319 0.538643 0.491234
0.923583 0.548547 0.493507
0.0896162 0.620935 0.521874
0.158282 0.62034 0.520729
0.381643 0.608881 0.526085
0.522148 0.609598 0.558328
0.60853 0.609461 0.537545
0.690257 0.605295 0.509544
0.767727 0.609079 0.49752
0.85568 0.618647 0.500587
0.937743 0.632578 0.508034
0.135256 0.721279 0.542535
0.176654 0.720714 0.539605
0.35021 0.715282 0.52015
0.513191 0.714794 0.517281
0.639704 0.71284 0.53753
0.723751 0.70695 0.556817
0.797421 0.709743 0.549233
0.877379 0.718975 0.533043
0.942016 0.724712 0.534798
0.180529 0.820294 0.562951
0.212299 0.820005 0.557351
0.347295 0.81445 0.530831
0.505684 0.816556 0.503594
0.650172 0.811856 0.507332
0.754253 0.809476 0.564675
0.826291 0.798291 0.593011
0.896086 0.804654 0.588434
0.948409 0.820294 0.584497
0.228138 0.916991 0.57911
0.261723 0.91812 0.570596
0.335439 0.913893 0.533349
0.504646 0.914473 0.50454
0.648051 0.907744 0.49247
0.772 0.904723 0.542138
0.859907 0.902419 0.610086
0.917967 0.883558 0.63061
0.950561 0.879179 0.637308
0.239246 0.961273 0.601267
0.255467 0.961654 0.590585
0.366018 0.959838 0.551156
0.52607 0.959945 0.519661
0.664576 0.9561 0.5084
0.794125 0.95349 0.557321
0.884352 0.953841 0.634714
0.930251 0.923964 0.652155
0.953841 0.917296 0.656382
0.143175 0.281758 0.570657
0.189914 0.240284 0.569116
0.338857 0.0810101 0.601007
0.511788 0.0770886 0.611078
0.622477 0.0840925 0.619913
0.71458 0.0929427 0.629236
0.800214 0.102861 0.634318
0.882277 0.113512 0.633143
0.942504 0.124697 0.635004
0.140093 0.374929 0.591836
0.223102 0.368078 0.586892
0.333028 0.237018 0.591592
0.513756 0.203281 0.61416
0.625834 0.210452 0.622904
0.715007 0.218585 0.628107
0.800839 0.230015 0.629648
0.881849 0.241581 0.62501
0.944183 0.253056 0.622049
0.0993362 0.44506 0.584329
0.190433 0.45153 0.582422
0.348745 0.436011 0.55935
0.454612 0.385763 0.568994
0.581369 0.37406 0.589044
0.687312 0.378958 0.596063
0.773144 0.388663 0.590539
0.854398 0.399924 0.579416
0.927825 0.410651 0.568002
0.0755169 0.527367 0.601816
0.171908 0.530541 0.601587
0.372259 0.527276 0.587335
0.482338 0.529305 0.580621
0.567559 0.524681 0.589822
0.686015 0.51574 0.599908
0.777127 0.522148 0.588113
0.857877 0.532738 0.582361
0.92723 0.543313 0.581506
0.0545663 0.624811 0.619608
0.173175 0.623743 0.618875
0.393545 0.61474 0.614496
0.532128 0.62034 0.625483
0.611246 0.62475 0.626291
0.694438 0.618738 0.611017
0.776455 0.624842 0.605142
0.863462 0.639826 0.610346
0.938689 0.651652 0.614878
0.0858625 0.72314 0.638682
0.188815 0.721721 0.637217
0.390448 0.713497 0.628672
0.536126 0.713222 0.638666
0.636103 0.716945 0.652781
0.719997 0.716289 0.647639
0.794553 0.716243 0.633936
0.878187 0.722896 0.630884
0.944549 0.73402 0.637125
0.132296 0.820935 0.658351
0.193927 0.819516 0.655894
0.39675 0.8121 0.643122
0.527535 0.815518 0.634058
0.634256 0.818586 0.626474
0.74519 0.815457 0.642451
0.826871 0.808484 0.671656
0.90071 0.818112 0.668116
0.951461 0.825071 0.669184
0.184085 0.918608 0.677073
0.203037 0.918303 0.672786
0.395438 0.911574 0.654185
0.527626 0.912398 0.639582
0.636927 0.91252 0.623972
0.756115 0.909346 0.626078
0.856489 0.907805 0.678752
0.919982 0.894255 0.70721
0.952193 0.892149 0.714015
0.192447 0.962615 0.698482
0.215106 0.963317 0.692912
0.421622 0.96173 0.672465
0.547524 0.961898 0.655863
0.654139 0.95964 0.640879
0.775677 0.954986 0.642573
0.880873 0.953567 0.700084
0.931823 0.935393 0.727382
0.956008 0.930495 0.732143
0.161807 0.32401 0.654353
0.20795 0.278264 0.648463
0.302617 0.108705 0.67219
0.517006 0.0819867 0.696895
0.626917 0.088716 0.703578
0.718486 0.0970321 0.712093
0.804288 0.106508 0.721263
0.886336 0.116762 0.728771
0.945129 0.127077 0.735759
0.158755 0.414694 0.673579
0.241794 0.406897 0.667887
0.308156 0.276417 0.661524
0.506645 0.210971 0.695949
0.62945 0.214496 0.704936
0.719127 0.223896 0.712673
0.804395 0.234394 0.720714
0.885756 0.244907 0.724758
0.94522 0.256443 0.728969
0.117754 0.484749 0.666087
0.214038 0.490684 0.663706
0.374441 0.484276 0.648646
0.458351 0.402564 0.656825
0.594507 0.375921 0.677394
0.693141 0.38349 0.687053
0.776547 0.393133 0.692119
0.858488 0.403998 0.688792
0.929274 0.415183 0.68336
0.0981918 0.559136 0.683558
0.199268 0.563851 0.681743
0.387717 0.56437 0.66949
0.503044 0.557946 0.662776
0.587076 0.529107 0.671427
0.689586 0.520653 0.689006
0.78291 0.526131 0.692653
0.864393 0.534859 0.68513
0.930724 0.544015 0.678096
0.0780804 0.638865 0.702861
0.192309 0.640055 0.701213
0.394003 0.636362 0.692164
0.535622 0.641901 0.691295
0.614145 0.641123 0.689891
0.688563 0.639658 0.699855
0.79321 0.635248 0.699794
0.873945 0.642481 0.694636
0.939376 0.651225 0.692683
0.0740215 0.727565 0.721706
0.203555 0.726085 0.720546
0.406043 0.717266 0.712215
0.54548 0.719966 0.714565
0.644511 0.724727 0.722835
0.72018 0.727947 0.727718
0.797238 0.725612 0.718364
0.885145 0.737118 0.720073
0.947967 0.746883 0.724117
0.0987411 0.823041 0.741527
0.220981 0.82092 0.739147
0.425788 0.812619 0.730419
0.552499 0.814054 0.730434
0.648951 0.818204 0.730632
0.739605 0.821469 0.735759
0.827527 0.819821 0.750805
0.902159 0.824292 0.747158
0.953613 0.833906 0.753292
0.137621 0.920027 0.761334
0.225376 0.916899 0.759228
0.43386 0.909148 0.747539
0.557 0.909331 0.743557
0.651423 0.912932 0.738933
0.74435 0.915343 0.731975
0.848936 0.914961 0.751537
0.922957 0.90486 0.781888
0.953689 0.904936 0.786603
0.138857 0.964111 0.783505
0.260182 0.965194 0.780484
0.459998 0.9635 0.767422
0.577142 0.961898 0.76202
0.669841 0.960388 0.757
0.761303 0.959472 0.749142
0.872053 0.955779 0.767987
0.933928 0.943969 0.800198
0.959869 0.942443 0.807996
0.179614 0.363561 0.731975
0.227192 0.319936 0.725109
0.295689 0.155261 0.739925
0.514458 0.0885634 0.775311
0.632227 0.0936141 0.784543
0.722499 0.101595 0.792706
0.808728 0.11104 0.801694
0.890196 0.120867 0.811322
0.948547 0.131014 0.822568
0.177844 0.452522 0.750439
0.261662 0.445258 0.745129
0.314061 0.33727 0.729381
0.489494 0.223713 0.769894
0.632715 0.220188 0.785946
0.72253 0.229328 0.792935
0.808377 0.239277 0.801556
0.890013 0.248936 0.810437
0.947158 0.260471 0.818891
0.139132 0.521996 0.741726
0.236744 0.527092 0.738979
0.389746 0.518151 0.723339
0.442039 0.440192 0.722911
0.586831 0.384649 0.753323
0.696971 0.388891 0.76643
0.780621 0.398291 0.773831
0.862089 0.408286 0.780118
0.930907 0.419211 0.785336
0.12314 0.592401 0.759274
0.227558 0.596872 0.756725
0.40705 0.597879 0.744503
0.516457 0.592844 0.740749
0.585107 0.543023 0.749035
0.697383 0.523293 0.770809
0.786969 0.530251 0.780056
0.867567 0.538003 0.782422
0.933516 0.547005 0.782437
0.108797 0.663279 0.780072
0.220981 0.665888 0.777981
0.414099 0.665141 0.76704
0.545602 0.673289 0.766354
0.631235 0.668513 0.766125
0.700969 0.642771 0.776455
0.798169 0.638926 0.790616
0.879118 0.644862 0.791775
0.940429 0.651942 0.789395
0.0959487 0.740673 0.801801
0.22237 0.74023 0.799741
0.423484 0.734951 0.789837
0.555535 0.739971 0.790173
0.653803 0.745663 0.79263
0.727565 0.746792 0.793744
0.804959 0.736934 0.803021
0.893278 0.740108 0.804883
0.948547 0.74786 0.806134
0.0975662 0.82829 0.822507
0.235981 0.826185 0.821057
0.439078 0.817288 0.81178
0.567315 0.818799 0.812299
0.66479 0.823774 0.815213
0.748623 0.827283 0.820356
0.824338 0.829847 0.828901
0.906142 0.836439 0.830014
0.95465 0.842466 0.834211
0.116121 0.921324 0.844099
0.258808 0.918013 0.841276
0.460014 0.90956 0.832074
0.581842 0.909529 0.831952
0.673671 0.912627 0.83331
0.757336 0.91693 0.832822
0.845502 0.920501 0.836591
0.925338 0.917693 0.855283
0.956313 0.919524 0.860761
0.136294 0.965316 0.865934
0.28986 0.965194 0.86305
0.486381 0.963577 0.852522
0.605386 0.961471 0.852644
0.694469 0.960433 0.854795
0.776516 0.960403 0.854109
0.866651 0.960372 0.858488
0.93489 0.95433 0.874052
0.961868 0.955077 0.881636
0.197436 0.403174 0.809934
0.246357 0.359762 0.801556
0.283421 0.206043 0.806485
0.484901 0.103716 0.848829
0.637293 0.0985275 0.864179
0.726589 0.106645 0.872038
0.8121 0.116136 0.881086
0.894469 0.125231 0.891585
0.952361 0.134844 0.902419
0.199268 0.4916 0.827558
0.283207 0.484443 0.821942
0.331807 0.388586 0.803143
0.445121 0.242069 0.838392
0.628046 0.226871 0.863188
0.726894 0.234653 0.872496
0.81239 0.244358 0.880934
0.894041 0.253849 0.890974
0.949844 0.266361 0.898436
0.164187 0.55935 0.8168
0.261402 0.562783 0.813031
0.403906 0.551202 0.797314
0.449683 0.495338 0.791043
0.563378 0.406561 0.821225
0.697673 0.394949 0.844739
0.784451 0.40322 0.852567
0.865156 0.413443 0.86038
0.933227 0.423499 0.869322
0.153155 0.627146 0.834379
0.259113 0.631388 0.831327
0.428794 0.631815 0.818555
0.531594 0.628626 0.81413
0.584741 0.58381 0.816693
0.686519 0.534051 0.843824
0.790249 0.534112 0.858381
0.870741 0.542107 0.865644
0.938537 0.55111 0.874113
0.142733 0.693721 0.856062
0.256596 0.697658 0.853483
0.439216 0.698329 0.841443
0.562371 0.705776 0.839643
0.64506 0.705211 0.83917
0.69987 0.667338 0.847349
0.797925 0.644175 0.868864
0.882017 0.648051 0.877394
0.942275 0.655192 0.884184
0.130816 0.763607 0.878935
0.254856 0.76495 0.876661
0.446677 0.762951 0.865431
0.573388 0.769818 0.864515
0.667048 0.77673 0.865263
0.744717 0.781048 0.866331
0.808652 0.746685 0.879744
0.89688 0.742916 0.892958
0.949859 0.748913 0.899657
0.118807 0.84007 0.899641
0.254856 0.839551 0.897719
0.455787 0.833188 0.888869
0.581537 0.836667 0.889128
0.677485 0.843046 0.891936
0.761273 0.84918 0.894865
0.839368 0.850828 0.896635
0.909651 0.838087 0.906798
0.95639 0.843473 0.914351
0.119478 0.923384 0.916762
0.268559 0.92134 0.914656
0.470573 0.913024 0.90695
0.593408 0.914168 0.90808
0.6878 0.91754 0.911482
0.77232 0.921767 0.915892
0.854398 0.925429 0.922255
0.92549 0.927062 0.923186
0.957809 0.928618 0.928084
0.146593 0.965301 0.938262
0.298634 0.965164 0.93608
0.497185 0.962905 0.928588
0.616342 0.961242 0.926558
0.707317 0.960662 0.927382
0.791485 0.961059 0.928878
0.872724 0.962509 0.932418
0.940108 0.963958 0.939681
0.964523 0.964614 0.943969
0.213657 0.435233 0.877913
0.262638 0.394049 0.868513
0.28716 0.254383 0.865614
0.452552 0.123461 0.910155
0.637324 0.10515 0.936065
0.731441 0.111711 0.939269
0.816373 0.120684 0.941985
0.89897 0.130144 0.947799
0.951095 0.139742 0.952331
0.218662 0.523171 0.894362
0.30457 0.519509 0.892058
0.349065 0.432792 0.872541
0.400534 0.274357 0.890288
0.616098 0.235676 0.925505
0.730953 0.240314 0.936645
0.81593 0.249485 0.945144
0.895918 0.260395 0.94789
0.950134 0.272007 0.951186
0.190723 0.594827 0.889357
0.287022 0.597498 0.885649
0.420737 0.585229 0.869581
0.467094 0.537179 0.86154
0.535622 0.434867 0.881025
0.686656 0.402426 0.914885
0.787671 0.408423 0.927047
0.868452 0.417914 0.929137
0.93431 0.42884 0.934462
0.181247 0.657313 0.902113
0.287739 0.662776 0.899947
0.449332 0.663355 0.888273
0.54725 0.661433 0.884001
0.592203 0.622614 0.883253
0.667842 0.550042 0.903883
0.790463 0.539117 0.925124
0.874403 0.546517 0.93344
0.940673 0.555566 0.942458
0.171496 0.71986 0.920684
0.284794 0.723293 0.916625
0.460349 0.725994 0.906142
0.576181 0.732296 0.903243
0.657755 0.7337 0.902937
0.698894 0.692393 0.908568
0.792798 0.650477 0.932723
0.885298 0.651698 0.940703
0.943618 0.658518 0.94406
0.156558 0.782666 0.938857
0.280186 0.785687 0.93608
0.46836 0.788434 0.928756
0.587961 0.79443 0.925917
0.678096 0.799817 0.923629
0.74931 0.796536 0.92163
0.8103 0.758144 0.933501
0.900664 0.746288 0.949691
0.949554 0.751995 0.95137
0.132143 0.848234 0.949493
0.267567 0.848463 0.948257
0.468727 0.845609 0.942519
0.591913 0.851194 0.942687
0.686336 0.857603 0.942824
0.769268 0.86482 0.942214
0.844373 0.860761 0.944259
0.912535 0.843122 0.954543
0.958236 0.84683 0.960189
0.124422 0.926345 0.953964
0.274815 0.924437 0.95433
0.477073 0.917327 0.952804
0.598871 0.918441 0.954574
0.692988 0.921767 0.956863
0.777707 0.925277 0.959091
0.858961 0.928313 0.95787
0.928054 0.930068 0.95761
0.959213 0.931685 0.959899
0.150622 0.965316 0.96144
0.303563 0.964981 0.961181
0.501701 0.962509 0.95964
0.61825 0.961242 0.958709
0.710842 0.961074 0.958907
0.795987 0.961898 0.960327
0.876539 0.963775 0.963088
0.943618 0.964706 0.964614
0.964569 0.964691 0.964508
