LUT预设1/iPhone 专用lut-合集1/iPhone 标准版合集1(REC709)/中性电影film-709.cube
TITLE "Generated by Resolve"
LUT_3D_SIZE 5
0.0540017 0.0707866 0.078233
0.362982 0.0873274 0.0556954
0.592218 0.13315 0.0644083
0.769589 0.16611 0.0757458
0.939605 0.206027 0.088426
0.144427 0.361837 0.130938
0.329854 0.310857 0.0988174
0.573938 0.342107 0.0673838
0.739055 0.356695 0.0653544
0.914641 0.38233 0.0731975
0.25214 0.631281 0.233509
0.38471 0.608392 0.185428
0.610117 0.542748 0.177661
0.776883 0.590677 0.149615
0.930785 0.627039 0.107454
0.331853 0.834241 0.307317
0.349172 0.816464 0.298817
0.704448 0.804578 0.222217
0.820844 0.749859 0.274998
0.93901 0.765499 0.266026
0.389105 0.958938 0.355917
0.35346 0.956481 0.365545
0.734218 0.958984 0.183124
0.893889 0.925383 0.353399
0.946212 0.871839 0.348806
0.0978103 0.177981 0.353994
0.352605 0.0658885 0.379141
0.614191 0.0761273 0.367819
0.793088 0.0956283 0.343801
0.940856 0.116777 0.329213
0.0564126 0.363745 0.362737
0.322362 0.3579 0.364004
0.575235 0.361089 0.320531
0.747539 0.389197 0.330861
0.91989 0.438514 0.35819
0.155688 0.621088 0.388998
0.325582 0.612665 0.372793
0.616876 0.597467 0.423651
0.77171 0.607691 0.381903
0.935622 0.618143 0.376181
0.237156 0.823224 0.420386
0.307805 0.818128 0.328023
0.666758 0.807492 0.398154
0.825116 0.784649 0.500252
0.945235 0.807187 0.491585
0.291112 0.960067 0.46363
0.316762 0.957763 0.355688
0.696925 0.949248 0.345434
0.892607 0.951995 0.558877
0.950347 0.905135 0.570871
0.143175 0.281758 0.570657
0.338857 0.0810101 0.601007
0.622477 0.0840925 0.619913
0.800214 0.102861 0.634318
0.942504 0.124697 0.635004
0.0993362 0.44506 0.584329
0.348745 0.436011 0.55935
0.581369 0.37406 0.589044
0.773144 0.388663 0.590539
0.927825 0.410651 0.568002
0.0545663 0.624811 0.619608
0.393545 0.61474 0.614496
0.611246 0.62475 0.626291
0.776455 0.624842 0.605142
0.938689 0.651652 0.614878
0.132296 0.820935 0.658351
0.39675 0.8121 0.643122
0.634256 0.818586 0.626474
0.826871 0.808484 0.671656
0.951461 0.825071 0.669184
0.192447 0.962615 0.698482
0.421622 0.96173 0.672465
0.654139 0.95964 0.640879
0.880873 0.953567 0.700084
0.956008 0.930495 0.732143
0.179614 0.363561 0.731975
0.295689 0.155261 0.739925
0.632227 0.0936141 0.784543
0.808728 0.11104 0.801694
0.948547 0.131014 0.822568
0.139132 0.521996 0.741726
0.389746 0.518151 0.723339
0.586831 0.384649 0.753323
0.780621 0.398291 0.773831
0.930907 0.419211 0.785336
0.108797 0.663279 0.780072
0.414099 0.665141 0.76704
0.631235 0.668513 0.766125
0.798169 0.638926 0.790616
0.940429 0.651942 0.789395
0.0975662 0.82829 0.822507
0.439078 0.817288 0.81178
0.66479 0.823774 0.815213
0.824338 0.829847 0.828901
0.95465 0.842466 0.834211
0.136294 0.965316 0.865934
0.486381 0.963577 0.852522
0.694469 0.960433 0.854795
0.866651 0.960372 0.858488
0.961868 0.955077 0.881636
0.213657 0.435233 0.877913
0.28716 0.254383 0.865614
0.637324 0.10515 0.936065
0.816373 0.120684 0.941985
0.951095 0.139742 0.952331
0.190723 0.594827 0.889357
0.420737 0.585229 0.869581
0.535622 0.434867 0.881025
0.787671 0.408423 0.927047
0.93431 0.42884 0.934462
0.171496 0.71986 0.920684
0.460349 0.725994 0.906142
0.657755 0.7337 0.902937
0.792798 0.650477 0.932723
0.943618 0.658518 0.94406
0.132143 0.848234 0.949493
0.468727 0.845609 0.942519
0.686336 0.857603 0.942824
0.844373 0.860761 0.944259
0.958236 0.84683 0.960189
0.150622 0.965316 0.96144
0.501701 0.962509 0.95964
0.710842 0.961074 0.958907
0.876539 0.963775 0.963088
0.964569 0.964691 0.964508
