LUT预设1/iPhone 专用lut-合集1/iPhone 标准版合集1(REC709)/复古vintage-709.cube
TITLE "Generated by Resolve"
LUT_3D_SIZE 5
0.0896162 0.0688334 0.0752575
0.345937 0.0906386 0.0791028
0.685802 0.0981765 0.0929427
0.855467 0.078706 0.115099
0.970932 0.0508583 0.127779
0.183352 0.274144 0.129549
0.486305 0.315282 0.125032
0.742016 0.301442 0.103182
0.862669 0.289204 0.100206
0.955306 0.267964 0.0986954
0.503746 0.652079 0.298756
0.690242 0.702556 0.331289
0.836576 0.717571 0.31722
0.928038 0.709575 0.282887
0.997467 0.699809 0.257588
0.644007 0.828855 0.406485
0.757839 0.846799 0.425223
0.856062 0.854429 0.423117
0.940734 0.85658 0.407889
0.999985 0.856016 0.393484
0.705028 0.939986 0.466529
0.783886 0.949706 0.47808
0.86688 0.95671 0.480308
0.946899 0.960403 0.476112
0.999725 0.961715 0.473899
0.0732128 0.0819104 0.246571
0.270848 0.104662 0.256779
0.645701 0.129458 0.266361
0.835508 0.10753 0.264637
0.958526 0.0755474 0.270634
0.123339 0.288701 0.343313
0.375326 0.357794 0.380652
0.71873 0.370474 0.353735
0.853681 0.336751 0.317189
0.950103 0.298192 0.291279
0.403159 0.669917 0.547112
0.624826 0.725124 0.581857
0.812848 0.747265 0.571267
0.916121 0.739422 0.527581
0.996658 0.728176 0.487098
0.586786 0.842054 0.627146
0.716655 0.862013 0.640894
0.835172 0.871626 0.640406
0.926772 0.874174 0.630976
0.997925 0.873228 0.615808
0.668879 0.953399 0.66041
0.755352 0.962982 0.670192
0.848096 0.969619 0.672358
0.93431 0.974014 0.671794
0.999161 0.975464 0.667613
0.0931411 0.100343 0.484672
0.22649 0.114504 0.50016
0.564462 0.193469 0.572076
0.778927 0.225834 0.594339
0.88893 0.204685 0.578424
0.128649 0.306462 0.583947
0.293904 0.370703 0.626093
0.653696 0.481819 0.692744
0.829206 0.513085 0.706035
0.925429 0.493034 0.69691
0.337331 0.676875 0.735027
0.565576 0.733364 0.762951
0.769574 0.768322 0.779522
0.889601 0.773236 0.777798
0.981811 0.769604 0.771054
0.530694 0.843503 0.77879
0.676997 0.868025 0.793317
0.807141 0.881712 0.800366
0.908141 0.886168 0.800748
0.99527 0.886946 0.797894
0.637385 0.958648 0.798642
0.728191 0.970459 0.807691
0.8271 0.977584 0.811582
0.919005 0.981613 0.812528
0.996353 0.983764 0.812329
0.110582 0.111177 0.648341
0.229007 0.122499 0.664347
0.507439 0.186664 0.724865
0.775204 0.25713 0.780133
0.890486 0.256306 0.790539
0.13904 0.320974 0.725795
0.285115 0.378393 0.757305
0.609903 0.480674 0.811734
0.826383 0.543435 0.841093
0.931182 0.54612 0.846479
0.31548 0.678737 0.842863
0.539071 0.731914 0.865141
0.749432 0.769436 0.882612
0.878721 0.778912 0.887236
0.97351 0.781155 0.889067
0.497566 0.84181 0.878248
0.655283 0.866987 0.890303
0.793423 0.883238 0.899626
0.89865 0.889097 0.903029
0.988388 0.8916 0.904616
0.61474 0.958129 0.894743
0.713405 0.971222 0.903655
0.816175 0.97995 0.909621
0.911131 0.985046 0.91284
0.995926 0.987182 0.914
0.122805 0.12137 0.764996
0.235126 0.132494 0.780468
0.481987 0.18558 0.828092
0.76762 0.262226 0.881971
0.890791 0.269383 0.897902
0.153063 0.343816 0.836347
0.294408 0.401816 0.864424
0.595453 0.492485 0.908553
0.821424 0.553872 0.935714
0.9308 0.562661 0.94374
0.318395 0.684672 0.936034
0.52961 0.73286 0.955276
0.738964 0.770367 0.971862
0.873945 0.779873 0.977493
0.969345 0.781781 0.979675
0.482033 0.841291 0.968353
0.643091 0.866117 0.979248
0.785595 0.883543 0.988464
0.893751 0.889647 0.992416
0.984085 0.891783 0.992203
0.602213 0.957656 0.983261
0.704036 0.971008 0.988861
0.808362 0.979995 0.992248
0.906081 0.985626 0.995132
0.992203 0.987625 0.996994
