LUT预设1/iPhone 专用lut-合集1/iPhone 标准版合集1(REC709)/复古vintage-709.cube
TITLE "Generated by Resolve"
LUT_3D_SIZE 9
0.0896162 0.0688334 0.0752575
0.191043 0.0784619 0.0766155
0.345937 0.0906386 0.0791028
0.53402 0.0982834 0.0842145
0.685802 0.0981765 0.0929427
0.784527 0.0909438 0.105394
0.855467 0.078706 0.115099
0.916274 0.0647288 0.122103
0.970932 0.0508583 0.127779
0.113298 0.145586 0.0895552
0.225559 0.15639 0.0888838
0.387243 0.167147 0.0867628
0.561151 0.173083 0.0870985
0.694804 0.173739 0.0912032
0.779049 0.171283 0.0965133
0.841123 0.165255 0.0995956
0.894743 0.156359 0.101198
0.947738 0.14464 0.105043
0.183352 0.274144 0.129549
0.317388 0.298375 0.132921
0.486305 0.315282 0.125032
0.639567 0.311559 0.109529
0.742016 0.301442 0.103182
0.808469 0.295079 0.102052
0.862669 0.289204 0.100206
0.910109 0.280415 0.0990463
0.955306 0.267964 0.0986954
0.338201 0.476081 0.213687
0.468559 0.513115 0.229328
0.607462 0.542168 0.2327
0.726055 0.547616 0.214313
0.802609 0.537835 0.19086
0.856016 0.527108 0.174105
0.902708 0.517113 0.160204
0.944808 0.504616 0.149111
0.984009 0.489418 0.140749
0.503746 0.652079 0.298756
0.595056 0.678782 0.317296
0.690242 0.702556 0.331289
0.776776 0.716991 0.33254
0.836576 0.717571 0.31722
0.884306 0.713878 0.299001
0.928038 0.709575 0.282887
0.968414 0.705119 0.269703
0.997467 0.699809 0.257588
0.595651 0.757824 0.361608
0.662409 0.773907 0.378424
0.734066 0.787213 0.390341
0.797909 0.795071 0.393286
0.84863 0.797604 0.386709
0.893751 0.798047 0.374762
0.936584 0.797879 0.362539
0.976394 0.796658 0.350835
1 0.794675 0.340444
0.644007 0.828855 0.406485
0.700145 0.838895 0.418128
0.757839 0.846799 0.425223
0.81033 0.851865 0.426932
0.856062 0.854429 0.423117
0.899077 0.855863 0.416144
0.940734 0.85658 0.407889
0.979706 0.85658 0.400305
0.999985 0.856016 0.393484
0.678508 0.886427 0.436042
0.724254 0.893065 0.444617
0.772427 0.898604 0.45034
0.818509 0.9028 0.452644
0.861662 0.905776 0.451682
0.903349 0.907668 0.447501
0.94406 0.908995 0.442039
0.982956 0.90956 0.436698
0.999802 0.909682 0.433173
0.705028 0.939986 0.466529
0.741695 0.945113 0.47332
0.783886 0.949706 0.47808
0.825727 0.953628 0.480278
0.86688 0.95671 0.480308
0.907515 0.958938 0.478523
0.946899 0.960403 0.476112
0.984314 0.961242 0.474784
0.999725 0.961715 0.473899
0.0771954 0.0737621 0.150042
0.168551 0.0828412 0.152789
0.315373 0.0963302 0.157061
0.510033 0.105837 0.160647
0.673762 0.104768 0.164355
0.777935 0.0963149 0.171984
0.850767 0.0834211 0.180194
0.912566 0.0690623 0.187961
0.96875 0.0540017 0.194873
0.0913405 0.15021 0.170367
0.193927 0.163256 0.175357
0.354437 0.177325 0.177188
0.540764 0.183719 0.17406
0.6869 0.181277 0.169772
0.775601 0.17586 0.168994
0.839139 0.168154 0.16907
0.893294 0.159396 0.170474
0.94609 0.147433 0.173739
0.144488 0.279484 0.221668
0.26807 0.308217 0.23299
0.448325 0.33254 0.231403
0.623407 0.329854 0.208011
0.736736 0.315648 0.191028
0.805936 0.304967 0.184176
0.860792 0.295949 0.179583
0.908904 0.284825 0.176303
0.954223 0.270436 0.173877
0.284031 0.484062 0.319509
0.421347 0.524987 0.340352
0.573877 0.558526 0.347646
0.709651 0.56759 0.325704
0.797482 0.556359 0.290791
0.853346 0.542458 0.265553
0.900969 0.529641 0.246708
0.94345 0.514763 0.234546
0.982971 0.498375 0.224033
0.46038 0.661326 0.41355
0.564187 0.688853 0.432288
0.665949 0.712779 0.445457
0.762234 0.728435 0.445472
0.828901 0.730037 0.427634
0.879057 0.725948 0.405035
0.924407 0.720974 0.384771
0.966064 0.71577 0.367376
0.99733 0.71017 0.351949
0.566323 0.765377 0.475181
0.639307 0.781765 0.490242
0.714961 0.795285 0.499535
0.785657 0.804074 0.501854
0.840742 0.807263 0.495735
0.887404 0.807492 0.483742
0.931716 0.807095 0.469963
0.972732 0.80557 0.457038
0.999969 0.803433 0.445197
0.620813 0.835645 0.514626
0.68011 0.845823 0.524514
0.74197 0.853971 0.529778
0.79968 0.859648 0.530953
0.848539 0.862745 0.528496
0.892775 0.864042 0.522423
0.9355 0.864652 0.514153
0.976135 0.864408 0.505699
0.999496 0.863737 0.497826
0.659144 0.89308 0.539971
0.707637 0.899901 0.547494
0.758999 0.905547 0.551446
0.808713 0.910018 0.55317
0.854337 0.913283 0.552636
0.897429 0.915297 0.549569
0.939208 0.916472 0.544259
0.978836 0.916854 0.539086
0.999527 0.916808 0.534569
0.689677 0.946548 0.562814
0.727871 0.95172 0.569497
0.772671 0.956252 0.573632
0.816693 0.960204 0.576059
0.859449 0.963394 0.576883
0.901442 0.965774 0.575906
0.942 0.9673 0.573602
0.980575 0.968048 0.570993
0.999664 0.968399 0.568429
0.0732128 0.0819104 0.246571
0.149233 0.0894636 0.24947
0.270848 0.104662 0.256779
0.462364 0.123888 0.265965
0.645701 0.129458 0.266361
0.759609 0.121386 0.264469
0.835508 0.10753 0.264637
0.899001 0.0924086 0.266468
0.958526 0.0755474 0.270634
0.0842145 0.158648 0.277226
0.165393 0.171878 0.285298
0.301793 0.192599 0.296376
0.495323 0.213153 0.304524
0.664317 0.216663 0.297536
0.763317 0.20676 0.285191
0.829557 0.194781 0.276631
0.885573 0.183444 0.271305
0.938293 0.170108 0.267659
0.123339 0.288701 0.343313
0.216617 0.319356 0.362249
0.375326 0.357794 0.380652
0.575845 0.379217 0.377539
0.71873 0.370474 0.353735
0.79675 0.353094 0.332753
0.853681 0.336751 0.317189
0.903441 0.319097 0.303822
0.950103 0.298192 0.291279
0.237507 0.493629 0.45391
0.358694 0.537255 0.480674
0.51223 0.578637 0.500084
0.669444 0.600809 0.492912
0.781048 0.596887 0.460166
0.844648 0.582284 0.427497
0.89482 0.566583 0.400626
0.93933 0.549538 0.38024
0.98024 0.530205 0.362417
0.403159 0.669917 0.547112
0.514992 0.699382 0.567269
0.624826 0.725124 0.581857
0.731777 0.742519 0.584588
0.812848 0.747265 0.571267
0.86807 0.744045 0.549615
0.916121 0.739422 0.527581
0.960403 0.733959 0.506737
0.996658 0.728176 0.487098
0.519615 0.772122 0.598856
0.602823 0.7897 0.611185
0.683864 0.80412 0.619165
0.763058 0.814023 0.621469
0.826429 0.818586 0.618418
0.876463 0.819516 0.610147
0.922454 0.818936 0.598199
0.965835 0.817258 0.584878
0.998291 0.814939 0.571572
0.586786 0.842054 0.627146
0.650645 0.853178 0.635798
0.716655 0.862013 0.640894
0.780606 0.868009 0.641688
0.835172 0.871626 0.640406
0.882322 0.873518 0.636942
0.926772 0.874174 0.630976
0.969162 0.874006 0.623697
0.997925 0.873228 0.615808
0.631952 0.899794 0.645121
0.683864 0.907225 0.651621
0.73843 0.913008 0.655207
0.792386 0.917494 0.656672
0.841871 0.920836 0.656687
0.887526 0.923461 0.656062
0.930953 0.924926 0.653407
0.972152 0.925368 0.648875
0.999161 0.9252 0.643595
0.668879 0.953399 0.66041
0.708385 0.958633 0.666438
0.755352 0.962982 0.670192
0.80267 0.966583 0.671794
0.848096 0.969619 0.672358
0.892027 0.972122 0.672465
0.93431 0.974014 0.671794
0.974731 0.974975 0.670237
0.999161 0.975464 0.667613
0.0809186 0.0918288 0.36669
0.146349 0.0980087 0.370794
0.237278 0.110353 0.380285
0.406439 0.140795 0.403815
0.60116 0.171649 0.423651
0.724727 0.176776 0.422278
0.80058 0.166415 0.41268
0.863325 0.151476 0.401816
0.921859 0.133883 0.392142
0.0907149 0.168719 0.403555
0.158953 0.180438 0.412863
0.260853 0.201602 0.429557
0.436942 0.240574 0.459556
0.627695 0.277821 0.483101
0.737881 0.283268 0.479652
0.805341 0.271901 0.465324
0.862318 0.257176 0.450904
0.914672 0.239796 0.436149
0.1234 0.298558 0.473793
0.199542 0.327626 0.494575
0.316365 0.368978 0.522591
0.509697 0.419699 0.552422
0.684855 0.44979 0.562829
0.776959 0.448707 0.552926
0.835737 0.435874 0.538582
0.88629 0.417823 0.52285
0.93286 0.394202 0.504997
0.217716 0.501396 0.579583
0.322713 0.543847 0.604639
0.459419 0.588724 0.629328
0.616175 0.625101 0.644892
0.75021 0.642893 0.64445
0.825071 0.641169 0.632776
0.878035 0.630564 0.615122
0.925475 0.616968 0.597009
0.969085 0.600473 0.579156
0.36173 0.674327 0.656611
0.474037 0.704326 0.674876
0.587777 0.732052 0.690517
0.695827 0.752117 0.698878
0.789441 0.761822 0.698161
0.851621 0.762295 0.689494
0.902312 0.759777 0.677607
0.949248 0.755856 0.664393
0.990997 0.751141 0.651118
0.478462 0.774166 0.694392
0.568887 0.792767 0.706172
0.654917 0.809293 0.715434
0.737652 0.82118 0.721035
0.808408 0.827131 0.721584
0.862776 0.829435 0.719692
0.910887 0.829618 0.713649
0.956344 0.828443 0.70544
0.993454 0.826627 0.696132
0.554833 0.8439 0.715206
0.623972 0.856519 0.724041
0.693477 0.867216 0.730678
0.760037 0.874235 0.733394
0.819303 0.878126 0.733257
0.870024 0.880583 0.732448
0.916732 0.881956 0.730404
0.960815 0.882155 0.726894
0.996643 0.881804 0.722622
0.607736 0.902831 0.728923
0.663157 0.911543 0.735195
0.719417 0.918303 0.73962
0.775128 0.92311 0.741726
0.827878 0.926406 0.742306
0.87599 0.928969 0.742596
0.92163 0.930938 0.742107
0.964721 0.931762 0.740108
0.997986 0.931884 0.737011
0.65153 0.957717 0.739345
0.691966 0.963424 0.744656
0.73901 0.968063 0.748089
0.788067 0.971557 0.74963
0.835889 0.974273 0.750118
0.881712 0.976654 0.750454
0.925795 0.978546 0.750668
0.967956 0.979858 0.75053
0.997513 0.980591 0.749264
0.0931411 0.100343 0.484672
0.152911 0.105608 0.490257
0.22649 0.114504 0.50016
0.364385 0.143008 0.527703
0.564462 0.193469 0.572076
0.704311 0.223606 0.594476
0.778927 0.225834 0.594339
0.83653 0.218173 0.588464
0.88893 0.204685 0.578424
0.100755 0.177096 0.51931
0.163012 0.18764 0.528878
0.243885 0.204517 0.544579
0.389578 0.242771 0.578363
0.596292 0.305364 0.626703
0.728756 0.34165 0.649927
0.796262 0.344778 0.649165
0.850736 0.336858 0.642344
0.900191 0.323003 0.632898
0.128649 0.306462 0.583947
0.197635 0.332906 0.601892
0.293904 0.370703 0.626093
0.459174 0.42385 0.659403
0.653696 0.481819 0.692744
0.767254 0.510399 0.706065
0.829206 0.513085 0.706035
0.879606 0.506004 0.702708
0.925429 0.493034 0.69691
0.209644 0.505821 0.672984
0.304585 0.54551 0.693049
0.431266 0.590143 0.715068
0.579095 0.630488 0.735042
0.723445 0.661616 0.750118
0.810407 0.673793 0.754894
0.865904 0.673259 0.752636
0.914305 0.668025 0.747982
0.959258 0.65948 0.741833
0.337331 0.676875 0.735027
0.448218 0.705745 0.749477
0.565576 0.733364 0.762951
0.672343 0.75494 0.77351
0.769574 0.768322 0.779522
0.8374 0.772641 0.779873
0.889601 0.773236 0.777798
0.937438 0.772152 0.774777
0.981811 0.769604 0.771054
0.45156 0.774777 0.763241
0.545876 0.792966 0.772885
0.635737 0.810101 0.781918
0.720119 0.823667 0.789425
0.793942 0.831464 0.793332
0.851194 0.83444 0.793698
0.900908 0.835538 0.792325
0.947753 0.835554 0.789593
0.989319 0.834485 0.785885
0.530694 0.843503 0.77879
0.603723 0.856229 0.786389
0.676997 0.868025 0.793317
0.745724 0.876753 0.798306
0.807141 0.881712 0.800366
0.859953 0.884413 0.800778
0.908141 0.886168 0.800748
0.953796 0.886976 0.799802
0.99527 0.886946 0.797894
0.588266 0.902708 0.789471
0.646632 0.912139 0.795758
0.705959 0.920089 0.801083
0.762951 0.925994 0.804654
0.817502 0.929915 0.8065
0.867033 0.932326 0.807065
0.913817 0.93434 0.807065
0.958495 0.935607 0.806638
0.994705 0.935973 0.805493
0.637385 0.958648 0.798642
0.680079 0.965026 0.803815
0.728191 0.970459 0.807691
0.77792 0.97467 0.810315
0.8271 0.977584 0.811582
0.873945 0.979797 0.812192
0.919005 0.981613 0.812528
0.962173 0.98294 0.812711
0.996353 0.983764 0.812329
0.103517 0.106569 0.578225
0.159701 0.110903 0.584192
0.226871 0.118593 0.594522
0.338933 0.140902 0.618219
0.531456 0.191135 0.663737
0.694606 0.236591 0.700923
0.778058 0.25153 0.713466
0.836851 0.251011 0.716609
0.888136 0.24097 0.714488
0.108995 0.183749 0.607813
0.167483 0.193057 0.616785
0.240024 0.208225 0.631235
0.361715 0.239902 0.658839
0.564553 0.302235 0.704952
0.72192 0.356069 0.738415
0.798077 0.373327 0.748318
0.854276 0.374044 0.750408
0.9037 0.365393 0.748745
0.133745 0.313695 0.664027
0.197894 0.337331 0.679011
0.286549 0.373754 0.699809
0.430777 0.421469 0.727428
0.627359 0.481621 0.760128
0.760128 0.523751 0.780423
0.829129 0.537179 0.787091
0.882231 0.537972 0.788907
0.929198 0.530388 0.787533
0.207614 0.510307 0.739773
0.294621 0.546593 0.756176
0.415869 0.590448 0.775723
0.558953 0.630869 0.794278
0.705333 0.66305 0.809628
0.802014 0.679515 0.817243
0.861372 0.684779 0.81976
0.911345 0.68452 0.820127
0.957351 0.680491 0.818921
0.322286 0.677592 0.793027
0.429969 0.705287 0.805356
0.55021 0.732815 0.817502
0.659663 0.755245 0.827955
0.757794 0.769512 0.835142
0.829526 0.775616 0.837873
0.882643 0.778241 0.838804
0.930983 0.779309 0.839063
0.976501 0.778347 0.838407
0.432792 0.774472 0.817838
0.529366 0.792279 0.826108
0.622675 0.809674 0.834211
0.708934 0.823896 0.841566
0.785031 0.832532 0.846387
0.844327 0.836255 0.848051
0.894575 0.838117 0.848722
0.941756 0.839094 0.848692
0.985824 0.838956 0.847929
0.512612 0.842786 0.830945
0.588647 0.855421 0.837446
0.6645 0.867567 0.843809
0.735958 0.877134 0.849378
0.799207 0.882948 0.85272
0.85362 0.886244 0.854215
0.902266 0.888258 0.855177
0.948608 0.88954 0.855634
0.991592 0.889906 0.855207
0.572213 0.901991 0.840024
0.632898 0.911543 0.845899
0.695552 0.920241 0.851301
0.754528 0.926894 0.855528
0.810636 0.931456 0.858167
0.861387 0.934371 0.859617
0.908446 0.936416 0.86038
0.953704 0.937835 0.860761
0.991974 0.938506 0.860609
0.62501 0.958434 0.848569
0.67013 0.965347 0.853544
0.720134 0.97116 0.857664
0.770718 0.975921 0.860868
0.821118 0.979339 0.862974
0.868833 0.981857 0.86424
0.914336 0.983673 0.864927
0.9579 0.984848 0.865324
0.996033 0.985855 0.86537
0.110582 0.111177 0.648341
0.164584 0.115023 0.654154
0.229007 0.122499 0.664347
0.328283 0.141299 0.684825
0.507439 0.186664 0.724865
0.682322 0.235691 0.763104
0.775204 0.25713 0.780133
0.837873 0.262165 0.787839
0.890486 0.256306 0.790539
0.11519 0.189731 0.67483
0.171542 0.198596 0.683024
0.240665 0.213153 0.696254
0.349615 0.240864 0.719554
0.542779 0.298604 0.76022
0.71165 0.356207 0.794232
0.795804 0.380377 0.808057
0.855421 0.387854 0.81416
0.906523 0.383978 0.816205
0.13904 0.320974 0.725795
0.200717 0.343496 0.738506
0.285115 0.378393 0.757305
0.418143 0.423606 0.781888
0.609903 0.480674 0.811734
0.752071 0.5252 0.832456
0.826383 0.543435 0.841093
0.882368 0.549371 0.845243
0.931182 0.54612 0.846479
0.209949 0.515862 0.794446
0.291615 0.549462 0.808774
0.408209 0.592309 0.826688
0.547402 0.632227 0.844068
0.693019 0.663294 0.858381
0.795666 0.679942 0.866194
0.857481 0.686824 0.869642
0.909102 0.689403 0.871702
0.956359 0.688075 0.872374
0.31548 0.678737 0.842863
0.418494 0.704479 0.853758
0.539071 0.731914 0.865141
0.650172 0.75465 0.875166
0.749432 0.769436 0.882612
0.824521 0.775921 0.885832
0.878721 0.778912 0.887236
0.927596 0.781201 0.888518
0.97351 0.781155 0.889067
0.420142 0.773907 0.865904
0.516258 0.791257 0.873518
0.612345 0.80882 0.881148
0.700877 0.823667 0.888395
0.778653 0.832746 0.89366
0.84004 0.836759 0.895689
0.890761 0.838682 0.896712
0.938079 0.840208 0.897642
0.982651 0.84094 0.898116
0.497566 0.84181 0.878248
0.576684 0.85449 0.884245
0.655283 0.866987 0.890303
0.728862 0.877089 0.89601
0.793423 0.883238 0.899626
0.849409 0.886793 0.901564
0.89865 0.889097 0.903029
0.945327 0.890837 0.904219
0.988388 0.8916 0.904616
0.559365 0.901198 0.886748
0.622278 0.910872 0.892119
0.687312 0.919982 0.897322
0.747997 0.927092 0.901793
0.80502 0.931838 0.904768
0.85716 0.935164 0.906783
0.904936 0.93756 0.908156
0.9505 0.939147 0.909087
0.990433 0.940108 0.909682
0.61474 0.958129 0.894743
0.661418 0.965103 0.899382
0.713405 0.971222 0.903655
0.764813 0.976226 0.907195
0.816175 0.97995 0.909621
0.865003 0.982925 0.911543
0.911131 0.985046 0.91284
0.955016 0.986343 0.913527
0.995926 0.987182 0.914
0.116548 0.115709 0.708171
0.169207 0.119478 0.714275
0.231739 0.12668 0.724163
0.323552 0.143038 0.742153
0.492149 0.18468 0.777615
0.671839 0.234653 0.814832
0.770855 0.258305 0.8327
0.836316 0.265187 0.841978
0.891081 0.262928 0.847135
0.121019 0.196857 0.733394
0.175998 0.205722 0.741375
0.243046 0.219944 0.753719
0.344503 0.24509 0.774182
0.529442 0.299123 0.810712
0.703578 0.35758 0.843885
0.792615 0.383993 0.85832
0.854536 0.394308 0.865705
0.907362 0.393942 0.869749
0.145159 0.330373 0.781369
0.205585 0.352697 0.793317
0.287724 0.387106 0.810864
0.413993 0.430533 0.833219
0.600061 0.483986 0.860197
0.746303 0.528099 0.88014
0.823331 0.547234 0.888869
0.880781 0.555108 0.893858
0.931365 0.555047 0.89659
0.214832 0.523568 0.845197
0.29308 0.555154 0.858152
0.406516 0.596796 0.874754
0.542473 0.635996 0.890944
0.684977 0.66479 0.904189
0.791028 0.68101 0.911971
0.85449 0.688121 0.915801
0.906691 0.691432 0.918273
0.955062 0.691981 0.919951
0.315068 0.681437 0.889662
0.413504 0.704982 0.899397
0.532372 0.731777 0.910124
0.643992 0.75465 0.919966
0.743145 0.769512 0.927474
0.820829 0.776272 0.931105
0.876051 0.779202 0.932692
0.92491 0.781094 0.934157
0.971344 0.78175 0.935271
0.413504 0.774014 0.911452
0.507546 0.790692 0.918456
0.605051 0.80827 0.925734
0.695079 0.823484 0.933013
0.773358 0.832731 0.938521
0.836561 0.836973 0.941085
0.888075 0.838804 0.942214
0.935347 0.840162 0.943282
0.980392 0.841321 0.944381
0.487221 0.841062 0.923186
0.568292 0.853864 0.928939
0.648417 0.866514 0.934981
0.723568 0.876921 0.94081
0.78909 0.88333 0.944793
0.846067 0.887129 0.947066
0.896056 0.889418 0.948669
0.942779 0.890974 0.94995
0.986038 0.892195 0.951049
0.551324 0.900816 0.931655
0.614878 0.910491 0.936843
0.6813 0.919646 0.941924
0.743435 0.927016 0.946471
0.800656 0.931945 0.949599
0.853758 0.935363 0.951782
0.902251 0.937942 0.953643
0.948211 0.939773 0.955062
0.989731 0.941009 0.956191
0.607355 0.957778 0.939162
0.654887 0.964828 0.943664
0.70808 0.971023 0.947906
0.760098 0.97615 0.951492
0.811978 0.979995 0.954253
0.861692 0.983169 0.956374
0.908629 0.985626 0.95819
0.952956 0.987228 0.959426
0.994324 0.987625 0.960327
0.122805 0.12137 0.764996
0.174334 0.12546 0.771069
0.235126 0.132494 0.780468
0.32192 0.147112 0.796262
0.481987 0.18558 0.828092
0.664729 0.236988 0.863981
0.76762 0.262226 0.881971
0.834257 0.269581 0.891554
0.890791 0.269383 0.897902
0.127703 0.206226 0.789944
0.181445 0.215656 0.797757
0.246906 0.230365 0.809476
0.343481 0.254261 0.827787
0.521782 0.305241 0.860563
0.698497 0.363607 0.892363
0.790417 0.390951 0.906538
0.853391 0.401648 0.914122
0.907485 0.40293 0.919005
0.153063 0.343816 0.836347
0.213291 0.367407 0.84799
0.294408 0.401816 0.864424
0.415961 0.443595 0.884581
0.595453 0.492485 0.908553
0.743175 0.534661 0.927199
0.821424 0.553872 0.935714
0.879118 0.561379 0.94052
0.9308 0.562661 0.94374
0.222477 0.534417 0.895689
0.298512 0.564904 0.907698
0.410269 0.604837 0.923018
0.542779 0.642527 0.937942
0.679973 0.668238 0.949966
0.787701 0.683787 0.957443
0.852476 0.690684 0.961181
0.904814 0.694118 0.96376
0.953658 0.695171 0.96556
0.318395 0.684672 0.936034
0.413001 0.706889 0.945159
0.52961 0.73286 0.955276
0.640711 0.755611 0.964675
0.738964 0.770367 0.971862
0.817884 0.77705 0.975662
0.873945 0.779873 0.977493
0.922698 0.781308 0.978866
0.969345 0.781781 0.979675
0.41149 0.77499 0.956817
0.502235 0.79089 0.963516
0.600107 0.808209 0.97055
0.690883 0.823484 0.977539
0.769177 0.832731 0.98233
0.833402 0.837156 0.98468
0.885725 0.839078 0.986038
0.933227 0.84004 0.987198
0.978378 0.84094 0.988037
0.482033 0.841291 0.968353
0.562402 0.853651 0.973663
0.643091 0.866117 0.979248
0.719265 0.876844 0.984649
0.785595 0.883543 0.988464
0.843259 0.887419 0.99086
0.893751 0.889647 0.992416
0.940703 0.890837 0.99321
0.984085 0.891783 0.992203
0.546181 0.900679 0.976211
0.609384 0.910246 0.981094
0.676677 0.919631 0.98587
0.739834 0.927184 0.990112
0.79736 0.932174 0.992218
0.850843 0.935576 0.992493
0.899901 0.93817 0.992645
0.946258 0.939895 0.992966
0.989273 0.941054 0.993606
0.602213 0.957656 0.983261
0.650202 0.96466 0.986358
0.704036 0.971008 0.988861
0.75639 0.97612 0.990814
0.808362 0.979995 0.992248
0.858595 0.983093 0.993637
0.906081 0.985626 0.995132
0.95111 0.987594 0.996872
0.992203 0.987625 0.996994
