LUT预设1/iPhone 专用lut-合集1/iPhone 标准版合集1(REC709)/复古vintage-709.cube
TITLE "Generated by Resolve"
LUT_3D_SIZE 33
0.0896162 0.0688334 0.0752575
0.111116 0.0708019 0.0756237
0.13576 0.0731975 0.0759594
0.160906 0.075639 0.0763104
0.191043 0.0784619 0.0766155
0.222522 0.0814221 0.0770886
0.260349 0.0845502 0.0776074
0.30103 0.087602 0.0782177
0.345937 0.0906386 0.0791028
0.392721 0.0931563 0.0800641
0.440696 0.0953689 0.0811627
0.487282 0.0969711 0.0827192
0.53402 0.0982834 0.0842145
0.576013 0.0988174 0.086244
0.616983 0.0991684 0.0881208
0.652079 0.0987869 0.0905318
0.685802 0.0981765 0.0929427
0.713985 0.0970779 0.0959335
0.740261 0.0955062 0.0989548
0.76321 0.0934768 0.102281
0.784527 0.0909438 0.105394
0.804227 0.0881666 0.108415
0.822095 0.0852064 0.110903
0.839368 0.0819867 0.1131
0.855467 0.078706 0.115099
0.871351 0.0753948 0.117067
0.886763 0.0717479 0.118791
0.901915 0.0682536 0.120577
0.916274 0.0647288 0.122103
0.930587 0.0612955 0.123461
0.944366 0.057908 0.124773
0.957809 0.05449 0.126223
0.970932 0.0508583 0.127779
0.0934462 0.0859693 0.0778058
0.115206 0.0879225 0.0781109
0.140093 0.0902724 0.0783551
0.166171 0.0927138 0.078584
0.19559 0.0953841 0.0787213
0.228534 0.0982986 0.0788891
0.265278 0.101274 0.0792248
0.306661 0.104173 0.0795758
0.350484 0.107042 0.0800031
0.397116 0.109422 0.080705
0.443839 0.111803 0.0815747
0.490166 0.113298 0.0827192
0.535439 0.114641 0.0838788
0.577081 0.11545 0.0854963
0.616739 0.115953 0.0870985
0.651835 0.116045 0.0890669
0.683894 0.115663 0.0910964
0.711849 0.115038 0.0934157
0.736446 0.113817 0.0958267
0.758816 0.112444 0.0983749
0.778714 0.110384 0.100725
0.797559 0.108354 0.103029
0.814771 0.105623 0.104982
0.831525 0.103014 0.10692
0.847623 0.099733 0.108858
0.863569 0.0966049 0.110918
0.879072 0.0931868 0.112795
0.894316 0.0896468 0.114702
0.908919 0.0861677 0.116304
0.923232 0.0825818 0.117784
0.937301 0.0790417 0.119265
0.951125 0.0754253 0.120989
0.965087 0.0715038 0.122896
0.0991989 0.104768 0.0813306
0.121721 0.106737 0.0814069
0.146639 0.108995 0.081529
0.173785 0.111376 0.0815442
0.203082 0.113863 0.0814679
0.237308 0.116518 0.0813611
0.273243 0.119188 0.0812543
0.315633 0.121813 0.0813153
0.358557 0.124468 0.081529
0.404364 0.126665 0.0819562
0.450462 0.128832 0.0824903
0.49575 0.130526 0.0832837
0.539483 0.132052 0.0843061
0.58088 0.133028 0.08542
0.618997 0.133608 0.0867475
0.654093 0.134005 0.0883192
0.684474 0.133806 0.0900893
0.712459 0.13341 0.0920577
0.735531 0.132601 0.0940719
0.757717 0.131609 0.0960861
0.776333 0.130068 0.098085
0.794812 0.128328 0.0998856
0.811521 0.126177 0.101564
0.827832 0.123827 0.103075
0.843305 0.121279 0.10457
0.858488 0.118456 0.105898
0.873137 0.115587 0.107195
0.88748 0.112428 0.108324
0.901457 0.1093 0.109438
0.915343 0.105837 0.110643
0.929244 0.102388 0.112001
0.94342 0.098436 0.114076
0.957778 0.0944686 0.116167
0.10573 0.12462 0.0851759
0.12958 0.126833 0.0851911
0.154696 0.129107 0.0852827
0.183276 0.13167 0.0850996
0.212955 0.134295 0.0848402
0.248951 0.13698 0.0844282
0.285878 0.13962 0.0840314
0.328405 0.142138 0.0838331
0.371771 0.144533 0.0837415
0.417258 0.146731 0.0838788
0.462028 0.148516 0.0843214
0.506462 0.149966 0.0847944
0.548516 0.151049 0.0854963
0.58909 0.151873 0.0862898
0.625101 0.152392 0.0875257
0.659617 0.152651 0.0886702
0.687861 0.152438 0.0901808
0.7149 0.15227 0.0917372
0.73666 0.151659 0.0933394
0.757778 0.150973 0.0949264
0.776013 0.149996 0.0964981
0.793698 0.148638 0.0978408
0.81001 0.147066 0.0990311
0.825849 0.145098 0.100252
0.840955 0.143084 0.101213
0.855543 0.140673 0.102235
0.869795 0.13814 0.103044
0.883513 0.135485 0.103929
0.897169 0.132601 0.104677
0.910826 0.129503 0.105791
0.924361 0.126284 0.106828
0.938277 0.122744 0.108568
0.951949 0.11928 0.110094
0.113298 0.145586 0.0895552
0.138293 0.147951 0.089601
0.164019 0.150591 0.0895247
0.194217 0.153384 0.0891737
0.225559 0.15639 0.0888838
0.262196 0.159335 0.088304
0.300771 0.162188 0.0877394
0.343297 0.164797 0.0871748
0.387243 0.167147 0.0867628
0.43212 0.169192 0.0864729
0.476677 0.170779 0.0864881
0.520607 0.172107 0.0865797
0.561151 0.173083 0.0870985
0.600931 0.173739 0.0877852
0.634806 0.173938 0.0888228
0.66775 0.173999 0.0898604
0.694804 0.173739 0.0912032
0.720073 0.17348 0.0926528
0.741466 0.1729 0.0940261
0.761273 0.172122 0.0952926
0.779049 0.171283 0.0965133
0.795819 0.170016 0.0974746
0.811658 0.168612 0.0982986
0.826566 0.167041 0.0990463
0.841123 0.165255 0.0995956
0.854856 0.163272 0.0999313
0.868406 0.161135 0.100343
0.881529 0.158648 0.100664
0.894743 0.156359 0.101198
0.907912 0.153613 0.101839
0.921172 0.150881 0.102678
0.934524 0.147738 0.103777
0.947738 0.14464 0.105043
0.124437 0.170748 0.0957046
0.150866 0.173816 0.0959029
0.178119 0.176776 0.0958267
0.20882 0.180011 0.0954452
0.242115 0.183185 0.0948043
0.279118 0.186236 0.0937819
0.319265 0.188907 0.0926833
0.361685 0.191165 0.0914626
0.405539 0.192966 0.0905013
0.450248 0.194522 0.0895247
0.4934 0.195361 0.0891585
0.536248 0.196368 0.0888228
0.575448 0.197086 0.08925
0.613169 0.197574 0.089662
0.646235 0.197681 0.090486
0.676875 0.197574 0.091371
0.703304 0.197269 0.0924544
0.726741 0.196826 0.0936904
0.747723 0.196429 0.0947738
0.766369 0.195697 0.0957046
0.78381 0.194888 0.0965591
0.799847 0.193957 0.097322
0.815412 0.192844 0.0979019
0.829847 0.191363 0.0983444
0.844114 0.18999 0.0988327
0.857527 0.188083 0.0990921
0.870787 0.186145 0.099321
0.883558 0.18407 0.0996109
0.896178 0.181735 0.0998398
0.908782 0.179141 0.100267
0.921294 0.176577 0.100633
0.933806 0.173693 0.101122
0.946181 0.170855 0.101762
0.138766 0.199359 0.103716
0.16611 0.203143 0.104265
0.195392 0.207248 0.104555
0.227039 0.211246 0.104295
0.262654 0.215305 0.103685
0.300465 0.219318 0.102754
0.342412 0.222568 0.10135
0.385382 0.225696 0.0996109
0.429541 0.227268 0.0979477
0.473823 0.228824 0.0962387
0.516243 0.229282 0.0948806
0.557153 0.229389 0.0936751
0.594949 0.228855 0.093019
0.629648 0.228061 0.0926986
0.66154 0.227146 0.0928054
0.689097 0.226001 0.0934157
0.71429 0.224765 0.0940566
0.735546 0.223606 0.0948348
0.755627 0.2224 0.095613
0.772869 0.221256 0.0962539
0.789609 0.220325 0.0968185
0.804929 0.219699 0.0973983
0.820111 0.218906 0.0977646
0.834333 0.217899 0.0980392
0.848219 0.216892 0.0983291
0.861433 0.215396 0.098436
0.874327 0.213687 0.0985122
0.886732 0.211978 0.0985428
0.899092 0.209812 0.0987564
0.911238 0.207492 0.0988937
0.923384 0.205097 0.0992294
0.935576 0.202365 0.0994888
0.947616 0.199451 0.0998856
0.157504 0.233066 0.114565
0.185382 0.237476 0.115251
0.216297 0.242222 0.115587
0.248569 0.246845 0.115526
0.286152 0.251575 0.114733
0.324819 0.256733 0.114137
0.368002 0.260487 0.112276
0.411505 0.26421 0.110536
0.455879 0.266499 0.108293
0.498985 0.268086 0.106065
0.540642 0.268513 0.103777
0.579538 0.268208 0.101823
0.616205 0.267216 0.100053
0.648585 0.265782 0.09897
0.678935 0.264057 0.0980545
0.70399 0.262394 0.0978561
0.728069 0.260578 0.0976272
0.747417 0.259083 0.0978408
0.766247 0.257465 0.0979324
0.782681 0.256062 0.0980545
0.79852 0.254871 0.098085
0.81323 0.253559 0.0982071
0.827604 0.252079 0.0981003
0.841321 0.250538 0.0979782
0.854505 0.248783 0.0978714
0.867292 0.247059 0.0978866
0.879484 0.244938 0.0978408
0.891508 0.242664 0.0978103
0.903243 0.24036 0.0978256
0.914946 0.237705 0.0979934
0.926741 0.23537 0.0982223
0.938521 0.233204 0.0984054
0.95024 0.230472 0.0988174
0.183352 0.274144 0.129549
0.21239 0.279973 0.131151
0.245457 0.286229 0.13225
0.27892 0.292256 0.133028
0.317388 0.298375 0.132921
0.356863 0.303914 0.132189
0.399619 0.308858 0.130541
0.442756 0.312734 0.128222
0.486305 0.315282 0.125032
0.527703 0.315847 0.121172
0.568124 0.315663 0.117098
0.604425 0.313893 0.113375
0.639567 0.311559 0.109529
0.668742 0.308431 0.106935
0.697078 0.305821 0.104829
0.720211 0.303593 0.104005
0.742016 0.301442 0.103182
0.760327 0.299733 0.102937
0.777722 0.298024 0.102571
0.79353 0.296498 0.102281
0.808469 0.295079 0.102052
0.822782 0.294011 0.10164
0.836576 0.292531 0.101167
0.849958 0.290974 0.100633
0.862669 0.289204 0.100206
0.87509 0.287327 0.0997635
0.886992 0.285389 0.0995956
0.898741 0.28304 0.0992447
0.910109 0.280415 0.0990463
0.921431 0.277638 0.0988327
0.93283 0.274754 0.0988327
0.944091 0.271489 0.0987259
0.955306 0.267964 0.0986954
0.213092 0.318776 0.146777
0.244053 0.326284 0.149279
0.277897 0.333639 0.151232
0.313176 0.341268 0.152819
0.351354 0.348547 0.153658
0.391623 0.35552 0.153567
0.433463 0.361685 0.152697
0.475807 0.366339 0.1505
0.517983 0.370275 0.147539
0.557885 0.371405 0.143313
0.596765 0.371725 0.138643
0.630442 0.369833 0.133867
0.663203 0.367636 0.128985
0.690974 0.364385 0.124926
0.716594 0.361089 0.121035
0.738293 0.357733 0.118196
0.757916 0.354528 0.115724
0.775296 0.351507 0.113741
0.791104 0.348714 0.112032
0.806073 0.345953 0.110521
0.82002 0.343465 0.109071
0.833616 0.340932 0.107561
0.846677 0.338415 0.106172
0.859541 0.336172 0.104997
0.871656 0.334356 0.104494
0.883787 0.332723 0.103944
0.895293 0.330526 0.103532
0.9066 0.328176 0.103212
0.917708 0.325536 0.102861
0.928725 0.322713 0.10251
0.939727 0.319966 0.102205
0.950668 0.316625 0.102007
0.961578 0.313039 0.101671
0.250904 0.369787 0.167849
0.282536 0.377981 0.170886
0.316106 0.386297 0.173754
0.35169 0.394858 0.175952
0.388769 0.403143 0.177798
0.428519 0.411002 0.178164
0.468757 0.418387 0.178164
0.509712 0.423545 0.175692
0.549889 0.42829 0.173144
0.587427 0.429374 0.168246
0.623575 0.430243 0.163546
0.656001 0.428717 0.157763
0.685908 0.42652 0.152255
0.712184 0.423316 0.146929
0.735195 0.419593 0.142184
0.755795 0.416098 0.138079
0.773571 0.412924 0.134874
0.790143 0.409812 0.131914
0.804883 0.40705 0.12958
0.819181 0.404318 0.127214
0.832395 0.401907 0.125261
0.845548 0.399374 0.123125
0.858091 0.396948 0.121202
0.870481 0.394781 0.11928
0.882261 0.392157 0.117479
0.893843 0.389288 0.115679
0.905013 0.386206 0.114015
0.915892 0.38294 0.112474
0.926543 0.379431 0.111162
0.937209 0.375601 0.109834
0.947784 0.371923 0.108568
0.958297 0.367559 0.107347
0.96878 0.363088 0.106157
0.293187 0.422431 0.190341
0.325521 0.431479 0.194018
0.358373 0.440543 0.197742
0.393454 0.44979 0.200687
0.428763 0.458762 0.203571
0.466865 0.467308 0.204837
0.504509 0.475242 0.205921
0.542565 0.481682 0.204959
0.579812 0.486732 0.203052
0.61561 0.48983 0.199115
0.649012 0.491279 0.194278
0.679789 0.490623 0.188159
0.707225 0.488777 0.181735
0.732494 0.486091 0.174838
0.753491 0.482704 0.168811
0.77319 0.479164 0.162799
0.789151 0.475761 0.158312
0.804715 0.472313 0.154299
0.818448 0.468788 0.15108
0.831891 0.465812 0.148089
0.844541 0.463081 0.145525
0.857099 0.460349 0.142931
0.869215 0.457771 0.140536
0.881102 0.455573 0.138338
0.892592 0.452979 0.136095
0.903761 0.450156 0.133959
0.914626 0.447257 0.131884
0.925292 0.444099 0.129976
0.935744 0.440894 0.128069
0.94612 0.437369 0.126345
0.956497 0.433692 0.12459
0.966766 0.429633 0.12282
0.976852 0.425971 0.121096
0.338201 0.476081 0.213687
0.370153 0.485435 0.217838
0.402029 0.494713 0.222049
0.434913 0.503792 0.225757
0.468559 0.513115 0.229328
0.503212 0.521737 0.232013
0.538033 0.529885 0.233722
0.57322 0.536751 0.234073
0.607462 0.542168 0.2327
0.640848 0.546075 0.230076
0.671504 0.547875 0.225696
0.701106 0.548913 0.220508
0.726055 0.547616 0.214313
0.749966 0.54583 0.207843
0.768933 0.543191 0.201877
0.787243 0.540597 0.195865
0.802609 0.537835 0.19086
0.817243 0.535195 0.186114
0.830655 0.532143 0.18175
0.843565 0.52961 0.177813
0.856016 0.527108 0.174105
0.86807 0.524651 0.17055
0.879927 0.52221 0.167025
0.891432 0.519661 0.163622
0.902708 0.517113 0.160204
0.913588 0.514168 0.156909
0.924254 0.511086 0.153841
0.934569 0.507591 0.1514
0.944808 0.504616 0.149111
0.954894 0.50103 0.147005
0.96492 0.497429 0.144854
0.974762 0.493538 0.142763
0.984009 0.489418 0.140749
0.384466 0.52665 0.236683
0.414694 0.535988 0.241367
0.444999 0.54551 0.24622
0.475273 0.554513 0.250507
0.506096 0.563378 0.254414
0.537606 0.572412 0.258228
0.569512 0.580392 0.260594
0.601678 0.588357 0.262715
0.633051 0.594141 0.262242
0.664256 0.599985 0.261707
0.692363 0.601938 0.257588
0.719722 0.603784 0.253559
0.742809 0.603204 0.247745
0.764553 0.602045 0.241611
0.782742 0.599985 0.235447
0.799542 0.597787 0.229603
0.814374 0.595285 0.224094
0.828183 0.592447 0.218723
0.841169 0.590005 0.214084
0.85359 0.587594 0.209842
0.865629 0.585321 0.205798
0.877287 0.583062 0.20206
0.888869 0.58088 0.198306
0.900053 0.578622 0.194781
0.911116 0.576471 0.191272
0.921767 0.57406 0.18793
0.93228 0.571817 0.184878
0.942565 0.569345 0.181994
0.952697 0.566857 0.179095
0.962707 0.564172 0.176181
0.972473 0.561318 0.17322
0.981933 0.558251 0.170199
0.98996 0.554711 0.167102
0.428412 0.573983 0.259174
0.456519 0.582589 0.263935
0.484062 0.590921 0.268666
0.511681 0.5991 0.273091
0.539666 0.607065 0.277119
0.567819 0.615152 0.281102
0.59675 0.62237 0.284031
0.625544 0.629648 0.286732
0.65449 0.635187 0.287343
0.68275 0.640558 0.287526
0.708919 0.643854 0.285649
0.733898 0.646662 0.283024
0.756024 0.647715 0.278935
0.776089 0.648234 0.274388
0.793835 0.647974 0.269108
0.809537 0.647196 0.263874
0.824018 0.645869 0.258396
0.837354 0.644617 0.253346
0.850248 0.643412 0.248371
0.862364 0.642008 0.243717
0.874128 0.639841 0.239078
0.885435 0.637308 0.234653
0.896712 0.635126 0.230472
0.907683 0.632944 0.226734
0.918441 0.630838 0.223102
0.928954 0.628611 0.219638
0.939223 0.626398 0.216358
0.94931 0.62414 0.21323
0.959304 0.621729 0.210101
0.969131 0.619333 0.20705
0.978347 0.616709 0.204028
0.987259 0.614084 0.200992
0.993561 0.611063 0.198001
0.46952 0.616739 0.28014
0.495567 0.624842 0.285008
0.520684 0.632563 0.28983
0.545373 0.639796 0.294316
0.570291 0.646754 0.298466
0.5953 0.653803 0.302586
0.621332 0.660349 0.306081
0.647242 0.666529 0.30898
0.673655 0.67219 0.31078
0.699153 0.67689 0.311681
0.723827 0.680781 0.311254
0.746334 0.683253 0.309483
0.767315 0.685115 0.306935
0.785382 0.685695 0.302983
0.80235 0.68571 0.29868
0.816892 0.685023 0.293843
0.831067 0.684321 0.288823
0.843732 0.683177 0.28394
0.856321 0.681865 0.278889
0.868116 0.680751 0.274525
0.879774 0.679713 0.270222
0.891127 0.678645 0.266285
0.902342 0.677607 0.262455
0.913344 0.67631 0.258549
0.924025 0.675303 0.255055
0.9346 0.674311 0.251637
0.944854 0.673274 0.248463
0.954986 0.672282 0.24535
0.96492 0.671122 0.242298
0.97467 0.669657 0.239139
0.9832 0.667231 0.235798
0.991424 0.664927 0.232502
0.996078 0.662211 0.229175
0.503746 0.652079 0.298756
0.527214 0.659144 0.303639
0.549767 0.665797 0.308248
0.572351 0.672404 0.312993
0.595056 0.678782 0.317296
0.618082 0.685023 0.321401
0.641855 0.691264 0.325231
0.665919 0.697002 0.328557
0.690242 0.702556 0.331289
0.713619 0.707073 0.332769
0.736492 0.711208 0.333913
0.756924 0.714183 0.333242
0.776776 0.716991 0.33254
0.793317 0.717708 0.329381
0.809323 0.718334 0.325978
0.823072 0.717922 0.321492
0.836576 0.717571 0.31722
0.849134 0.716777 0.312398
0.86125 0.715801 0.307774
0.872877 0.71487 0.303304
0.884306 0.713878 0.299001
0.895552 0.712871 0.294636
0.906584 0.711833 0.290608
0.917525 0.710613 0.286519
0.928038 0.709575 0.282887
0.938552 0.708553 0.279271
0.948653 0.707424 0.27599
0.958724 0.706355 0.27274
0.968414 0.705119 0.269703
0.977905 0.703914 0.266529
0.98616 0.702556 0.263554
0.993317 0.701244 0.260563
0.997467 0.699809 0.257588
0.534371 0.684321 0.316487
0.555077 0.69041 0.32134
0.575509 0.696239 0.326009
0.596017 0.701961 0.330541
0.616526 0.707485 0.334981
0.637812 0.712871 0.338979
0.659403 0.71812 0.342779
0.681682 0.72314 0.345953
0.704128 0.727886 0.348989
0.725444 0.731624 0.350484
0.746609 0.735348 0.351995
0.765454 0.737621 0.351446
0.783475 0.739803 0.350912
0.799115 0.740871 0.348898
0.813977 0.741817 0.346746
0.827527 0.742199 0.343526
0.840391 0.742229 0.340032
0.852811 0.742138 0.336187
0.864683 0.741909 0.332128
0.87628 0.741497 0.328038
0.887617 0.741176 0.324163
0.898894 0.740917 0.320302
0.909911 0.740597 0.316457
0.920836 0.739742 0.312322
0.931258 0.738903 0.308598
0.941726 0.738064 0.30486
0.951782 0.737118 0.301457
0.961746 0.736156 0.2981
0.971389 0.735058 0.294804
0.980438 0.733928 0.291676
0.988571 0.732586 0.288487
0.994568 0.731334 0.285405
0.998505 0.730037 0.282322
0.558831 0.711711 0.332784
0.577707 0.717266 0.337697
0.596658 0.722698 0.342504
0.615717 0.727886 0.34699
0.634974 0.732952 0.351308
0.654932 0.737804 0.355245
0.675059 0.742596 0.359228
0.69575 0.7467 0.362142
0.716258 0.750668 0.364858
0.736049 0.754025 0.366812
0.755169 0.756924 0.368154
0.772671 0.75906 0.368551
0.78909 0.760845 0.368093
0.804074 0.761959 0.366857
0.818006 0.762722 0.364675
0.831174 0.763195 0.362127
0.843641 0.763165 0.358602
0.855756 0.763149 0.355123
0.867308 0.762768 0.351232
0.878874 0.762493 0.347204
0.890028 0.762127 0.343374
0.901076 0.761807 0.339635
0.912001 0.761273 0.335698
0.92282 0.760876 0.332097
0.933303 0.760479 0.32871
0.943725 0.760037 0.325368
0.953857 0.759426 0.322133
0.963775 0.758892 0.318975
0.97348 0.758328 0.316106
0.982223 0.757733 0.313298
0.990402 0.757137 0.310536
0.995438 0.756481 0.307759
0.999405 0.755856 0.304982
0.578637 0.73579 0.347707
0.59585 0.74049 0.352361
0.613397 0.745251 0.35697
0.631327 0.749706 0.361089
0.649302 0.754086 0.365103
0.668391 0.758373 0.368765
0.687419 0.762448 0.372427
0.706767 0.766201 0.375692
0.725841 0.76965 0.378332
0.744488 0.772763 0.380316
0.761959 0.775265 0.381689
0.778744 0.777325 0.382239
0.793927 0.778912 0.381903
0.808377 0.780133 0.381277
0.821546 0.780941 0.379492
0.834318 0.781567 0.377707
0.846357 0.781796 0.374838
0.858228 0.781796 0.371572
0.869657 0.781674 0.368002
0.880964 0.781537 0.364324
0.892058 0.781231 0.360678
0.903075 0.781018 0.357122
0.913878 0.780758 0.35346
0.924605 0.780468 0.350027
0.935073 0.780041 0.346624
0.945418 0.77966 0.343389
0.95555 0.779263 0.340261
0.965377 0.778775 0.337163
0.975113 0.778286 0.334264
0.983551 0.777615 0.33138
0.991821 0.777066 0.328573
0.996094 0.77644 0.32575
1 0.77583 0.323033
0.595651 0.757824 0.361608
0.611978 0.762081 0.365988
0.628397 0.766278 0.370504
0.645243 0.770077 0.374533
0.662409 0.773907 0.378424
0.680293 0.777646 0.381994
0.698192 0.781094 0.385168
0.71635 0.784329 0.387976
0.734066 0.787213 0.390341
0.751553 0.789822 0.392126
0.76791 0.791943 0.393011
0.783764 0.793774 0.393591
0.797909 0.795071 0.393286
0.81181 0.79617 0.392615
0.824414 0.796765 0.391043
0.836866 0.797375 0.389181
0.84863 0.797604 0.386709
0.860304 0.797864 0.383932
0.871565 0.798001 0.381018
0.882719 0.798001 0.377997
0.893751 0.798047 0.374762
0.904677 0.798077 0.37171
0.915465 0.797971 0.368627
0.926101 0.797909 0.365454
0.936584 0.797879 0.362539
0.946868 0.79762 0.359609
0.957015 0.797436 0.35671
0.966781 0.79704 0.353689
0.976394 0.796658 0.350835
0.984756 0.796231 0.348241
0.992325 0.795697 0.345663
0.996857 0.795209 0.343145
1 0.794675 0.340444
0.609522 0.777325 0.374304
0.62504 0.781186 0.378653
0.640757 0.784817 0.382803
0.657023 0.788373 0.386633
0.67364 0.791791 0.390188
0.690471 0.795056 0.393469
0.707683 0.798215 0.396338
0.724804 0.801114 0.398947
0.741451 0.803571 0.400824
0.757961 0.805936 0.402533
0.773083 0.807599 0.403311
0.788083 0.809277 0.403769
0.801633 0.810361 0.403357
0.814817 0.811399 0.402869
0.827085 0.812039 0.401495
0.839124 0.812543 0.399908
0.850813 0.81294 0.397665
0.862135 0.813138 0.395285
0.873289 0.813367 0.392554
0.884306 0.813519 0.389838
0.895262 0.813565 0.386847
0.906096 0.813626 0.383963
0.916823 0.813596 0.381064
0.927352 0.813565 0.378027
0.937774 0.813535 0.375204
0.947997 0.813397 0.372412
0.958083 0.813184 0.369726
0.967849 0.813001 0.367391
0.977218 0.812802 0.365087
0.985779 0.812558 0.362829
0.992706 0.812192 0.36054
0.997742 0.811902 0.358099
1 0.811582 0.355901
0.622293 0.795743 0.386221
0.63679 0.799008 0.390173
0.651911 0.802243 0.393713
0.667567 0.805417 0.397238
0.683421 0.808362 0.400351
0.699474 0.811246 0.403311
0.71577 0.813855 0.405722
0.731884 0.816373 0.407965
0.747555 0.818494 0.409705
0.762875 0.820554 0.411048
0.777539 0.822126 0.411704
0.791562 0.823499 0.412009
0.804761 0.824674 0.411978
0.817411 0.825559 0.411322
0.829557 0.826276 0.410452
0.841199 0.826886 0.408911
0.852735 0.827314 0.407095
0.863828 0.82771 0.405081
0.874876 0.82797 0.402808
0.885771 0.82826 0.400458
0.896651 0.828412 0.397955
0.907393 0.828534 0.395087
0.91809 0.828656 0.392462
0.928496 0.828626 0.389792
0.938811 0.828656 0.387381
0.949035 0.828611 0.385
0.95903 0.828428 0.382498
0.968841 0.828305 0.38027
0.978027 0.828138 0.378088
0.986786 0.827832 0.375891
0.993271 0.827588 0.373587
0.99884 0.827344 0.371435
1 0.827054 0.369421
0.633844 0.81297 0.397024
0.647578 0.815976 0.400549
0.662303 0.818875 0.403906
0.677195 0.821668 0.407111
0.692454 0.824231 0.409842
0.707713 0.826734 0.412451
0.723003 0.828992 0.414542
0.73814 0.831128 0.416403
0.753017 0.833005 0.417807
0.767498 0.834684 0.418845
0.781445 0.836133 0.419654
0.794827 0.8374 0.419806
0.807706 0.838437 0.419684
0.819776 0.839246 0.419181
0.831739 0.840055 0.418357
0.843183 0.840543 0.416831
0.854475 0.841016 0.415427
0.8654 0.841382 0.413367
0.876387 0.841688 0.411383
0.887175 0.842008 0.409155
0.897856 0.842237 0.407141
0.908537 0.842481 0.404807
0.919112 0.842695 0.40264
0.929519 0.842771 0.400275
0.939757 0.842893 0.398169
0.949981 0.842863 0.396017
0.959915 0.842863 0.39382
0.969757 0.842847 0.391852
0.978866 0.842664 0.389899
0.987747 0.842588 0.388037
0.994049 0.842405 0.385901
1 0.842206 0.383948
1 0.841871 0.382116
0.644007 0.828855 0.406485
0.656718 0.83151 0.409689
0.671153 0.834028 0.412711
0.685557 0.836561 0.415625
0.700145 0.838895 0.418128
0.714641 0.841123 0.420417
0.72929 0.843183 0.422339
0.743648 0.845075 0.423926
0.757839 0.846799 0.425223
0.771511 0.84828 0.426047
0.785061 0.849638 0.426673
0.797772 0.850813 0.426764
0.81033 0.851865 0.426932
0.822126 0.852628 0.426276
0.833829 0.853422 0.425528
0.844999 0.853941 0.424369
0.856062 0.854429 0.423117
0.866941 0.854887 0.421469
0.877714 0.855222 0.419913
0.888411 0.855604 0.41799
0.899077 0.855863 0.416144
0.909621 0.856153 0.414054
0.920119 0.856321 0.412055
0.93048 0.85655 0.410071
0.940734 0.85658 0.407889
0.950851 0.856687 0.405951
0.960739 0.856703 0.403922
0.970581 0.856641 0.40206
0.979706 0.85658 0.400305
0.988418 0.856519 0.398428
0.995026 0.856321 0.396689
0.999969 0.856184 0.395026
0.999985 0.856016 0.393484
0.653498 0.844099 0.414984
0.665782 0.846479 0.418051
0.679576 0.848829 0.420844
0.693339 0.850965 0.423224
0.70721 0.853071 0.425498
0.721019 0.855009 0.427451
0.734829 0.85687 0.429206
0.74847 0.858518 0.430518
0.762036 0.860105 0.431708
0.775189 0.861418 0.432334
0.788128 0.862684 0.433036
0.800427 0.863798 0.433082
0.812528 0.864775 0.433097
0.824125 0.865583 0.432776
0.835538 0.866331 0.432425
0.846616 0.867002 0.431571
0.857588 0.867521 0.430442
0.868299 0.868055 0.429297
0.878965 0.868437 0.427741
0.889586 0.868803 0.426261
0.900175 0.869184 0.42446
0.910658 0.869474 0.422812
0.921096 0.869764 0.420874
0.931411 0.870054 0.419135
0.941604 0.870115 0.417136
0.951675 0.870268 0.415412
0.961563 0.870253 0.41352
0.971267 0.870298 0.411887
0.980591 0.870298 0.4103
0.989044 0.870192 0.408576
0.996201 0.87013 0.40705
0.999863 0.870039 0.405615
0.999954 0.86978 0.403998
0.662425 0.858671 0.422675
0.674205 0.860761 0.425452
0.68716 0.862898 0.427893
0.700313 0.864912 0.430167
0.713527 0.866758 0.432258
0.726818 0.868528 0.433982
0.739971 0.870237 0.435615
0.752987 0.871702 0.436728
0.765927 0.873137 0.437751
0.77847 0.874372 0.43856
0.790921 0.875563 0.4392
0.802915 0.876677 0.439536
0.814633 0.877623 0.439628
0.826062 0.878477 0.439643
0.837186 0.879194 0.439185
0.848234 0.879927 0.43856
0.858961 0.880461 0.437736
0.869612 0.880949 0.436622
0.880171 0.881422 0.435203
0.89073 0.881819 0.433936
0.901244 0.882216 0.432288
0.911665 0.882536 0.430823
0.922026 0.882841 0.429023
0.93228 0.88307 0.427436
0.942443 0.883299 0.425666
0.952453 0.883406 0.424094
0.962325 0.883528 0.422431
0.972015 0.883543 0.420951
0.98146 0.883619 0.419562
0.989807 0.88365 0.418021
0.997497 0.883589 0.416663
