LUT预设1/iPhone 专用lut-合集1/iPhone 标准版合集1(REC709)/富士3513-709.cube
TITLE "Generated by Resolve"
LUT_3D_SIZE 33
0.0311894 0.0471199 0.0410163
0.0301823 0.0477913 0.0417182
0.0286717 0.0485389 0.0425574
0.0366979 0.0497139 0.043183
0.0453803 0.0509041 0.0437629
0.0587472 0.0534066 0.0439155
0.0720836 0.055848 0.0439612
0.0834058 0.0591135 0.0440833
0.0957046 0.0622416 0.043946
0.116258 0.0644999 0.0424201
0.137133 0.066743 0.0406195
0.163607 0.0680705 0.0363012
0.190097 0.0694896 0.0317235
0.216449 0.0703441 0.0187381
0.242969 0.0712902 0.0056611
0.272114 0.0717174 0.00311284
0.301091 0.072282 0.000534066
0.331853 0.069749 0.000427253
0.362737 0.0670176 0.000244144
0.392706 0.0612345 0.000137331
0.422736 0.0550698 4.57771e-05
0.450767 0.0452735 0
0.477348 0.0347448 0
0.503746 0.0256809 0
0.529213 0.0158236 0
0.553857 0.0069276 0
0.576318 0.00352483 0
0.598123 6.10361e-05 0
0.615763 1.5259e-05 0
0.633463 0 0
0.64799 0.00062562 0
0.662409 0.000610361 0
0.674235 0.000427253 0
0.0318303 0.0522011 0.0434577
0.0293126 0.0527352 0.0442054
0.0300603 0.0534218 0.0448463
0.0376898 0.05449 0.0453956
0.0480659 0.0560311 0.045655
0.0625925 0.0582437 0.0455177
0.0758221 0.0610208 0.0454261
0.08748 0.0646372 0.0453956
0.103578 0.0679637 0.0446479
0.123232 0.0710002 0.0432746
0.146395 0.0735637 0.0406043
0.173556 0.0755322 0.0366522
0.200671 0.0772412 0.0288853
0.227741 0.0786908 0.0168307
0.25565 0.0799878 0.0087129
0.284733 0.0811475 0.00460822
0.314565 0.0815442 0.00112917
0.346151 0.0801862 0.00077821
0.377279 0.078645 0.000259403
0.40795 0.0751507 0.00015259
0.438636 0.0720836 0
0.465812 0.0649577 0
0.493034 0.0586404 0
0.51899 0.0458686 0
0.54461 0.0335546 0
0.5682 0.025803 0
0.591104 0.0180056 0
0.61117 0.0125429 0
0.628824 0.00972 0
0.645563 0.00663767 0
0.660258 0.00437934 0
0.674556 0.00190738 0
0.685756 0.0010071 0
0.0284886 0.0584115 0.0454261
0.0242924 0.0590219 0.0459602
0.0278935 0.06009 0.0465248
0.0341039 0.0612039 0.0471504
0.0491188 0.0633402 0.0472572
0.0663005 0.0656291 0.047364
0.0795758 0.0690318 0.0473182
0.0925917 0.0725261 0.0472419
0.111009 0.0759594 0.0462196
0.129534 0.0794995 0.0452125
0.156313 0.0817731 0.0415351
0.183825 0.0840162 0.0378729
0.211673 0.0863966 0.0277562
0.239414 0.0887465 0.0170443
0.268635 0.0910506 0.0101472
0.298054 0.0933547 0.00376898
0.329366 0.0943313 0.00143435
0.361257 0.094789 0.000610361
0.392813 0.0941787 0.00015259
0.424231 0.0930495 4.57771e-05
0.454429 0.0910048 0
0.482414 0.088014 0
0.509911 0.0836347 0
0.535698 0.0750896 0
0.560922 0.0664073 0
0.583459 0.049546 0
0.60621 0.0354314 0
0.62475 0.0323796 0
0.642939 0.0301976 0
0.658854 0.0294347 0
0.673701 0.0280461 0
0.68687 0.0265507 0
0.698344 0.0252232 0
0.0202487 0.0664073 0.0469062
0.0166629 0.0670024 0.0474403
0.0219272 0.0683909 0.0483101
0.0304112 0.0700999 0.0490272
0.0503243 0.0727092 0.0493019
0.0689555 0.0756542 0.0494392
0.0832837 0.0796368 0.0492866
0.0992752 0.0836652 0.0488136
0.11751 0.0879072 0.0478676
0.138964 0.0916762 0.0459144
0.166369 0.0946517 0.0421759
0.194232 0.097673 0.0363622
0.223072 0.100389 0.0254215
0.252186 0.103075 0.0154421
0.282078 0.105928 0.00854505
0.312413 0.108659 0.00209049
0.344625 0.110185 0.00112917
0.377035 0.112169 0
0.4094 0.112596 0
0.441779 0.113359 0
0.471168 0.112749 0
0.500038 0.112139 0
0.526879 0.107561 4.57771e-05
0.552712 0.101747 4.57771e-05
0.577218 0.0945907 1.5259e-05
0.60029 0.087129 0
0.622019 0.0824903 0
0.640497 0.0794537 0
0.658503 0.0760204 0
0.673136 0.0704356 0
0.687633 0.0637522 0
0.700084 0.0593423 0
0.712123 0.0565805 0
0.00898756 0.0782177 0.0492256
0.00900282 0.0793927 0.0500191
0.0110475 0.0809186 0.0509957
0.0275273 0.0831006 0.0514839
0.0519112 0.0855573 0.0517586
0.0704356 0.0890974 0.0518196
0.0872206 0.0931258 0.0517281
0.105379 0.0973373 0.05066
0.123644 0.101732 0.0493172
0.148806 0.105516 0.0460365
0.176257 0.109163 0.0420996
0.205203 0.112551 0.0325933
0.235111 0.115969 0.0204776
0.265599 0.1196 0.0116884
0.296422 0.123522 0.00482185
0.328237 0.12697 0.00122072
0.361059 0.129885 0.000442512
0.393927 0.132372 0
0.427115 0.133776 0
0.459144 0.134966 6.10361e-05
0.488258 0.134859 0.000198367
0.517296 0.134691 1.5259e-05
0.54406 0.132433 1.5259e-05
0.570886 0.130617 0
0.594644 0.126589 0
0.618433 0.12282 0
0.63888 0.118883 0
0.65803 0.115389 0
0.675258 0.112016 0
0.690333 0.108888 0
0.704799 0.107347 0
0.716915 0.107805 0
0.729091 0.109117 0
0.00210575 0.0906081 0.0521096
0.0031281 0.0923018 0.0531624
0.00572213 0.0941176 0.0541695
0.0276951 0.0966201 0.0542916
0.0483558 0.099443 0.0543221
0.0699779 0.103609 0.0539559
0.0920119 0.107851 0.0533303
0.110445 0.112444 0.0517128
0.130465 0.117082 0.0496376
0.158312 0.12108 0.045304
0.186419 0.125185 0.0398871
0.217075 0.128939 0.026566
0.247791 0.132784 0.0135195
0.279683 0.13753 0.00732433
0.311315 0.142351 0.00105287
0.344442 0.14612 0.000396735
0.377829 0.149966 6.10361e-05
0.4112 0.15201 0.00047303
0.444694 0.154025 0.000518807
0.47599 0.155123 0.000350958
0.506264 0.155978 0.000137331
0.53521 0.1561 1.5259e-05
0.5626 0.155428 0
0.589197 0.154498 0
0.613596 0.152438 0
0.637613 0.151019 0
0.657298 0.149981 0
0.677287 0.149096 0
0.693172 0.148211 0
0.708797 0.147677 0
0.722194 0.147463 0
0.734417 0.147265 0
0.744915 0.146029 0
0.000320439 0.103731 0.0555734
0.000503548 0.105699 0.0564736
0.00880446 0.10808 0.0568399
0.0246128 0.110719 0.0566415
0.0462196 0.11426 0.0561685
0.0728771 0.118486 0.055375
0.0953841 0.123125 0.0538186
0.114794 0.128038 0.0517433
0.139422 0.132677 0.0477607
0.167285 0.137057 0.0423743
0.197406 0.141436 0.0326238
0.229145 0.145586 0.019379
0.261463 0.150378 0.00961318
0.294102 0.155718 0.00392157
0.327138 0.160662 0.00138857
0.360647 0.164889 0.00144961
0.394247 0.168795 0.000762951
0.428519 0.17174 0.000411994
0.462638 0.174868 0
0.493965 0.176745 0
0.525399 0.178759 0
0.553567 0.179202 0
0.581735 0.17969 0
0.607721 0.179034 0
0.63328 0.178332 0
0.656184 0.177569 0
0.676707 0.176928 0
0.695933 0.176471 0
0.712001 0.176425 0
0.727352 0.175372 0
0.739483 0.175006 0
0.75169 0.175174 0
0.761212 0.175891 0
9.15541e-05 0.117739 0.0581826
0.00015259 0.119905 0.0588846
0.0104372 0.122698 0.0586862
0.0209506 0.12549 0.05832
0.0484474 0.129534 0.057145
0.0763561 0.133623 0.0558633
0.0979782 0.138735 0.0534676
0.119738 0.143908 0.051133
0.147753 0.148898 0.0446326
0.17586 0.153994 0.038056
0.208576 0.158968 0.0251164
0.24181 0.164065 0.01355
0.275044 0.170016 0.00886549
0.308537 0.176028 0.00436408
0.342367 0.181247 0.00271611
0.376455 0.18613 0.00125124
0.411231 0.190326 0.000442512
0.446311 0.194217 0.000137331
0.48011 0.197452 0
0.512566 0.199939 0
0.543725 0.202106 0
0.572732 0.203281 0
0.601038 0.204379 0
0.62742 0.20441 0
0.654002 0.204791 0
0.675471 0.204974 0
0.696208 0.2047 0
0.713588 0.204303 0
0.729686 0.204044 0
0.74406 0.204135 0
0.756512 0.204578 0
0.768368 0.205295 0
0.77789 0.206607 0
0 0.13315 0.0597391
0.002121 0.135821 0.0598154
0.00889601 0.139055 0.0592508
0.0224155 0.142657 0.0582589
0.0476692 0.146929 0.0564584
0.072221 0.151705 0.0542
0.0974746 0.15729 0.0514382
0.124712 0.162814 0.0470741
0.153994 0.168399 0.0402838
0.185275 0.174044 0.0319829
0.219776 0.179522 0.0208743
0.254322 0.185367 0.0119936
0.288838 0.191714 0.00759899
0.323613 0.197818 0.00321965
0.358144 0.203723 0.00169375
0.392752 0.209491 0
0.428275 0.214206 0
0.463996 0.219165 0
0.497841 0.222721 0
0.531624 0.226474 0
0.561944 0.22887 0
0.591424 0.231159 0
0.619745 0.232425 0
0.64683 0.232959 0
0.671672 0.233234 0
0.693355 0.233295 0
0.714488 0.23328 0
0.731136 0.233524 0
0.747997 0.233936 0
0.761166 0.23476 0
0.77409 0.235706 0
0.784939 0.237171 0
0.794797 0.238956 0
0 0.150698 0.0600137
0.00202945 0.153643 0.0596933
0.00425727 0.157031 0.0592203
0.0216068 0.161105 0.0575113
0.0415961 0.165454 0.0561227
0.0684062 0.171145 0.053315
0.0975967 0.177142 0.0499733
0.127871 0.183352 0.0426795
0.159152 0.189731 0.0346685
0.193927 0.196139 0.0252384
0.230015 0.202731 0.015198
0.266026 0.20972 0.00949111
0.301961 0.217044 0.00491341
0.337591 0.22388 0.0021973
0.373281 0.230564 0.000747692
0.409262 0.23653 0
0.445472 0.241718 0
0.481315 0.24654 0
0.516182 0.25066 0
0.550469 0.254765 0
0.580133 0.25716 0
0.609857 0.259449 0
0.637263 0.26038 0
0.664897 0.26125 0
0.688472 0.262013 0
0.711315 0.262577 0
0.730953 0.263432 0
0.74815 0.264347 0
0.764202 0.265217 0
0.777554 0.266453 0
0.79089 0.267781 0
0.800916 0.269566 0
0.810987 0.271641 0
0.000106813 0.169635 0.0602731
0.00106813 0.173175 0.0606851
0.00407416 0.176852 0.0606088
0.0161746 0.181308 0.058381
0.0312352 0.18613 0.0554513
0.0630808 0.192264 0.0502937
0.0952163 0.198627 0.0441291
0.129458 0.205692 0.0352941
0.164935 0.212833 0.0266728
0.203021 0.220111 0.0177462
0.240696 0.227527 0.00941482
0.278264 0.235492 0.00573739
0.315572 0.24358 0.00173953
0.352361 0.251102 0.000900282
0.388891 0.258549 7.62951e-05
0.425666 0.264424 0
0.462348 0.270253 0
0.497795 0.274891 0.000259403
0.533013 0.279103 0.000183108
0.565591 0.282475 0
0.596323 0.285389 0
0.625971 0.287739 0
0.6542 0.289235 0
0.681773 0.290959 0
0.705837 0.292119 0
0.730312 0.293431 0
0.747936 0.294743 0
0.765637 0.295933 0
0.780377 0.297108 0
0.794171 0.298482 0
0.806317 0.300008 0
0.816556 0.302113 0
0.826368 0.304402 0
0 0.189685 0.061677
0 0.193164 0.0618906
0.00318914 0.197269 0.0603494
0.0077821 0.201816 0.0574807
0.0272679 0.207507 0.0517586
0.0538796 0.21384 0.0442817
0.0886244 0.221057 0.0356909
0.129809 0.229007 0.0264897
0.170809 0.236942 0.0183261
0.2112 0.245182 0.0108034
0.251072 0.253681 0.00561532
0.290425 0.262409 0.00239567
0.32932 0.271092 0.000427253
0.367132 0.279255 0.000122072
0.404456 0.286549 0.000854505
0.441123 0.292515 0.00115969
0.477745 0.29836 0.000839246
0.513893 0.302968 0.000518807
0.549859 0.30779 0
0.58146 0.311391 0
0.613108 0.315114 0
0.642634 0.317464 0
0.671611 0.319646 0
0.697978 0.321386 0
0.723033 0.322866 0
0.745418 0.324361 0
0.763897 0.325826 0
0.78201 0.327535 0
0.796201 0.328939 0
0.810483 0.330404 0
0.821164 0.331868 0
0.831327 0.333516 0
0.839719 0.33576 0
0 0.210025 0.0615702
0 0.213565 0.0616464
0.000900282 0.218082 0.0587472
0.00187686 0.222705 0.0557717
0.0200809 0.229099 0.0460365
0.0375219 0.235721 0.036286
0.0855726 0.244434 0.025803
0.132845 0.2533 0.0153048
0.176074 0.262486 0.00981155
0.220127 0.271885 0.00415045
0.261707 0.281346 0.00225834
0.30312 0.290822 0.00207523
0.342 0.299489 0.00262455
0.380835 0.30811 0.00265507
0.418677 0.315358 0.00215152
0.456138 0.322011 0.00122072
0.493309 0.327749 0.000518807
0.530083 0.333074 0.000183108
0.565225 0.337743 0
0.598047 0.34197 0
0.63003 0.345861 0
0.659602 0.348394 0
0.689204 0.350866 0
0.715023 0.352911 0
0.741039 0.355001 0
0.761624 0.357046 0
0.781247 0.359106 0
0.797681 0.360662 0
0.811826 0.361898 0
0.825025 0.363317 0
0.835767 0.365148 0
0.846677 0.367239 0
0.8542 0.36997 0
0 0.23154 0.0590829
0 0.235492 0.057435
0 0.24033 0.0537423
0.0037232 0.245991 0.0467231
0.0107118 0.252598 0.0351415
0.0357366 0.260471 0.0243381
0.0833295 0.270024 0.0145266
0.130877 0.279866 0.00872816
0.17966 0.290028 0.00723278
0.227817 0.300023 0.00601205
0.271916 0.310018 0.00521859
0.314763 0.319539 0.0039826
0.355215 0.328893 0.00314336
0.39501 0.338125 0.00209049
0.433524 0.345815 0.00111391
0.472023 0.353582 0
0.50956 0.359564 0
0.547433 0.365927 0
0.581964 0.370932 0
0.615625 0.375799 0
0.647349 0.379736 0
0.677806 0.38294 0
0.706386 0.38587 0
0.733089 0.388174 0
0.7579 0.389899 0
0.77792 0.39147 0
0.79823 0.393118 0
0.812924 0.394476 0
0.827634 0.39588 0
0.840208 0.398077 0
0.851896 0.400549 0
0.862028 0.403372 0
0.870069 0.406653 0
0 0.253666 0.0564279
0 0.258396 0.0526589
0 0.26363 0.0478676
0 0.270268 0.0361639
0 0.277424 0.0246128
0.0333715 0.28748 0.0181125
0.0673381 0.29781 0.0125277
0.121538 0.308705 0.0105592
0.183185 0.319677 0.0083772
0.233982 0.330404 0.00645457
0.281132 0.341192 0.00415045
0.325231 0.351507 0.00273136
0.367864 0.361913 0.00167849
0.408835 0.371023 0.000869764
0.448447 0.379568 0.000289921
0.487907 0.387381 0
0.527077 0.394186 0
0.564721 0.400595 0
0.599481 0.406088 0
0.634226 0.41149 0
0.665431 0.415457 0
0.696406 0.41915 0
0.723857 0.421714 0
0.751049 0.423941 0
0.774319 0.426322 0
0.795651 0.428672 0
0.814771 0.430716 0
0.830549 0.432975 0
0.84593 0.435355 0
0.858091 0.437629 0
0.870359 0.440208 0
0.879408 0.44332 0
0.887922 0.446494 0
0 0.279194 0.0475166
0 0.284352 0.0428016
0 0.290303 0.0369573
0 0.297841 0.0281224
0.00421149 0.306218 0.0206912
0.0174716 0.316793 0.0163272
0.0424201 0.327474 0.0119478
0.117845 0.339223 0.00851453
0.190188 0.350912 0.00459297
0.240635 0.362417 0.00260929
0.291585 0.373983 0.000640879
0.336675 0.385214 0.000320439
0.382116 0.396765 0
0.423209 0.406088 0
0.464378 0.415763 0
0.504768 0.423819 0
0.545007 0.431479 0
0.582391 0.43827 0
0.618402 0.444175 3.0518e-05
0.652354 0.44918 0
0.683879 0.453315 0
0.714336 0.457328 0
0.742443 0.459968 0
0.770367 0.462654 0
0.792538 0.465339 0
0.814878 0.467811 0
0.832593 0.47042 0
0.849515 0.472831 0
0.864286 0.475578 0
0.877119 0.478141 0
0.889113 0.481178 0
0.898207 0.484245 0
0.90753 0.487633 0
0 0.305776 0.0419928
0 0.311162 0.0378424
0 0.318181 0.0319371
0 0.326024 0.024506
0.00262455 0.336095 0.0188754
0.00550851 0.347143 0.0135042
0.0539254 0.359136 0.00891127
0.124926 0.371679 0.00466926
0.186618 0.384207 0.00207523
0.245853 0.396765 0.000839246
0.299916 0.408896 0.000213626
0.348409 0.421256 6.10361e-05
0.394522 0.432639 0
0.437705 0.443046 0
0.480354 0.453117 1.5259e-05
0.521645 0.461143 0
0.562402 0.469169 0
0.599786 0.475441 0
0.637705 0.4822 0
0.67039 0.487037 0
0.702876 0.491875 0
0.732845 0.49546 0
0.762066 0.498604 0
0.788464 0.501579 0
0.811795 0.504616 0
0.833799 0.507469 0
0.851774 0.510384 0
0.869993 0.513405 0
0.883894 0.516655 0
0.897688 0.519768 0
0.908721 0.523247 0
0.918364 0.526268 0
0.926192 0.529183 0
0 0.33312 0.0386206
0 0.338338 0.0357366
0 0.346517 0.0281376
1.5259e-05 0.354849 0.0195926
1.5259e-05 0.366384 0.0132753
0.00349432 0.377905 0.00691234
0.0639506 0.391043 0.00355535
0.119112 0.404166 0
0.186862 0.417304 0
0.257252 0.430457 0
0.309148 0.443061 0
0.36054 0.455558 0.000244144
0.406241 0.466606 0.000167849
0.451438 0.477653 6.10361e-05
0.494759 0.487221 0
0.537194 0.496483 0
0.578363 0.504768 0
0.618143 0.512612 0
0.655772 0.51957 0
0.689509 0.525277 0
0.722499 0.530861 0
0.75256 0.534554 0
0.782864 0.538354 0
0.807492 0.541192 0
0.831876 0.543984 0
0.852689 0.546853 0
0.87155 0.549844 0
0.888548 0.552834 0
0.902602 0.55552 0
0.916014 0.558114 0
0.925521 0.560449 0
0.935149 0.562921 0
0.941863 0.565805 0
0 0.358129 0.0380865
0 0.364279 0.0322576
0 0.372045 0.0227665
0 0.38175 0.0146944
0 0.393652 0.00921645
0.018967 0.406653 0.00485237
0.0564431 0.420645 0.00180056
0.109392 0.434684 0.00106813
0.190448 0.448447 0.00265507
0.264179 0.461967 0.00282292
0.3178 0.475166 0.00173953
0.370687 0.488228 4.57771e-05
0.418204 0.500252 0
0.465614 0.512001 0
0.509392 0.521752 0
0.553307 0.531518 0
0.594568 0.539696 0
0.636103 0.547967 0
0.672633 0.554726 0
0.707515 0.560861 0
0.740108 0.565957 0
0.770916 0.570001 0
0.800137 0.573831 0
0.825696 0.576837 0
0.851087 0.580163 0
0.870298 0.58323 0
0.889326 0.586038 0
0.904707 0.588724 0
0.919524 0.591455 0
0.932128 0.594491 0
0.942321 0.597101 0
0.951583 0.59971 0
0.957839 0.60238 0
0 0.381918 0.0332036
0 0.388983 0.0241245
0 0.396628 0.0138247
0 0.408133 0.0114595
0 0.420249 0.0108034
0.0186465 0.434211 0.00991836
0.0373388 0.448386 0.00787366
0.111833 0.462501 0.00715648
0.198093 0.476555 0.00604257
0.264225 0.490333 0.00401312
0.325734 0.503975 0.00117494
0.379812 0.517159 0
0.429541 0.529931 0
0.477043 0.541711 0
0.522789 0.552575 0
0.567575 0.562905 0
0.610513 0.572137 0
0.65275 0.581262 0
0.689403 0.588785 0
0.726543 0.596384 0
0.758053 0.600992 0
0.789532 0.605356 0
0.81709 0.608652 0
0.843153 0.611307 0
0.865995 0.614252 0
0.88571 0.617212 0
0.904631 0.620218 0
0.920027 0.623026 0
0.935637 0.625925 0
0.946746 0.628717 0
0.957641 0.631586 0
0.965972 0.63447 0
0.972946 0.637369 0
0 0.403479 0.0329137
0 0.411353 0.0280613
0 0.420172 0.0243381
0 0.432212 0.022385
0.00263981 0.444709 0.0198825
0.0117189 0.459541 0.0157626
0.0361791 0.474311 0.0109255
0.119799 0.489036 0.00883497
0.199145 0.503822 0.00605783
0.267979 0.518212 0.00314336
0.338064 0.53257 0
0.389502 0.546136 0
0.441718 0.559808 0
0.489067 0.571542 0
0.536461 0.583383 0
0.581201 0.593698 0
0.626078 0.60383 0
0.666606 0.61265 0
0.705013 0.620722 0
0.740261 0.627115 0
0.77229 0.631815 0
0.803876 0.636698 0
0.831205 0.640116 0
0.858915 0.643915 0
0.880293 0.647211 0
0.901396 0.650797 0
0.919478 0.654139 0
0.935699 0.657008 0
0.950164 0.659876 0
0.961532 0.662669 0
0.972824 0.665537 0
0.979416 0.668238 0
0.98587 0.670954 0
0 0.424933 0.0388037
0 0.432761 0.035111
0 0.442939 0.0318761
0 0.45449 0.028336
0.00256352 0.46833 0.0226902
0.00579843 0.483238 0.0150301
0.0511177 0.498375 0.0100252
0.118685 0.513741 0.00686656
0.19234 0.529091 0.00392157
0.27451 0.544427 0.00137331
0.34461 0.559426 0
0.399329 0.574075 0
0.452476 0.588327 0
0.501167 0.600885 0
0.54931 0.613382 0
0.595209 0.62385 1.5259e-05
0.640818 0.634333 0
0.679774 0.642329 0
0.718746 0.650339 0
0.753017 0.656199 0
0.78645 0.661768 0
0.817243 0.666575 0
0.845853 0.670527 0
0.872267 0.674449 0
0.894575 0.678264 0
0.916564 0.682002 0
0.933257 0.685298 0
0.950103 0.688731 0
0.963317 0.691752 0
0.975662 0.695033 0
0.984939 0.698085 0
0.990677 0.700786 0
0.995422 0.70312 0
0 0.444389 0.0431525
0 0.452384 0.0379797
0 0.464042 0.0332799
3.0518e-05 0.475563 0.0277104
0.000595102 0.490944 0.0186923
0.00198367 0.506264 0.00868238
0.0554513 0.52221 0.00588998
0.104051 0.538155 0.0028687
0.195254 0.553964 0.00148013
0.289082 0.569924 0.000167849
0.351812 0.585229 0
0.410239 0.600519 7.62951e-05
0.462119 0.613733 0.000610361
0.51162 0.62652 0.000350958
0.559487 0.638041 6.10361e-05
0.606073 0.648997 3.0518e-05
0.650385 0.659022 0
0.691157 0.668009 0
0.730678 0.67657 0
0.765362 0.683207 0
0.800412 0.69012 0
0.830228 0.694942 0
0.860349 0.699947 0
0.88571 0.704662 0
0.909453 0.709133 0
0.92987 0.712535 0
0.946975 0.715663 0
0.963272 0.718685 0
0.975601 0.721462 0
0.987945 0.724132 0
0.992187 0.725292 0
0.995514 0.726192 0
0.996948 0.726696 0
0 0.461128 0.0493782
0 0.47013 0.0416571
0 0.481254 0.0321813
6.10361e-05 0.49427 0.0222782
0.000167849 0.50959 0.0126192
0.0153048 0.525475 0.00575265
0.0480812 0.54226 0.0030518
0.103899 0.559213 0.000991836
0.205081 0.575677 0.00259403
0.294423 0.591791 0.00273136
0.357305 0.607523 0.00225834
0.419272 0.623041 0.0009308
0.470619 0.636774 0.00047303
0.521523 0.650568 0
0.56965 0.662135 0
0.618036 0.673503 0
0.661067 0.683116 0
0.703197 0.692378 0
0.741497 0.700328 0
0.777264 0.707485 0
0.811246 0.713863 0
0.842359 0.719036 0
0.872663 0.724254 0
0.897093 0.728649 0
0.921798 0.733242 0
0.940703 0.73695 0
0.959014 0.74078 0
0.972915 0.743313 0
0.98439 0.745647 0
0.992935 0.74728 0
0.995209 0.747799 0
0.997436 0.748196 0
0.997543 0.748638 0
0 0.475822 0.0549325
0 0.486183 0.0406043
0 0.497154 0.0246586
0 0.511833 0.0162661
0 0.52726 0.0126955
0.0152285 0.543923 0.0123903
0.0317845 0.560784 0.0116426
0.114519 0.577096 0.0105898
0.216541 0.59324 0.00814832
0.294423 0.60911 0.00563058
0.364385 0.625162 0.00238041
0.425345 0.640208 0.000427253
0.478325 0.654551 0.000167849
0.530037 0.668132 0
0.579049 0.680308 0
0.626642 0.692088 0
0.670741 0.70251 0
0.714611 0.712871 0
0.751232 0.720867 0
0.788464 0.72903 0
0.821714 0.735531 0
0.854612 0.741863 0
0.883299 0.747234 0
0.908507 0.751675 0
0.931456 0.755474 0
0.949752 0.758434 0
0.968154 0.761471 0
0.979232 0.763149 0
0.99057 0.764782 0
0.994644 0.76492 0
0.996429 0.764691 0
0.997497 0.764569 0
0.997528 0.764675 0
0 0.489265 0.0678874
0 0.499931 0.0571603
0 0.511421 0.0485847
0 0.526482 0.0411536
0.00207523 0.541741 0.0341497
0.010956 0.558648 0.0285649
0.0328832 0.575067 0.0213474
0.128847 0.591485 0.0175784
0.220478 0.607858 0.0125124
0.296681 0.624567 0.00724804
0.376364 0.641306 0.000381476
0.432441 0.656703 0.000137331
0.487694 0.671916 4.57771e-05
0.538308 0.684825 0
0.588083 0.697459 0
0.634852 0.708873 0
0.680461 0.719646 0
0.722423 0.72932 0
0.760052 0.737819 0
0.797055 0.745922 0
0.830503 0.752132 0
0.863828 0.758419 0
0.88986 0.763012 0
0.916243 0.76788 0
0.937606 0.771756 0
0.957122 0.775357 0
0.972992 0.778119 0
0.984375 0.779843 0
0.994263 0.781445 0
0.995758 0.781033 0
0.997284 0.780423 0
0.997528 0.780209 0
0.997528 0.780163 0
0 0.50309 0.0855726
0 0.513008 0.0783703
0 0.525567 0.0699626
0 0.539696 0.0605325
0.00257877 0.555169 0.0505379
0.00634775 0.571328 0.0393072
0.0557565 0.587503 0.0305943
0.138811 0.6038 0.022858
0.220218 0.620218 0.0152743
0.306249 0.636973 0.0083772
0.382895 0.653483 0.00318914
0.439704 0.66923 0.0016022
0.495399 0.684565 0
0.54583 0.697887 0
0.596384 0.711177 0
0.642924 0.722652 0
0.689113 0.734096 3.0518e-05
0.728801 0.743313 0
0.767742 0.752392 0
0.803571 0.760067 0
0.837659 0.766598 0
0.869001 0.772549 0
0.896406 0.777478 0
0.923049 0.782406 0
0.943343 0.786038 0
0.963653 0.789807 0
0.976745 0.791806 0
0.989151 0.793744 0
0.995254 0.794217 0
0.996521 0.793545 0
0.997497 0.793088 0
0.997497 0.792966 0
0.997497 0.792966 0
0 0.514336 0.0999924
0 0.524239 0.0960861
0 0.537484 0.0853132
0 0.550484 0.0738537
0.0024567 0.56669 0.0621195
0.00447089 0.582574 0.0494545
0.071519 0.598901 0.0382849
0.137377 0.615 0.0251316
0.22742 0.63209 0.0174258
