LUT预设1/iPhone 专用lut-合集1/iPhone 标准版合集1(REC709)/富士3513-709.cube
TITLE "Generated by Resolve"
LUT_3D_SIZE 5
0.0311894 0.0471199 0.0410163
0.0957046 0.0622416 0.043946
0.301091 0.072282 0.000534066
0.529213 0.0158236 0
0.674235 0.000427253 0
0 0.13315 0.0597391
0.153994 0.168399 0.0402838
0.428275 0.214206 0
0.671672 0.233234 0
0.794797 0.238956 0
0 0.305776 0.0419928
0.186618 0.384207 0.00207523
0.562402 0.469169 0
0.811795 0.504616 0
0.926192 0.529183 0
0 0.475822 0.0549325
0.216541 0.59324 0.00814832
0.670741 0.70251 0
0.931456 0.755474 0
0.997528 0.764675 0
0 0.562799 0.199451
0.26038 0.673274 0.102144
0.717235 0.774624 0.019791
0.954376 0.824262 0.00787366
0.997421 0.827649 0.000701915
0.0069276 0.0507515 0.115267
0.105837 0.0659342 0.133883
0.327077 0.0597238 0.136812
0.561379 0.000106813 0.140597
0.700343 0 0.157641
0 0.155291 0.182696
0.146319 0.196704 0.199023
0.447501 0.229709 0.194659
0.681636 0.221546 0.179797
0.792325 0.216571 0.188907
0 0.365164 0.272038
0.10193 0.43769 0.269856
0.55874 0.501289 0.253147
0.803952 0.520668 0.233112
0.906081 0.540764 0.254322
0 0.547402 0.371527
0.0581979 0.649165 0.360021
0.639887 0.736202 0.33402
0.896437 0.771725 0.316823
0.984695 0.792081 0.345434
0 0.617441 0.479927
0.136187 0.729519 0.46978
0.682048 0.815412 0.463493
0.921736 0.855558 0.458412
0.995148 0.8719 0.484642
0.000122072 0.00341802 0.263584
0.114214 0.0207828 0.296635
0.348287 0.0120241 0.321431
0.585336 0 0.343465
0.717708 0 0.372229
0 0.148989 0.357824
0.087068 0.198962 0.383001
0.45539 0.249882 0.419776
0.692119 0.240513 0.425696
0.799466 0.240177 0.447898
0 0.363745 0.45272
0.0069276 0.445563 0.473991
0.546548 0.549249 0.524895
0.805692 0.571862 0.533227
0.905135 0.592523 0.559304
0 0.554833 0.565133
0.0210117 0.678553 0.593774
0.613458 0.789029 0.623468
0.885069 0.828962 0.632517
0.975738 0.849302 0.656321
0 0.606348 0.635706
0.0394751 0.739788 0.664393
0.654948 0.855695 0.706233
0.912535 0.902937 0.720928
0.989654 0.919081 0.741054
0 0 0.412543
0.105577 0.000381476 0.446784
0.370855 9.15541e-05 0.485451
0.606912 0 0.5131
0.740047 0 0.544121
0 0.123476 0.504463
0.0509804 0.195468 0.532357
0.458244 0.256107 0.590555
0.699702 0.246372 0.60647
0.808118 0.251011 0.626368
0 0.370016 0.591592
0 0.441871 0.606943
0.514153 0.559426 0.680018
0.808423 0.608362 0.721752
0.910872 0.627787 0.742046
0 0.544808 0.66482
0.000366217 0.664393 0.697414
0.583185 0.806699 0.76791
0.880888 0.862577 0.799939
0.975448 0.882979 0.817761
0 0.595254 0.702342
0 0.72401 0.731609
0.631662 0.867445 0.810086
0.908766 0.924941 0.839628
0.988083 0.939742 0.851026
0 0 0.497765
0.090898 0 0.529961
0.380148 0 0.573449
0.622278 0 0.605447
0.754482 0 0.631449
0 0.110155 0.576867
0.0535897 0.196612 0.604654
0.458808 0.260075 0.667506
0.706508 0.254536 0.690501
0.813413 0.260517 0.705486
0 0.376654 0.645258
0.00134279 0.447044 0.662623
0.496437 0.562646 0.734813
0.808698 0.625269 0.793271
0.914977 0.645991 0.810086
0 0.544625 0.697124
0 0.660517 0.727947
0.548547 0.791196 0.790677
0.880827 0.876188 0.852903
0.975372 0.893721 0.863706
0 0.594644 0.717891
0.0043183 0.720577 0.747936
0.620111 0.864576 0.828901
0.906477 0.930358 0.868223
0.987915 0.945052 0.876982
