LUT预设1/iPhone 专用lut-合集1/iPhone 标准版合集1(REC709)/富士3513-709.cube
TITLE "Generated by Resolve"
LUT_3D_SIZE 9
0.0311894 0.0471199 0.0410163
0.0453803 0.0509041 0.0437629
0.0957046 0.0622416 0.043946
0.190097 0.0694896 0.0317235
0.301091 0.072282 0.000534066
0.422736 0.0550698 4.57771e-05
0.529213 0.0158236 0
0.615763 1.5259e-05 0
0.674235 0.000427253 0
0.00898756 0.0782177 0.0492256
0.0519112 0.0855573 0.0517586
0.123644 0.101732 0.0493172
0.235111 0.115969 0.0204776
0.361059 0.129885 0.000442512
0.488258 0.134859 0.000198367
0.594644 0.126589 0
0.675258 0.112016 0
0.729091 0.109117 0
0 0.13315 0.0597391
0.0476692 0.146929 0.0564584
0.153994 0.168399 0.0402838
0.288838 0.191714 0.00759899
0.428275 0.214206 0
0.561944 0.22887 0
0.671672 0.233234 0
0.747997 0.233936 0
0.794797 0.238956 0
0 0.210025 0.0615702
0.0200809 0.229099 0.0460365
0.176074 0.262486 0.00981155
0.342 0.299489 0.00262455
0.493309 0.327749 0.000518807
0.63003 0.345861 0
0.741039 0.355001 0
0.811826 0.361898 0
0.8542 0.36997 0
0 0.305776 0.0419928
0.00262455 0.336095 0.0188754
0.186618 0.384207 0.00207523
0.394522 0.432639 0
0.562402 0.469169 0
0.702876 0.491875 0
0.811795 0.504616 0
0.883894 0.516655 0
0.926192 0.529183 0
0 0.403479 0.0329137
0.00263981 0.444709 0.0198825
0.199145 0.503822 0.00605783
0.441718 0.559808 0
0.626078 0.60383 0
0.77229 0.631815 0
0.880293 0.647211 0
0.950164 0.659876 0
0.98587 0.670954 0
0 0.475822 0.0549325
0 0.52726 0.0126955
0.216541 0.59324 0.00814832
0.478325 0.654551 0.000167849
0.670741 0.70251 0
0.821714 0.735531 0
0.931456 0.755474 0
0.99057 0.764782 0
0.997528 0.764675 0
0 0.525032 0.121599
0.00138857 0.576837 0.0740673
0.240101 0.641337 0.0138399
0.508247 0.70547 0.0105745
0.698405 0.753002 0.00283818
0.847578 0.786435 0
0.952667 0.807828 0
0.995514 0.814221 0
0.997452 0.811688 0
0 0.562799 0.199451
0.00527962 0.615 0.158343
0.26038 0.673274 0.102144
0.528801 0.729168 0.045182
0.717235 0.774624 0.019791
0.859403 0.805753 0.0175021
0.954376 0.824262 0.00787366
0.994934 0.83006 0.00215152
0.997421 0.827649 0.000701915
0.0276646 0.0500496 0.0629892
0.0428016 0.0539101 0.0680858
0.101778 0.0647746 0.0731365
0.201404 0.0719615 0.0707408
0.31342 0.0638743 0.0581064
0.436744 0.016968 0.04065
0.546044 0.0019379 0.0388495
0.631739 4.57771e-05 0.0284581
0.688457 0 0.028687
0.000976577 0.083711 0.0830854
0.0448157 0.0916762 0.0880751
0.128237 0.109407 0.0916762
0.247532 0.123079 0.0863355
0.372549 0.127504 0.0683146
0.495903 0.115114 0.043473
0.602243 0.0817426 0.0290837
0.681483 0.0561837 0.0200961
0.729885 0.0300908 0.00679026
0 0.145235 0.108858
0.0340276 0.160113 0.112917
0.155901 0.182147 0.112947
0.298192 0.201465 0.101732
0.436774 0.215366 0.0755474
0.566537 0.218647 0.0524453
0.672938 0.213199 0.0179141
0.74847 0.212497 0.0234226
0.791012 0.213687 0.0308995
0 0.231189 0.13463
0.00766003 0.251118 0.134783
0.162219 0.281544 0.12491
0.344427 0.309941 0.106554
0.496391 0.330404 0.073518
0.631357 0.341695 0.0492561
0.739559 0.345754 0.0288853
0.807157 0.34963 0.0145876
0.846296 0.357763 0.0288243
0 0.335683 0.161532
0 0.364233 0.154192
0.134188 0.405493 0.127916
0.387304 0.444312 0.0996262
0.557656 0.472404 0.0466773
0.700786 0.493935 0.0333715
0.806287 0.502617 0.0129397
0.873777 0.511452 0.00166323
0.911223 0.521157 0.002533
0 0.437995 0.194522
0.000793469 0.475425 0.184192
0.134188 0.525475 0.149676
0.426062 0.573114 0.111315
0.614527 0.608469 0.0718242
0.760723 0.6318 0.0162509
0.868818 0.647822 0.0293889
0.934783 0.658137 0.0317998
0.967025 0.666728 0.026978
0 0.513298 0.235813
0 0.559976 0.22565
0.13637 0.614176 0.191089
0.453269 0.66569 0.138079
0.651347 0.706203 0.0976883
0.800687 0.732265 0.0433051
0.907301 0.747356 0.005066
0.970016 0.759472 0.0391394
0.99266 0.766415 0.0735027
0 0.561257 0.293324
0 0.611704 0.281285
0.18471 0.667063 0.253452
0.478813 0.71928 0.223758
0.674144 0.757504 0.178943
0.822385 0.784146 0.146212
0.924773 0.800626 0.12842
0.979004 0.808194 0.114534
0.997162 0.81323 0.151492
0 0.596597 0.354009
0.000381476 0.648768 0.341711
0.195438 0.702464 0.320516
0.504158 0.752483 0.305394
0.697124 0.789166 0.289281
0.838285 0.813153 0.266316
0.930755 0.828138 0.25034
0.982666 0.83772 0.254704
0.997299 0.841886 0.284611
0.0069276 0.0507515 0.115267
0.0367895 0.0548714 0.123064
0.105837 0.0659342 0.133883
0.210544 0.0726329 0.138918
0.327077 0.0597238 0.136812
0.450706 0.00851453 0.135988
0.561379 0.000106813 0.140597
0.646143 0 0.146181
0.700343 0 0.157641
0 0.087892 0.145174
0.0306859 0.097612 0.152132
0.128695 0.117693 0.162997
0.256748 0.13106 0.168261
0.385107 0.133837 0.165667
0.508492 0.11725 0.158114
0.613016 0.0715648 0.153521
0.689204 0.0431983 0.153307
0.734691 0.00512703 0.159625
0 0.155291 0.182696
0.00779736 0.170459 0.190326
0.146319 0.196704 0.199023
0.305303 0.218051 0.199786
0.447501 0.229709 0.194659
0.57673 0.229343 0.186343
0.681636 0.221546 0.179797
0.751507 0.214633 0.178454
0.792325 0.216571 0.188907
0 0.249821 0.224781
0 0.270726 0.230945
0.13756 0.305226 0.233249
0.344945 0.333516 0.231601
0.50312 0.35111 0.224216
0.63769 0.358785 0.213123
0.741817 0.358984 0.205661
0.807828 0.361685 0.207004
0.84596 0.37142 0.224933
0 0.365164 0.272038
0 0.395346 0.274662
0.10193 0.43769 0.269856
0.378897 0.475319 0.263737
0.55874 0.501289 0.253147
0.700801 0.515846 0.241947
0.803952 0.520668 0.233112
0.869307 0.528923 0.235096
0.906081 0.540764 0.254322
0 0.473518 0.321401
0 0.513191 0.322133
0.085832 0.561456 0.31223
0.408286 0.606317 0.299916
0.608545 0.63859 0.28748
0.755169 0.657115 0.275013
0.860044 0.667628 0.268727
0.923232 0.67628 0.271473
0.956024 0.687846 0.289555
0 0.547402 0.371527
1.5259e-05 0.596078 0.372885
0.0581979 0.649165 0.360021
0.429191 0.699901 0.347127
0.639887 0.736202 0.33402
0.791287 0.758694 0.32134
0.896437 0.771725 0.316823
0.957015 0.781491 0.325597
0.984695 0.792081 0.345434
0 0.589273 0.427405
0 0.642985 0.427344
0.107958 0.6981 0.41352
0.451423 0.749401 0.405707
0.659983 0.786557 0.398001
0.811292 0.811048 0.388663
0.914626 0.826993 0.384482
0.970031 0.837278 0.39321
0.994003 0.845945 0.415579
0 0.617441 0.479927
0 0.674266 0.479667
0.136187 0.729519 0.46978
0.478431 0.779156 0.467521
0.682048 0.815412 0.463493
0.828473 0.840009 0.458549
0.921736 0.855558 0.458412
0.973938 0.865553 0.466911
0.995148 0.8719 0.484642
0.000183108 0.0377813 0.184024
0.0347295 0.0423285 0.196933
0.109941 0.0567178 0.21236
0.218082 0.0611124 0.222751
0.337484 0.0399786 0.22771
0.463188 0.00329595 0.233997
0.574777 0 0.244617
0.657771 0 0.255772
0.709285 0 0.269718
0 0.0808423 0.225071
0.0156558 0.0959793 0.236469
0.125429 0.119539 0.254093
0.262547 0.133562 0.265126
0.393545 0.135714 0.268452
0.517555 0.112535 0.266835
0.622385 0.0727092 0.269871
0.696391 0.0458381 0.276158
0.740505 0.0126497 0.287114
0 0.155413 0.270817
0.000183108 0.170657 0.278904
0.125887 0.200931 0.294545
0.306035 0.229999 0.308965
0.453147 0.241764 0.310124
0.583871 0.241016 0.309438
0.68806 0.232715 0.309697
0.75639 0.227039 0.314427
0.796551 0.230671 0.327138
0 0.250416 0.315343
0 0.271183 0.323018
0.0940261 0.311849 0.334874
0.337819 0.353033 0.353552
0.505379 0.371374 0.355917
0.64155 0.379263 0.354635
0.745205 0.37908 0.353841
0.810773 0.381857 0.358602
0.847044 0.391546 0.374899
0 0.36939 0.369985
0 0.405493 0.382483
0.0654307 0.456382 0.391501
0.360952 0.502266 0.400732
0.553719 0.527474 0.4
0.699306 0.541482 0.398199
0.804837 0.546944 0.397192
0.869093 0.555901 0.404273
0.90425 0.567864 0.422019
0 0.486183 0.430549
0 0.531548 0.442908
0.047715 0.587854 0.448127
0.382025 0.63592 0.447608
0.598001 0.667796 0.445548
0.749813 0.686412 0.442374
0.855406 0.696727 0.44332
0.918242 0.706157 0.452049
0.950759 0.718029 0.469413
0 0.560739 0.483848
0 0.613733 0.495232
0.0348363 0.67422 0.496773
0.403647 0.729122 0.49752
0.626673 0.765377 0.494896
0.782788 0.787823 0.492454
0.889097 0.801755 0.493919
0.948852 0.811368 0.502647
0.976989 0.821393 0.520607
0 0.594949 0.53109
0 0.655634 0.542626
0.0350958 0.717952 0.541787
0.419944 0.774701 0.547036
0.645823 0.812619 0.550118
0.801175 0.837934 0.548959
0.906325 0.854627 0.549859
0.96318 0.865766 0.560143
0.987976 0.873991 0.576288
0 0.617182 0.572457
0 0.680949 0.583978
0.0931868 0.74464 0.587518
0.451041 0.80087 0.59707
0.666773 0.837842 0.599634
0.818647 0.864317 0.601907
0.915419 0.881743 0.608377
0.96817 0.891966 0.617624
0.991272 0.898009 0.630014
0.000122072 0.00341802 0.263584
0.031754 0.0103609 0.279026
0.114214 0.0207828 0.296635
0.225269 0.0230564 0.311284
0.348287 0.0120241 0.321431
0.474861 0.000610361 0.330632
0.585336 0 0.343465
0.667704 0 0.357458
0.717708 0 0.372229
0 0.0607156 0.309316
0.0108034 0.0844129 0.323125
0.120058 0.113481 0.344427
0.266194 0.128985 0.361303
0.399435 0.130236 0.368551
0.524422 0.100389 0.370382
0.629374 0.0659648 0.376577
0.701839 0.0348821 0.38555
0.746838 0.017792 0.399939
0 0.148989 0.357824
0 0.166262 0.367498
0.087068 0.198962 0.383001
0.304326 0.238468 0.413626
0.45539 0.249882 0.419776
0.588129 0.249363 0.422873
0.692119 0.240513 0.425696
0.75993 0.235508 0.433326
0.799466 0.240177 0.447898
0 0.24654 0.402426
0 0.267002 0.410178
0.0362249 0.302785 0.417411
0.320684 0.361532 0.457786
0.50396 0.387457 0.473228
0.642374 0.395254 0.476417
0.746593 0.395041 0.478645
0.812848 0.398306 0.485435
0.849317 0.408576 0.502312
0 0.363745 0.45272
0 0.397696 0.4654
0.0069276 0.445563 0.473991
0.321782 0.510781 0.506111
0.546548 0.549249 0.524895
0.696468 0.563607 0.528847
0.805692 0.571862 0.533227
0.869749 0.579614 0.541985
0.905135 0.592523 0.559304
0 0.48159 0.514153
0 0.528283 0.531289
0.0222934 0.588403 0.543038
0.344259 0.655879 0.566964
0.585611 0.69221 0.576501
0.74522 0.713008 0.579995
0.854231 0.725078 0.585092
0.917296 0.733944 0.594507
0.949996 0.746532 0.611856
0 0.554833 0.565133
0 0.611597 0.582666
0.0210117 0.678553 0.593774
0.36791 0.748745 0.61474
0.613458 0.789029 0.623468
0.775891 0.813657 0.628214
0.885069 0.828962 0.632517
0.946319 0.838743 0.640177
0.975738 0.849302 0.656321
0 0.585367 0.604318
0 0.650126 0.622477
0 0.718273 0.630732
0.385061 0.789792 0.65481
0.632532 0.833234 0.667063
0.793729 0.8607 0.672602
0.901427 0.878843 0.679164
0.960983 0.890288 0.687587
0.985611 0.897322 0.699947
0 0.606348 0.635706
0 0.672709 0.653452
0.0394751 0.739788 0.664393
0.419852 0.811399 0.692409
0.654948 0.855695 0.706233
0.811994 0.884199 0.712474
0.912535 0.902937 0.720928
0.966171 0.913649 0.732403
0.989654 0.919081 0.741054
0 0 0.345006
0.0242466 0 0.359991
0.112718 0.000808728 0.378576
0.234821 0.00360113 0.397833
0.361364 0.00178531 0.412222
0.487358 0 0.422431
0.595911 0 0.435645
0.678111 0 0.451026
0.728374 0 0.4663
0 0.0179599 0.391577
0.00770581 0.0618906 0.405127
0.113405 0.0994736 0.428031
0.269825 0.117296 0.449714
0.404273 0.109499 0.46038
0.530434 0.0861219 0.466484
0.637064 0.0558328 0.474159
0.709331 0.00784314 0.483711
0.755428 0.0242466 0.500175
0 0.136217 0.439246
0 0.158785 0.450538
0.059266 0.196796 0.466087
0.300725 0.242481 0.506432
0.45687 0.254566 0.517189
0.590555 0.253605 0.522805
0.695766 0.244892 0.527611
0.763836 0.240803 0.53547
0.803586 0.246372 0.549279
0 0.244968 0.483757
0 0.266667 0.492821
0.00447089 0.297963 0.495552
0.300984 0.362509 0.543008
0.50135 0.39884 0.571313
0.642405 0.406577 0.577066
0.748241 0.407645 0.582696
0.815656 0.41239 0.59144
0.853513 0.42359 0.606394
0 0.36556 0.530709
0 0.397604 0.54258
0 0.440208 0.547234
0.268299 0.495384 0.571023
0.531914 0.559167 0.619257
0.694163 0.582086 0.63389
0.806851 0.592767 0.641459
0.872572 0.599527 0.650538
0.907851 0.613077 0.667475
0 0.477989 0.583291
0 0.522118 0.599145
0 0.58027 0.610086
0.277592 0.641169 0.629358
0.570687 0.70724 0.673136
0.740932 0.734142 0.686519
0.854185 0.74757 0.693568
0.918029 0.756222 0.701823
0.951019 0.768597 0.716564
0 0.547616 0.624903
0 0.60354 0.643687
0.0096437 0.671702 0.657664
0.310506 0.74229 0.68069
0.602182 0.80528 0.715618
0.770047 0.83238 0.726177
0.882445 0.849531 0.735164
0.945647 0.860288 0.742794
0.975677 0.870085 0.754528
0 0.578866 0.654826
0 0.641489 0.67364
0.00373846 0.710613 0.687282
0.343252 0.784604 0.715862
0.620157 0.846113 0.748531
0.788342 0.877012 0.759518
0.898573 0.896559 0.768399
0.960845 0.908904 0.778836
0.984863 0.914305 0.786847
0 0.598932 0.677684
0 0.664225 0.69572
0.00593576 0.730022 0.707118
0.380026 0.803449 0.740551
0.643748 0.866606 0.776959
0.8065 0.897475 0.787045
0.910643 0.916915 0.795987
0.96495 0.927245 0.805325
0.988403 0.932479 0.812818
0 0 0.412543
0.00749218 0 0.427543
0.105577 0.000381476 0.446784
0.240604 0.000717174 0.468177
0.370855 9.15541e-05 0.485451
0.49778 0 0.498863
0.606912 0 0.5131
0.688762 0 0.527916
0.740047 0 0.544121
0 0.00636301 0.459297
0.0056611 0.0389715 0.472114
0.106798 0.0819409 0.496956
0.271916 0.0948806 0.520211
0.408743 0.0906691 0.53341
0.537057 0.0677806 0.54374
0.64416 0.0353857 0.55346
0.719783 0.0111543 0.564675
0.764828 0.0260929 0.578759
0 0.123476 0.504463
0 0.152697 0.517006
0.0509804 0.195468 0.532357
0.296696 0.242878 0.575769
0.458244 0.256107 0.590555
0.594018 0.25565 0.599512
0.699702 0.246372 0.60647
0.768063 0.243702 0.61532
0.808118 0.251011 0.626368
0 0.245121 0.548028
0 0.269718 0.559045
0.0114137 0.303136 0.56286
0.287297 0.36202 0.604074
0.498131 0.406821 0.644739
0.642374 0.414878 0.653147
0.751095 0.418845 0.662242
0.81973 0.424475 0.671382
0.858366 0.435843 0.6851
0 0.370016 0.591592
0 0.400671 0.602548
0 0.441871 0.606943
0.22652 0.483848 0.617838
0.514153 0.559426 0.680018
0.692866 0.596323 0.711223
0.808423 0.608362 0.721752
0.87599 0.615152 0.729
0.910872 0.627787 0.742046
0 0.477974 0.633433
0 0.519905 0.648478
0 0.574548 0.658518
0.21912 0.620356 0.663539
0.539361 0.697414 0.718853
0.735912 0.746822 0.756786
0.85417 0.76289 0.768978
0.919173 0.771939 0.776669
0.952148 0.783902 0.787045
0 0.544808 0.66482
0 0.598672 0.682902
0.000366217 0.664393 0.697414
0.243503 0.72462 0.712032
0.583185 0.806699 0.76791
0.766262 0.844495 0.789822
0.880888 0.862577 0.799939
0.945556 0.87454 0.809155
0.975448 0.882979 0.817761
0 0.575128 0.686229
0 0.635355 0.704646
0.00135805 0.703136 0.718685
0.307515 0.766171 0.737408
0.608255 0.849485 0.79469
0.784802 0.887221 0.813931
0.896681 0.907515 0.823255
0.959686 0.91899 0.830945
0.984558 0.924056 0.836713
0 0.595254 0.702342
0 0.659037 0.719799
0 0.72401 0.731609
0.34847 0.791043 0.759258
0.631662 0.867445 0.810086
0.802899 0.904952 0.829511
0.908766 0.924941 0.839628
0.964492 0.935027 0.846448
0.988083 0.939742 0.851026
0 0 0.464225
0.000747692 0 0.478126
0.096849 0 0.498283
0.243641 0 0.521172
0.376196 0 0.539147
0.505577 0 0.554986
0.615946 0 0.570611
0.697658 0 0.5841
0.748821 0 0.597314
0 0 0.510246
0.000717174 0.024445 0.521721
0.109651 0.0736858 0.546151
0.272953 0.0832227 0.570214
0.41181 0.076524 0.585382
0.542138 0.0606088 0.596994
0.64976 0.0117189 0.607324
0.727855 0.0183413 0.620569
0.771374 0.0245365 0.631312
0 0.11368 0.5514
0 0.149065 0.56379
0.0543984 0.195621 0.578317
0.292729 0.242405 0.619364
0.459007 0.257069 0.639124
0.596521 0.25832 0.650965
0.703258 0.249577 0.658213
0.771435 0.246647 0.665888
0.811093 0.254582 0.675929
0 0.245945 0.589349
0 0.272435 0.602045
0.0153353 0.306203 0.605875
0.271763 0.360891 0.640024
0.497215 0.413916 0.690013
0.643259 0.422766 0.702449
0.752956 0.426703 0.712337
0.822141 0.432868 0.720989
0.860609 0.443671 0.731136
0 0.373739 0.626856
0 0.404181 0.63859
0 0.444434 0.643626
0.20737 0.478996 0.645747
0.503502 0.561028 0.715587
0.692393 0.606424 0.755703
0.808408 0.6177 0.767285
0.877592 0.625559 0.776471
0.912978 0.637919 0.785733
0 0.479133 0.661891
0 0.521141 0.676204
0 0.573877 0.685115
0.187793 0.61207 0.683772
0.51632 0.687968 0.73991
0.729732 0.751629 0.793133
0.854536 0.772473 0.809461
0.920165 0.781826 0.817533
0.953094 0.793469 0.825711
0 0.544076 0.686702
0 0.596963 0.703471
0 0.66125 0.717083
0.208042 0.715206 0.727001
0.562737 0.797574 0.784787
0.764858 0.851835 0.824063
0.880507 0.870634 0.834882
0.945312 0.882216 0.842252
0.975402 0.889464 0.847929
0 0.574044 0.701503
0 0.633219 0.720073
0 0.699702 0.733745
0.286381 0.757702 0.747494
0.598108 0.846342 0.810559
0.782757 0.891859 0.838926
0.895018 0.912947 0.85008
0.958206 0.923568 0.856535
0.984405 0.928786 0.860517
0 0.594308 0.712551
0 0.657359 0.730739
0 0.722026 0.743145
0.333165 0.783475 0.765896
0.623865 0.865614 0.823163
0.801663 0.908598 0.848753
0.907713 0.928664 0.859266
0.96463 0.938888 0.865736
0.988037 0.943374 0.869169
0 0 0.497765
6.10361e-05 0 0.511543
0.090898 0 0.529961
0.24564 0 0.55375
0.380148 0 0.573449
0.510903 0 0.589899
0.622278 0 0.605447
0.703929 0 0.619776
0.754482 0 0.631449
0 0 0.540825
0 0.0183261 0.552499
0.112245 0.0686809 0.575891
0.273182 0.0793164 0.599283
0.413779 0.0709544 0.615671
0.54519 0.0589151 0.629648
0.654444 0.0107424 0.641718
0.732387 0.0234073 0.653712
0.775418 0.0229191 0.662913
0 0.110155 0.576867
0 0.147143 0.589532
0.0535897 0.196612 0.604654
0.289006 0.243854 0.645792
0.458808 0.260075 0.667506
0.59791 0.262226 0.681178
0.706508 0.254536 0.690501
0.774212 0.251484 0.69749
0.813413 0.260517 0.705486
0 0.249012 0.612467
0 0.274418 0.624262
0.0121004 0.307439 0.628336
0.259022 0.360937 0.660533
0.495872 0.419669 0.716701
0.644602 0.42977 0.731106
0.754467 0.432807 0.740795
0.824033 0.439933 0.750668
0.862501 0.450614 0.759045
0 0.376654 0.645258
0 0.407431 0.65774
0.00134279 0.447044 0.662623
0.19559 0.47689 0.659113
0.496437 0.562646 0.734813
0.691814 0.613809 0.781765
0.808698 0.625269 0.793271
0.87866 0.633249 0.802075
0.914977 0.645991 0.810086
0 0.480858 0.67689
0 0.522545 0.691142
0 0.574853 0.700099
0.175189 0.608972 0.694057
0.503746 0.684169 0.751263
0.724285 0.753887 0.811276
0.854078 0.779446 0.832212
0.921111 0.788556 0.839109
0.953994 0.800229 0.845121
0 0.544625 0.697124
0 0.597269 0.714397
0 0.660517 0.727947
0.193042 0.710781 0.734783
0.548547 0.791196 0.790677
0.760922 0.854337 0.838911
0.880827 0.876188 0.852903
0.945357 0.886885 0.85951
0.975372 0.893721 0.863706
0 0.57435 0.709209
0 0.63241 0.726909
0 0.698009 0.740719
0.268605 0.754086 0.753216
0.591501 0.843702 0.817258
0.782055 0.894621 0.851225
0.89485 0.915908 0.862501
0.957427 0.926329 0.868818
0.984451 0.931579 0.872465
0 0.594644 0.717891
0 0.656718 0.735637
0.0043183 0.720577 0.747936
0.328161 0.778454 0.767102
0.620111 0.864576 0.828901
0.800946 0.910445 0.858045
0.906477 0.930358 0.868223
0.964477 0.940642 0.873991
0.987915 0.945052 0.876982
