LUT预设1/iPhone 专用lut-合集1/iPhone 标准版合集1(REC709)/电影暖调709.cube
TITLE "Generated by Resolve"
LUT_3D_SIZE 9
0.063447 0.0843061 0.0850538
0.0952163 0.0845808 0.0858625
0.158129 0.0819104 0.0832227
0.2636 0.0779126 0.0776837
0.401465 0.0736706 0.0731365
0.541558 0.0738079 0.0682689
0.662074 0.0774701 0.0621042
0.751034 0.0815747 0.0549783
0.815961 0.0877241 0.0555123
0.0744488 0.119722 0.0991684
0.115831 0.126268 0.101106
0.194629 0.132662 0.0932326
0.321874 0.141894 0.0825971
0.472892 0.151919 0.07364
0.61442 0.161379 0.0691386
0.727611 0.170153 0.0652934
0.813001 0.177691 0.0627451
0.870039 0.186557 0.0647898
0.0885023 0.190677 0.113832
0.142214 0.209018 0.116258
0.249226 0.232898 0.112322
0.400824 0.264851 0.101701
0.565133 0.296056 0.0913252
0.707149 0.319463 0.0834669
0.812619 0.334462 0.0845045
0.884199 0.343755 0.0973831
0.927733 0.350179 0.117128
0.109712 0.317784 0.134813
0.178851 0.352911 0.138415
0.323598 0.394186 0.138598
0.499443 0.440589 0.136339
0.66424 0.482734 0.12961
0.78967 0.505531 0.134752
0.876982 0.513268 0.151629
0.930388 0.512795 0.168963
0.959838 0.51107 0.190692
0.15172 0.487816 0.175311
0.248585 0.530587 0.185046
0.416098 0.57937 0.189975
0.592691 0.625071 0.201541
0.736446 0.6542 0.224125
0.838163 0.664256 0.240116
0.912077 0.665232 0.249271
0.961456 0.661021 0.260731
0.981186 0.652781 0.280644
0.205524 0.639323 0.248356
0.328176 0.682689 0.265339
0.505989 0.727153 0.282277
0.665415 0.761181 0.309422
0.785992 0.784176 0.334508
0.879774 0.796384 0.349966
0.940246 0.792737 0.358709
0.978485 0.782666 0.368795
0.993423 0.768917 0.387304
0.280735 0.757214 0.337972
0.419608 0.79379 0.364248
0.585382 0.828733 0.384054
0.717357 0.857053 0.40824
0.82034 0.878187 0.432822
0.902083 0.889952 0.454261
0.959991 0.888167 0.467063
0.987549 0.872786 0.475456
0.997223 0.856153 0.490623
0.368048 0.844602 0.429175
0.519356 0.873533 0.452415
0.653407 0.898848 0.474189
0.756481 0.918257 0.497017
0.842023 0.932998 0.519081
0.910887 0.94229 0.538796
0.964553 0.945098 0.554711
0.993072 0.934615 0.564324
0.998047 0.915709 0.575784
0.481315 0.90132 0.506767
0.606241 0.92079 0.527749
0.705837 0.937804 0.550179
0.78938 0.950683 0.57145
0.85803 0.959518 0.590082
0.914885 0.966171 0.606531
0.959487 0.969696 0.621195
0.987442 0.966262 0.633738
0.996201 0.952728 0.644388
0.0606241 0.0875105 0.0973678
0.0944533 0.0867933 0.105379
0.159808 0.0846265 0.102861
0.272557 0.0776684 0.109819
0.415732 0.0691539 0.113527
0.555337 0.066804 0.114611
0.674464 0.0694133 0.113802
0.760998 0.0749828 0.11313
0.823621 0.0813611 0.113695
0.0684062 0.125353 0.115984
0.11281 0.130892 0.123857
0.199924 0.132494 0.123781
0.332219 0.134707 0.11931
0.486839 0.137667 0.118013
0.62504 0.14522 0.117632
0.734524 0.155108 0.11693
0.815732 0.163943 0.117784
0.872007 0.179034 0.13135
0.0855879 0.199512 0.148363
0.140856 0.217548 0.15552
0.254475 0.238087 0.155993
0.413825 0.2636 0.147463
0.577508 0.289815 0.141711
0.715816 0.312032 0.144701
0.814542 0.327977 0.158145
0.882841 0.340215 0.179187
0.925292 0.3505 0.201938
0.108064 0.329702 0.184451
0.177447 0.363882 0.194873
0.327153 0.405493 0.201648
0.510353 0.451728 0.202411
0.671519 0.488273 0.206287
0.791684 0.505806 0.222522
0.876509 0.512581 0.242969
0.931014 0.515175 0.261952
0.962585 0.51725 0.283146
0.150378 0.501854 0.245319
0.244266 0.542214 0.262272
0.41799 0.589822 0.276295
0.597375 0.633143 0.296101
0.739803 0.661128 0.319112
0.840635 0.670802 0.33164
0.914809 0.672618 0.342626
0.962493 0.66981 0.357473
0.982696 0.665568 0.380468
0.212009 0.656123 0.324132
0.337102 0.69424 0.353582
0.515007 0.734707 0.378943
0.669993 0.7691 0.403769
0.788449 0.793957 0.426398
0.878828 0.805097 0.44329
0.9393 0.80119 0.453864
0.97734 0.791959 0.465126
0.991806 0.781628 0.48452
0.297169 0.775143 0.420432
0.44831 0.808454 0.451545
0.603677 0.839353 0.475334
0.725643 0.865232 0.500313
0.822248 0.884825 0.523201
0.901061 0.896819 0.542504
0.955718 0.893736 0.553613
0.983322 0.880308 0.5617
0.994308 0.866667 0.574899
0.40943 0.861738 0.509834
0.558907 0.887037 0.535637
0.674891 0.907271 0.560525
0.768185 0.923552 0.582986
0.846815 0.935988 0.60148
0.911788 0.944717 0.617563
0.962234 0.948592 0.631769
0.988006 0.93875 0.639796
0.994461 0.923201 0.649363
0.528893 0.915175 0.58265
0.641779 0.930861 0.607477
0.729656 0.944198 0.629755
0.802533 0.953643 0.648142
0.865446 0.961028 0.662974
0.918837 0.967468 0.676356
0.959716 0.971603 0.689189
0.98584 0.970245 0.699901
0.99321 0.958328 0.709895
0.057496 0.0928969 0.114641
0.094377 0.0922866 0.132784
0.155703 0.0927443 0.128405
0.272648 0.0857252 0.13669
0.424598 0.0722057 0.158129
0.566613 0.0675364 0.17026
0.683299 0.0694133 0.176837
0.768887 0.0760204 0.18143
0.829953 0.0823224 0.186526
0.0584878 0.13576 0.134691
0.105714 0.140459 0.152926
0.202457 0.139223 0.164355
0.339971 0.138293 0.174121
0.49865 0.132616 0.185565
0.635111 0.136614 0.19411
0.742351 0.145693 0.200946
0.821729 0.158724 0.211368
0.875593 0.178149 0.228153
0.0763714 0.214481 0.192554
0.133608 0.231632 0.206531
0.252598 0.247837 0.219623
0.42092 0.266072 0.223331
0.584802 0.285863 0.231327
0.717159 0.305653 0.24509
0.812024 0.323766 0.264836
0.880262 0.34052 0.285023
0.924895 0.356497 0.305928
0.105287 0.347509 0.255604
0.175494 0.37911 0.272343
0.32723 0.417868 0.288426
0.516854 0.461387 0.300023
0.67364 0.490562 0.314092
0.790707 0.506035 0.332326
0.874815 0.515892 0.350164
0.930037 0.522637 0.368795
0.963607 0.529854 0.389685
0.153933 0.521737 0.329015
0.246006 0.5579 0.353735
0.422889 0.600198 0.37998
0.602701 0.640803 0.401953
0.742397 0.66891 0.420539
0.841718 0.679713 0.434104
0.915206 0.682994 0.448386
0.960372 0.682948 0.465354
0.981003 0.683162 0.487236
0.223529 0.676341 0.413901
0.356405 0.710674 0.449256
0.532341 0.745495 0.478508
0.677745 0.777844 0.501381
0.790402 0.803052 0.522225
0.876265 0.813443 0.537743
0.936477 0.810864 0.549264
0.973663 0.803449 0.561151
0.987961 0.797086 0.578225
0.320851 0.794568 0.506691
0.483146 0.824369 0.539727
0.626047 0.849882 0.566003
0.736721 0.871946 0.590204
0.826062 0.890059 0.609033
0.900786 0.902129 0.624125
0.951446 0.899016 0.633829
0.978637 0.888121 0.641703
0.990555 0.877089 0.653468
0.448692 0.877653 0.586191
0.593729 0.899153 0.616266
0.697475 0.914626 0.640574
0.782315 0.927398 0.660533
0.85388 0.937774 0.675608
0.914076 0.946471 0.689036
0.960266 0.950957 0.70135
0.982803 0.942763 0.708705
0.99086 0.930724 0.717662
0.559136 0.926604 0.650324
0.672786 0.939361 0.679057
0.755047 0.948699 0.700618
0.819059 0.955688 0.715648
0.875853 0.96202 0.728771
0.923629 0.967895 0.740246
0.959991 0.972198 0.751125
0.983673 0.971939 0.760433
0.991028 0.962371 0.768994
0.0485542 0.1028 0.137911
0.0917525 0.100069 0.168734
0.153872 0.0997482 0.172534
0.249241 0.102464 0.155306
0.413489 0.0861219 0.181506
0.565377 0.078584 0.210758
0.685435 0.0803082 0.234272
0.771115 0.0864881 0.250736
0.831464 0.092668 0.262181
0.0455482 0.152422 0.153216
0.0966354 0.15787 0.18819
0.197421 0.155245 0.2215
0.332937 0.156252 0.215091
0.497642 0.146578 0.241566
0.637659 0.147295 0.269215
0.745403 0.154131 0.287831
0.823896 0.168063 0.305394
0.877546 0.186572 0.32314
0.0598306 0.236774 0.23267
0.120684 0.253132 0.257038
0.244053 0.267582 0.286
0.418143 0.281407 0.305516
0.586633 0.29482 0.332982
0.717952 0.309468 0.359213
0.813275 0.326818 0.382376
0.882948 0.346639 0.398901
0.927977 0.367178 0.414298
0.0954757 0.372747 0.333623
0.17293 0.403281 0.356909
0.326543 0.436957 0.38558
0.516854 0.470817 0.41088
0.673457 0.495033 0.430121
0.789914 0.510857 0.447059
0.872251 0.523842 0.463722
0.927459 0.537697 0.482734
0.962112 0.551247 0.501717
0.158618 0.546181 0.423362
0.258457 0.581994 0.453559
0.437186 0.616693 0.483604
0.610849 0.651164 0.507408
0.743969 0.676936 0.525231
0.840406 0.68986 0.53872
0.912352 0.696361 0.553643
0.955367 0.700618 0.56968
0.976303 0.705653 0.588266
0.238285 0.69778 0.507866
0.383581 0.7299 0.543328
0.554025 0.759533 0.57145
0.68806 0.786633 0.593637
0.793347 0.810269 0.61236
0.874891 0.820737 0.626001
0.933669 0.820874 0.636942
0.969467 0.816724 0.647532
0.983719 0.813886 0.661677
0.343435 0.812451 0.588373
0.511543 0.839612 0.621424
0.647227 0.860014 0.647944
0.749416 0.877623 0.668757
0.831785 0.893553 0.684092
0.901442 0.904799 0.697261
0.948775 0.903944 0.706874
0.974807 0.896071 0.715053
0.987518 0.888289 0.724865
0.472099 0.891661 0.655039
0.615946 0.90956 0.685466
0.71783 0.921019 0.708949
0.797147 0.93051 0.727413
0.862486 0.939223 0.741375
0.917388 0.947631 0.753246
0.959381 0.952224 0.763806
0.979568 0.946151 0.770596
0.988647 0.93727 0.778378
0.575708 0.935256 0.706477
0.693187 0.945724 0.736507
0.775494 0.95198 0.758724
0.836225 0.957214 0.77438
0.887007 0.962509 0.786542
0.928557 0.967666 0.796841
0.960998 0.971984 0.806058
0.981903 0.972045 0.812879
0.989975 0.965179 0.81886
0.0340734 0.118395 0.166674
0.0861677 0.112352 0.211002
0.157519 0.104936 0.245045
0.240116 0.111254 0.21146
0.373617 0.110033 0.205951
0.542702 0.102983 0.233722
0.6766 0.102602 0.26717
0.767056 0.106584 0.294072
0.830457 0.111116 0.31078
0.0323339 0.175387 0.181186
0.0881208 0.17847 0.234394
0.197772 0.170031 0.293233
0.306325 0.17937 0.269505
0.468055 0.178882 0.273564
0.621897 0.176547 0.307317
0.741665 0.177417 0.336645
0.82295 0.188861 0.363821
0.879484 0.203906 0.386435
0.0420691 0.265461 0.265736
0.112535 0.2822 0.295628
0.246174 0.296101 0.351339
0.409339 0.310857 0.377844
0.576654 0.323735 0.396246
0.714 0.332174 0.435874
0.813703 0.345418 0.461967
0.885206 0.362844 0.48127
0.930648 0.38294 0.497414
0.0793469 0.406332 0.405737
0.169223 0.436515 0.433585
0.331594 0.467201 0.470848
0.520638 0.4925 0.506081
0.672282 0.511666 0.525948
0.788006 0.524468 0.548959
0.870512 0.537316 0.567559
0.92723 0.555047 0.583139
0.960906 0.572671 0.596384
0.155444 0.57641 0.518944
0.272343 0.609628 0.548882
0.454688 0.639033 0.578744
0.621515 0.665431 0.602884
0.744793 0.686503 0.618341
0.837827 0.700954 0.631647
0.908522 0.711849 0.64535
0.949416 0.721431 0.659449
0.971099 0.730449 0.673365
0.251301 0.719722 0.597757
0.40708 0.750027 0.628901
0.572503 0.774945 0.653819
0.698772 0.796368 0.674769
0.797375 0.815854 0.692683
0.874891 0.827237 0.704021
0.931701 0.830915 0.713237
0.965301 0.830793 0.722881
0.979965 0.832044 0.735042
0.363806 0.828946 0.663874
0.531197 0.853407 0.692973
0.662699 0.869856 0.715984
0.760128 0.883574 0.735302
0.838041 0.897124 0.75079
0.903838 0.907485 0.763622
0.94818 0.908461 0.772137
0.972808 0.90396 0.777874
0.985275 0.899992 0.785397
0.490318 0.903532 0.715846
0.628443 0.918196 0.742611
0.731929 0.926696 0.765942
0.810758 0.933257 0.784421
0.872053 0.940826 0.797406
0.921553 0.948608 0.808087
0.959091 0.952956 0.816892
0.97789 0.94905 0.822461
0.987488 0.943084 0.827192
0.587762 0.942245 0.755077
0.703349 0.950622 0.781323
0.78941 0.954955 0.80441
0.852659 0.958648 0.821637
0.899687 0.963165 0.833539
0.935347 0.967971 0.841688
0.962936 0.97171 0.848417
0.980255 0.971817 0.853452
0.988632 0.967697 0.857343
0.0205692 0.137392 0.203723
0.0851453 0.126497 0.263859
0.171084 0.112978 0.314611
0.253025 0.1131 0.304921
0.341405 0.130526 0.254139
0.480644 0.138949 0.263172
0.639429 0.135378 0.29247
0.751766 0.135195 0.318379
0.826841 0.136141 0.336721
0.021149 0.201038 0.220295
0.087953 0.197131 0.297139
0.211337 0.184405 0.375341
0.324453 0.186511 0.371695
0.430961 0.209216 0.324727
0.573938 0.21738 0.341772
0.71603 0.218418 0.370291
0.814908 0.224842 0.397559
0.87892 0.235615 0.421149
0.0307164 0.29865 0.294438
0.111864 0.316152 0.337713
0.261219 0.327489 0.427329
0.417456 0.3402 0.45864
0.545022 0.365209 0.443976
0.689525 0.372885 0.472251
0.806134 0.379843 0.503334
0.884245 0.391943 0.529366
0.93164 0.407202 0.550546
0.0651408 0.444343 0.462257
0.175463 0.473381 0.487312
0.354604 0.50161 0.531167
0.534813 0.52311 0.574487
0.666972 0.542214 0.583749
0.781247 0.552453 0.614618
0.867536 0.563027 0.636484
0.926696 0.576959 0.651911
0.960052 0.592706 0.662898
0.14667 0.607279 0.601801
0.28246 0.636805 0.626093
0.469123 0.66334 0.65037
0.6327 0.685832 0.674189
0.745296 0.703685 0.691478
0.835218 0.716518 0.708904
0.904707 0.728267 0.721813
0.945556 0.740322 0.731365
0.968688 0.750423 0.740566
0.258869 0.743618 0.680278
0.423178 0.770764 0.70602
0.5841 0.792966 0.727611
0.705562 0.810239 0.747326
0.799558 0.824292 0.760449
0.874525 0.835065 0.769329
0.929702 0.84126 0.776806
0.961517 0.845426 0.785306
0.976837 0.850156 0.794659
0.384909 0.845685 0.732692
0.545098 0.866972 0.756359
0.67155 0.88101 0.776654
0.767056 0.891371 0.79324
0.844724 0.901595 0.807095
0.906905 0.91046 0.81738
0.947662 0.913451 0.822248
0.970932 0.912367 0.826444
0.98291 0.91191 0.832319
0.508476 0.913771 0.771527
0.638575 0.92549 0.793271
0.740978 0.932158 0.812604
0.822583 0.937057 0.829145
0.882521 0.943313 0.841077
0.927626 0.950011 0.850263
0.959274 0.953964 0.856825
0.976226 0.952026 0.859785
0.985885 0.948684 0.862287
0.601312 0.948547 0.800061
0.712276 0.955032 0.820706
0.798489 0.958129 0.839872
0.865202 0.960739 0.856062
0.912474 0.96463 0.867216
0.942779 0.968765 0.874006
0.964996 0.971786 0.879194
0.979232 0.972244 0.883116
0.986938 0.96994 0.886046
0.0165255 0.15378 0.255818
0.0939345 0.138064 0.331777
0.193317 0.123278 0.388952
0.274632 0.117647 0.393103
0.347784 0.136461 0.324239
0.43743 0.164279 0.300175
0.572351 0.173114 0.325124
0.699596 0.173724 0.349874
0.797208 0.170764 0.366278
0.0138094 0.228092 0.269596
0.0961776 0.216358 0.371603
0.236851 0.205814 0.454856
0.350866 0.203082 0.475593
0.434867 0.227588 0.398138
0.522576 0.255238 0.383658
0.653391 0.269139 0.410971
0.774762 0.273442 0.435477
0.861234 0.278904 0.455238
0.0267338 0.334569 0.327688
0.119875 0.35407 0.393393
0.28835 0.36289 0.500328
0.445975 0.370535 0.54992
0.549416 0.394888 0.507301
0.648432 0.414466 0.511498
0.770474 0.42414 0.537026
0.869078 0.432486 0.561929
0.924956 0.445548 0.584329
0.0658427 0.47895 0.495613
0.200565 0.508446 0.520729
0.391073 0.535927 0.579599
0.559472 0.554742 0.633463
0.659968 0.575814 0.633585
0.75845 0.589349 0.64625
0.855817 0.599084 0.674128
0.922515 0.607904 0.694453
0.956863 0.619928 0.708995
0.145327 0.631785 0.657725
0.301183 0.659159 0.671489
0.486305 0.685725 0.690089
0.643442 0.708843 0.722347
0.743832 0.725994 0.742779
0.83035 0.737499 0.76025
0.901167 0.746838 0.776303
0.944579 0.756512 0.78526
0.967773 0.765423 0.789761
0.264332 0.764996 0.749401
0.432425 0.790295 0.770306
0.585901 0.810224 0.787518
0.704707 0.824063 0.799451
0.800183 0.835569 0.809201
0.874464 0.843717 0.818967
0.927581 0.850095 0.824903
0.957885 0.857008 0.830427
0.974197 0.863523 0.835676
0.400732 0.863966 0.796567
0.554788 0.880812 0.814603
0.678447 0.892348 0.829786
0.773831 0.899657 0.841215
0.850858 0.906554 0.85005
0.909148 0.913787 0.855924
0.946685 0.918746 0.859922
0.968887 0.920836 0.863249
0.980621 0.9234 0.868009
0.525521 0.923506 0.823362
0.649699 0.932525 0.838911
0.749279 0.937591 0.851774
0.829725 0.941253 0.862669
0.890074 0.946014 0.87219
0.933074 0.951507 0.880842
0.959426 0.955215 0.88513
0.974716 0.955459 0.887419
0.984161 0.954314 0.889525
0.614969 0.95407 0.841276
0.722271 0.959197 0.855985
0.805753 0.961196 0.868299
0.872221 0.963088 0.879973
0.919417 0.966018 0.890135
0.947967 0.969345 0.896788
0.966384 0.971847 0.901091
0.978042 0.972625 0.903807
0.985138 0.972015 0.905577
0.0200504 0.16788 0.321935
0.108202 0.149065 0.40853
0.219577 0.135836 0.464851
0.303578 0.127962 0.475151
0.375372 0.141085 0.403021
0.439658 0.175601 0.347219
0.527672 0.201328 0.358083
0.629114 0.21384 0.380926
0.730587 0.211856 0.397635
0.0118257 0.256886 0.326268
0.108431 0.242695 0.443046
0.267445 0.235386 0.529061
0.385763 0.234867 0.554238
0.461723 0.249546 0.478401
0.522438 0.279103 0.430793
0.610513 0.304936 0.445655
0.716365 0.319768 0.470603
0.81474 0.328222 0.492454
0.0297551 0.37348 0.367697
0.140108 0.393759 0.453727
0.326268 0.4009 0.568734
0.483848 0.407752 0.623865
0.575967 0.421607 0.582513
0.633402 0.443168 0.553719
0.717891 0.465492 0.569741
0.823651 0.477714 0.59443
0.899931 0.488685 0.614923
0.0830396 0.511589 0.517021
0.237675 0.544213 0.549249
0.428122 0.569558 0.627359
0.587991 0.585565 0.690944
0.679606 0.600168 0.692287
0.740124 0.617639 0.679927
0.825025 0.632181 0.697993
0.907958 0.641581 0.720211
0.947936 0.651957 0.737026
0.166766 0.649973 0.681193
0.335164 0.678676 0.689693
0.51014 0.708217 0.713649
0.652476 0.732799 0.753948
0.747082 0.747662 0.778485
0.822553 0.759213 0.78468
0.891539 0.767712 0.802976
0.9402 0.775311 0.817319
0.966155 0.783429 0.825193
0.273747 0.777157 0.795102
0.442863 0.801038 0.809064
0.589227 0.819654 0.818692
0.708858 0.835691 0.824247
0.803052 0.848081 0.837552
0.875837 0.854917 0.850629
0.927413 0.860319 0.860166
0.957382 0.866926 0.864485
0.973617 0.872465 0.866468
0.409628 0.877531 0.850629
0.558526 0.891569 0.862623
0.681331 0.901411 0.8719
0.777157 0.9066 0.876493
0.855558 0.911376 0.879347
0.911955 0.918013 0.883574
0.946334 0.922927 0.88748
0.967239 0.926879 0.890074
0.978561 0.930755 0.892454
0.536461 0.934051 0.869657
0.657374 0.939498 0.877775
0.756085 0.942702 0.884489
0.835233 0.945342 0.890349
0.89453 0.94876 0.896254
0.935332 0.952728 0.901335
0.959167 0.956237 0.904616
0.973205 0.958022 0.906737
0.982254 0.958892 0.908629
0.626642 0.959457 0.876097
0.730556 0.962722 0.884886
0.811948 0.963882 0.892103
0.877211 0.965225 0.899306
0.922606 0.967346 0.906371
0.950622 0.969635 0.912276
0.967468 0.971801 0.915648
0.977447 0.973159 0.917433
0.983749 0.973571 0.918868
0.0237736 0.183673 0.392477
0.123308 0.163684 0.484916
0.247684 0.153597 0.537591
0.337041 0.149172 0.546899
0.408072 0.155779 0.479423
0.460273 0.186954 0.402319
0.520394 0.217411 0.39266
0.594614 0.237949 0.407462
0.674022 0.244221 0.422522
0.0128328 0.288106 0.383581
0.126558 0.276387 0.505776
0.30164 0.271412 0.596658
0.425696 0.274708 0.622141
0.498329 0.282032 0.554101
0.543252 0.300999 0.483482
0.601526 0.326253 0.479927
0.676097 0.352041 0.49929
0.756848 0.370352 0.521737
0.0428931 0.413886 0.413779
0.170748 0.432883 0.512795
0.366339 0.437873 0.630426
0.524407 0.444633 0.686549
0.606973 0.452445 0.655467
0.648356 0.466361 0.603861
0.699794 0.488945 0.598123
0.779812 0.512779 0.620966
0.857252 0.528984 0.642527
0.113985 0.544884 0.535836
0.277333 0.578515 0.584085
0.462699 0.601404 0.672038
0.611963 0.61677 0.737621
0.701183 0.626841 0.754101
0.749432 0.638849 0.722057
0.797238 0.655772 0.719921
0.871595 0.670588 0.73901
0.92604 0.680842 0.755718
0.199802 0.666941 0.687404
0.370001 0.69894 0.698177
0.533303 0.731228 0.732265
0.663066 0.756054 0.776516
0.757061 0.768154 0.810071
0.823941 0.775891 0.812039
0.876173 0.784955 0.816266
0.927398 0.792187 0.831342
0.959701 0.800198 0.844297
0.297047 0.783413 0.814878
0.462119 0.806195 0.82179
0.602914 0.826596 0.825895
0.719066 0.845762 0.835416
0.810498 0.85951 0.853986
0.877623 0.867231 0.867689
0.923613 0.87039 0.880095
0.954253 0.875898 0.887678
0.97258 0.881514 0.889616
0.418372 0.87863 0.882139
0.562173 0.89099 0.888609
0.681453 0.900008 0.892302
0.779629 0.906996 0.893736
0.861219 0.915312 0.895552
0.915602 0.922866 0.900191
0.947356 0.927428 0.904814
0.966567 0.931273 0.907195
0.977691 0.934829 0.908019
0.541604 0.938659 0.903227
0.660685 0.942779 0.906249
0.75938 0.945693 0.909102
0.838453 0.948058 0.910948
0.898054 0.950561 0.912551
0.93817 0.954101 0.914916
0.959579 0.957443 0.917418
0.972427 0.959731 0.919417
0.981003 0.961669 0.920516
0.634943 0.964721 0.904204
0.73608 0.965789 0.907973
0.816846 0.966033 0.911482
0.881605 0.967071 0.915251
0.925322 0.968719 0.919112
0.952499 0.97026 0.922301
0.968078 0.972015 0.924514
0.977234 0.973556 0.925963
0.982971 0.974716 0.927123
