LUT预设1/iPhone 专用lut-合集1/iPhone 标准版合集1(REC709)/电影暖调709.cube
TITLE "Generated by Resolve"
LUT_3D_SIZE 5
0.063447 0.0843061 0.0850538
0.158129 0.0819104 0.0832227
0.401465 0.0736706 0.0731365
0.662074 0.0774701 0.0621042
0.815961 0.0877241 0.0555123
0.0885023 0.190677 0.113832
0.249226 0.232898 0.112322
0.565133 0.296056 0.0913252
0.812619 0.334462 0.0845045
0.927733 0.350179 0.117128
0.15172 0.487816 0.175311
0.416098 0.57937 0.189975
0.736446 0.6542 0.224125
0.912077 0.665232 0.249271
0.981186 0.652781 0.280644
0.280735 0.757214 0.337972
0.585382 0.828733 0.384054
0.82034 0.878187 0.432822
0.959991 0.888167 0.467063
0.997223 0.856153 0.490623
0.481315 0.90132 0.506767
0.705837 0.937804 0.550179
0.85803 0.959518 0.590082
0.959487 0.969696 0.621195
0.996201 0.952728 0.644388
0.057496 0.0928969 0.114641
0.155703 0.0927443 0.128405
0.424598 0.0722057 0.158129
0.683299 0.0694133 0.176837
0.829953 0.0823224 0.186526
0.0763714 0.214481 0.192554
0.252598 0.247837 0.219623
0.584802 0.285863 0.231327
0.812024 0.323766 0.264836
0.924895 0.356497 0.305928
0.153933 0.521737 0.329015
0.422889 0.600198 0.37998
0.742397 0.66891 0.420539
0.915206 0.682994 0.448386
0.981003 0.683162 0.487236
0.320851 0.794568 0.506691
0.626047 0.849882 0.566003
0.826062 0.890059 0.609033
0.951446 0.899016 0.633829
0.990555 0.877089 0.653468
0.559136 0.926604 0.650324
0.755047 0.948699 0.700618
0.875853 0.96202 0.728771
0.959991 0.972198 0.751125
0.991028 0.962371 0.768994
0.0340734 0.118395 0.166674
0.157519 0.104936 0.245045
0.373617 0.110033 0.205951
0.6766 0.102602 0.26717
0.830457 0.111116 0.31078
0.0420691 0.265461 0.265736
0.246174 0.296101 0.351339
0.576654 0.323735 0.396246
0.813703 0.345418 0.461967
0.930648 0.38294 0.497414
0.155444 0.57641 0.518944
0.454688 0.639033 0.578744
0.744793 0.686503 0.618341
0.908522 0.711849 0.64535
0.971099 0.730449 0.673365
0.363806 0.828946 0.663874
0.662699 0.869856 0.715984
0.838041 0.897124 0.75079
0.94818 0.908461 0.772137
0.985275 0.899992 0.785397
0.587762 0.942245 0.755077
0.78941 0.954955 0.80441
0.899687 0.963165 0.833539
0.962936 0.97171 0.848417
0.988632 0.967697 0.857343
0.0165255 0.15378 0.255818
0.193317 0.123278 0.388952
0.347784 0.136461 0.324239
0.572351 0.173114 0.325124
0.797208 0.170764 0.366278
0.0267338 0.334569 0.327688
0.28835 0.36289 0.500328
0.549416 0.394888 0.507301
0.770474 0.42414 0.537026
0.924956 0.445548 0.584329
0.145327 0.631785 0.657725
0.486305 0.685725 0.690089
0.743832 0.725994 0.742779
0.901167 0.746838 0.776303
0.967773 0.765423 0.789761
0.400732 0.863966 0.796567
0.678447 0.892348 0.829786
0.850858 0.906554 0.85005
0.946685 0.918746 0.859922
0.980621 0.9234 0.868009
0.614969 0.95407 0.841276
0.805753 0.961196 0.868299
0.919417 0.966018 0.890135
0.966384 0.971847 0.901091
0.985138 0.972015 0.905577
0.0237736 0.183673 0.392477
0.247684 0.153597 0.537591
0.408072 0.155779 0.479423
0.520394 0.217411 0.39266
0.674022 0.244221 0.422522
0.0428931 0.413886 0.413779
0.366339 0.437873 0.630426
0.606973 0.452445 0.655467
0.699794 0.488945 0.598123
0.857252 0.528984 0.642527
0.199802 0.666941 0.687404
0.533303 0.731228 0.732265
0.757061 0.768154 0.810071
0.876173 0.784955 0.816266
0.959701 0.800198 0.844297
0.418372 0.87863 0.882139
0.681453 0.900008 0.892302
0.861219 0.915312 0.895552
0.947356 0.927428 0.904814
0.977691 0.934829 0.908019
0.634943 0.964721 0.904204
0.816846 0.966033 0.911482
0.925322 0.968719 0.919112
0.968078 0.972015 0.924514
0.982971 0.974716 0.927123
