LUT预设1/iPhone 专用lut-合集1/iPhone 标准版合集1(REC709)/电影暖调709.cube
TITLE "Generated by Resolve"
LUT_3D_SIZE 33
0.063447 0.0843061 0.0850538
0.0695964 0.0845197 0.086305
0.0770581 0.0846876 0.0866407
0.0861067 0.0846265 0.0861219
0.0952163 0.0845808 0.0858625
0.108232 0.0841077 0.0855879
0.122469 0.0835279 0.0851759
0.136645 0.0829023 0.0846113
0.158129 0.0819104 0.0832227
0.180407 0.0808728 0.08159
0.20322 0.0798352 0.0798505
0.233402 0.0789197 0.0787823
0.2636 0.0779126 0.0776837
0.295018 0.0769513 0.0766461
0.330343 0.075761 0.0754864
0.365759 0.0745251 0.0743114
0.401465 0.0736706 0.0731365
0.437232 0.0733806 0.0719768
0.473579 0.0729839 0.0707408
0.508034 0.0731518 0.0695201
0.541558 0.0738079 0.0682689
0.574838 0.0743725 0.0668956
0.604929 0.0753033 0.0654154
0.633478 0.0763867 0.0638132
0.662074 0.0774701 0.0621042
0.686397 0.0785382 0.0603494
0.709361 0.0795758 0.0585336
0.732616 0.0806287 0.0565957
0.751034 0.0815747 0.0549783
0.769253 0.0830549 0.0546273
0.787655 0.0847334 0.0548257
0.801892 0.0862745 0.0552071
0.815961 0.0877241 0.0555123
0.0642252 0.0909133 0.0868086
0.0699474 0.0913558 0.0882734
0.0796063 0.0913863 0.0888685
0.0892958 0.0915694 0.0894942
0.0997177 0.0917678 0.0897688
0.113893 0.0916762 0.0887465
0.127947 0.0916915 0.0878004
0.145037 0.0916457 0.0865339
0.167041 0.0914168 0.0849012
0.189044 0.0912947 0.0834363
0.215457 0.090898 0.0819409
0.245243 0.0902724 0.0804913
0.27538 0.0894789 0.0789807
0.309346 0.0883955 0.0773785
0.344839 0.0870985 0.0756847
0.37998 0.0857557 0.0738231
0.416648 0.085008 0.0721141
0.45362 0.0841382 0.0703593
0.490196 0.0833448 0.0684977
0.523842 0.083772 0.066743
0.558083 0.0848249 0.0651255
0.591363 0.0867475 0.063798
0.620478 0.0890364 0.0622873
0.649729 0.0910964 0.060853
0.677455 0.0929732 0.0594034
0.701015 0.0944686 0.0580453
0.725063 0.095964 0.0573739
0.74699 0.097322 0.0570382
0.76553 0.0985733 0.0568856
0.784283 0.0997177 0.056611
0.800549 0.100816 0.0564889
0.814649 0.101915 0.0564889
0.828733 0.103014 0.0562905
0.0673686 0.0991379 0.0912947
0.0746929 0.099733 0.092256
0.0837415 0.100313 0.0926986
0.092546 0.100893 0.0931411
0.104982 0.101274 0.0925307
0.119234 0.101457 0.0915236
0.133272 0.101747 0.0905928
0.154147 0.10193 0.0888991
0.17583 0.102007 0.0871138
0.197757 0.102174 0.0852522
0.227466 0.101762 0.0832532
0.256931 0.101457 0.0812695
0.288075 0.101717 0.0794385
0.323964 0.10161 0.0774853
0.35993 0.101656 0.0755627
0.396567 0.101854 0.0737163
0.433814 0.102602 0.0720226
0.471565 0.10341 0.0701457
0.507454 0.104631 0.0684977
0.542458 0.105898 0.0669413
0.577203 0.107271 0.0653544
0.608606 0.108675 0.0637217
0.638331 0.110048 0.0620127
0.668223 0.111101 0.0611582
0.69366 0.111955 0.0603647
0.717601 0.11252 0.059556
0.741878 0.113115 0.0586252
0.761059 0.113817 0.0579995
0.779934 0.114534 0.0571908
0.798627 0.11519 0.0564584
0.813169 0.117601 0.0565805
0.82771 0.120409 0.0568246
0.84184 0.122927 0.0571603
0.0704814 0.107622 0.0959182
0.0785992 0.108598 0.0961471
0.0866407 0.109865 0.0964065
0.0958572 0.111208 0.0966049
0.110155 0.112123 0.0958572
0.124407 0.113008 0.0953994
0.141451 0.114107 0.0944381
0.163134 0.115129 0.0923934
0.184909 0.116335 0.0902266
0.211078 0.117525 0.0880903
0.240803 0.118639 0.085893
0.270924 0.120058 0.0835126
0.305226 0.120989 0.0812848
0.341207 0.122057 0.0790417
0.376822 0.123354 0.0766613
0.414618 0.124392 0.0745708
0.452781 0.12517 0.0724498
0.490608 0.126131 0.0702678
0.525826 0.127184 0.0683757
0.561608 0.127993 0.0665751
0.596246 0.128267 0.0654459
0.626444 0.12961 0.0645457
0.656748 0.131792 0.0636606
0.685512 0.133974 0.0628824
0.70988 0.135912 0.0621805
0.734707 0.13817 0.0614328
0.757443 0.140505 0.0608377
0.776699 0.142947 0.0603494
0.796262 0.145281 0.0599527
0.813306 0.147326 0.0598459
0.828183 0.14963 0.059968
0.843153 0.151858 0.06009
0.855772 0.154314 0.0607919
0.0744488 0.119722 0.0991684
0.0823072 0.121462 0.100008
0.0901503 0.123247 0.100969
0.102083 0.124834 0.101213
0.115831 0.126268 0.101106
0.129458 0.127916 0.101228
0.150362 0.129427 0.0988785
0.172335 0.131075 0.0961471
0.194629 0.132662 0.0932326
0.22475 0.13489 0.0905928
0.254582 0.137148 0.0878004
0.285801 0.139544 0.0850385
0.321874 0.141894 0.0825971
0.358221 0.144518 0.0801099
0.39559 0.147219 0.0777752
0.433982 0.14963 0.0756085
0.472892 0.151919 0.07364
0.510002 0.15436 0.0723888
0.546166 0.156786 0.0712139
0.581949 0.158999 0.0701305
0.61442 0.161379 0.0691386
0.645197 0.163714 0.0681773
0.676051 0.166171 0.0670634
0.702541 0.168032 0.0661479
0.727611 0.170153 0.0652934
0.753063 0.172244 0.0643931
0.773556 0.174273 0.0637064
0.79321 0.175875 0.0632334
0.813001 0.177691 0.0627451
0.828428 0.179446 0.0627451
0.843717 0.181186 0.0626688
0.858839 0.183368 0.0631418
0.870039 0.186557 0.0647898
0.0788586 0.132692 0.104051
0.0863355 0.13489 0.105455
0.0948959 0.137011 0.106676
0.108019 0.139239 0.106706
0.12105 0.141924 0.106615
0.137423 0.144442 0.105425
0.159503 0.147036 0.102495
0.181613 0.149538 0.099733
0.208011 0.152804 0.0971695
0.238178 0.15642 0.094316
0.268818 0.160388 0.0914015
0.303868 0.164202 0.0885328
0.340887 0.168444 0.0857252
0.377691 0.172595 0.0831922
0.41651 0.176349 0.0812238
0.455619 0.179858 0.0793927
0.494362 0.183902 0.0774548
0.530709 0.187015 0.0761425
0.566659 0.18996 0.0747997
0.601968 0.193256 0.0733349
0.633219 0.195773 0.0721752
0.664515 0.198016 0.0709697
0.694789 0.20087 0.0697795
0.721157 0.203464 0.0688792
0.747219 0.205798 0.0680095
0.771466 0.208469 0.0672007
0.791974 0.210956 0.0668956
0.812741 0.213443 0.0666667
0.830854 0.215595 0.0668803
0.846571 0.218143 0.0675059
0.862272 0.220615 0.0684062
0.875471 0.223331 0.0701457
0.886473 0.225834 0.0735027
0.0823987 0.149538 0.10782
0.0894942 0.152331 0.108782
0.100542 0.155184 0.109209
0.113268 0.158114 0.109483
0.125872 0.161303 0.109941
0.146624 0.16437 0.108217
0.168612 0.167697 0.106462
0.190784 0.170993 0.104845
0.221729 0.175586 0.101579
0.252506 0.180468 0.0983291
0.284794 0.185351 0.0953689
0.322423 0.19089 0.0926833
0.360265 0.196429 0.0897536
0.398703 0.202213 0.0873121
0.43772 0.207721 0.0854047
0.477516 0.213107 0.0834211
0.515724 0.218173 0.0817426
0.553094 0.2224 0.0801404
0.590356 0.227085 0.078584
0.62443 0.230747 0.0770581
0.656825 0.234318 0.0757153
0.689296 0.23801 0.0743114
0.717266 0.240742 0.0730907
0.743709 0.243626 0.0720989
0.770504 0.24654 0.0710918
0.792142 0.248768 0.0707256
0.81297 0.251255 0.0706798
0.833875 0.253773 0.0707408
0.849805 0.255787 0.0718853
0.865415 0.258045 0.0743572
0.880644 0.260349 0.0771496
0.891539 0.262592 0.0810254
0.902281 0.265415 0.0855573
0.0855116 0.167727 0.110796
0.0932937 0.170764 0.111467
0.105806 0.174136 0.112108
0.118074 0.177615 0.112871
0.133745 0.181888 0.113008
0.155627 0.186328 0.111894
0.177249 0.190845 0.11104
0.204105 0.196445 0.109377
0.235187 0.202457 0.106569
0.266438 0.208759 0.103929
0.302983 0.215473 0.101289
0.341283 0.222782 0.0985428
0.3794 0.229892 0.0958572
0.419791 0.236484 0.0934005
0.460822 0.243442 0.0910048
0.501732 0.250629 0.0884108
0.540139 0.255802 0.0864576
0.578378 0.261524 0.0843519
0.616037 0.266804 0.0822919
0.648875 0.270939 0.0805371
0.681727 0.274784 0.0788281
0.713191 0.278767 0.0772259
0.740169 0.281483 0.0760204
0.766995 0.284947 0.0751659
0.791989 0.288457 0.0747997
0.812894 0.291066 0.0756847
0.833982 0.293965 0.0775464
0.852201 0.296788 0.0800031
0.867338 0.298909 0.0834211
0.882643 0.301366 0.087068
0.895033 0.303853 0.091249
0.905333 0.305821 0.0960708
0.915633 0.308034 0.10103
0.0885023 0.190677 0.113832
0.0986496 0.194903 0.114473
0.110475 0.199374 0.115206
0.122271 0.203952 0.116228
0.142214 0.209018 0.116258
0.16379 0.214054 0.11632
0.185687 0.219226 0.11635
0.217182 0.225895 0.114214
0.249226 0.232898 0.112322
0.282506 0.239979 0.110277
0.321416 0.248356 0.107469
0.360555 0.256641 0.104646
0.400824 0.264851 0.101701
0.442588 0.27306 0.0988785
0.485069 0.281453 0.0959335
0.525673 0.289342 0.0935836
0.565133 0.296056 0.0913252
0.60444 0.303304 0.0890974
0.640009 0.308965 0.0870832
0.673518 0.31429 0.0853895
0.707149 0.319463 0.0834669
0.736156 0.323842 0.0824445
0.7635 0.327428 0.0821851
0.790631 0.33138 0.0827192
0.812619 0.334462 0.0845045
0.833387 0.336965 0.0868849
0.854429 0.33991 0.0893263
0.869383 0.34168 0.0932326
0.884199 0.343755 0.0973831
0.898604 0.345785 0.101579
0.908598 0.347173 0.106645
0.918624 0.348806 0.111833
0.927733 0.350179 0.117128
0.0919661 0.216175 0.117174
0.103426 0.22118 0.118456
0.114595 0.225986 0.119646
0.129168 0.231022 0.120531
0.150561 0.236545 0.120958
0.172 0.242817 0.121508
0.199237 0.250614 0.120989
0.231525 0.258808 0.119692
0.264057 0.266987 0.11841
0.301518 0.276097 0.116243
0.341314 0.285908 0.113893
0.381338 0.295415 0.111543
0.423896 0.305089 0.108858
0.467094 0.314534 0.106111
0.510018 0.324071 0.103288
0.550469 0.332235 0.100679
0.590616 0.34023 0.0978256
0.630289 0.348486 0.095079
0.6645 0.354299 0.0928664
0.698909 0.360525 0.0915236
0.73167 0.365972 0.0905776
0.759396 0.370245 0.0911421
0.78706 0.374212 0.0916457
0.812131 0.378058 0.0932326
0.832822 0.380468 0.0962387
0.853101 0.3832 0.0999008
0.870466 0.385031 0.103944
0.884794 0.386572 0.108858
0.898909 0.387701 0.113573
0.910491 0.388952 0.118761
0.920089 0.38996 0.12401
0.929641 0.390494 0.128908
0.936034 0.392065 0.13518
0.0975509 0.246525 0.12253
0.108568 0.252583 0.123751
0.119326 0.258732 0.124956
0.138705 0.265614 0.125689
0.159731 0.27277 0.126253
0.180896 0.280415 0.126818
0.213657 0.288899 0.125978
0.246983 0.297475 0.125246
0.281453 0.30631 0.124514
0.321798 0.316533 0.122744
0.362371 0.326482 0.12108
0.404196 0.336568 0.119081
0.447623 0.346883 0.116381
0.491814 0.357794 0.113512
0.534264 0.367605 0.110445
0.575845 0.377188 0.107378
0.616968 0.386481 0.105104
0.654063 0.394064 0.103685
0.688716 0.401068 0.102602
0.723354 0.407721 0.101701
0.752682 0.412924 0.102312
0.780072 0.417029 0.103593
0.807157 0.4215 0.105333
0.828641 0.423941 0.108675
0.848905 0.426444 0.112749
0.869307 0.428473 0.116762
0.883696 0.429694 0.121752
0.897826 0.430411 0.126543
0.911727 0.431373 0.13164
0.921324 0.431418 0.136553
0.930785 0.431861 0.141238
0.939574 0.431861 0.146242
0.94435 0.433005 0.152468
0.103197 0.280583 0.128435
0.113558 0.287144 0.129519
0.127321 0.294163 0.130404
0.14786 0.301961 0.130968
0.168002 0.31017 0.131594
0.194995 0.318685 0.131777
0.228901 0.328115 0.131792
0.262592 0.337743 0.131792
0.301381 0.348196 0.13106
0.342824 0.358968 0.130007
0.384588 0.370092 0.129076
0.428748 0.381353 0.126864
0.473518 0.392782 0.124666
0.517968 0.404547 0.123156
0.559792 0.414542 0.12105
0.601129 0.424536 0.118853
0.64184 0.434699 0.116869
0.676722 0.441855 0.115923
0.71162 0.449073 0.114885
0.744869 0.456016 0.114733
0.77232 0.460197 0.116365
0.799817 0.464744 0.118212
0.824521 0.46804 0.121126
0.844999 0.470298 0.125399
0.865171 0.472038 0.129961
0.882521 0.472847 0.134783
0.8963 0.473091 0.1402
0.910201 0.472999 0.145144
0.92163 0.472953 0.150057
0.931075 0.472343 0.154452
0.940673 0.472053 0.158968
0.947127 0.471855 0.164462
0.95198 0.472206 0.171252
0.109712 0.317784 0.134813
0.12018 0.325567 0.135851
0.138689 0.334386 0.13669
0.158862 0.343572 0.13753
0.178851 0.352911 0.138415
0.212711 0.363134 0.138689
0.246159 0.373053 0.138994
0.280995 0.383215 0.139162
0.323598 0.394186 0.138598
0.366018 0.405142 0.138842
0.408988 0.416358 0.138689
0.454139 0.428611 0.137499
0.499443 0.440589 0.136339
0.542794 0.451926 0.134951
0.584863 0.462715 0.132799
0.626612 0.473945 0.130816
0.66424 0.482734 0.12961
0.699062 0.489982 0.129488
0.733791 0.49749 0.129625
0.762814 0.502022 0.131884
0.78967 0.505531 0.134752
0.816434 0.509285 0.13785
0.837171 0.51075 0.142443
0.857176 0.5122 0.147066
0.876982 0.513268 0.151629
0.891569 0.513542 0.156146
0.906203 0.513359 0.160372
0.920531 0.513176 0.164599
0.930388 0.512795 0.168963
0.940352 0.512047 0.173724
0.949722 0.511711 0.178424
0.954681 0.511284 0.18471
0.959838 0.51107 0.190692
0.117861 0.359091 0.141985
0.131319 0.367834 0.14284
0.15082 0.377539 0.143801
0.170092 0.387411 0.144808
0.196353 0.397513 0.145617
0.22948 0.407752 0.146258
0.262821 0.418158 0.147677
0.302434 0.429099 0.148898
0.345739 0.440742 0.149691
0.389319 0.452155 0.150378
0.434501 0.464286 0.14992
0.479652 0.476478 0.149386
0.525444 0.488746 0.148974
0.567529 0.500023 0.14818
0.608972 0.510735 0.147524
0.649699 0.521065 0.147295
0.684169 0.528237 0.148226
0.718547 0.535653 0.149432
0.751125 0.541817 0.151202
0.777722 0.545144 0.154284
0.804257 0.548699 0.157763
0.828321 0.551125 0.161242
0.848508 0.552132 0.165118
0.868559 0.553491 0.169085
0.886519 0.553918 0.172625
0.901534 0.55375 0.176989
0.916686 0.553887 0.181247
0.929 0.553017 0.185626
0.939147 0.552163 0.190326
0.949447 0.551049 0.194507
0.956497 0.55024 0.200076
0.961685 0.549081 0.205844
0.96701 0.547875 0.211704
0.126589 0.401053 0.150195
0.143908 0.410971 0.1514
0.162737 0.421317 0.153094
0.181308 0.431724 0.155184
0.21413 0.442451 0.156771
0.247105 0.453315 0.158358
0.281285 0.464363 0.159884
0.325063 0.476036 0.160754
0.3691 0.487846 0.161547
0.413825 0.499931 0.162081
0.459663 0.512337 0.16228
0.505653 0.524758 0.162631
0.54931 0.536797 0.163302
0.591043 0.547631 0.163867
0.632303 0.558358 0.164874
0.669322 0.566888 0.166506
0.703349 0.573846 0.168856
0.73727 0.58088 0.171603
0.765576 0.584436 0.175128
0.79176 0.586938 0.178836
0.817914 0.5897 0.18291
0.838819 0.590585 0.186526
0.859037 0.591165 0.190509
0.879118 0.592172 0.194598
0.894682 0.591852 0.198367
0.910277 0.591455 0.201892
0.925612 0.591455 0.2056
0.936248 0.590356 0.209339
0.947036 0.589288 0.212924
0.957214 0.588525 0.216999
0.962722 0.587076 0.222263
0.968338 0.585977 0.227726
0.973129 0.584527 0.233219
0.13872 0.444572 0.161822
0.156878 0.454826 0.163851
0.174838 0.465415 0.165835
0.199527 0.476295 0.167788
0.231525 0.487541 0.169451
0.263691 0.499001 0.17116
0.303487 0.510887 0.172396
0.34844 0.523217 0.173281
0.393103 0.535454 0.174212
0.438285 0.547463 0.175357
0.484337 0.559579 0.176837
0.530556 0.572061 0.178332
0.571679 0.582315 0.180575
0.613016 0.592432 0.183307
0.653208 0.602045 0.186557
0.686763 0.608255 0.190402
0.720241 0.614343 0.194888
0.752117 0.619928 0.199496
0.77821 0.622477 0.203525
0.804273 0.62504 0.207889
0.828199 0.627054 0.21181
0.848615 0.628199 0.215167
0.86891 0.629099 0.217868
0.887465 0.629496 0.220478
0.903365 0.629648 0.223545
0.919371 0.629526 0.226001
0.93283 0.628916 0.228748
0.944213 0.628138 0.232151
0.955215 0.626795 0.235508
0.962936 0.624979 0.239933
0.968734 0.623224 0.245258
0.97467 0.62118 0.250034
0.977356 0.619165 0.256687
0.15172 0.487816 0.175311
0.16907 0.4981 0.178042
0.18613 0.508293 0.180987
0.217166 0.519524 0.183047
0.248585 0.530587 0.185046
0.281254 0.542092 0.18703
0.326314 0.554452 0.187976
0.370977 0.566903 0.188861
0.416098 0.57937 0.189975
0.462272 0.591546 0.191928
0.508019 0.603677 0.194064
0.552056 0.615228 0.197177
0.592691 0.625071 0.201541
0.633768 0.634867 0.206378
0.670085 0.642405 0.211627
0.703288 0.648325 0.21767
0.736446 0.6542 0.224125
0.764553 0.657847 0.229328
0.790646 0.660899 0.233631
0.8168 0.663279 0.237629
0.838163 0.664256 0.240116
0.858885 0.664958 0.242466
0.879469 0.666087 0.244709
0.89601 0.66566 0.247013
0.912077 0.665232 0.249271
0.927993 0.66479 0.251698
0.9393 0.663752 0.254749
0.950683 0.662425 0.257557
0.961456 0.661021 0.260731
0.967697 0.659159 0.265126
0.97406 0.656992 0.2692
0.979492 0.654871 0.273945
0.981186 0.652781 0.280644
0.164981 0.528405 0.191913
0.181399 0.538491 0.1953
0.204211 0.549233 0.197955
0.234821 0.560952 0.199969
0.264805 0.572641 0.202121
0.304265 0.584817 0.203342
0.348867 0.597742 0.204089
0.3935 0.610819 0.204807
0.439384 0.623255 0.20708
0.485649 0.635416 0.209979
0.531884 0.646967 0.213336
0.572473 0.655985 0.219303
0.613199 0.664759 0.226291
0.652888 0.673487 0.233417
0.685863 0.67892 0.240299
0.718822 0.684443 0.247196
0.750454 0.689494 0.25359
0.776791 0.692332 0.258076
0.80325 0.695338 0.262318
0.827924 0.697765 0.265843
0.848569 0.699107 0.267994
0.869505 0.700206 0.269947
0.888228 0.700725 0.272114
0.904295 0.700374 0.273899
0.920577 0.700298 0.2757
0.934264 0.699474 0.277714
0.945891 0.698222 0.280247
0.95758 0.696971 0.282414
0.966171 0.695399 0.285542
0.972793 0.692866 0.289219
0.979599 0.690211 0.29305
0.982925 0.687602 0.299123
0.984802 0.684703 0.305943
0.177676 0.568719 0.208927
0.193408 0.577996 0.21326
0.222248 0.589166 0.215869
0.251637 0.600443 0.218631
0.282536 0.611566 0.221118
0.326726 0.624079 0.222354
0.370733 0.636652 0.223682
0.415229 0.648981 0.225681
0.461448 0.660517 0.229603
0.507744 0.671977 0.234058
0.551583 0.682292 0.239796
0.591714 0.691066 0.24712
0.632303 0.699931 0.25449
0.668299 0.707057 0.261799
0.701228 0.713008 0.269093
0.734173 0.719112 0.276371
0.762737 0.723415 0.281712
0.789456 0.727337 0.286351
0.816251 0.731167 0.291112
0.838071 0.732982 0.293492
0.859068 0.733913 0.295293
0.879927 0.734905 0.297261
0.896574 0.734264 0.298833
0.912688 0.733837 0.300572
0.928725 0.733166 0.302449
0.940383 0.731487 0.304646
0.952041 0.729809 0.306783
0.963195 0.728038 0.30901
0.97023 0.725734 0.313024
0.977371 0.723186 0.316518
0.983597 0.720546 0.3205
0.985794 0.717784 0.326802
0.988128 0.714687 0.333089
0.191684 0.604013 0.228473
0.212482 0.613993 0.23267
0.240558 0.625193 0.236042
0.267887 0.635981 0.239612
0.305272 0.648112 0.242023
0.348684 0.660761 0.243885
0.391836 0.67335 0.246357
0.437369 0.685145 0.250507
0.48368 0.696696 0.255192
0.530022 0.708247 0.260029
0.570916 0.717357 0.267491
0.610864 0.725567 0.27512
0.650752 0.733669 0.282597
0.683467 0.739376 0.289937
0.716121 0.745251 0.297154
0.747616 0.75082 0.303777
0.774441 0.754513 0.308415
0.801358 0.758434 0.31313
0.826322 0.761685 0.317174
0.847745 0.763119 0.31957
0.869291 0.764706 0.322377
0.888487 0.765484 0.324636
0.904616 0.765255 0.326452
0.920958 0.764752 0.328084
0.934768 0.763684 0.329992
0.946395 0.762081 0.33225
0.958053 0.76051 0.334737
0.967117 0.758343 0.337438
0.97464 0.7561 0.34049
0.982193 0.753689 0.343297
0.986267 0.750469 0.348333
0.988785 0.746731 0.353979
0.991409 0.743358 0.359625
0.205524 0.639323 0.248356
0.231235 0.650126 0.252735
0.257725 0.660319 0.257313
0.285573 0.670771 0.262394
0.328176 0.682689 0.265339
0.370459 0.694408 0.268727
0.414054 0.705669 0.272374
0.460304 0.716472 0.277302
0.505989 0.727153 0.282277
0.549676 0.736934 0.288212
0.589807 0.745388 0.295369
0.629419 0.753841 0.302342
0.665415 0.761181 0.309422
0.697765 0.76762 0.316533
0.730053 0.774227 0.323552
0.758801 0.779461 0.329274
0.785992 0.784176 0.334508
0.81326 0.78912 0.339864
0.835935 0.791775 0.343374
0.857923 0.793988 0.346578
0.879774 0.796384 0.349966
0.896513 0.796048 0.351919
0.91249 0.795499 0.354391
0.928618 0.794842 0.356619
0.940246 0.792737 0.358709
0.951919 0.790646 0.360815
0.963226 0.788479 0.363012
0.97084 0.785428 0.365713
0.978485 0.782666 0.368795
0.985229 0.779507 0.371908
0.988083 0.775921 0.377066
0.991073 0.77229 0.382055
0.993423 0.768917 0.387304
0.22475 0.671031 0.2692
0.249958 0.680888 0.275166
0.274876 0.690806 0.281666
0.309606 0.701656 0.286488
0.350805 0.712856 0.290486
0.392142 0.724178 0.294987
0.436927 0.735058 0.299733
0.482963 0.74583 0.304295
0.528893 0.756573 0.309178
0.568811 0.765148 0.315572
0.60853 0.773907 0.322148
0.64741 0.782574 0.328618
0.679759 0.789273 0.335622
0.711604 0.795789 0.342412
0.74255 0.802045 0.348852
0.769696 0.80679 0.354284
0.796811 0.811673 0.359762
0.822126 0.815808 0.364721
0.844205 0.818097 0.368734
0.866377 0.820569 0.372992
0.886091 0.822019 0.376654
0.902647 0.82182 0.379339
0.919554 0.821729 0.382193
0.933791 0.82092 0.384878
0.945541 0.81883 0.386938
0.957351 0.81677 0.389303
0.966705 0.814099 0.391592
0.974441 0.811032 0.393957
0.982147 0.808057 0.396307
0.986862 0.804639 0.400168
0.990219 0.801297 0.404791
0.993683 0.797879 0.409415
0.994904 0.794202 0.414725
0.24419 0.702159 0.291554
0.267948 0.711757 0.298848
0.292271 0.72108 0.306325
0.332982 0.731899 0.311025
0.372976 0.742336 0.315785
0.414618 0.752529 0.32076
0.460288 0.762722 0.325383
0.505684 0.772824 0.330114
0.548486 0.782147 0.335195
0.587213 0.790433 0.341253
0.626215 0.798657 0.347143
0.660929 0.806119 0.353429
0.692393 0.812909 0.35996
0.724102 0.819837 0.366415
0.752514 0.82565 0.372457
0.779461 0.831052 0.378546
0.806012 0.836561 0.384695
0.829435 0.840208 0.389853
0.852018 0.843503 0.394934
0.874403 0.847013 0.400229
0.892256 0.8477 0.403738
0.909514 0.848234 0.407248
0.926909 0.848905 0.410925
0.938582 0.846281 0.412726
0.950454 0.843809 0.414664
0.962127 0.841596 0.416831
0.969924 0.838148 0.418845
0.977768 0.834714 0.420844
0.984863 0.831189 0.423224
0.988403 0.827253 0.427573
0.99202 0.823407 0.431571
0.994965 0.819562 0.435828
0.995727 0.816144 0.441154
0.262623 0.730312 0.314595
0.285512 0.738933 0.322713
0.317815 0.748486 0.329168
0.356847 0.758328 0.334615
0.396048 0.768246 0.3402
0.439185 0.778149 0.34519
0.48368 0.787854 0.349813
0.52784 0.797635 0.35465
0.567025 0.80621 0.360037
0.60499 0.814618 0.365713
0.642954 0.822873 0.371267
0.674098 0.829938 0.377798
0.705089 0.837049 0.384344
0.735256 0.8439 0.390814
0.76199 0.849195 0.396826
0.78854 0.854536 0.403082
0.813901 0.859297 0.40911
0.836484 0.862608 0.414588
0.858747 0.866026 0.420127
0.879347 0.868391 0.425025
0.896941 0.869093 0.428962
0.914916 0.870039 0.433066
0.930053 0.869612 0.436286
0.94255 0.867735 0.438544
0.955245 0.866011 0.440894
0.965148 0.86334 0.443244
0.973068 0.859922 0.44509
0.981033 0.856519 0.446921
0.986114 0.852827 0.450065
0.98999 0.84889 0.453727
0.993988 0.845212 0.457404
0.995605 0.841505 0.461967
0.996551 0.837812 0.466743
0.280735 0.757214 0.337972
0.303792 0.76553 0.346548
0.342367 0.775219 0.352377
0.380224 0.784497 0.358511
0.419608 0.79379 0.364248
0.463111 0.803037 0.368872
0.506264 0.812024 0.373526
0.547326 0.820691 0.378637
0.585382 0.828733 0.384054
0.62266 0.836637 0.389715
0.656718 0.843778 0.395651
0.68716 0.850431 0.401968
0.717357 0.857053 0.40824
0.744961 0.862928 0.414267
0.77113 0.868421 0.420569
0.797101 0.873945 0.426871
0.82034 0.878187 0.432822
0.842786 0.882002 0.438651
0.864851 0.886091 0.444617
0.883711 0.888029 0.449424
0.902083 0.889952 0.454261
0.920592 0.892103 0.459266
0.933776 0.890837 0.461845
0.947082 0.889693 0.464515
0.959991 0.888167 0.467063
0.967865 0.884443 0.468727
0.975982 0.880735 0.470359
0.98352 0.877073 0.472328
0.987549 0.872786 0.475456
0.991623 0.868605 0.478462
0.995041 0.864393 0.481697
0.996094 0.860304 0.48632
0.997223 0.856153 0.490623
0.298482 0.781659 0.361318
0.328481 0.789853 0.368734
0.365759 0.798596 0.374914
0.402365 0.807004 0.381323
0.443946 0.815946 0.386862
0.486748 0.824842 0.391806
0.529183 0.833463 0.396994
0.567132 0.841459 0.402487
0.603586 0.849195 0.407767
0.639994 0.856764 0.41326
0.669886 0.863416 0.41944
0.69984 0.870085 0.42562
0.728679 0.876509 0.43154
0.754421 0.882155 0.437888
0.779995 0.887663 0.444129
0.804517 0.892576 0.450309
0.826658 0.896406 0.456336
0.848402 0.900221 0.462272
0.869032 0.903288 0.467826
0.887449 0.90518 0.472801
0.905852 0.907195 0.477592
0.922194 0.90782 0.481636
0.936126 0.907103 0.484749
0.950317 0.906706 0.488075
0.961334 0.904784 0.490578
0.970077 0.901717 0.492439
0.978973 0.898848 0.494636
0.984741 0.89514 0.497032
0.989059 0.890883 0.499458
0.993454 0.886656 0.501747
0.995453 0.882521 0.505379
0.996719 0.878309 0.509407
0.998032 0.874205 0.513359
0.31635 0.804669 0.38471
0.352728 0.812955 0.391272
0.389471 0.821332 0.398016
0.426932 0.829511 0.404593
0.469398 0.838163 0.409903
0.510903 0.846433 0.414908
0.550439 0.854078 0.420188
0.58645 0.861234 0.425299
0.621653 0.868132 0.430655
0.654047 0.874708 0.436423
0.68304 0.880766 0.44242
0.712032 0.886671 0.448112
0.738399 0.892073 0.454215
0.763394 0.897139 0.460319
0.788174 0.902159 0.466377
0.810315 0.906325 0.472328
0.831876 0.910262 0.477974
0.853315 0.914122 0.483742
0.872053 0.916747 0.489097
0.890654 0.919356 0.494438
0.90898 0.922072 0.499809
0.923934 0.922621 0.503761
0.93901 0.923461 0.507881
0.953872 0.924361 0.512032
0.963302 0.92192 0.514092
0.972854 0.919631 0.516213
0.981506 0.916579 0.518151
