LUT预设1/LUT全系打包/6.FAKE5207&淡雅系列/FAKE5207/Log灰片使用/FAKE5207STD标准.cube
TITLE "Generated by Resolve"
LUT_3D_SIZE 5
0 0 0
0.180896 0 0
0.780118 0 0
1 0 0
1 0 0
0 0.117601 0
0.0907759 0.08748 0
0.714107 0.00233463 0
1 0 0
1 0 0
0 0.565393 0
0 0.620661 0
0.540505 0.521492 0
1 0.42121 0
1 0.364401 0
0 1 0.041413
0 1 0.000686656
0.0154269 1 0
1 1 0
1 0.98764 0
0 1 0.215015
0 1 0.0899672
0 1 0
0.881331 1 0
1 1 0
0 0 0.155673
0.0697185 0 0.00671397
0.663859 0 0
1 0 0
1 0 0
0 0.106584 0.108614
0.0553597 0.0800641 0.090135
0.641291 0.00868238 0
1 0 0
1 0 0
0 0.528695 0.146731
0 0.561791 0.154101
0.526024 0.53843 0
1 0.400381 0
1 0.368399 0
0 1 0.353521
0 1 0.32668
0.00177005 1 0.0115969
0.999969 1 0
1 0.981399 0
0 1 0.511437
0 1 0.435538
0 1 0.0726635
0.823743 1 0
1 1 0
0 0.00030518 0.763073
0 0 0.869078
0.47837 0 0.0479133
0.785657 0 0
1 0 0
0 0.11812 0.828199
0 0.162356 0.713252
0.499382 0.0499275 0.249149
0.928512 0.0504005 6.10361e-05
1 0.00408942 0
0 0.539391 0.555947
0 0.553475 0.612177
0.434684 0.515953 0.59881
0.999557 0.369818 0.255543
1 0.351751 0.125963
0 1 0.589334
0 1 0.684611
0.147341 1 0.716274
0.994614 0.999252 0.357977
1 0.897246 0.213001
0 1 0.787366
0 1 0.852277
0.000137331 1 0.786618
0.638514 1 0.250599
1 1 0.176196
0 0.0567788 1
0 0.00280766 1
0.506035 0 0.935668
0.875135 0 0.0303044
0.991989 0 0
0 0.222904 1
0 0.252125 1
0.282322 0.0420386 0.99971
0.948928 0.0636912 0.270573
1 0.154833 0.0795453
0 0.561593 1
0 0.602777 1
0.0463569 0.621485 1
0.999298 0.538918 0.700938
1 0.606363 0.494392
0 1 1
0 1 1
0.155642 1 1
0.932326 0.969757 0.993774
1 0.769894 0.708247
0 1 1
0 1 1
0.0304112 1 1
0.744915 1 1
1 1 0.935164
0 0.103624 1
0 0.0334325 1
0.245045 0 1
0.999268 0 0.358328
1 0 0.005066
0 0.285679 1
0 0.307759 1
0.0411994 0.11133 1
1 0.0156252 0.707698
1 0.133761 0.304311
0 0.570321 1
0 0.640146 1
3.0518e-05 0.693553 1
0.998184 0.49337 0.999969
1 0.613504 0.732067
0 1 1
0 1 1
0.204257 1 1
0.701473 0.997589 1
1 0.971771 0.999634
0 1 1
0 1 1
0.00697337 1 1
0.745968 1 1
1 1 1
