LUT预设1/LUT全系打包/6.FAKE5207&淡雅系列/FAKE5207/Log灰片使用/FAKE5207STD标准.cube
TITLE "Generated by Resolve"
LUT_3D_SIZE 33
0 0 0
0 0 0
0 0 0
0 0 0
0.00648508 0 0
0.0378424 0 0
0.0814374 0 0
0.1299 0 0
0.180896 0 0
0.235431 0 0
0.293462 0 0
0.356603 0 0
0.42649 0 0
0.503334 0 0
0.588159 0 0
0.681285 0 0
0.780118 0 0
0.881285 0 0
0.966949 0 0
0.993286 0 0
0.999359 0 0
1 0 0
1 0 0
1 0 0
1 0 0
1 0 0
1 0 0
1 0 0
1 0 0
1 0 0
1 0 0
1 0 0
1 0 0
0 0 0
0 0 0
0 0 0
0 0 0
0.00508125 0 0
0.0320897 0 0
0.073106 0 0
0.120714 0 0
0.170901 0 0
0.224186 0 0
0.281697 0 0
0.344091 0 0
0.413123 0 0
0.49012 0 0
0.574044 0 0
0.665156 0 0
0.763485 0 0
0.863569 0 0
0.952117 0 0
0.988983 0 0
0.998779 0 0
1 0 0
1 0 0
1 0 0
1 0 0
1 0 0
1 0 0
1 0 0
1 0 0
1 0 0
1 0 0
1 0 0
1 0 0
0 0 0
0 0 0
0 0 0
0 0 0
0.00512703 0 0
0.0321508 0 0
0.0715648 0 0
0.114748 0 0
0.16112 0 0
0.211749 0 0
0.267018 0 0
0.328069 0 0
0.396811 0 0
0.472282 0 0
0.554559 0 0
0.64477 0 0
0.742184 0 0
0.842893 0 0
0.934936 0 0
0.982742 0 0
0.997818 0 0
1 0 0
1 0 0
1 0 0
1 0 0
1 0 0
1 0 0
1 0 0
1 0 0
1 0 0
1 0 0
1 0 0
1 0 0
0 0 0
0 0 0
0 0 0
0 0 0
0.00259403 0 0
0.0243687 0 0
0.0667887 0 0
0.114611 0 0
0.162371 0 0
0.210956 0 0
0.263539 0 0
0.320577 0 0
0.385061 0 0
0.457099 0 0
0.537484 0 0
0.625803 0 0
0.722637 0 0
0.822538 0 0
0.916671 0 0
0.975387 0 0
0.996567 0 0
1 0 0
1 0 0
1 0 0
1 0 0
1 0 0
1 0 0
1 0 0
1 0 0
1 0 0
1 0 0
1 0 0
1 0 0
0 0.000137331 0
0 0.000610361 0
0 0.00120546 0
0 0.000564584 0
0.000427253 9.15541e-05 0
0.0139925 0 0
0.052842 0 0
0.102922 0 0
0.15639 0 0
0.211048 0 0
0.265949 0 0
0.322499 0 0
0.383825 0 0
0.451225 0 0
0.526848 0 0
0.612329 0 0
0.705547 0 0
0.804135 0 0
0.898863 0 0
0.966964 0 0
0.994873 0 0
0.999969 0 0
1 0 0
1 0 0
1 0 0
1 0 0
1 0 0
1 0 0
1 0 0
1 0 0
1 0 0
1 0 0
1 0 0
0 0.0117952 0
0 0.0138247 0
0 0.0159304 0
0 0.0149538 0
3.0518e-05 0.0109255 0
0.00859083 0.00628672 0
0.0404517 0.00303655 0
0.0876783 0.00112917 0
0.142336 0.000274662 0
0.200427 3.0518e-05 0
0.260868 0 0
0.322835 0 0
0.387045 0 0
0.455024 0 0
0.528084 0 0
0.60853 0 0
0.696925 0 0
0.791653 0 0
0.885115 0 0
0.95877 0 0
0.992004 0 0
0.999542 0 0
1 0 0
1 0 0
1 0 0
1 0 0
1 0 0
1 0 0
1 0 0
1 0 0
1 0 0
1 0 0
1 0 0
0 0.0415351 0
0 0.0447089 0
0 0.0472114 0
0 0.0476081 0
0 0.0423438 0
0.00386053 0.0324407 0
0.0282292 0.0238956 0
0.0729381 0.0181125 0
0.126955 0.0140688 0
0.18526 0.0104829 0
0.248219 0.00640879 0
0.314641 0.00268559 0
0.385412 0.000518807 0
0.458457 0 0
0.533867 0 0
0.613352 0 0
0.698054 0 0
0.788174 0 0
0.879362 0 0
0.952819 0 0
0.989136 0 0
0.998932 0 0
1 0 0
1 0 0
1 0 0
1 0 0
1 0 0
1 0 0
1 0 0
1 0 0
1 0 0
1 0 0
1 0 0
0 0.0783246 0
0 0.08159 0
0 0.0844739 0
0 0.0863508 0
0 0.0834211 0
0.00108339 0.0740215 0
0.0168154 0.0622416 0
0.0569009 0.0525368 0
0.110582 0.045243 0
0.169574 0.0386053 0
0.2327 0.03122 0
0.301762 0.0230411 0
0.375662 0.0148775 0
0.454032 0.00755322 0
0.536019 0.00213626 0
0.620188 0 0
0.70692 0 0
0.795224 0 0
0.882017 0 0
0.953079 0 0
0.98912 0 0
0.998978 0 0
1 0 0
1 0 0
1 0 0
1 0 0
1 0 0
1 0 0
1 0 0
1 0 0
1 0 0
1 0 0
1 0 0
0 0.117601 0
0 0.121035 0
0 0.124163 0
0 0.126879 0
0 0.12755 0
0.00015259 0.121736 0
0.00677501 0.110475 0
0.0382849 0.0978561 0
0.0907759 0.08748 0
0.152438 0.0789654 0
0.217319 0.0702983 0
0.285985 0.0600137 0
0.361227 0.0479744 0
0.442267 0.034638 0
0.52961 0.0215915 0
0.620859 0.0106508 0
0.714107 0.00233463 0
0.805524 0.000457771 0
0.891417 0.000106813 0
0.958648 1.5259e-05 0
0.991424 0 0
0.999512 0 0
1 0 0
1 0 0
1 0 0
1 0 0
1 0 0
1 0 0
1 0 0
1 0 0
1 0 0
1 0 0
1 0 0
0 0.159426 0
0 0.163043 0
0 0.16643 0
0 0.170092 0
0 0.172488 0
0 0.171023 0
0.00135805 0.163088 0
0.019089 0.150607 0
0.0648661 0.137804 0
0.12874 0.126879 0
0.198047 0.116869 0
0.269032 0.106325 0
0.344366 0.0936294 0
0.426398 0.0783703 0
0.516564 0.0610208 0
0.612787 0.0427863 0
0.712474 0.0252842 0
0.811246 0.015198 0
0.900679 0.00866712 0
0.964431 0.00479133 0
0.993576 0.00282292 0
0.999878 0.00205997 0
1 0.00173953 0
1 0.00158694 0
1 0.00154116 0
1 0.00158694 0
1 0.00169375 0
1 0.00180056 0
1 0.00190738 0
1 0.00198367 0
1 0.00205997 0
1 0.00215152 0
1 0.00209049 0
0 0.2047 0
0 0.208972 0
0 0.212436 0
0 0.216312 0
0 0.219715 0
0 0.221134 0
0 0.217838 0
0.00581369 0.208835 0
0.0373541 0.195544 0
0.09691 0.181659 0
0.170459 0.169406 0
0.247349 0.158099 0
0.326116 0.145983 0
0.409064 0.131395 0
0.499031 0.113558 0
0.59736 0.0928817 0
0.70161 0.0704204 0
0.806668 0.0511482 0
0.902861 0.0363165 0
0.967025 0.0260929 0
0.994293 0.0198825 0
0.999985 0.0163577 0
1 0.014313 0
1 0.0131838 0
1 0.0129091 0
1 0.0130465 0
1 0.0135958 0
1 0.0140993 0
1 0.0145571 0
1 0.0149844 0
1 0.0155489 0
1 0.0158083 0
1 0.01561 0
0 0.253849 0
0 0.25803 0
0 0.261814 0
0 0.26569 0
0 0.269764 0
0 0.273167 0
0 0.27425 0
0.000671397 0.269413 0
0.0158541 0.258457 0
0.0602426 0.244038 0
0.131792 0.228901 0
0.215763 0.215732 0
0.302525 0.203204 0
0.389013 0.189441 0
0.479866 0.17293 0
0.577996 0.152728 0
0.683726 0.129366 0
0.794232 0.105501 0
0.897032 0.0847334 0
0.964767 0.0688487 0
0.993896 0.0575875 0
1 0.0499123 0
1 0.0449683 0
1 0.0423285 0
1 0.0410163 0
1 0.04094 0
1 0.0415961 0
1 0.0425574 0
1 0.0437324 0
1 0.044831 0
1 0.0460212 0
1 0.0471656 0
1 0.0467079 0
0 0.306615 0
0 0.311238 0
0 0.315114 0
0 0.319371 0
0 0.324575 0
0 0.328984 0
0 0.332586 0
0 0.331945 0
0.00384527 0.325475 0
0.0272221 0.313176 0
0.0838483 0.297704 0
0.168582 0.281773 0
0.266087 0.266545 0
0.362142 0.252247 0
0.457191 0.236774 0
0.556558 0.218341 0
0.662867 0.196872 0
0.773953 0.172412 0
0.881346 0.14934 0
0.957168 0.129854 0
0.99202 0.114351 0
0.999893 0.102678 0
1 0.0949874 0
1 0.0897688 0
1 0.0868086 0
1 0.0854505 0
1 0.0856489 0
1 0.0867018 0
1 0.0877852 0
1 0.0891432 0
1 0.0909895 0
1 0.0926223 0
1 0.0923934 0
0 0.363973 0
0 0.368811 0
0 0.37293 0
0 0.378317 0
0 0.383322 0
0 0.388708 0
0 0.393484 0
0 0.39649 0
0 0.394919 0
0.00645457 0.387869 0
0.03888 0.37435 0
0.109758 0.35668 0
0.212131 0.338186 0
0.322896 0.321401 0
0.428397 0.305638 0
0.53257 0.289555 0
0.640177 0.269947 0
0.751537 0.247211 0
0.859876 0.224094 0
0.945098 0.20325 0
0.988373 0.18584 0
0.999344 0.17145 0
1 0.16112 0
1 0.153552 0
1 0.148363 0
1 0.145251 0
1 0.144213 0
1 0.143755 0
1 0.143557 0
1 0.143923 0
1 0.144869 0
1 0.146075 0
1 0.145754 0
0 0.425772 0
0 0.431144 0
0 0.436225 0
0 0.441657 0
0 0.446998 0
0 0.452583 0
0 0.458656 0
0 0.464057 0
0 0.467216 0
0 0.46569 0
0.0106813 0.456931 0
0.0538949 0.440604 0
0.143587 0.420127 0
0.26392 0.400641 0
0.387778 0.382361 0
0.502602 0.365591 0
0.614588 0.348104 0
0.726329 0.32781 0
0.83621 0.306432 0
0.929656 0.286992 0
0.981323 0.269047 0
0.997787 0.253895 0
1 0.242069 0
1 0.232441 0
1 0.22501 0
1 0.220111 0
1 0.216632 0
1 0.213748 0
1 0.211765 0
1 0.209766 0
1 0.208179 0
1 0.207263 0
1 0.205112 0
0 0.493217 0
0 0.498924 0
0 0.504707 0
0 0.509926 0
0 0.515831 0
0 0.521935 0
0 0.529427 0
0 0.536568 0
0 0.542306 0
0 0.545525 0
0.00151064 0.542702 0
0.0185397 0.531548 0
0.0757153 0.513146 0
0.184344 0.490593 0
0.325505 0.468498 0
0.460594 0.448447 0
0.582925 0.431205 0
0.698604 0.413748 0
0.811078 0.395819 0
0.90837 0.377798 0
0.970047 0.362112 0
0.994812 0.347662 0
1 0.335363 0
1 0.325933 0
1 0.317464 0
1 0.310658 0
1 0.304845 0
1 0.300191 0
1 0.29514 0
1 0.290089 0
1 0.285161 0
1 0.280262 0
1 0.276753 0
0 0.565393 0
0 0.57142 0
0 0.577813 0
0 0.583551 0
0 0.589837 0
0 0.597467 0
0 0.605432 0
0 0.613306 0
0 0.620661 0
0 0.62707 0
6.10361e-05 0.630228 0
0.00419623 0.626612 0
0.0296941 0.613657 0
0.102953 0.592828 0
0.234638 0.566567 0
0.39527 0.54139 0
0.540505 0.521492 0
0.666453 0.504891 0
0.781781 0.489326 0
0.884978 0.474693 0
0.956893 0.460639 0
0.99118 0.447944 0
0.999985 0.438285 0
1 0.429007 0
1 0.42121 0
1 0.414221 0
1 0.407431 0
1 0.40116 0
1 0.394583 0
1 0.386419 0
1 0.37818 0
1 0.370214 0
1 0.364401 0
0 0.640909 0
0 0.647578 0
0 0.654368 0
0 0.661051 0
0 0.668925 0
0 0.677363 0
0 0.685649 0
0 0.694347 0
0 0.702876 0
0 0.711696 0
0 0.718807 0
0.000610361 0.721019 0
0.00944533 0.715267 0
0.0469062 0.699519 0
0.140459 0.675395 0
0.299947 0.64712 0
0.475654 0.619944 0
0.624826 0.600198 0
0.74995 0.585138 0
0.859724 0.571511 0
0.942107 0.559609 0
0.987015 0.550057 0
0.99971 0.54078 0
1 0.533104 0
1 0.526284 0
1 0.519371 0
1 0.514031 0
1 0.506905 0
1 0.499168 0
1 0.489998 0
1 0.480598 0
1 0.469902 0
1 0.463203 0
0 0.716991 0
0 0.724849 0
0 0.732647 0
0 0.74081 0
0 0.749508 0
0 0.758404 0
0 0.767575 0
0 0.777249 0
0 0.787564 0
0 0.797116 0
0 0.80618 0
6.10361e-05 0.812116 0
0.00231937 0.811963 0
0.0175937 0.803632 0
0.0737469 0.784283 0
0.202991 0.756176 0
0.394476 0.725216 0
0.569497 0.698711 0
0.712535 0.68014 0
0.832929 0.666606 0
0.925399 0.65594 0
0.979202 0.64651 0
0.997925 0.638636 0
1 0.631891 0
1 0.625422 0
1 0.620081 0
1 0.613901 0
1 0.607187 0
1 0.599481 0
1 0.5906 0
1 0.579828 0
1 0.568872 0
1 0.560769 0
0 0.793256 0
0 0.80267 0
0 0.811276 0
0 0.82063 0
0 0.829953 0
0 0.839368 0
0 0.849744 0
0 0.860441 0
0 0.871397 0
0 0.882292 0
0 0.892439 0
0 0.900053 0
0.00030518 0.90309 0
0.00595102 0.899123 0
0.0353094 0.886427 0
0.124422 0.862669 0
0.307195 0.829892 0
0.504097 0.798505 0
0.668269 0.775082 0
0.801862 0.758175 0
0.905287 0.746242 0
0.969207 0.737514 0
0.995117 0.729976 0
1 0.723369 0
1 0.718029 0
1 0.712322 0
1 0.706523 0
1 0.700267 0
1 0.692226 0
1 0.683635 0
1 0.672877 0
1 0.660929 0
1 0.653025 0
0 0.870344 6.10361e-05
0 0.8804 6.10361e-05
0 0.889845 3.0518e-05
0 0.900236 1.5259e-05
0 0.909422 0
0 0.916945 0
0 0.924636 0
0 0.93228 0
0 0.940551 0
0 0.948394 0
0 0.95613 0
0 0.96257 0
0 0.965118 0
0.00183108 0.963638 0
0.014725 0.957229 0
0.0686046 0.942535 0
0.22295 0.919051 0
0.434272 0.893584 0
0.616327 0.867033 0
0.765347 0.84686 0
0.881437 0.832181 0
0.956909 0.821912 0
0.991653 0.814496 0
1 0.807904 0
1 0.802152 0
1 0.796719 0
1 0.791455 0
1 0.785153 0
1 0.777768 0
1 0.768383 0
1 0.757763 0
1 0.746365 0
1 0.73846 0
0 0.93901 0.000701915
0 0.945724 0.000732433
0 0.95227 0.000442512
0 0.959518 0.000122072
0 0.967376 3.0518e-05
0 0.971557 1.5259e-05
0 0.974701 0
0 0.978164 0
0 0.981781 0
0 0.985565 0
0 0.98938 0
0 0.992065 0
0 0.993255 0
0.000411994 0.992905 0
0.00500496 0.990799 0
0.0354162 0.985092 0
0.152468 0.974716 0
0.363302 0.961715 0
0.559945 0.941527 0
0.723568 0.924361 0
0.853956 0.910613 0
0.942519 0.900328 0
0.987549 0.891691 0
1 0.884993 0
1 0.879179 0
1 0.873686 0
1 0.867994 0
1 0.862211 0
1 0.854551 0
1 0.845441 0
1 0.835157 0
1 0.82385 0
1 0.816724 0
0 0.983246 0.00488289
0 0.985321 0.00483711
0 0.987594 0.00360113
0 0.990539 0.00202945
0 0.993606 0.0010071
0 0.99501 0.000442512
0 0.995804 0.000137331
0 0.996582 3.0518e-05
0 0.997421 0
0 0.998337 0
0 0.999161 0
0 0.999756 0
0 1 0
3.0518e-05 0.999954 0
0.00154116 0.999634 0
0.0172274 0.998596 0
0.0937514 0.996353 0
0.293126 0.993011 0
0.500526 0.984955 0
0.678203 0.977249 0
0.821897 0.970184 0
0.924681 0.96257 0
0.981445 0.954772 0
0.999496 0.948272 0
1 0.943374 0
1 0.938857 0
1 0.934203 0
1 0.928725 0
1 0.922148 0
1 0.914641 0
1 0.904967 0
1 0.893965 0
1 0.886809 0
0 0.998566 0.0174258
0 0.99884 0.0173648
0 0.9991 0.014313
0 0.999451 0.0100404
0 0.999847 0.00601205
0 0.999985 0.0031281
0 1 0.00125124
0 1 0.000411994
0 1 0.000106813
0 1 1.5259e-05
0 1 0
0 1 0
0 1 0
0 1 0
0.000549325 1 0
0.00704967 1 0
0.0459602 1 0
0.228092 0.999893 0
0.440558 0.999176 0
0.629129 0.998337 0
0.785336 0.996704 0
0.901305 0.993881 0
0.971511 0.990326 0
0.997452 0.987228 0
1 0.984848 0
1 0.982742 0
1 0.980575 0
1 0.977951 0
1 0.97467 0
1 0.970169 0
1 0.962966 0
1 0.953475 0
1 0.94725 0
0 1 0.041413
0 1 0.0411383
0 1 0.0361181
0 1 0.028809
0 1 0.0198062
0 1 0.0117494
0 1 0.00573739
0 1 0.00225834
0 1 0.000686656
0 1 0.000122072
0 1 1.5259e-05
0 1 0
0 1 0
0 1 0
0.000122072 1 0
0.00154116 1 0
0.0154269 1 0
0.170169 1 0
0.380377 1 0
0.576516 1 0
0.743465 1 0
0.872312 1 0
0.955886 1 0
0.993027 1 0
1 1 0
1 1 0
1 1 0
1 1 0
1 0.999893 0
1 0.99884 0
1 0.995697 0
1 0.990814 0
1 0.98764 0
0 1 0.0724651
0 1 0.0719768
0 1 0.0658732
0 1 0.0564584
0 1 0.0438087
0 1 0.030045
0 1 0.0174105
0 1 0.00810254
0 1 0.0027924
0 1 0.000610361
0 1 6.10361e-05
0 1 0
0 1 0
0 1 0
0 1 0
0 1 0
0.00497444 1 0
0.120211 1 0
0.319875 1 0
0.520592 1 0
0.69691 1 0
0.837583 1 0
0.936156 1 0
0.986496 1 0
1 1 0
1 1 0
1 1 0
1 1 0
1 1 0
1 1 0
1 1 0
1 1 0
1 1 0
0 1 0.103578
0 1 0.10222
0 1 0.0952621
0 1 0.0853742
0 1 0.0716106
0 1 0.055375
0 1 0.0377661
0 1 0.0209354
0 1 0.00866712
0 1 0.00231937
0 1 0.000289921
0 1 0
0 1 0
0 1 0
0 1 0
0 1 0
0.00192264 1 0
0.0763409 1 0
0.259922 1 0
0.461997 1 0
0.646616 1 0
0.79794 1 0
0.911284 1 0
0.977218 1 0
0.999298 1 0
1 1 0
1 1 0
1 1 0
1 1 0
1 1 0
1 1 0
1 1 0
1 1 0
0 1 0.131456
0 1 0.129229
0 1 0.121843
0 1 0.110933
0 1 0.096788
0 1 0.0802014
0 1 0.0611887
0 1 0.0400092
0 1 0.0201419
