LUT预设1/LUT全系打包/6.FAKE5207&淡雅系列/FAKE5207/Log灰片使用/FAKE5207WARM暖.cube
TITLE "Generated by Resolve"
LUT_3D_SIZE 33
0 0 0
0 0 0
0 0 0
0 0 0
0.00671397 0 0
0.0392462 0 0
0.0840467 0 0
0.132952 0 0
0.184527 0 0
0.240024 0 0
0.299184 0 0
0.36321 0 0
0.434211 0 0
0.512551 0 0
0.599268 0 0
0.694606 0 0
0.79527 0 0
0.894774 0 0
0.971405 0 0
0.995804 0 0
1 0 0
1 0 0
1 0 0
1 0 0
1 0 0
1 0 0
1 0 0
1 0 0
1 0 0
1 0 0
1 0 0
1 0 0
1 0 0
0 0 0
0 0 0
0 0 0
0 0 0
0.00534066 0 0
0.0336614 0 0
0.0761273 0 0
0.124514 0 0
0.175601 0 0
0.229679 0 0
0.287938 0 0
0.351812 0 0
0.422187 0 0
0.500557 0 0
0.586633 0 0
0.679759 0 0
0.779538 0 0
0.878782 0 0
0.959289 0 0
0.99295 0 0
1 0 0
1 0 0
1 0 0
1 0 0
1 0 0
1 0 0
1 0 0
1 0 0
1 0 0
1 0 0
1 0 0
1 0 0
1 0 0
0 0 0
0 0 0
0 0 0
0 0 0
0.00547799 0 0
0.0342107 0 0
0.0748608 0 0
0.118837 0 0
0.166201 0 0
0.217578 0 0
0.274128 0 0
0.336477 0 0
0.406668 0 0
0.483909 0 0
0.568215 0 0
0.661006 0 0
0.759976 0 0
0.85951 0 0
0.945388 0 0
0.989151 0 0
1 0 0
1 0 0
1 0 0
1 0 0
1 0 0
1 0 0
1 0 0
1 0 0
1 0 0
1 0 0
1 0 0
1 0 0
1 0 0
0 0 0
0 0 0
0 0 0
1.5259e-05 0 0
0.00280766 0 0
0.0264134 0 0
0.0710002 0 0
0.119738 0 0
0.168048 0 0
0.217319 0 0
0.270787 0 0
0.329397 0 0
0.395438 0 0
0.469429 0 0
0.55172 0 0
0.642695 0 0
0.740887 0 0
0.841199 0 0
0.930297 0 0
0.984466 0 0
1 0 0
1 0 0
1 0 0
1 0 0
1 0 0
1 0 0
1 0 0
1 0 0
1 0 0
1 0 0
1 0 0
1 0 0
1 0 0
0 0.00015259 0
0 0.000640879 0
0 0.0011902 0
1.5259e-05 0.000518807 0
0.000503548 6.10361e-05 0
0.0155642 0 0
0.0572366 0 0
0.108965 0 0
0.163241 0 0
0.218326 0 0
0.274266 0 0
0.331762 0 0
0.394156 0 0
0.463859 0 0
0.541939 0 0
0.62977 0 0
0.725216 0 0
0.823835 0 0
0.915221 0 0
0.979187 0 0
0.999649 0 0
1 0 0
1 0 0
1 0 0
1 0 0
1 0 0
1 0 0
1 0 0
1 0 0
1 0 0
1 0 0
1 0 0
1 0 0
0 0.01178 0
0 0.0137789 0
0 0.0157168 0
0 0.0144961 0
0.000122072 0.0103151 0
0.00968948 0.00569161 0
0.0448157 0.00262455 0
0.0943923 0.000900282 0
0.150591 0.000198367 0
0.209873 1.5259e-05 0
0.270909 0 0
0.333639 0 0
0.398901 0 0
0.467948 0 0
0.543725 0 0
0.626444 0 0
0.71754 0 0
0.812787 0 0
0.903792 0 0
0.972808 0 0
0.998413 0 0
0.999893 0 0
1 0 0
1 0 0
1 0 0
1 0 0
1 0 0
1 0 0
1 0 0
1 0 0
1 0 0
1 0 0
1 0 0
0 0.0412909 0
0 0.044358 0
0 0.0467079 0
0 0.0466316 0
0.000106813 0.0408789 0
0.00448615 0.0305943 0
0.0320897 0.0222629 0
0.0801404 0.0169833 0
0.135668 0.0131991 0
0.195712 0.00959792 0
0.260075 0.00547799 0
0.327672 0.00202945 0
0.398779 0.000350958 0
0.473274 0 0
0.5505 0 0
0.631907 0 0
0.71873 0 0
0.80975 0 0
0.898299 0 0
0.968185 0 0
0.996689 0 0
0.999741 0 0
1 0 0
1 0 0
1 0 0
1 0 0
1 0 0
1 0 0
1 0 0
1 0 0
1 0 0
1 0 0
1 0 0
0 0.0779431 0
0 0.0812695 0
0 0.0840467 0
0 0.0853285 0
4.57771e-05 0.0816968 0
0.00131228 0.0716106 0
0.0197604 0.0595865 0
0.0644694 0.0501564 0
0.120195 0.0432898 0
0.180636 0.0366369 0
0.245579 0.0288701 0
0.316396 0.0207675 0
0.391775 0.0128328 0
0.471626 0.00596628 0
0.554849 0.00149538 0
0.640238 0 0
0.727459 0 0
0.817029 0 0
0.902174 0 0
0.968902 0 0
0.996796 0 0
0.999771 0 0
1 0 0
1 0 0
1 0 0
1 0 0
1 0 0
1 0 0
1 0 0
1 0 0
1 0 0
1 0 0
1 0 0
0 0.117098 0
0 0.120592 0
0 0.123552 0
0 0.125963 0
1.5259e-05 0.125948 0
0.000381476 0.119493 0
0.00833143 0.107057 0
0.0449378 0.0945754 0
0.101778 0.0844282 0
0.164736 0.0760204 0
0.230854 0.0672313 0
0.301671 0.0564431 0
0.378912 0.0438697 0
0.462135 0.0306401 0
0.551003 0.0181888 0
0.643381 0.00808728 0
0.737408 0.00175479 0
0.828168 0.000335698 0
0.91162 6.10361e-05 0
0.9738 1.5259e-05 0
0.998428 0 0
0.999893 0 0
1 0 0
1 0 0
1 0 0
1 0 0
1 0 0
1 0 0
1 0 0
1 0 0
1 0 0
1 0 0
1 0 0
0 0.158938 0
0 0.162448 0
0 0.165682 0
0 0.169421 0
0 0.171313 0
7.62951e-05 0.169039 0
0.00177005 0.159777 0
0.0236515 0.146578 0
0.0759899 0.133639 0
0.143343 0.123308 0
0.213519 0.113161 0
0.285832 0.102144 0
0.363149 0.0886549 0
0.447883 0.0726177 0
0.540551 0.0550088 0
0.639048 0.0366827 0
0.739437 0.021561 0
0.836133 0.0126345 0
0.921157 0.00688182 0
0.97879 0.00360113 0
0.99968 0.00224308 0
0.999969 0.00180056 0
1 0.00155642 0
1 0.00144961 0
1 0.00143435 0
1 0.00149538 0
1 0.0016022 0
1 0.00172427 0
1 0.00181582 0
1 0.00189212 0
1 0.00195315 0
1 0.00195315 0
1 0.00189212 0
0 0.204028 0
0 0.208148 0
0 0.211688 0
0 0.215518 0
0 0.218662 0
0 0.219455 0
9.15541e-05 0.215198 0
0.00766003 0.204501 0
0.0464485 0.190631 0
0.112856 0.176791 0
0.188815 0.16495 0
0.266346 0.153613 0
0.34609 0.140429 0
0.431815 0.125017 0
0.525032 0.106279 0
0.626291 0.0846113 0
0.731701 0.0630503 0
0.835294 0.0449836 0
0.925063 0.0311284 0
0.981353 0.0223087 0
0.999985 0.0173495 0
1 0.0146181 0
1 0.0129854 0
1 0.0121767 0
1 0.0119783 0
1 0.0124666 0
1 0.0129549 0
1 0.0134127 0
1 0.0138094 0
1 0.0142061 0
1 0.0145571 0
1 0.0146944 0
1 0.0141604 0
0 0.252949 0
0 0.257221 0
0 0.261036 0
0 0.264958 0
0 0.26891 0
0 0.271946 0
3.0518e-05 0.272328 0
0.000900282 0.266133 0
0.0207675 0.25359 0
0.0742657 0.238025 0
0.152239 0.223362 0
0.237903 0.210163 0
0.325032 0.19765 0
0.412955 0.183108 0
0.506798 0.165255 0
0.608209 0.143801 0
0.716075 0.119982 0
0.825132 0.0967727 0
0.921355 0.0772106 0
0.980529 0.0624704 0
1 0.0522927 0
1 0.0458076 0
1 0.0416724 0
1 0.0395972 0
1 0.0390021 0
1 0.0392309 0
1 0.0400549 0
1 0.0410315 0
1 0.0419928 0
1 0.0432898 0
1 0.0446021 0
1 0.0450141 0
1 0.0438849 0
0 0.305669 0
0 0.309895 0
0 0.314076 0
0 0.31841 0
0 0.323125 0
0 0.32784 0
0 0.330709 0
0 0.329351 0
0.00534066 0.320958 0
0.0362402 0.306584 0
0.104143 0.290135 0
0.196353 0.274662 0
0.294087 0.259846 0
0.389883 0.245274 0
0.486442 0.228763 0
0.58883 0.208911 0
0.697795 0.186053 0
0.809201 0.161654 0
0.910002 0.139315 0
0.976165 0.120775 0
0.999756 0.106386 0
0.999985 0.0958572 0
1 0.0893263 0
1 0.0853895 0
1 0.0833295 0
1 0.0826581 0
1 0.0831311 0
1 0.084123 0
1 0.0857252 0
1 0.0873579 0
1 0.0890059 0
1 0.0898604 0
1 0.088777 0
0 0.362753 0
0 0.367361 0
0 0.371633 0
0 0.376822 0
0 0.382116 0
0 0.387472 0
0 0.391943 0
0 0.39408 0
0 0.391333 0
0.00935378 0.38172 0
0.0534218 0.366171 0
0.138369 0.347677 0
0.246845 0.3299 0
0.355917 0.313313 0
0.460975 0.297292 0
0.567452 0.279896 0
0.677211 0.25893 0
0.7888 0.235431 0
0.892531 0.212528 0
0.968185 0.19234 0
0.998459 0.175647 0
0.999939 0.163043 0
1 0.153918 0
1 0.147478 0
1 0.142947 0
1 0.140475 0
1 0.139834 0
1 0.140047 0
1 0.140215 0
1 0.140978 0
1 0.141924 0
1 0.142306 0
1 0.140917 0
0 0.424491 0
0 0.429328 0
0 0.434592 0
0 0.440101 0
0 0.445487 0
0 0.451057 0
0 0.456718 0
0 0.461799 0
0 0.4645 0
0 0.461112 0
0.0162814 0.448966 0
0.075288 0.430655 0
0.181399 0.409735 0
0.305852 0.390051 0
0.426612 0.372915 0
0.540932 0.355703 0
0.653651 0.336934 0
0.765927 0.315908 0
0.872129 0.294545 0
0.956069 0.274846 0
0.994705 0.257816 0
0.999847 0.243931 0
1 0.232883 0
1 0.22417 0
1 0.217365 0
1 0.212985 0
1 0.2103 0
1 0.208209 0
1 0.206195 0
1 0.204578 0
1 0.203021 0
1 0.202106 0
1 0.199588 0
0 0.491279 0
0 0.497124 0
0 0.502617 0
0 0.507958 0
0 0.513924 0
0 0.520455 0
0 0.527291 0
0 0.534737 0
0 0.540093 0
0 0.542031 0
0.00234989 0.536492 0
0.0286412 0.521843 0
0.105638 0.500664 0
0.233646 0.478157 0
0.375067 0.456474 0
0.505577 0.437766 0
0.625406 0.42002 0
0.740688 0.401862 0
0.849485 0.38349 0
0.93875 0.366033 0
0.987533 0.350469 0
0.999786 0.336614 0
1 0.325338 0
1 0.315694 0
1 0.308324 0
1 0.301671 0
1 0.29662 0
1 0.291417 0
1 0.286473 0
1 0.281025 0
1 0.277272 0
1 0.27277 0
1 0.269368 0
0 0.5635 0
0 0.569375 0
0 0.575387 0
0 0.581231 0
0 0.587655 0
0 0.595422 0
0 0.603494 0
0 0.611322 0
0 0.618784 0
0 0.624277 0
0.000106813 0.625254 0
0.00689708 0.618692 0
0.0461433 0.602029 0
0.145769 0.578302 0
0.295872 0.551537 0
0.451453 0.52813 0
0.5888 0.508904 0
0.711894 0.493584 0
0.823987 0.477745 0
0.919417 0.463249 0
0.978821 0.449439 0
0.999817 0.436957 0
1 0.426825 0
1 0.418692 0
1 0.411795 0
1 0.4047 0
1 0.39826 0
1 0.391318 0
1 0.383612 0
1 0.376364 0
1 0.368292 0
1 0.361532 0
1 0.356268 0
0 0.63888 0
0 0.64535 0
0 0.652064 0
0 0.658656 0
0 0.667185 0
0 0.675593 0
0 0.683955 0
0 0.692348 0
0 0.701137 0
0 0.70898 0
0 0.71545 0
0.00131228 0.715099 0
0.0171206 0.705272 0
0.0751354 0.685679 0
0.200946 0.658625 0
0.368811 0.630396 0
0.534936 0.606516 0
0.676081 0.588006 0
0.796399 0.573434 0
0.898512 0.560204 0
0.969146 0.549096 0
0.999405 0.539254 0
0.999969 0.530602 0
1 0.523445 0
1 0.516289 0
1 0.509896 0
1 0.502861 0
1 0.496529 0
1 0.487816 0
1 0.478538 0
1 0.468315 0
1 0.459266 0
1 0.452735 0
0 0.715297 0
0 0.722835 0
0 0.730449 0
0 0.739147 0
0 0.7476 0
0 0.756512 0
0 0.765759 0
0 0.775494 0
0 0.785794 0
0 0.795682 0
0 0.803876 0
0.000137331 0.808377 0
0.00454719 0.804883 0
0.0317998 0.791089 0
0.12015 0.767697 0
0.280049 0.737881 0
0.465858 0.708476 0
0.628916 0.685313 0
0.764935 0.667887 0
0.876005 0.655177 0
0.956664 0.64567 0
0.995773 0.636454 0
0.999756 0.629328 0
1 0.622782 0
1 0.616236 0
1 0.609964 0
1 0.603845 0
1 0.596872 0
1 0.588266 0
1 0.578164 0
1 0.566674 0
1 0.556725 0
1 0.55082 0
0 0.791516 0
0 0.800717 0
0 0.809567 0
0 0.818875 0
0 0.828244 0
0 0.837888 0
0 0.847898 0
0 0.859113 0
0 0.870237 0
0 0.880964 0
0 0.890455 0
0 0.896605 0
0.000686656 0.896574 0
0.0120394 0.889403 0
0.0646067 0.871656 0
0.198749 0.84358 0
0.389624 0.810788 0
0.575326 0.781842 0
0.728466 0.760632 0
0.851637 0.746212 0
0.942061 0.736171 0
0.990021 0.727749 0
0.999512 0.720729 0
1 0.714382 0
1 0.708782 0
1 0.703243 0
1 0.697276 0
1 0.689876 0
1 0.681147 0
1 0.67097 0
1 0.659846 0
1 0.650095 0
1 0.643824 0
0 0.868513 3.0518e-05
0 0.878279 1.5259e-05
0 0.888167 1.5259e-05
0 0.89807 0
0 0.907073 0
0 0.914656 0
0 0.922744 0
0 0.930816 0
0 0.939193 0
0 0.947311 0
0 0.955108 0
0 0.960388 0
1.5259e-05 0.961563 0
0.0040589 0.958068 0
0.0301518 0.947738 0
0.133715 0.927611 0
0.314504 0.902052 0
0.516106 0.875685 0
0.687327 0.851408 0
0.823758 0.833265 0
0.924895 0.821088 0
0.983154 0.81181 0
0.99939 0.804562 0
1 0.798856 0
1 0.79353 0
1 0.787945 0
1 0.782055 0
1 0.77499 0
1 0.766125 0
1 0.756268 0
1 0.745068 0
1 0.735286 0
1 0.729595 0
0 0.936904 0.000457771
0 0.943633 0.000381476
0 0.950957 0.000167849
0 0.958511 3.0518e-05
0 0.965484 0
0 0.969848 0
0 0.973297 0
0 0.977172 0
0 0.981155 0
0 0.985199 0
0 0.989181 0
0 0.991638 0
0 0.992172 0
0.0010071 0.991226 0
0.0117494 0.987152 0
0.0841382 0.978286 0
0.247349 0.965377 0
0.453834 0.948623 0
0.640208 0.928359 0
0.790372 0.9122 0
0.904677 0.899657 0
0.975097 0.88957 0
0.999481 0.882124 0
1 0.876127 0
1 0.870451 0
1 0.865156 0
1 0.859129 0
1 0.852003 0
1 0.843915 0
1 0.833982 0
1 0.822736 0
1 0.813519 0
1 0.807568 0
0 0.981765 0.0037995
0 0.984176 0.00334173
0 0.986954 0.00215152
0 0.990372 0.00105287
0 0.993271 0.00047303
0 0.994644 0.000183108
0 0.995529 3.0518e-05
0 0.996445 0
0 0.997436 0
0 0.998474 0
0 0.99939 0
0 0.999908 0
0 1 0
6.10361e-05 0.999878 0
0.00410468 0.999176 0
0.0489662 0.997314 0
0.185809 0.994156 0
0.391485 0.987976 0
0.589349 0.978821 0
0.752972 0.97026 0
0.880827 0.962356 0
0.964645 0.95436 0
0.998917 0.946563 0
0.999939 0.9411 0
1 0.936049 0
1 0.931319 0
1 0.926284 0
1 0.920241 0
1 0.912978 0
1 0.903914 0
1 0.892927 0
1 0.883879 0
1 0.878569 0
0 0.998459 0.0146029
0 0.998764 0.0134127
0 0.999115 0.0103609
0 0.999527 0.00672923
0 0.999878 0.00375372
0 1 0.00178531
0 1 0.000595102
0 1 0.00015259
0 1 3.0518e-05
0 1 0
0 1 0
0 1 0
0 1 0
0 1 0
0.0016022 1 0
0.0223545 1 0
0.132662 0.999939 0
0.329931 0.999527 0
0.535317 0.998627 0
0.712062 0.997345 0
0.852613 0.994934 0
0.949706 0.991104 0
0.99585 0.986893 0
0.999695 0.983902 0
1 0.981277 0
1 0.979049 0
1 0.976303 0
1 0.972946 0
1 0.968643 0
1 0.961883 0
1 0.952789 0
1 0.945083 0
1 0.940703 0
0 1 0.0368963
0 1 0.0349279
0 1 0.0293278
0 1 0.0221103
0 1 0.0144198
0 1 0.00787366
0 1 0.00331121
0 1 0.00108339
0 1 0.000228885
0 1 1.5259e-05
0 1 0
0 1 0
0 1 0
0 1 0
0.000381476 1 0
0.00527962 1 0
0.0902571 1 0
0.272969 1 0
0.481651 1 0
0.667399 1 0
0.818769 1 0
0.928695 1 0
0.988418 1 0
0.999222 1 0
1 1 0
1 1 0
1 1 0
1 1 0
1 0.999313 0
1 0.996689 0
1 0.991974 0
1 0.987533 0
1 0.985397 0
0 1 0.0674601
0 1 0.0652934
0 1 0.0585031
0 1 0.0482643
0 1 0.0355688
0 1 0.0227512
0 1 0.0117647
0 1 0.00463874
0 1 0.00114443
0 1 0.000106813
0 1 0
0 1 0
0 1 0
0 1 0
0 1 0
0 1 0
0.0610056 1 0
0.218357 1 0
0.424857 1 0
0.617761 1 0
0.779019 1 0
0.901808 1 0
0.977111 1 0
0.998657 1 0
1 1 0
1 1 0
1 1 0
1 1 0
1 1 0
1 1 0
1 1 0
1 1 0
1 1 0
0 1 0.0988632
0 1 0.0959029
0 1 0.0883192
0 1 0.0772717
0 1 0.0631266
0 1 0.0465858
0 1 0.0292973
0 1 0.0137484
0 1 0.00408942
0 1 0.000518807
0 1 3.0518e-05
0 1 0
0 1 0
0 1 0
0 1 0
0 1 0
0.0401007 1 0
0.167971 1 0
0.367788 1 0
0.565744 1 0
0.735927 1 0
0.871672 1 0
0.963211 1 0
0.997314 1 0
0.999924 1 0
1 1 0
1 1 0
1 1 0
1 1 0
1 1 0
1 1 0
1 1 0
1 1 0
0 1 0.127413
0 1 0.123491
0 1 0.11516
0 1 0.103517
0 1 0.0885328
0 1 0.0710307
0 1 0.051133
0 1 0.0298009
0 1 0.0114595
