LUT预设1/LUT全系打包/6.FAKE5207&淡雅系列/FAKE5207/Log灰片使用/FAKE5207STD标准.cube
TITLE "Generated by Resolve"
LUT_3D_SIZE 9
0 0 0
0.00648508 0 0
0.180896 0 0
0.42649 0 0
0.780118 0 0
0.999359 0 0
1 0 0
1 0 0
1 0 0
0 0.000137331 0
0.000427253 9.15541e-05 0
0.15639 0 0
0.383825 0 0
0.705547 0 0
0.994873 0 0
1 0 0
1 0 0
1 0 0
0 0.117601 0
0 0.12755 0
0.0907759 0.08748 0
0.361227 0.0479744 0
0.714107 0.00233463 0
0.991424 0 0
1 0 0
1 0 0
1 0 0
0 0.306615 0
0 0.324575 0
0.00384527 0.325475 0
0.266087 0.266545 0
0.662867 0.196872 0
0.99202 0.114351 0
1 0.0868086 0
1 0.0877852 0
1 0.0923934 0
0 0.565393 0
0 0.589837 0
0 0.620661 0
0.0296941 0.613657 0
0.540505 0.521492 0
0.956893 0.460639 0
1 0.42121 0
1 0.394583 0
1 0.364401 0
0 0.870344 6.10361e-05
0 0.909422 0
0 0.940551 0
0 0.965118 0
0.22295 0.919051 0
0.881437 0.832181 0
1 0.802152 0
1 0.777768 0
1 0.73846 0
0 1 0.041413
0 1 0.0198062
0 1 0.000686656
0 1 0
0.0154269 1 0
0.743465 1 0
1 1 0
1 0.999893 0
1 0.98764 0
0 1 0.155779
0 1 0.118959
0 1 0.0356756
0 1 0
0 1 0
0.51899 1 0
0.986786 1 0
1 1 0
1 1 0
0 1 0.215015
0 1 0.177142
0 1 0.0899672
0 1 0
0 1 0
0.240482 1 0
0.881331 1 0
1 1 0
1 1 0
0 0 0.00369268
1.5259e-05 0 6.10361e-05
0.110552 0 0
0.406271 0 0
0.783597 0 0
0.999588 0 0
1 0 0
1 0 0
1 0 0
0 0 0.000732433
0 0 1.5259e-05
0.127367 0 0
0.371466 0 0
0.718471 0 0
0.995987 0 0
1 0 0
1 0 0
1 0 0
0 0.103426 0.000122072
0 0.101579 0.00263981
0.0778058 0.08542 0
0.337057 0.0441138 0
0.652888 0.00918593 0
0.973236 9.15541e-05 0
1 1.5259e-05 0
1 0 0
1 0 0
0 0.286366 0.0226139
0 0.296712 0.0119936
0.00128176 0.313252 1.5259e-05
0.255283 0.270054 0
0.647684 0.192813 0
0.985946 0.120577 0
1 0.105516 0
1 0.111254 0
1 0.114733 0
0 0.544625 0.0339666
0 0.566217 0.0167544
0 0.596902 0.000289921
0.0223697 0.615061 0
0.537102 0.531151 0
0.955245 0.464942 0
1 0.416892 0
1 0.388861 0
1 0.36379 0
0 0.853819 0.0760204
0 0.89192 0.0639353
0 0.925597 0.0191653
0 0.95697 0
0.19942 0.929091 0
0.87953 0.841627 0
1 0.80708 0
1 0.776074 0
1 0.731304 0
0 1 0.19089
0 1 0.177325
0 1 0.113497
0 1 0.0123751
0.00430304 1 0
0.72459 1 0
1 1 0
1 0.999924 0
1 0.986862 0
0 1 0.300633
0 1 0.273381
0 1 0.197955
0 1 0.0610971
0 1 0
0.483574 1 0
0.982895 1 0
1 1 0
1 1 0
0 1 0.347967
0 1 0.315541
0 1 0.237125
0 1 0.0975814
0 1 0.000213626
0.20882 1 0
0.859739 1 0
1 1 0
1 1 0
0 0 0.155673
0 0 0.171771
0.0697185 0 0.00671397
0.227085 0 0
0.663859 0 0
0.99559 0 0
1 0 0
1 0 0
1 0 0
0 0 0.174182
0 0.000320439 0.139834
0.0737469 0 0.0384527
0.275639 0 0
0.685557 0 0
0.995209 0 0
1 0 0
1 0 0
1 0 0
0 0.106584 0.108614
0 0.0962539 0.112627
0.0553597 0.0800641 0.090135
0.295003 0.0493324 0.0137179
0.641291 0.00868238 0
0.979934 0.000106813 0
1 0 0
1 0 0
1 0 0
0 0.284489 0.0881819
0 0.280201 0.117525
0.00222782 0.278599 0.117556
0.228183 0.263661 0.0241245
0.600229 0.183749 0.000183108
0.946578 0.133364 0
1 0.121508 0
1 0.1234 0
1 0.122316 0
0 0.528695 0.146731
0 0.541497 0.173846
0 0.561791 0.154101
0.0145266 0.592615 0.0469673
0.526024 0.53843 0
0.946151 0.457938 0
1 0.400381 0
1 0.378943 0
1 0.368399 0
0 0.834791 0.225315
0 0.86807 0.246509
0 0.901869 0.223056
0 0.932036 0.116823
0.163729 0.934005 0.00105287
0.869795 0.845853 0
1 0.804898 0
1 0.764782 0
1 0.711589 0
0 1 0.353521
0 1 0.364172
0 1 0.32668
0 1 0.211475
0.00177005 1 0.0115969
0.6916 1 0
0.999969 1 0
1 0.999725 0
1 0.981399 0
0 1 0.4645
0 1 0.456306
0 1 0.403769
0 1 0.281498
0 1 0.0408331
0.430411 1 0
0.974975 1 0
1 1 0
1 1 0
0 1 0.511437
0 1 0.494804
0 1 0.435538
0 1 0.314244
0 1 0.0726635
0.168246 1 0
0.823743 1 0
1 1 0
1 1 0
0 0 0.401038
0 0 0.454978
0.0653849 0 0.342718
0.239246 0 0.0324254
0.410285 0 0
0.829221 0 0
0.996399 0 0
1 0 0
1 0 0
0 0.00325017 0.412482
0 0.0160067 0.381857
0.0271916 0.00123598 0.399374
0.246845 0 0.0826276
0.446525 0 9.15541e-05
0.889326 0 0
0.999542 0 0
1 0 0
1 0 0
0 0.100114 0.430549
0 0.104067 0.416754
0.00181582 0.109773 0.358236
0.238315 0.069688 0.196872
0.507271 0.0454566 0.0104982
0.936416 0.00221256 0
1 0 0
1 0 0
1 0 0
0 0.288914 0.300801
0 0.287098 0.314855
0.00469978 0.278599 0.325185
0.197604 0.255253 0.286702
0.536995 0.184451 0.109041
0.926833 0.123552 0.00968948
1 0.102831 0.00109865
1 0.0990005 0.000122072
1 0.0943008 0
0 0.534615 0.226429
0 0.540764 0.266316
0 0.541238 0.311803
0.0413825 0.542428 0.324468
0.493446 0.533089 0.162249
0.902113 0.421103 0.045243
1 0.384039 0.00164797
1 0.385214 6.10361e-05
1 0.38381 0
0 0.828611 0.328008
0 0.852613 0.386923
0 0.871534 0.431159
0.000320439 0.890135 0.411688
0.143847 0.913832 0.195392
0.84683 0.842985 0.0350652
1 0.786206 0.0151217
1 0.729412 0.00433356
1 0.669139 0.000411994
0 1 0.488212
0 1 0.534173
0 1 0.551049
0 1 0.501259
0.00851453 1 0.291188
0.630686 1 0.0163272
0.999527 1 0.00733959
1 0.995575 0.00363165
1 0.965484 0.0010071
0 1 0.616632
0 1 0.639139
0 1 0.631037
0 1 0.562493
1.5259e-05 1 0.353521
0.358373 1 0.0270695
0.950545 1 0.00140383
1 1 0.00135805
1 1 0.000549325
0 1 0.675196
0 1 0.683818
0 1 0.662165
0 1 0.585794
0 1 0.381628
0.128161 1 0.0485695
0.760113 1 0.000335698
1 1 0
1 1 0
0 0.00030518 0.763073
0 1.5259e-05 0.821424
0 0 0.869078
0.234668 0 0.601022
0.47837 0 0.0479133
0.591501 0 0
0.785657 0 0
0.976318 0 0
1 0 0
0 0.055436 0.741344
0 0.0616617 0.741527
0 0.0216678 0.813565
0.165438 0 0.697978
0.48809 0 0.117983
0.616251 0 0.00015259
0.84712 0 0
0.997711 0 0
1 0 0
0 0.11812 0.828199
0 0.150286 0.754788
0 0.162356 0.713252
0.0757153 0.0888533 0.747051
0.499382 0.0499275 0.249149
0.658381 0.0760815 0.021912
0.928512 0.0504005 6.10361e-05
0.999969 0.0215457 0
1 0.00408942 0
0 0.28687 0.78761
0 0.294499 0.801175
0 0.305547 0.771282
0.0340276 0.303059 0.685725
0.495171 0.233295 0.432181
0.729259 0.242008 0.166873
0.988785 0.193179 0.0821851
1 0.161227 0.0556039
1 0.136675 0.0328527
0 0.539391 0.555947
0 0.548501 0.584863
0 0.553475 0.612177
0.0615702 0.554116 0.638727
0.434684 0.515953 0.59881
0.79469 0.412818 0.353918
0.999557 0.369818 0.255543
1 0.362325 0.192676
1 0.351751 0.125963
0 0.842969 0.482582
0 0.86508 0.526635
0 0.874586 0.568276
0.00621042 0.865919 0.608072
0.284779 0.833051 0.6309
0.779599 0.811505 0.457984
0.997726 0.710475 0.342245
1 0.646876 0.22797
1 0.612848 0.109316
0 1 0.589334
0 1 0.63798
0 1 0.684611
0.000427253 1 0.728908
0.147341 1 0.716274
0.545342 1 0.462928
0.994614 0.999252 0.357977
1 0.969833 0.307698
1 0.897246 0.213001
0 1 0.711574
0 1 0.753429
0 1 0.792599
0 1 0.820279
0.0368811 1 0.768292
0.345464 1 0.512825
0.884474 1 0.273457
1 1 0.262943
1 1 0.224979
0 1 0.787366
0 1 0.822446
0 1 0.852277
0 1 0.86244
0.000137331 1 0.786618
0.182589 1 0.53991
0.638514 1 0.250599
0.999695 1 0.172244
1 1 0.176196
0 0.0233005 0.999222
0 0.00704967 1
0 9.15541e-05 1
0.0470588 0 0.99411
0.57644 0 0.545464
0.705867 0 0.0364691
0.772045 0 0
0.875746 0 0
0.989792 0 0
0 0.108019 0.996445
0 0.10898 0.997299
0 0.0702068 0.999985
0.0183261 0.00410468 0.998428
0.549172 0 0.693706
0.725063 0 0.12018
0.80087 1.5259e-05 0.00285344
0.921126 6.10361e-05 0
1 0 0
0 0.176059 0.99971
0 0.208621 0.996094
0 0.213199 0.993683
0.00427253 0.14966 0.999557
0.479377 0.0188907 0.850248
0.752895 0.045594 0.256001
0.843336 0.0922866 0.0885634
0.977981 0.117693 0.0234531
1 0.11931 0.00173953
0 0.289281 0.999786
0 0.313924 0.999939
0 0.347341 0.997375
0.000320439 0.357443 0.984833
0.324865 0.244022 0.963592
0.788312 0.240696 0.442893
0.903136 0.299535 0.274296
0.999664 0.323262 0.199008
1 0.313817 0.13048
0 0.551675 0.982589
0 0.572442 0.990158
0 0.590524 0.995789
0.0394141 0.60032 0.998825
0.207019 0.574319 0.957122
0.7906 0.500801 0.69482
0.948516 0.539086 0.494514
1 0.51838 0.412741
1 0.469566 0.34992
0 0.851453 0.85214
0 0.875227 0.889097
0 0.887266 0.913558
0.00352483 0.884978 0.92517
0.300999 0.863401 0.922545
0.7205 0.789883 0.861204
0.956497 0.703685 0.654871
1 0.623621 0.52958
1 0.589639 0.44892
0 1 0.848844
0 1 0.878614
0 1 0.894423
0.000350958 1 0.899092
0.191211 1 0.888182
0.621775 0.98909 0.874037
0.964492 0.972137 0.773327
1 0.861128 0.622919
1 0.784695 0.471183
0 1 0.884047
0 1 0.90573
0 1 0.91989
0 1 0.930816
0.113512 1 0.943954
0.498604 1 0.929961
0.800397 1 0.777218
0.999969 0.999985 0.706157
1 0.996094 0.619058
0 1 0.9028
0 1 0.924758
0 1 0.945647
0 1 0.968399
0.032578 1 0.992081
0.366903 1 0.952743
0.625116 1 0.805097
0.984726 1 0.633783
1 1 0.624201
0 0.0567788 1
0 0.0364996 1
0 0.00280766 1
0.00549325 0 1
0.506035 0 0.935668
0.819806 0 0.29044
0.875135 0 0.0303044
0.931502 0 1.5259e-05
0.991989 0 0
0 0.14551 1
0 0.144884 1
0 0.109346 1
0.000686656 0.0236515 1
0.415991 0 0.990341
0.837522 0 0.425284
0.905486 0 0.1243
0.968231 4.57771e-05 0.014847
1 0.000717174 9.15541e-05
0 0.222904 1
0 0.250751 1
0 0.252125 1
0 0.195758 1
0.282322 0.0420386 0.99971
0.858656 0.0119326 0.596689
0.948928 0.0636912 0.270573
0.997528 0.118334 0.157
1 0.154833 0.0795453
0 0.314153 1
0 0.350912 1
0 0.391546 1
0 0.402579 1
0.122255 0.299062 1
0.866224 0.202152 0.817273
0.991226 0.279088 0.466865
1 0.347097 0.364324
1 0.384909 0.290303
0 0.561593 1
0 0.583459 1
0 0.602777 1
0.00111391 0.624613 1
0.0463569 0.621485 1
0.743877 0.498085 0.982971
0.999298 0.538918 0.700938
1 0.598062 0.585885
1 0.606363 0.494392
0 0.86891 1
0 0.89955 1
0 0.921141 1
0.00489815 0.934493 1
0.32256 0.929793 1
0.598749 0.841184 0.999924
0.981506 0.772061 0.906081
1 0.790784 0.754055
1 0.724681 0.63769
0 1 1
0 1 1
0 1 1
0 1 1
0.155642 1 1
0.655726 0.999954 0.999908
0.932326 0.969757 0.993774
1 0.89604 0.868437
1 0.769894 0.708247
0 1 1
0 1 1
0 1 1
0 1 1
0.079118 1 1
0.527657 1 0.999969
0.85742 1 0.999893
0.999588 0.999527 0.966567
1 0.964034 0.793072
0 1 1
0 1 1
0 1 1
0 1 1
0.0304112 1 1
0.437461 1 1
0.744915 1 1
0.96733 1 0.969833
1 1 0.935164
0 0.0873274 1
0 0.0686656 1
0 0.0183871 1
0 6.10361e-05 1
0.342702 0 0.999817
0.889143 0 0.655573
0.981689 0 0.245853
0.999619 0 0.0492256
1 0 0.000534066
0 0.178714 1
0 0.17705 1
0 0.144778 1
0 0.0580911 1
0.217121 0 1
0.886595 0 0.80592
0.997589 0 0.367864
1 0 0.165805
1 0 0.0509499
0 0.263691 1
0 0.2878 1
0 0.287953 1
0 0.237079 1
0.10782 0.084062 1
0.872068 0.00205997 0.938979
0.999878 0.0300603 0.529458
1 0.0919814 0.327855
1 0.148089 0.220401
0 0.348699 1
0 0.392309 1
0 0.434073 1
0 0.444266 1
0.0217441 0.352529 1
0.805341 0.199451 0.9953
1 0.243076 0.752651
1 0.325231 0.539742
1 0.388678 0.436896
0 0.567285 1
0 0.594675 1
0 0.624537 1
1.5259e-05 0.660777 1
0.00183108 0.667811 1
0.567361 0.541573 1
0.999893 0.504738 0.970184
1 0.577096 0.762173
1 0.628168 0.644602
0 0.897566 1
0 0.929915 1
0 0.948989 1
0.0037232 0.958007 1
0.263066 0.943038 1
0.42826 0.872221 1
0.904768 0.773281 0.999725
1 0.788495 0.939559
1 0.824155 0.808576
0 1 1
0 1 1
0 1 1
0.000183108 1 1
0.194522 1 1
0.692241 1 1
0.800168 0.989685 1
0.999649 0.954406 0.998444
1 0.961837 0.93022
0 1 1
0 1 1
0 1 1
0 1 1
0.0496529 1 1
0.513481 1 1
0.907927 1 1
0.999268 1 1
1 0.997162 0.990951
0 1 1
0 1 1
0 1 1
0 1 1
0.0157626 1 1
0.406973 1 1
0.765316 1 1
0.995239 1 1
1 1 1
0 0.103624 1
0 0.085359 1
0 0.0334325 1
0 0.000274662 1
0.245045 0 1
0.895125 0 0.827283
0.999268 0 0.358328
1 0 0.121553
1 0 0.005066
0 0.196902 1
0 0.195071 1
0 0.163653 1
0 0.0797284 1
0.126375 0 1
0.874327 0 0.952972
1 0 0.514382
1 0 0.2654
1 0 0.122683
0 0.285679 1
0 0.308324 1
0 0.307759 1
0 0.260014 1
0.0411994 0.11133 1
0.826444 0.00267033 0.99733
1 0.0156252 0.707698
1 0.0723125 0.445914
1 0.133761 0.304311
0 0.370108 1
0 0.416602 1
0 0.457847 1
0 0.467521 1
0.00108339 0.382177 1
0.715084 0.212024 1
1 0.221469 0.935424
1 0.304524 0.672572
1 0.37467 0.525795
0 0.570321 1
0 0.602426 1
0 0.640146 1
0 0.682872 1
3.0518e-05 0.693553 1
0.446525 0.571603 1
0.998184 0.49337 0.999969
1 0.553216 0.909636
1 0.613504 0.732067
0 0.911055 1
0 0.938003 1
0 0.956649 1
0.0016022 0.96318 1
0.195529 0.950027 1
0.331533 0.892271 1
0.814099 0.7935 1
1 0.764508 0.999054
1 0.814969 0.895201
0 1 1
0 1 1
0 1 1
0.000137331 1 1
0.204257 1 1
0.635676 1 1
0.701473 0.997589 1
0.994949 0.947723 1
1 0.971771 0.999634
0 1 1
0 1 1
0 1 1
0 1 1
0.0522774 1 1
0.557305 1 1
0.952193 1 1
0.989532 1 1
1 1 1
0 1 1
0 1 1
0 1 1
0 1 1
0.00697337 1 1
0.377783 1 1
0.745968 1 1
0.994537 1 1
1 1 1
