LUT预设1/LUT全系打包/6.FAKE5207&淡雅系列/FAKE5207/Log灰片使用/FAKE5207WARM暖.cube
TITLE "Generated by Resolve"
LUT_3D_SIZE 9
0 0 0
0.00671397 0 0
0.184527 0 0
0.434211 0 0
0.79527 0 0
1 0 0
1 0 0
1 0 0
1 0 0
0 0.00015259 0
0.000503548 6.10361e-05 0
0.163241 0 0
0.394156 0 0
0.725216 0 0
0.999649 0 0
1 0 0
1 0 0
1 0 0
0 0.117098 0
1.5259e-05 0.125948 0
0.101778 0.0844282 0
0.378912 0.0438697 0
0.737408 0.00175479 0
0.998428 0 0
1 0 0
1 0 0
1 0 0
0 0.305669 0
0 0.323125 0
0.00534066 0.320958 0
0.294087 0.259846 0
0.697795 0.186053 0
0.999756 0.106386 0
1 0.0833295 0
1 0.0857252 0
1 0.088777 0
0 0.5635 0
0 0.587655 0
0 0.618784 0
0.0461433 0.602029 0
0.5888 0.508904 0
0.978821 0.449439 0
1 0.411795 0
1 0.383612 0
1 0.356268 0
0 0.868513 3.0518e-05
0 0.907073 0
0 0.939193 0
1.5259e-05 0.961563 0
0.314504 0.902052 0
0.924895 0.821088 0
1 0.79353 0
1 0.766125 0
1 0.729595 0
0 1 0.0368963
0 1 0.0144198
0 1 0.000228885
0 1 0
0.0902571 1 0
0.818769 1 0
1 1 0
1 0.999313 0
1 0.985397 0
0 1 0.152438
0 1 0.110475
0 1 0.023682
0 1 0
0.00538643 1 0
0.625467 1 0
0.997986 1 0
1 1 0
1 1 0
0 1 0.213519
0 1 0.168704
0 1 0.0753338
0 1 0
0 1 0
0.363485 1 0
0.955245 1 0
1 1 0
1 1 0
0 0 0.00308232
4.57771e-05 0 3.0518e-05
0.122606 0 0
0.418509 0 0
0.801251 0 0
1 0 0
1 0 0
1 0 0
1 0 0
0 0 0.00062562
0 0 0
0.13521 0 0
0.383169 0 0
0.738231 0 0
0.999802 0 0
1 0 0
1 0 0
1 0 0
0 0.102831 0.00015259
0 0.102281 0.00192264
0.0897688 0.0826581 0
0.355077 0.0405127 0
0.680629 0.0071107 0
0.986847 7.62951e-05 0
1 1.5259e-05 0
1 0 0
1 0 0
0 0.286244 0.0189212
0 0.297002 0.00854505
0.00205997 0.312245 0
0.285008 0.263188 0
0.683116 0.182391 0
0.997665 0.114061 0
1 0.102098 0
1 0.107942 0
1 0.109819 0
0 0.543709 0.0282139
0 0.565759 0.0118105
0 0.59675 1.5259e-05
0.0369573 0.607095 0
0.588022 0.518746 0
0.978393 0.45275 0
1 0.407492 0
1 0.379095 0
1 0.356725 0
0 0.853193 0.0666361
0 0.891478 0.0501869
0 0.9252 0.0112917
0 0.9561 0
0.296132 0.912352 0
0.925078 0.829602 0
1 0.797574 0
1 0.764431 0
1 0.722683 0
0 1 0.179477
0 1 0.159945
0 1 0.0899977
0 1 0.00428778
0.0719768 1 0
0.806561 1 0
1 1 0
1 0.999496 0
1 0.984497 0
0 1 0.288792
0 1 0.254612
0 1 0.172961
0 1 0.0321202
0.00239567 1 0
0.598413 1 0
0.99733 1 0
1 1 0
1 1 0
0 1 0.336629
0 1 0.296941
0 1 0.211307
0 1 0.0605173
0 1 0
0.329412 1 0
0.940169 1 0
1 1 0
1 1 0
0 0 0.140627
0 0 0.148379
0.0654459 0 0.0033875
0.250996 0 0
0.700801 0 0
0.999115 0 0
1 0 0
1 0 0
1 0 0
0 0 0.155978
1.5259e-05 0.000198367 0.123445
0.0757916 0 0.0218204
0.307393 0 0
0.718639 0 0
0.999863 0 0
1 0 0
1 0 0
1 0 0
0 0.106111 0.0902724
0 0.0946975 0.0940108
0.0677806 0.0777142 0.0687724
0.315892 0.0443275 0.0068513
0.667445 0.0078584 0
0.990753 9.15541e-05 0
1 0 0
1 0 0
1 0 0
0 0.282582 0.082948
0 0.27805 0.112169
0.00198367 0.280186 0.0966659
0.26244 0.258183 0.0120546
0.638224 0.175631 6.10361e-05
0.971786 0.127825 0
1 0.118456 0
1 0.1205 0
1 0.118486 0
0 0.527672 0.140688
0 0.540658 0.161013
0 0.562905 0.12874
0.0250706 0.593149 0.0224613
0.579126 0.525261 0
0.97319 0.445167 0
1 0.393088 0
1 0.373114 0
1 0.361929 0
0 0.834501 0.213489
0 0.86836 0.227756
0 0.902708 0.194568
0 0.934066 0.0757916
0.265553 0.918547 0.00030518
0.9196 0.833814 0
1 0.795117 0
1 0.753567 0
1 0.704952 0
0 1 0.33843
0 1 0.341939
0 1 0.295628
0 1 0.163394
0.0547036 1 0.00375372
0.782818 1 0
1 1 0
1 0.998764 0
1 0.979019 0
0 1 0.447532
0 1 0.432227
0 1 0.370535
0 1 0.231083
0.00103761 1 0.0148165
0.553552 1 0
0.996399 1 0
1 1 0
1 1 0
0 1 0.494041
0 1 0.470069
0 1 0.40148
0 1 0.262852
0 1 0.0280766
0.28014 1 0
0.913207 1 0
1 1 0
1 1 0
0 0 0.366629
0 0 0.419821
0.0856641 0 0.267124
0.2271 0 0.00924697
0.445426 0 0
0.89218 0 0
0.999435 0 0
1 0 0
1 0 0
0 0.00109865 0.379492
0 0.011902 0.346716
0.0446174 0.000457771 0.342412
0.239399 0 0.0346838
0.499214 0 0
0.946975 0 0
0.999985 0 0
1 0 0
1 0 0
0 0.100511 0.383597
0 0.101457 0.37438
0.00488289 0.102342 0.320562
0.248966 0.0730449 0.128557
0.573861 0.0271 0.00328069
0.976165 0.000137331 0
1 0 0
1 0 0
1 0 0
0 0.288319 0.257023
0 0.283894 0.269505
0.00724804 0.272816 0.279835
0.231724 0.248264 0.235645
0.581628 0.169131 0.064744
0.95581 0.118013 0.000961318
1 0.101701 0
1 0.0988174 0
1 0.0932937 0
0 0.531029 0.209567
0 0.535683 0.253513
0 0.537224 0.300298
0.0474098 0.545876 0.280751
0.554055 0.522103 0.106584
0.945953 0.413046 0.0143587
1 0.378576 6.10361e-05
1 0.380575 0
1 0.377981 0
0 0.826108 0.320409
0 0.850355 0.375891
0 0.872297 0.408957
0.000213626 0.894514 0.358297
0.228336 0.910109 0.102602
0.90428 0.831113 0.0111086
1 0.777859 0.00236515
1 0.722377 0.000259403
1 0.667643 0
0 1 0.476188
0 1 0.515328
0 1 0.519173
0 1 0.442374
0.0449226 1 0.181476
0.739513 1 0.00134279
0.999954 1 0.000869764
1 0.993118 7.62951e-05
1 0.964233 0
0 1 0.599496
0 1 0.614298
0 1 0.593957
0 1 0.500038
0.00108339 1 0.244602
0.483818 1 0.00166323
0.989975 1 0
1 1 0
1 1 0
0 1 0.654154
0 1 0.655741
0 1 0.622019
0 1 0.522133
0 1 0.27718
0.223545 1 0.00611887
0.866285 1 0
1 1 0
1 1 0
0 0.000137331 0.702098
0 0 0.761334
0 0 0.793118
0.275166 0 0.457343
0.454231 0 0.0169528
0.610162 0 0
0.840894 0 0
0.993606 0 0
1 0 0
0 0.0462959 0.682582
0 0.0528878 0.67985
0 0.0138247 0.749584
0.229023 0 0.556725
0.465339 0 0.0543221
0.650645 0 0
0.912383 0 0
0.999771 0 0
1 0 0
0 0.111849 0.764874
0 0.141268 0.693538
0 0.151812 0.650584
0.142123 0.0717632 0.640864
0.481987 0.0638743 0.157916
0.715709 0.0601663 0.00593576
0.974716 0.0266117 0
1 0.00801099 0
1 0.00140383 0
0 0.28716 0.701274
0 0.292744 0.715938
0 0.300343 0.694545
0.0767834 0.287495 0.615213
0.49958 0.240513 0.318624
0.813413 0.203967 0.121782
0.998016 0.155093 0.0588388
1 0.131228 0.0335241
1 0.112795 0.0146181
0 0.538262 0.480507
0 0.545083 0.506569
0 0.547494 0.530327
0.0894789 0.540093 0.551171
0.493141 0.495766 0.493187
0.839506 0.385977 0.264149
0.999939 0.365743 0.166049
1 0.361501 0.10782
1 0.351614 0.061265
0 0.8392 0.441825
0 0.858946 0.489754
0 0.867979 0.539513
0.0107118 0.858473 0.587335
0.300496 0.842466 0.548257
0.857755 0.806561 0.362676
0.999741 0.712551 0.262867
1 0.650446 0.158846
1 0.614313 0.0632029
0 1 0.568032
0 1 0.621714
0 1 0.67187
0.000457771 1 0.705577
0.15198 1 0.619516
0.649271 1 0.319677
0.999405 0.999298 0.265888
1 0.966949 0.211948
1 0.907698 0.133974
0 1 0.69926
0 1 0.742153
0 1 0.777218
0 1 0.783703
0.0456397 1 0.663722
0.412512 1 0.349584
0.967712 1 0.172671
1 1 0.168704
1 1 0.132708
0 1 0.775601
0 1 0.809598
0 1 0.830014
0 1 0.815946
0.00180056 1 0.678187
0.221668 1 0.380133
0.766186 1 0.11397
0.999954 1 0.0898604
1 1 0.0889906
0 0.0166629 0.997192
0 0.0033875 1
0 3.0518e-05 1
0.0808576 0 0.978653
0.584558 0 0.401831
0.68217 0 0.00949111
0.762219 0 0
0.889937 0 0
0.995834 0 0
0 0.0999008 0.986938
0 0.100328 0.990692
0 0.0585489 0.999969
0.0388495 0.00146487 0.993255
0.57705 0 0.530999
0.701213 0 0.0543832
0.794537 1.5259e-05 0.000167849
0.941695 6.10361e-05 0
1 0 0
0 0.166354 0.99881
0 0.199664 0.9841
0 0.202686 0.977768
0.0116274 0.129778 0.997177
0.544274 0.0172427 0.688334
0.729915 0.0592813 0.173632
0.84329 0.0962539 0.0469215
0.988403 0.108949 0.00585946
1 0.0984207 1.5259e-05
0 0.286595 0.999176
0 0.307637 0.999329
0 0.338964 0.987594
0.00170901 0.342733 0.958038
0.44593 0.223835 0.855787
0.768948 0.256123 0.34641
0.915007 0.296666 0.22266
0.999878 0.30071 0.149294
1 0.278416 0.0946822
0 0.548012 0.95024
0 0.566735 0.967544
0 0.585092 0.984939
0.0758831 0.59353 0.993194
0.307439 0.546975 0.906889
0.796231 0.508919 0.571328
0.974044 0.510445 0.43537
1 0.469108 0.367971
1 0.426123 0.320455
0 0.848737 0.777569
0 0.870405 0.816648
0 0.880095 0.845304
0.00668345 0.872648 0.85864
0.355596 0.838926 0.853346
0.774166 0.767239 0.762158
0.97911 0.651698 0.560876
1 0.603082 0.451209
1 0.580896 0.372091
0 1 0.787808
0 1 0.81825
0 1 0.837781
0.00123598 1 0.84596
0.259586 1 0.849928
0.653941 0.990753 0.807599
0.995041 0.973983 0.69453
1 0.864179 0.552117
1 0.793622 0.427405
0 1 0.838666
0 1 0.863447
0 1 0.882933
0 1 0.901854
0.170809 1 0.924834
0.513268 1 0.849851
0.891539 1 0.650935
1 1 0.6177
1 0.998001 0.544228
0 1 0.87071
0 1 0.898283
0 1 0.925231
0 1 0.955413
0.0671244 1 0.972381
0.376547 1 0.868055
0.671443 1 0.665202
0.997711 1 0.537728
1 1 0.534493
0 0.0500801 1
0 0.0284886 1
0 0.0012665 1
0.0119326 0 1
0.56109 0 0.843488
0.801282 0 0.197177
0.853651 0 0.00663767
0.918532 0 0
0.986603 0 0
0 0.137926 1
0 0.136538 1
0 0.0984054 1
0.00325017 0.0138247 1
0.499962 0 0.937346
0.823163 0 0.31397
0.884016 0 0.0674449
0.958404 9.15541e-05 0.00283818
0.999985 0.000686656 0
0 0.213962 1
0 0.242313 1
0 0.242069 1
0.000122072 0.1776 1
0.398459 0.0277867 0.986526
0.853117 0.0202182 0.462867
0.928145 0.0757305 0.208209
0.994598 0.125078 0.112596
1 0.149828 0.0456397
0 0.308248 1
0 0.343236 1
0 0.383093 1
0 0.388449 1
0.244999 0.26659 0.999557
0.885969 0.212238 0.671199
0.980102 0.292332 0.399756
1 0.350561 0.316335
1 0.37351 0.246998
0 0.559945 1
0 0.579934 1
0 0.597742 1
0.00476081 0.616175 1
0.120165 0.597131 1
0.843076 0.485481 0.920027
0.995377 0.55227 0.624552
1 0.592081 0.531731
1 0.581399 0.44686
0 0.862776 0.997909
0 0.889998 1
0 0.909804 1
0.00962844 0.919722 1
0.376349 0.913329 1
0.676905 0.809705 0.994125
0.986572 0.77908 0.817197
1 0.743236 0.682918
1 0.673686 0.595743
0 1 0.994446
0 1 0.999832
0 1 1
1.5259e-05 1 0.999939
0.222095 1 0.996017
0.696101 0.993225 0.989319
0.977386 0.954314 0.9505
1 0.826703 0.762936
1 0.751171 0.638315
0 1 0.997345
0 1 1
0 1 1
0 1 0.999954
0.156146 1 0.997513
0.594446 1 0.998611
0.878553 1 0.977752
0.999939 0.998093 0.903395
1 0.969177 0.749401
0 1 0.998734
0 1 1
0 1 1
0 1 1
0.0860151 1 1
0.494362 1 0.999969
0.751904 1 0.988785
0.992096 1 0.882673
1 1 0.864576
0 0.0791791 1
0 0.0591287 1
0 0.0108644 1
0 1.5259e-05 1
0.441352 0 0.99794
0.885039 0 0.509087
0.957778 0 0.154543
0.993561 0 0.0106203
1 0 1.5259e-05
0 0.169955 1
0 0.167529 1
0 0.132311 1
0 0.0410773 1
0.338094 0 1
0.89839 0 0.648676
0.986282 0 0.267308
0.999954 1.5259e-05 0.0987564
1 0 0.0133364
0 0.253544 1
0 0.277958 1
0 0.276493 1
0 0.218051 1
0.222263 0.0579843 1
0.911589 0.00361639 0.82359
0.999146 0.0445869 0.417685
1 0.106874 0.257618
1 0.151507 0.17348
0 0.339788 1
0 0.382361 1
0 0.423621 1
0 0.428855 1
0.108751 0.316808 1
0.895048 0.192294 0.966491
1 0.261769 0.623774
1 0.340459 0.465537
1 0.389532 0.387152
0 0.565499 1
0 0.589639 1
0 0.616938 1
6.10361e-05 0.650294 1
0.0312352 0.642969 1
0.721828 0.508354 0.99968
1 0.520516 0.870085
1 0.592309 0.681559
1 0.626352 0.594354
0 0.88957 1
0 0.922377 1
0 0.942321 1
0.00927749 0.950835 1
0.319997 0.931502 1
0.515084 0.84448 1
0.979187 0.758846 0.993271
1 0.803891 0.85539
1 0.809766 0.752346
0 1 1
0 1 1
0 1 1
0.00030518 1 1
0.256214 1 1
0.755489 0.999863 1
0.882231 0.974853 1
0.999985 0.96257 0.97528
1 0.908721 0.853758
0 1 1
0 1 1
0 1 1
0 1 1
0.116976 1 1
0.57113 1 1
0.91957 1 1
0.999985 0.999939 0.999435
1 0.978424 0.933394
0 1 1
0 1 1
0 1 1
0 1 1
0.0648508 1 1
0.490486 1 1
0.825757 1 1
0.998367 1 0.999969
1 1 0.999893
0 0.103746 1
0 0.0843366 1
0 0.0308385 1
0 0.000167849 1
0.30724 0 1
0.913069 0 0.78439
0.999756 0 0.333211
1 0 0.105272
1 0 0.00460822
0 0.197116 1
0 0.194247 1
0 0.160876 1
0 0.0716259 1
0.194385 0 1
0.9075 0 0.928618
1 0 0.481071
1 0 0.245319
1 0 0.118898
0 0.286687 1
0 0.3084 1
0 0.306188 1
0 0.252094 1
0.101808 0.0926223 1
0.884062 0.00112917 0.993713
1 0.0195773 0.663462
1 0.0804303 0.42089
1 0.134188 0.29572
0 0.37232 1
0 0.418906 1
0 0.459174 1
0 0.46389 1
0.0360723 0.361151 1
0.806302 0.199298 0.999969
1 0.230579 0.894453
1 0.314321 0.641093
1 0.375891 0.514061
0 0.571649 1
0 0.603403 1
0 0.641642 1
0 0.684627 1
0.00265507 0.682292 1
0.558358 0.548302 1
0.999542 0.495476 0.999603
1 0.56228 0.867491
1 0.614023 0.718273
0 0.912139 1
0 0.937957 1
0 0.95613 1
0.00393683 0.960616 1
0.216724 0.942962 1
0.375463 0.877211 1
0.898772 0.774838 1
1 0.771878 0.991394
1 0.815045 0.881315
0 1 1
0 1 1
0 1 1
0.000488289 1 1
0.280064 1 1
0.662898 1 1
0.740719 0.993637 1
0.998764 0.944045 1
1 0.971572 0.996918
0 1 1
0 1 1
0 1 1
0 1 1
0.123018 1 1
0.639124 1 1
0.982147 1 1
0.996048 1 1
1 1 1
0 1 1
0 1 1
0 1 1
0 1 1
0.0411078 1 1
0.4542 1 1
0.806577 1 1
0.998993 1 1
1 1 1
