LUT预设1/LUT全系打包/6.FAKE5207&淡雅系列/FAKE5207/Log灰片使用/FAKE5207莫兰迪绿.cube
TITLE "Generated by Resolve"
LUT_3D_SIZE 5
0 0 0
0.182193 0 0
0.785306 0 0
1 0 0
1 0 0
0 0.117556 0
0.0717479 0.0814984 0
0.719783 0.00218204 0
1 0 0
1 0 0
0 0.56495 0
0 0.627817 0
0.404395 0.455589 0
1 0.416464 0
1 0.359304 0
0 0.999985 0.0410163
0 1 0.00314336
0.00337224 1 0
0.968277 0.972625 0
1 0.985779 0
0 1 0.214481
0 1 0.102022
0 1 0
0.707759 1 0
1 1 0
0 0 0.153613
0.0699321 0 0.0108492
0.647501 0 0
1 0 0
1 0 0
0 0.107698 0.101793
0.0553597 0.0800641 0.090135
0.643351 0.00840772 0
1 0 0
1 0 0
0 0.530465 0.142718
0 0.562081 0.151156
0.444816 0.502953 6.10361e-05
1 0.396506 0
1 0.36611 0
0 1 0.343145
0 1 0.320302
0.000732433 1 0.0407263
0.971374 0.974838 0
1 0.97937 0
0 1 0.496452
0 1 0.426505
0 1 0.116747
0.685679 1 0
1 1 0
0 0.000534066 0.754177
0 0 0.87364
0.482689 0 0.0785534
0.770123 0 0
0.999985 0 0
0 0.118349 0.813046
0 0.163378 0.708736
0.498848 0.0480507 0.272633
0.913069 0.0559243 0.000244144
1 0.0125887 0
0 0.543526 0.525277
0 0.555123 0.595651
0.434684 0.515953 0.59881
0.99939 0.370642 0.258579
1 0.351354 0.135073
0 1 0.57995
0 1 0.680812
0.147707 0.999985 0.710719
0.971603 0.983368 0.323079
1 0.892393 0.219547
0 1 0.779797
0 1 0.84329
0.00077821 1 0.774655
0.56112 1 0.311925
1 1 0.0636912
0 0.0583505 1
0 0.00541695 1
0.450553 0 0.953765
0.879988 0 0.0484932
0.993469 0 0
0 0.222446 1
0 0.254841 1
0.24332 0.0531472 0.999786
0.951461 0.0613565 0.287968
1 0.154559 0.0903792
0 0.568383 1
0 0.607385 1
0.0474556 0.625086 1
0.998901 0.537636 0.712047
1 0.60824 0.502037
0 1 0.997757
0 1 1
0.150225 1 0.999619
0.932326 0.969757 0.993774
1 0.771435 0.710719
0 1 0.999252
0 1 1
0.0323033 1 1
0.745373 1 0.999725
1 1 0.895933
0 0.107042 1
0 0.043946 1
0.182574 0 1
0.997772 0 0.388724
1 0 0.00772107
0 0.288533 1
0 0.313161 1
0.0292058 0.131884 1
1 0.0158389 0.737835
1 0.133791 0.310414
0 0.581262 1
0 0.64564 1
4.57771e-05 0.700206 1
0.987549 0.497566 0.999969
1 0.613489 0.736767
0 1 1
0 1 1
0.182269 1 1
0.700374 0.997909 1
1 0.971572 0.999649
0 1 1
0 1 1
0.00643931 1 1
0.742336 1 1
1 1 1
