LUT预设1/LUT全系打包/6.FAKE5207&淡雅系列/FAKE5207/Log灰片使用/FAKE5207COLD冷.cube
TITLE "Generated by Resolve"
LUT_3D_SIZE 33
0 0 0
0 0 0
0 0 0
0 0 0
0.0061799 0 0
0.0357671 0 0
0.0782788 0 0
0.125826 0 0
0.17615 0 0
0.229877 0 0
0.286931 0 0
0.348608 0 0
0.416251 0 0
0.490913 0 0
0.573968 0 0
0.664668 0 0
0.761944 0 0
0.863325 0 0
0.949722 0 0
0.987732 0 0
0.998383 0 0
1 0 0
1 0 0
1 0 0
1 0 0
1 0 0
1 0 0
1 0 0
1 0 0
1 0 0
1 0 0
1 0 0
1 0 0
0 0 0
0 0 0
0 0 0
0 0 0
0.00471504 0 0
0.0296788 0 0
0.0691691 0 0
0.115694 0 0
0.165133 0 0
0.217517 0 0
0.273396 0 0
0.334325 0 0
0.401541 0 0
0.475532 0 0
0.557076 0 0
0.645914 0 0
0.742336 0 0
0.841962 0 0
0.931884 0 0
0.979934 0 0
0.996902 0 0
1 0 0
1 0 0
1 0 0
1 0 0
1 0 0
1 0 0
1 0 0
1 0 0
1 0 0
1 0 0
1 0 0
1 0 0
0 0 0
0 0 0
0 0 0
0 0 0
0.00468452 0 0
0.0293889 0 0
0.0671702 0 0
0.109224 0 0
0.15491 0 0
0.204303 0 0
0.258305 0 0
0.317723 0 0
0.383474 0 0
0.456519 0 0
0.53669 0 0
0.623911 0 0
0.719432 0 0
0.819455 0 0
0.91162 0 0
0.97026 0 0
0.994751 0 0
1 0 0
1 0 0
1 0 0
1 0 0
1 0 0
1 0 0
1 0 0
1 0 0
1 0 0
1 0 0
1 0 0
1 0 0
0 0 0
0 0 0
0 0 0
0 0 0
0.00227359 0 0
0.0215305 0 0
0.0608835 0 0
0.107897 0 0
0.155367 0 0
0.20322 0 0
0.254108 0 0
0.309483 0 0
0.37116 0 0
0.440833 0 0
0.51809 0 0
0.604395 0 0
0.698497 0 0
0.796811 0 0
0.891127 0 0
0.959426 0 0
0.991974 0 0
1 0 0
1 0 0
1 0 0
1 0 0
1 0 0
1 0 0
1 0 0
1 0 0
1 0 0
1 0 0
1 0 0
1 0 0
0 0.000122072 0
0 0.000579843 0
0 0.00115969 0
0 0.000640879 0
0.000350958 0.00015259 0
0.0119478 1.5259e-05 0
0.0464179 0 0
0.0948959 0 0
0.147616 0 0
0.201495 0 0
0.255558 0 0
0.310842 0 0
0.369696 0 0
0.434821 0 0
0.507759 0 0
0.589364 0 0
0.680705 0 0
0.776944 0 0
0.871382 0 0
0.947478 0 0
0.988663 0 0
0.999924 0 0
1 0 0
1 0 0
1 0 0
1 0 0
1 0 0
1 0 0
1 0 0
1 0 0
1 0 0
1 0 0
1 0 0
0 0.0120089 0
0 0.0138857 0
0 0.0160525 0
0 0.0153658 0
1.5259e-05 0.0117952 0
0.00706493 0.007187 0
0.0343175 0.00363165 0
0.0789654 0.00144961 0
0.13196 0.000396735 0
0.188663 4.57771e-05 0
0.247929 0 0
0.308873 0 0
0.371572 0 0
0.437934 0 0
0.508125 0 0
0.58526 0 0
0.671443 0 0
0.763668 0 0
0.857389 0 0
0.936217 0 0
0.98352 0 0
0.999069 0 0
1 0 0
1 0 0
1 0 0
1 0 0
1 0 0
1 0 0
1 0 0
1 0 0
1 0 0
1 0 0
1 0 0
0 0.0421759 0
0 0.0450752 0
0 0.0476234 0
0 0.0483406 0
0 0.0439918 0
0.00303655 0.0350195 0
0.0230869 0.0261692 0
0.0634623 0.0195926 0
0.115282 0.0152743 0
0.172198 0.0116274 0
0.233249 0.00762951 0
0.298253 0.00355535 0
0.367346 0.000732433 0
0.43856 0 0
0.512276 0 0
0.589639 0 0
0.672099 0 0
0.760403 0 0
0.849958 0 0
0.928527 0 0
0.979019 0 0
0.997833 0 0
1 0 0
1 0 0
1 0 0
1 0 0
1 0 0
1 0 0
1 0 0
1 0 0
1 0 0
1 0 0
1 0 0
0 0.0791791 0
0 0.0821241 0
0 0.085008 0
0 0.087068 0
0 0.0850538 0
0.000793469 0.0774395 0
0.0130922 0.0659342 0
0.0471504 0.0556954 0
0.0977035 0.0478676 0
0.155032 0.0412299 0
0.216709 0.0341192 0
0.282963 0.026154 0
0.354833 0.0175784 0
0.431128 0.00972 0
0.51104 0.00309758 0
0.594141 0.000335698 0
0.679286 0 0
0.765988 0 0
0.85272 0 0
0.928862 0 0
0.978729 0 0
0.997925 0 0
1 0 0
1 0 0
1 0 0
1 0 0
1 0 0
1 0 0
1 0 0
1 0 0
1 0 0
1 0 0
1 0 0
0 0.118456 0
0 0.121691 0
0 0.124651 0
0 0.127733 0
0 0.128771 0
0.000106813 0.124681 0
0.00492866 0.114672 0
0.0293431 0.10251 0
0.0764019 0.0914931 0
0.136141 0.0827955 0
0.199741 0.0742809 0
0.266224 0.0645914 0
0.338048 0.0532082 0
0.416373 0.0399786 0
0.501183 0.0263676 0
0.591272 0.0145724 0
0.682979 0.00500496 0
0.773999 0.0011902 0
0.861067 0.000244144 0
0.934676 4.57771e-05 0
0.982177 1.5259e-05 0
0.998993 0 0
1 0 0
1 0 0
1 0 0
1 0 0
1 0 0
1 0 0
1 0 0
1 0 0
1 0 0
1 0 0
1 0 0
0 0.160662 0
0 0.163882 0
0 0.167224 0
0 0.17084 0
0 0.173663 0
0 0.173083 0
0.000900282 0.166995 0
0.0134432 0.15581 0
0.0503395 0.14345 0
0.109346 0.131792 0
0.177539 0.121691 0
0.247761 0.111589 0
0.319707 0.100084 0
0.398322 0.0860304 0
0.484657 0.0690471 0
0.578866 0.0507668 0
0.676814 0.0326696 0
0.775372 0.0199435 0
0.867109 0.011841 0
0.941329 0.00663767 0
0.985245 0.0037232 0
0.999741 0.00244144 0
1 0.00199893 0
1 0.00177005 0
1 0.00169375 0
1 0.00169375 0
1 0.00178531 0
1 0.00190738 0
1 0.00202945 0
1 0.00215152 0
1 0.00224308 0
1 0.00231937 0
1 0.00231937 0
0 0.205982 0
0 0.209964 0
0 0.213443 0
0 0.217212 0
0 0.220722 0
0 0.222705 0
0 0.221134 0
0.00369268 0.213947 0
0.0257572 0.201892 0
0.075639 0.188312 0
0.146242 0.175433 0
0.22298 0.164004 0
0.299702 0.153048 0
0.379416 0.139544 0
0.465522 0.123186 0
0.560174 0.103288 0
0.662104 0.081117 0
0.766812 0.0610056 0
0.865721 0.0441749 0
0.942763 0.031754 0
0.986358 0.0236057 0
0.999969 0.0189059 0
1 0.0161746 0
1 0.014725 0
1 0.0140841 0
1 0.0139925 0
1 0.0144808 0
1 0.0150149 0
1 0.0156252 0
1 0.0162661 0
1 0.0166781 0
1 0.0170596 0
1 0.0170901 0
0 0.255375 0
0 0.259236 0
0 0.263035 0
0 0.26685 0
0 0.270878 0
0 0.274723 0
0 0.276493 0
0.000396735 0.273701 0
0.00962844 0.265263 0
0.0421607 0.251804 0
0.104341 0.236744 0
0.186252 0.222904 0
0.272251 0.210407 0
0.356786 0.197925 0
0.444327 0.182818 0
0.539315 0.163897 0
0.64239 0.141756 0
0.749722 0.118532 0
0.85417 0.0965438 0
0.937591 0.0784466 0
0.985061 0.0649729 0
1 0.0555886 0
1 0.0496223 0
1 0.0456245 0
1 0.0437629 0
1 0.0432288 0
1 0.0437629 0
1 0.0450141 0
1 0.0460365 0
1 0.0472114 0
1 0.0484016 0
1 0.049546 0
1 0.0501564 0
0 0.308507 0
0 0.312261 0
0 0.316396 0
0 0.320821 0
0 0.325673 0
0 0.330312 0
0 0.334081 0
0 0.335225 0
0.00215152 0.331182 0
0.0164645 0.321584 0
0.0583658 0.306935 0
0.133791 0.290425 0
0.229252 0.275135 0
0.326207 0.261051 0
0.419196 0.246906 0
0.516793 0.229892 0
0.619989 0.209232 0
0.727337 0.186404 0
0.834913 0.163027 0
0.925261 0.142016 0
0.980896 0.125154 0
0.999756 0.111696 0
1 0.101564 0
1 0.0952926 0
1 0.0914015 0
1 0.0895094 0
1 0.0896468 0
1 0.0901198 0
1 0.0910201 0
1 0.0922866 0
1 0.0937819 0
1 0.0957809 0
1 0.0968032 0
0 0.366003 0
0 0.370367 0
0 0.374517 0
0 0.379751 0
0 0.384649 0
0 0.389929 0
0 0.395178 0
0 0.398718 0
0 0.399603 0
0.00317388 0.395163 0
0.0220493 0.383917 0
0.0745861 0.367864 0
0.166293 0.349203 0
0.279057 0.331838 0
0.385672 0.316701 0
0.488975 0.300832 0
0.594186 0.282536 0
0.702785 0.261311 0
0.811353 0.238682 0
0.907698 0.217578 0
0.973053 0.198566 0
0.998428 0.182803 0
1 0.170459 0
1 0.161471 0
1 0.155261 0
1 0.151827 0
1 0.14966 0
1 0.148608 0
1 0.148333 0
1 0.148302 0
1 0.149599 0
1 0.150179 0
1 0.150607 0
0 0.428534 0
0 0.433005 0
0 0.438437 0
0 0.443397 0
0 0.448692 0
0 0.454429 0
0 0.460227 0
0 0.466529 0
0 0.47042 0
0 0.471229 0
0.00427253 0.465995 0
0.0277867 0.453285 0
0.0940566 0.434714 0
0.20798 0.413901 0
0.334173 0.394873 0
0.451743 0.378073 0
0.563897 0.361242 0
0.674922 0.342382 0
0.784863 0.322576 0
0.885512 0.302235 0
0.960418 0.283635 0
0.994675 0.26714 0
1 0.253788 0
1 0.243717 0
1 0.23534 0
1 0.229099 0
1 0.22472 0
1 0.2215 0
1 0.219104 0
1 0.217441 0
1 0.215396 0
1 0.213733 0
1 0.211872 0
0 0.496452 0
0 0.501488 0
0 0.506874 0
0 0.5122 0
0 0.517876 0
0 0.524178 0
0 0.531472 0
0 0.538262 0
0 0.544839 0
0 0.549584 0
0.000549325 0.550149 0
0.00674449 0.544213 0
0.0372625 0.529335 0
0.121736 0.507134 0
0.258701 0.484337 0
0.397696 0.463478 0
0.524666 0.445426 0
0.643046 0.428962 0
0.755901 0.411276 0
0.859846 0.393194 0
0.942565 0.376684 0
0.987762 0.362051 0
1 0.349294 0
1 0.338842 0
1 0.32958 0
1 0.322164 0
1 0.315587 0
1 0.310399 0
1 0.306371 0
1 0.301244 0
1 0.295842 0
1 0.290867 0
1 0.285817 0
0 0.569039 0
0 0.574243 0
0 0.580316 0
0 0.586099 0
0 0.592279 0
0 0.599649 0
0 0.607248 0
0 0.615442 0
0 0.623056 0
0 0.630182 0
3.0518e-05 0.635889 0
0.00108339 0.636027 0
0.00943008 0.62826 0
0.0528725 0.611093 0
0.163134 0.585962 0
0.317266 0.560861 0
0.467628 0.538384 0
0.602045 0.520134 0
0.722194 0.504356 0
0.831632 0.489387 0
0.92256 0.475456 0
0.979187 0.463096 0
0.999924 0.451133 0
1 0.441855 0
1 0.433265 0
1 0.426459 0
1 0.420386 0
1 0.414038 0
1 0.407492 0
1 0.400214 0
1 0.391989 0
1 0.383902 0
1 0.377188 0
0 0.644511 0
0 0.650172 0
0 0.656992 0
0 0.664103 0
0 0.67129 0
0 0.679606 0
0 0.687678 0
0 0.696162 0
0 0.705196 0
0 0.714229 0
0 0.722011 0
0.000122072 0.727214 0
0.00137331 0.727138 0
0.0175479 0.716457 0
0.0801251 0.696117 0
0.214817 0.66949 0
0.384588 0.641032 0
0.545007 0.617884 0
0.682933 0.600214 0
0.801083 0.586419 0
0.900969 0.57406 0
0.969223 0.563455 0
0.999176 0.553689 0
0.999939 0.545388 0
1 0.538415 0
1 0.532662 0
1 0.526009 0
1 0.519997 0
1 0.512963 0
1 0.504479 0
1 0.49572 0
1 0.486305 0
1 0.476478 0
0 0.720806 0
0 0.727275 0
0 0.735576 0
0 0.743191 0
0 0.751614 0
0 0.760342 0
0 0.769482 0
0 0.778897 0
0 0.789319 0
0 0.799161 0
0 0.808789 0
0 0.816983 0
6.10361e-05 0.82121 0
0.00370794 0.81799 0
0.0312047 0.803738 0
0.12517 0.779309 0
0.29073 0.749508 0
0.473106 0.721035 0
0.633738 0.69865 0
0.767361 0.681956 0
0.876463 0.669596 0
0.95552 0.659693 0
0.99527 0.651194 0
0.999603 0.644648 0
1 0.638651 0
1 0.632242 0
1 0.62652 0
1 0.620142 0
1 0.613321 0
1 0.606332 0
1 0.596536 0
1 0.585565 0
1 0.574899 0
0 0.797589 0
0 0.80502 0
0 0.813642 0
0 0.82269 0
0 0.832029 0
0 0.841321 0
0 0.85214 0
0 0.862135 0
0 0.872633 0
0 0.883787 0
0 0.89427 0
0 0.904143 0
0 0.910491 0
0.000396735 0.910262 0
0.0114137 0.902205 0
0.0643626 0.884459 0
0.203861 0.856092 0
0.392462 0.824948 0
0.574624 0.796796 0
0.726558 0.775113 0
0.848325 0.760327 0
0.938994 0.750317 0
0.988602 0.742397 0
0.998947 0.736233 0
1 0.729946 0
1 0.724071 0
1 0.718212 0
1 0.712764 0
1 0.706783 0
1 0.698741 0
1 0.689052 0
1 0.677943 0
1 0.66688 0
0 0.874128 0.000122072
0 0.88217 0.000122072
0 0.891661 9.15541e-05
0 0.901915 4.57771e-05
0 0.911269 1.5259e-05
0 0.920424 0
0 0.927275 0
0 0.934371 0
0 0.941802 0
0 0.94963 0
0 0.957259 0
0 0.964752 0
0 0.969116 0
0 0.969528 0
0.00370794 0.966476 0
0.0283055 0.956893 0
0.133562 0.938689 0
0.312032 0.915328 0
0.509438 0.890105 0
0.679896 0.865919 0
0.816312 0.847837 0
0.919646 0.835569 0
0.980255 0.82649 0
0.997879 0.819318 0
1 0.813626 0
1 0.80763 0
1 0.802716 0
1 0.79762 0
1 0.79089 0
1 0.782834 0
1 0.773068 0
1 0.762295 0
1 0.752636 0
0 0.943404 0.00109865
0 0.947982 0.0011902
0 0.953964 0.0009308
0 0.961151 0.00047303
0 0.968139 0.000167849
0 0.973297 6.10361e-05
0 0.976745 3.0518e-05
0 0.979538 0
0 0.982788 0
0 0.986267 0
0 0.989548 0
0 0.992599 0
0 0.994385 0
0 0.994675 0
0.000793469 0.993896 0
0.0103761 0.990784 0
0.0804303 0.983734 0
0.237675 0.97351 0
0.440589 0.959014 0
0.626307 0.940703 0
0.778042 0.925658 0
0.89546 0.913863 0
0.969268 0.904189 0
0.996307 0.89633 0
1 0.890013 0
1 0.884657 0
1 0.879622 0
1 0.873732 0
1 0.867323 0
1 0.859388 0
1 0.849973 0
1 0.840024 0
1 0.829694 0
0 0.985718 0.00656138
0 0.986923 0.00666819
0 0.988876 0.00576791
0 0.991104 0.00393683
0 0.9935 0.00227359
0 0.995315 0.00120546
0 0.996246 0.000518807
0 0.996857 0.00015259
0 0.997589 3.0518e-05
0 0.99826 0
0 0.998962 0
0 0.999603 0
0 0.999969 0
0 1 0
4.57771e-05 0.999908 0
0.00363165 0.999405 0
0.0432136 0.998108 0
0.170474 0.995911 0
0.371145 0.991623 0
0.569207 0.985061 0
0.7346 0.978744 0
0.866056 0.972488 0
0.954131 0.965148 0
0.992996 0.957717 0
0.999756 0.952529 0
1 0.947997 0
1 0.943526 0
1 0.938659 0
1 0.933303 0
1 0.92694 0
1 0.919051 0
1 0.909392 0
1 0.899245 0
0 0.998795 0.0214237
0 0.998947 0.0215915
0 0.999161 0.0193942
0 0.999405 0.0152895
0 0.99971 0.0105898
0 0.999924 0.00646983
0 1 0.00331121
0 1 0.00131228
0 1 0.000411994
0 1 9.15541e-05
0 1 0
0 1 0
0 1 0
0 1 0
0 1 0
0.0012665 1 0
0.0172274 1 0
0.112444 0.999969 0
0.303319 0.99971 0
0.508034 0.999084 0
0.685954 0.998276 0
0.830732 0.996796 0
0.932647 0.99411 0
0.985901 0.991257 0
0.998642 0.988952 0
1 0.987106 0
1 0.985306 0
1 0.983444 0
1 0.981247 0
1 0.978332 0
1 0.973617 0
1 0.966278 0
1 0.957778 0
0 1 0.0475929
0 1 0.0474403
0 1 0.0442054
0 1 0.0379339
0 1 0.0293584
0 1 0.0202487
0 1 0.0119783
0 1 0.00576791
0 1 0.00222782
0 1 0.000564584
0 1 6.10361e-05
0 1 0
0 1 0
0 1 0
0 1 0
0.000259403 1 0
0.00349432 1 0
0.0711376 1 0
0.238834 1 0
0.44477 1 0
0.633783 1 0
0.789456 1 0
0.905226 1 0
0.973159 1 0
0.996124 1 0
1 1 0
1 1 0
1 1 0
1 1 0
1 0.999741 0
1 0.998505 0
1 0.99559 0
1 0.991852 0
0 1 0.079118
0 1 0.0788434
0 1 0.0750744
0 1 0.0673686
0 1 0.0567636
0 1 0.0433051
0 1 0.0295872
0 1 0.0170901
0 1 0.00767529
0 1 0.00239567
0 1 0.000366217
0 1 3.0518e-05
0 1 0
0 1 0
0 1 0
0 1 0
0 1 0
0.0442817 1 0
0.180301 1 0
0.38085 1 0
0.577859 1 0
0.743175 1 0
0.871519 1 0
0.956054 1 0
0.992218 1 0
1 1 0
1 1 0
1 1 0
1 1 0
1 1 0
1 1 0
1 1 0
1 1 0
0 1 0.110094
0 1 0.109209
0 1 0.104845
0 1 0.0967422
0 1 0.0850385
0 1 0.0703136
0 1 0.0535134
0 1 0.0357214
0 1 0.0192111
0 1 0.00724804
0 1 0.00143435
0 1 0.00015259
0 1 0
0 1 0
0 1 0
0 1 0
0 1 0
0.0257115 1 0
0.125292 1 0
0.315343 1 0
0.51664 1 0
0.690303 1 0
0.83212 1 0
0.933043 1 0
0.984985 1 0
0.999313 1 0
1 1 0
1 1 0
1 1 0
1 1 0
1 1 0
1 1 0
1 1 0
0 1 0.137896
0 1 0.136614
0 1 0.131823
0 1 0.122621
0 1 0.11017
0 1 0.0950484
0 1 0.0774395
0 1 0.0577401
0 1 0.0363165
