LUT预设1/LUT全系打包/6.FAKE5207&淡雅系列/FAKE5207/Log灰片使用/FAKE5207COLD冷.cube
TITLE "Generated by Resolve"
LUT_3D_SIZE 5
0 0 0
0.17615 0 0
0.761944 0 0
1 0 0
1 0 0
0 0.118456 0
0.0764019 0.0914931 0
0.682979 0.00500496 0
1 0 0
1 0 0
0 0.569039 0
0 0.623056 0
0.467628 0.538384 0
1 0.433265 0
1 0.377188 0
0 1 0.0475929
0 1 0.00222782
0.00349432 1 0
0.996124 1 0
1 0.991852 0
0 1 0.2159
0 1 0.108858
0 1 0
0.769284 1 0
1 1 0
0 0 0.178393
0.0753796 0 0.0182498
0.607416 0 0
1 0 0
1 0 0
0 0.107103 0.138445
0.0385595 0.0833753 0.122194
0.604883 0.010605 0.000106813
1 0 0
1 0 0
0 0.531563 0.156176
0 0.559319 0.187137
0.436698 0.556848 0.00140383
1 0.410697 0
1 0.376425 0
0 1 0.378103
0 1 0.369497
0 1 0.0605173
0.992218 1 0
1 0.986191 0
0 1 0.536828
0 1 0.481163
0 1 0.169787
0.687999 1 0
1 1 0
0 0.000915541 0.852064
0 0 0.968048
0.514656 0 0.15349
0.734142 0 0
0.999863 0 0
0 0.130999 0.913954
0 0.177356 0.804288
0.498238 0.0317998 0.455406
0.838163 0.0801099 0.00155642
1 0.0335088 0
0 0.542794 0.681346
0 0.566018 0.748959
0.354894 0.551751 0.743236
0.983841 0.411521 0.343786
1 0.366171 0.229496
0 1 0.641703
0 1 0.715709
0.120714 1 0.781491
0.95494 0.999603 0.490578
1 0.884031 0.330755
0 1 0.808972
0 1 0.87277
0.000869764 1 0.893416
0.502464 1 0.479316
1 1 0.312612
0 0.0662547 1
0 0.00674449 1
0.410208 0 0.993011
0.907729 0 0.100465
0.997909 0 0
0 0.236484 1
0 0.265705 1
0.145922 0.0732128 1
0.978119 0.0452583 0.375952
1 0.154086 0.136553
0 0.566506 1
0 0.609751 1
0.014725 0.645624 1
0.997772 0.517555 0.851865
1 0.625116 0.565393
0 1 1
0 1 1
0.0863508 1 1
0.871138 0.987274 1
1 0.855421 0.811261
0 1 1
0 1 1
0.00395209 1 1
0.704112 1 1
1 1 0.993576
0 0.103029 1
0 0.0361181 1
0.174121 0 1
0.99852 0 0.391272
1 0 0.00773632
0 0.284779 1
0 0.308797 1
0.0206455 0.134539 1
1 0.0110018 0.763058
1 0.12726 0.317983
0 0.569665 1
0 0.635874 1
0 0.698207 1
0.970687 0.495232 1
1 0.60795 0.754238
0 1 1
0 1 1
0.109743 1 1
0.678752 0.999649 1
1 0.967132 0.999847
0 1 1
0 1 1
0.00077821 1 1
0.66479 1 1
1 1 1
