LUT预设1/LUT全系打包/6.FAKE5207&淡雅系列/FAKE5207/Log灰片使用/FAKE5207莫兰迪绿.cube
TITLE "Generated by Resolve"
LUT_3D_SIZE 9
0 0 0
0.00672923 0 0
0.182193 0 0
0.429252 0 0
0.785306 0 0
0.99942 0 0
1 0 0
1 0 0
1 0 0
0 0.000137331 0
0.000427253 0.000137331 0
0.15819 0 0
0.386908 0 0
0.712871 0 0
0.995377 0 0
1 0 0
1 0 0
1 0 0
0 0.117556 0
0 0.130327 0
0.0717479 0.0814984 0
0.365515 0.0466468 0
0.719783 0.00218204 0
0.991699 0 0
1 0 0
1 0 0
1 0 0
0 0.306432 0
0 0.325673 0
0.00222782 0.327245 0
0.203586 0.238987 0
0.670649 0.193683 0
0.992767 0.111437 0
1 0.0851148 0
1 0.0863813 0
1 0.090547 0
0 0.56495 0
0 0.591012 0
0 0.627817 0
0.0247654 0.512383 0
0.404395 0.455589 0
0.959792 0.457099 0
1 0.416464 0
1 0.388525 0
1 0.359304 0
0 0.869963 6.10361e-05
0 0.909483 1.5259e-05
0 0.941451 0
0 0.969665 0
0.0830243 0.755932 0
0.709148 0.745937 0
1 0.799146 0
1 0.773022 0
1 0.733715 0
0 0.999985 0.0410163
0 1 0.0222782
0 1 0.00314336
0 1 0
0.00337224 1 0
0.343771 0.961837 0
0.968277 0.972625 0
1 0.998993 0
1 0.985779 0
0 1 0.155001
0 1 0.120668
0 1 0.0520485
0 1 0.00105287
0 1 0
0.359808 1 0
0.731182 1 0
1 1 0
1 1 0
0 1 0.214481
0 1 0.177569
0 1 0.102022
0 1 0.00866712
0 1 0
0.0540932 1 0
0.707759 1 0
0.949676 1 0
1 1 0
0 0 0.00363165
1.5259e-05 0 0.000350958
0.105837 0 0
0.402258 0 0
0.784421 0 0
0.999542 0 0
1 0 0
1 0 0
1 0 0
0 0.000106813 0.000686656
0 0 1.5259e-05
0.127443 0 0
0.373251 0 0
0.722347 0 0
0.996277 0 0
1 0 0
1 0 0
1 0 0
0 0.103822 0.000137331
0 0.10164 0.00254826
0.0698405 0.0835889 9.15541e-05
0.339208 0.0432441 0
0.657099 0.00888075 0
0.974868 9.15541e-05 0
1 1.5259e-05 0
1 0 0
1 0 0
0 0.287373 0.0199435
0 0.297002 0.0113069
0.000808728 0.316655 0.000579843
0.213138 0.253193 0
0.653086 0.190219 0
0.986282 0.1187 0
1 0.104341 0
1 0.109804 0
1 0.112566 0
0 0.545785 0.0289769
0 0.566476 0.0153964
0 0.598077 0.0021973
0.013611 0.611444 0
0.421973 0.472282 0
0.957809 0.461509 0
1 0.412253 0
1 0.383688 0
1 0.359594 0
0 0.855238 0.0675822
0 0.892073 0.0593881
0 0.925475 0.0257877
0 0.957504 0.00173953
0.110719 0.831067 0.000274662
0.717205 0.752514 0
1 0.804242 0
1 0.771466 0
1 0.726436 0
0 0.999985 0.180728
0 1 0.170825
0 1 0.120211
0 1 0.032578
0.000656138 1 0
0.397101 0.968444 1.5259e-05
0.971298 0.97467 0
1 0.999069 0
1 0.984985 0
0 1 0.289219
0 1 0.265873
0 1 0.202457
0 1 0.0903182
0 1 0.00047303
0.304936 1 0
0.751598 1 0
1 1 0
1 1 0
0 1 0.335927
0 1 0.307118
0 1 0.239612
0 1 0.123598
0 1 0.00471504
0.05449 1 0
0.711681 1 0
0.955398 1 0
1 1 0
0 0 0.153613
0 0 0.174929
0.0699321 0 0.0108492
0.220508 0 0
0.647501 0 0
0.992996 0 0
1 0 0
1 0 0
1 0 0
0 0.000213626 0.169299
0 0.000396735 0.139208
0.0727703 1.5259e-05 0.0426795
0.270878 0 1.5259e-05
0.680125 0 0
0.994415 0 0
1 0 0
1 0 0
1 0 0
0 0.107698 0.101793
0 0.0968338 0.109392
0.0553597 0.0800641 0.090135
0.295079 0.0493172 0.0140841
0.643351 0.00840772 0
0.980713 0.000106813 0
1 0 0
1 0 0
1 0 0
0 0.285252 0.0857099
0 0.280705 0.115846
0.00241093 0.278614 0.116091
0.210437 0.25771 0.0320287
0.602975 0.182101 0.000274662
0.948043 0.131884 0
1 0.119631 0
1 0.120729 0
1 0.118807 0
0 0.530465 0.142718
0 0.542672 0.169024
0 0.562081 0.151156
0.0103609 0.596246 0.0617075
0.444816 0.502953 6.10361e-05
0.948272 0.454582 0
1 0.396506 0
1 0.37583 0
1 0.36611 0
0 0.836881 0.217746
0 0.869398 0.238254
0 0.902052 0.218235
0 0.931868 0.133745
0.108644 0.934524 0.0158694
0.736812 0.772152 0
1 0.80209 0
1 0.760037 0
1 0.706859 0
0 1 0.343145
0 0.999985 0.35346
0 1 0.320302
0 1 0.224964
0.000732433 1 0.0407263
0.496147 0.989792 0.00576791
0.971374 0.974838 0
1 0.99881 0
1 0.97937 0
0 1 0.451606
0 1 0.443641
0 1 0.395758
0 1 0.290959
0 1 0.086656
0.249958 1 0.000350958
0.78497 1 0.000289921
1 1 0
1 1 0
0 1 0.496452
0 1 0.48072
0 1 0.426505
0 1 0.320317
0 1 0.116747
0.0670024 1 0.0011902
0.685679 1 0
0.961761 1 0
1 1 0
0 0 0.39649
0 0 0.452705
0.0571603 0 0.36141
0.240452 0 0.0475929
0.401526 0 4.57771e-05
0.800381 0 0
0.989593 0 0
1 0 0
1 0 0
0 0.00337224 0.406867
0 0.0164797 0.378683
0.0242161 0.00178531 0.403449
0.245914 1.5259e-05 0.0977035
0.438025 0 0.000442512
0.869749 0 0
0.998093 0 0
1 0 0
1 0 0
0 0.102388 0.415824
0 0.104906 0.410468
0.00189212 0.110399 0.357321
0.235218 0.0697337 0.204959
0.500801 0.0477302 0.0129091
0.927474 0.00347906 1.5259e-05
0.999878 0.000137331 0
1 0 0
1 0 0
0 0.291096 0.284733
0 0.288472 0.304158
0.00460822 0.279011 0.319921
0.197604 0.255253 0.286702
0.537148 0.184619 0.110048
0.927352 0.123125 0.0107881
1 0.101961 0.00151064
1 0.0977646 0.000244144
1 0.0923323 1.5259e-05
0 0.536568 0.220554
0 0.541741 0.26273
0 0.541955 0.309285
0.0421302 0.542473 0.322393
0.456062 0.519493 0.175937
0.902785 0.418479 0.0462196
1 0.382269 0.00234989
1 0.383261 0.000320439
1 0.380911 7.62951e-05
0 0.83061 0.323903
0 0.854093 0.382239
0 0.872938 0.425132
0.000381476 0.890532 0.407446
0.115541 0.915312 0.230152
0.764019 0.800931 0.0387732
1 0.7832 0.0168154
1 0.724071 0.00552377
1 0.664195 0.000732433
0 1 0.481041
0 1 0.525704
0 1 0.541024
0 1 0.494347
0.00816358 1 0.320378
0.533654 0.999924 0.0674449
0.967803 0.97821 0.00340276
1 0.994171 0.00434882
1 0.962692 0.00154116
0 1 0.605615
0 1 0.627039
0 1 0.618051
0 1 0.553475
4.57771e-05 1 0.374746
0.254093 1 0.0689708
0.827802 1 0.0887922
0.999985 1 0
1 1 0.000762951
0 1 0.660548
0 1 0.668498
0 1 0.646555
0 1 0.574746
0 1 0.396155
0.0820935 1 0.10074
0.629389 1 0.00195315
0.952758 1 0.0615244
1 1 0
0 0.000534066 0.754177
0 6.10361e-05 0.815015
0 0 0.87364
0.209216 0 0.642374
0.482689 0 0.0785534
0.590723 0 4.57771e-05
0.770123 0 0
0.959396 0 0
0.999985 0 0
0 0.0545357 0.730663
0 0.0627756 0.73373
0 0.0251621 0.810025
0.147097 0.000167849 0.719982
0.490562 0 0.148791
0.614511 0 0.000701915
0.829969 0 0
0.993027 0 0
1 0 0
0 0.118349 0.813046
0 0.148653 0.750744
0 0.163378 0.708736
0.0689403 0.0930648 0.750881
0.498848 0.0480507 0.272633
0.655665 0.0762951 0.0293584
0.913069 0.0559243 0.000244144
0.999786 0.0310979 0
1 0.0125887 0
0 0.290639 0.756741
0 0.297032 0.78027
0 0.306401 0.763317
0.0340429 0.304356 0.684779
0.490639 0.233249 0.444602
0.725948 0.243885 0.173266
0.982391 0.200717 0.0872816
1 0.171481 0.0587167
1 0.14696 0.0367742
0 0.543526 0.525277
0 0.551339 0.560769
0 0.555123 0.595651
0.0601205 0.554162 0.629755
0.434684 0.515953 0.59881
0.79443 0.41387 0.355352
0.99939 0.370642 0.258579
1 0.36257 0.198718
1 0.351354 0.135073
0 0.845304 0.465599
0 0.8663 0.51429
0 0.875181 0.561257
0.00630198 0.866239 0.60502
0.285344 0.833127 0.628382
0.742351 0.795316 0.465385
0.997345 0.706874 0.343526
1 0.643137 0.230289
1 0.609918 0.115908
0 1 0.57995
0 1 0.631647
0 1 0.680812
0.000503548 1 0.724666
0.147707 0.999985 0.710719
0.505501 1 0.496559
0.971603 0.983368 0.323079
1 0.967147 0.310613
1 0.892393 0.219547
0 1 0.705028
0 1 0.748363
0 1 0.787442
0 1 0.811933
0.0383917 1 0.759152
0.327642 1 0.545419
0.807523 1 0.380026
0.999863 1 0.175021
1 1 0.229648
0 1 0.779797
0 1 0.815106
0 1 0.84329
0 1 0.849928
0.00077821 1 0.774655
0.176272 1 0.564172
0.56112 1 0.311925
0.947448 1 0.443046
1 1 0.0636912
0 0.0243992 0.998337
0 0.010071 0.999908
0 0.000289921 1
0.036408 0 0.995727
0.552071 0 0.605112
0.710765 0 0.0582589
0.77644 0 9.15541e-05
0.87425 0 0
0.986725 0 0
0 0.10811 0.993729
0 0.110796 0.995605
0 0.0753185 0.999863
0.0146181 0.00740063 0.998795
0.520623 0 0.735653
0.72871 0 0.144915
0.804089 1.5259e-05 0.00689708
0.918776 6.10361e-05 0
0.999878 4.57771e-05 0
0 0.17499 0.999023
0 0.207156 0.994385
0 0.215061 0.991806
0.00357061 0.155779 0.99939
0.448905 0.0235142 0.86978
0.755138 0.0433661 0.276799
0.845716 0.0905776 0.0991531
0.976226 0.118257 0.0311742
1 0.12343 0.00386053
0 0.292805 0.998978
0 0.314763 0.999435
0 0.34696 0.996414
0.000320439 0.359457 0.983474
0.303471 0.250217 0.966842
0.788571 0.238972 0.458732
0.904585 0.29865 0.282307
0.999573 0.325505 0.208347
1 0.320134 0.139864
0 0.555657 0.965545
0 0.575051 0.980041
0 0.592813 0.991257
0.0378576 0.602396 0.99733
0.207492 0.576761 0.957397
0.787457 0.500618 0.703426
0.948989 0.53994 0.499748
1 0.523857 0.419059
1 0.478904 0.354757
0 0.855802 0.822309
0 0.877546 0.865064
0 0.888899 0.896742
0.00329595 0.885832 0.914565
0.297276 0.863035 0.917067
0.7205 0.789883 0.861204
0.956695 0.70425 0.656077
1 0.62472 0.532097
1 0.590295 0.45388
0 1 0.823423
0 1 0.857969
0 1 0.879728
0.000381476 1 0.889555
0.192889 1 0.883879
0.622751 0.988998 0.872282
0.942855 0.96112 0.773373
1 0.857969 0.622278
1 0.782345 0.473838
0 1 0.863249
0 1 0.889723
0 1 0.908858
1.5259e-05 1 0.9243
0.117067 1 0.941039
0.499458 1 0.926192
0.772442 1 0.79823
0.998703 0.999939 0.674174
1 0.995468 0.620951
0 1 0.886534
0 1 0.912718
0 1 0.937819
0 1 0.964034
0.0365148 1 0.988403
0.367819 1 0.946761
0.614847 1 0.824781
0.946838 1 0.711574
1 1 0.528054
0 0.0583505 1
0 0.0414282 1
0 0.00541695 1
0.00375372 1.5259e-05 1
0.450553 0 0.953765
0.818235 0 0.337819
0.879988 0 0.0484932
0.936278 0 0.000411994
0.993469 0 0
0 0.146456 1
0 0.147478 1
0 0.115434 1
0.00047303 0.0323339 1
0.362783 1.5259e-05 0.993103
0.832914 0 0.468757
0.909255 0 0.144976
0.971115 9.15541e-05 0.0247044
0.999954 0.000579843 0.000442512
0 0.222446 1
0 0.250126 1
0 0.254841 1
0 0.20351 1
0.24332 0.0531472 0.999786
0.850156 0.0115511 0.633295
0.951461 0.0613565 0.287968
0.997513 0.116213 0.168582
1 0.154559 0.0903792
0 0.316579 1
0 0.350179 1
0 0.39089 1
0 0.405585 1
0.10544 0.308949 1
0.850904 0.203387 0.838468
0.991211 0.276982 0.480842
1 0.345617 0.373388
1 0.385138 0.29955
0 0.568383 1
0 0.588815 1
0 0.607385 1
0.00149538 0.627359 1
0.0474556 0.625086 1
0.722713 0.502968 0.985
0.998901 0.537636 0.712047
1 0.597253 0.592294
1 0.60824 0.502037
0 0.872816 0.999069
0 0.900435 0.999985
0 0.921599 1
0.00425727 0.934508 1
0.311833 0.930694 1
0.597498 0.844572 0.999893
0.978821 0.771984 0.910079
1 0.792004 0.758724
1 0.731258 0.643824
0 1 0.997757
0 1 0.999878
0 1 1
0 1 1
0.150225 1 0.999619
0.651087 0.999695 0.999313
0.932326 0.969757 0.993774
1 0.896635 0.86923
1 0.771435 0.710719
0 1 0.998672
0 1 1
0 1 1
0 1 1
0.0794537 1 0.99968
0.528923 1 0.999832
0.85803 1 0.999557
0.997909 0.998718 0.962875
1 0.96286 0.793576
0 1 0.999252
0 1 1
0 1 1
0 1 1
0.0323033 1 1
0.440497 1 1
0.745373 1 0.999725
0.950011 1 0.977829
1 1 0.895933
0 0.0891737 1
0 0.0741436 1
0 0.026276 1
0 0.000396735 1
0.276326 0 0.999893
0.872007 0 0.72195
0.982757 0 0.283467
0.999542 0 0.0734112
1 0 0.00173953
0 0.180041 1
0 0.180377 1
0 0.15172 1
0 0.0704204 1
0.170092 0.00030518 1
0.862593 0 0.851347
0.996612 0 0.403433
1 0 0.189715
1 0.000228885 0.0666972
0 0.263615 1
0 0.287739 1
0 0.291417 1
0 0.246281 1
0.0840009 0.100496 1
0.840833 0.00395209 0.954681
0.999756 0.0285039 0.561654
1 0.0887007 0.348806
1 0.145907 0.234852
0 0.35024 1
0 0.390051 1
0 0.433371 1
0 0.448188 1
0.0173495 0.365225 1
0.766308 0.207294 0.996445
1 0.241047 0.778897
1 0.322545 0.557137
1 0.38674 0.448615
0 0.576226 1
0 0.600717 1
0 0.628855 1
6.10361e-05 0.662867 1
0.00300603 0.672465 1
0.532052 0.551446 1
0.997147 0.505226 0.974838
1 0.574792 0.77644
1 0.626841 0.653849
0 0.901228 1
0 0.931456 1
0 0.950088 1
0.00311284 0.959442 1
0.253559 0.945647 1
0.426963 0.877119 1
0.89102 0.777111 0.999756
1 0.78706 0.945678
1 0.823713 0.815473
0 1 1
0 1 1
0 1 1
0.000137331 1 1
0.178042 1 1
0.68426 1 1
0.800748 0.990158 1
0.999344 0.954253 0.998566
1 0.962997 0.934646
0 1 1
0 1 1
0 1 1
0 1 1
0.0465248 1 1
0.505913 1 1
0.903151 1 1
0.999268 1 1
1 0.997208 0.991135
0 1 1
0 1 1
0 1 1
0 1 1
0.0159915 1 1
0.407019 1 1
0.766629 1 1
0.995285 1 1
1 1 0.999985
0 0.107042 1
0 0.0923476 1
0 0.043946 1
0 0.00146487 1
0.182574 0 1
0.865461 0 0.880552
0.997772 0 0.388724
1 0 0.138216
1 0 0.00772107
0 0.200336 1
0 0.200107 1
0 0.172351 1
0 0.0944533 1
0.0917983 0.00196841 1
0.834684 0 0.968643
0.999756 0 0.544976
1 0 0.280766
1 0.000274662 0.128557
0 0.288533 1
0 0.310292 1
0 0.313161 1
0 0.271275 1
0.0292058 0.131884 1
0.778103 0.0065919 0.998184
1 0.0158389 0.737835
1 0.0709544 0.459968
1 0.133791 0.310414
0 0.374502 1
0 0.416251 1
0 0.459174 1
0 0.473548 1
0.000762951 0.398245 1
0.658961 0.225544 1
0.999939 0.2215 0.946746
1 0.30312 0.68574
1 0.37438 0.531228
0 0.581262 1
0 0.610193 1
0 0.64564 1
0 0.686244 1
4.57771e-05 0.700206 1
0.400748 0.585702 1
0.987549 0.497566 0.999969
1 0.552178 0.920333
1 0.613489 0.736767
0 0.918242 1
0 0.941711 1
0 0.959136 1
0.00123598 0.965774 1
0.185138 0.953597 1
0.32665 0.898924 1
0.790112 0.80058 1
0.999832 0.764889 0.999191
1 0.814801 0.89865
0 1 1
0 1 1
0 1 1
0.000106813 1 1
0.182269 1 1
0.62678 1 1
0.700374 0.997909 1
0.991699 0.949966 1
1 0.971572 0.999649
0 1 1
0 1 1
0 1 1
0 1 1
0.0454566 1 1
0.540902 1 1
0.94548 1 1
0.988907 1 1
1 1 1
0 1 1
0 1 1
0 1 1
0 1 1
0.00643931 1 1
0.370291 1 1
0.742336 1 1
0.993851 1 1
1 1 1
