LUT预设1/LUT全系打包/6.FAKE5207&淡雅系列/FAKE5207/Log灰片使用/FAKE5207WARM暖.cube
TITLE "Generated by Resolve"
LUT_3D_SIZE 5
0 0 0
0.184527 0 0
0.79527 0 0
1 0 0
1 0 0
0 0.117098 0
0.101778 0.0844282 0
0.737408 0.00175479 0
1 0 0
1 0 0
0 0.5635 0
0 0.618784 0
0.5888 0.508904 0
1 0.411795 0
1 0.356268 0
0 1 0.0368963
0 1 0.000228885
0.0902571 1 0
1 1 0
1 0.985397 0
0 1 0.213519
0 1 0.0753338
0 1 0
0.955245 1 0
1 1 0
0 0 0.140627
0.0654459 0 0.0033875
0.700801 0 0
1 0 0
1 0 0
0 0.106111 0.0902724
0.0677806 0.0777142 0.0687724
0.667445 0.0078584 0
1 0 0
1 0 0
0 0.527672 0.140688
0 0.562905 0.12874
0.579126 0.525261 0
1 0.393088 0
1 0.361929 0
0 1 0.33843
0 1 0.295628
0.0547036 1 0.00375372
1 1 0
1 0.979019 0
0 1 0.494041
0 1 0.40148
0 1 0.0280766
0.913207 1 0
1 1 0
0 0.000137331 0.702098
0 0 0.793118
0.454231 0 0.0169528
0.840894 0 0
1 0 0
0 0.111849 0.764874
0 0.151812 0.650584
0.481987 0.0638743 0.157916
0.974716 0.0266117 0
1 0.00140383 0
0 0.538262 0.480507
0 0.547494 0.530327
0.493141 0.495766 0.493187
0.999939 0.365743 0.166049
1 0.351614 0.061265
0 1 0.568032
0 1 0.67187
0.15198 1 0.619516
0.999405 0.999298 0.265888
1 0.907698 0.133974
0 1 0.775601
0 1 0.830014
0.00180056 1 0.678187
0.766186 1 0.11397
1 1 0.0889906
0 0.0500801 1
0 0.0012665 1
0.56109 0 0.843488
0.853651 0 0.00663767
0.986603 0 0
0 0.213962 1
0 0.242069 1
0.398459 0.0277867 0.986526
0.928145 0.0757305 0.208209
1 0.149828 0.0456397
0 0.559945 1
0 0.597742 1
0.120165 0.597131 1
0.995377 0.55227 0.624552
1 0.581399 0.44686
0 1 0.994446
0 1 1
0.222095 1 0.996017
0.977386 0.954314 0.9505
1 0.751171 0.638315
0 1 0.998734
0 1 1
0.0860151 1 1
0.751904 1 0.988785
1 1 0.864576
0 0.103746 1
0 0.0308385 1
0.30724 0 1
0.999756 0 0.333211
1 0 0.00460822
0 0.286687 1
0 0.306188 1
0.101808 0.0926223 1
1 0.0195773 0.663462
1 0.134188 0.29572
0 0.571649 1
0 0.641642 1
0.00265507 0.682292 1
0.999542 0.495476 0.999603
1 0.614023 0.718273
0 1 1
0 1 1
0.280064 1 1
0.740719 0.993637 1
1 0.971572 0.996918
0 1 1
0 1 1
0.0411078 1 1
0.806577 1 1
1 1 1
