LUT预设1/LUT全系打包/6.FAKE5207&淡雅系列/FAKE5207/Log灰片使用/FAKE5207COLD冷.cube
TITLE "Generated by Resolve"
LUT_3D_SIZE 9
0 0 0
0.0061799 0 0
0.17615 0 0
0.416251 0 0
0.761944 0 0
0.998383 0 0
1 0 0
1 0 0
1 0 0
0 0.000122072 0
0.000350958 0.00015259 0
0.147616 0 0
0.369696 0 0
0.680705 0 0
0.988663 0 0
1 0 0
1 0 0
1 0 0
0 0.118456 0
0 0.128771 0
0.0764019 0.0914931 0
0.338048 0.0532082 0
0.682979 0.00500496 0
0.982177 1.5259e-05 0
1 0 0
1 0 0
1 0 0
0 0.308507 0
0 0.325673 0
0.00215152 0.331182 0
0.229252 0.275135 0
0.619989 0.209232 0
0.980896 0.125154 0
1 0.0914015 0
1 0.0910201 0
1 0.0968032 0
0 0.569039 0
0 0.592279 0
0 0.623056 0
0.00943008 0.62826 0
0.467628 0.538384 0
0.92256 0.475456 0
1 0.433265 0
1 0.407492 0
1 0.377188 0
0 0.874128 0.000122072
0 0.911269 1.5259e-05
0 0.941802 0
0 0.969116 0
0.133562 0.938689 0
0.816312 0.847837 0
1 0.813626 0
1 0.79089 0
1 0.752636 0
0 1 0.0475929
0 1 0.0293584
0 1 0.00222782
0 1 0
0.00349432 1 0
0.633783 1 0
0.996124 1 0
1 1 0
1 0.991852 0
0 1 0.162295
0 1 0.132143
0 1 0.0547341
0 1 0.000198367
0 1 0
0.370123 1 0
0.945357 1 0
1 1 0
1 1 0
0 1 0.2159
0 1 0.187655
0 1 0.108858
0 1 0.00479133
0 1 0
0.094255 1 0
0.769284 1 0
1 1 0
1 1 0
0 0 0.00706493
0 0 0.00102235
0.0944991 0 0
0.385367 0 0
0.75877 0 0
0.998825 0 0
1 0 0
1 0 0
1 0 0
0 0 0.00436408
0 0 0.00241093
0.114824 0 0
0.35491 0 0
0.693278 0 0
0.991608 0 0
1 0 0
1 0 0
1 0 0
0 0.104479 0.000564584
0 0.101137 0.00538643
0.0621042 0.0886702 0.000167849
0.312917 0.0487068 0
0.61854 0.0123445 0
0.954574 0.000122072 0
1 1.5259e-05 0
1 0 0
1 0 0
0 0.287266 0.0286107
0 0.296178 0.0219425
0.000549325 0.313085 0.00131228
0.214832 0.278935 0
0.603052 0.206088 0
0.967712 0.129213 0
1 0.109911 0
1 0.115114 0
1 0.120684 0
0 0.546639 0.0442817
0 0.567086 0.0317388
0 0.595972 0.00469978
0.00512703 0.62359 0
0.459129 0.549767 0
0.919692 0.480568 0
1 0.429053 0
1 0.40032 0
1 0.373159 0
0 0.856214 0.0900282
0 0.892073 0.0836652
0 0.925536 0.0389868
0 0.957137 0.00137331
0.111528 0.946792 0
0.810925 0.857557 0
1 0.81886 0
1 0.789792 0
1 0.743969 0
0 1 0.207675
0 1 0.199924
0 1 0.145022
0 1 0.0366674
0.000198367 1 0
0.604196 1 0
0.995026 1 0
1 1 0
1 0.99118 0
0 1 0.317983
0 1 0.297902
0 1 0.232303
0 1 0.106874
0 1 0.000350958
0.324666 1 0
0.932387 1 0
1 1 0
1 1 0
0 1 0.363256
0 1 0.340612
0 1 0.271672
0 1 0.148043
0 1 0.00328069
0.0749828 1 0
0.737987 1 0
0.999695 1 0
1 1 0
0 0 0.178393
0 0 0.204211
0.0753796 0 0.0182498
0.200824 0 0
0.607416 0 0
0.984695 0 0
1 0 0
1 0 0
1 0 0
0 0 0.200641
0 0.000610361 0.164034
0.0697337 1.5259e-05 0.071931
0.235599 0 6.10361e-05
0.634104 0 0
0.986145 0 0
1 0 0
1 0 0
1 0 0
0 0.107103 0.138445
0 0.0984054 0.142092
0.0385595 0.0833753 0.122194
0.263539 0.0576333 0.027451
0.604883 0.010605 0.000106813
0.965881 0.000137331 0
1 0 0
1 0 0
1 0 0
0 0.286885 0.100313
0 0.283284 0.12668
0.00183108 0.277256 0.141909
0.182879 0.270008 0.0519112
0.553094 0.194491 0.0031281
0.909056 0.139788 0
1 0.124727 0
1 0.12604 0
1 0.125689 0
0 0.531563 0.156176
0 0.542657 0.188464
0 0.559319 0.187137
0.00268559 0.589395 0.0945754
0.436698 0.556848 0.00140383
0.904707 0.473548 0
1 0.410697 0
1 0.38819 0
1 0.376425 0
0 0.836881 0.244129
0 0.866941 0.270695
0 0.899748 0.261494
0 0.928878 0.1776
0.0852827 0.944152 0.0144045
0.795514 0.861875 0
1 0.816388 0
1 0.777768 0
1 0.722622 0
0 1 0.378103
0 1 0.393347
0 1 0.369497
0 1 0.276387
0 1 0.0605173
0.555978 1 0
0.992218 1 0
1 0.999939 0
1 0.986191 0
0 1 0.491035
0 1 0.488914
0 1 0.449393
0 1 0.347951
0 1 0.123507
0.264317 1 0.000198367
0.909163 1 0
1 1 0
1 1 0
0 1 0.536828
0 1 0.528115
0 1 0.481163
0 1 0.380209
0 1 0.169787
0.0534066 1 0.00111391
0.687999 1 0
0.998932 1 0
1 1 0
0 0 0.451789
0 0 0.506691
0.0392157 0 0.445716
0.255207 0 0.0818036
0.37644 0 6.10361e-05
0.737819 0 0
0.980102 0 0
1 0 0
1 0 0
0 0.0069276 0.459586
0 0.0222629 0.433738
0.00909438 0.00285344 0.475517
0.254246 0 0.16968
0.395331 0 0.00175479
0.798169 0 0
0.99585 0 0
1 0 0
1 0 0
0 0.0994125 0.498772
0 0.107744 0.478706
0 0.120211 0.413336
0.211643 0.06598 0.312444
0.43183 0.0693065 0.0346532
0.864332 0.00877394 4.57771e-05
0.999619 0.000259403 0
1 1.5259e-05 0
1 0 0
0 0.290089 0.369894
0 0.290715 0.385199
0.00202945 0.28603 0.396841
0.148745 0.266209 0.362478
0.479667 0.21146 0.178897
0.881041 0.133852 0.0332494
0.999985 0.105913 0.00517281
1 0.0998398 0.000976577
1 0.0947433 3.0518e-05
0 0.539788 0.257435
0 0.546883 0.290166
0 0.546731 0.329931
0.0268101 0.54107 0.372076
0.398077 0.538964 0.259174
0.836576 0.42884 0.108492
0.999207 0.390143 0.0107424
1 0.391012 0.00106813
1 0.389273 0.000122072
0 0.834119 0.344366
0 0.855665 0.4009
0 0.871458 0.457191
9.15541e-05 0.883894 0.476967
0.0981003 0.904067 0.334234
0.757946 0.858717 0.0864118
0.999893 0.795727 0.0521248
1 0.736034 0.0210727
1 0.671504 0.0031281
0 1 0.509621
0 1 0.556359
0 1 0.590127
0 1 0.575509
0.00759899 1 0.423407
0.471977 1 0.0730297
0.984802 1 0.0261845
1 0.99733 0.0179904
1 0.96907 0.00653086
0 1 0.644114
0 1 0.670054
0 1 0.679469
0 1 0.6421
4.57771e-05 1 0.484459
0.210193 1 0.128191
0.854414 1 0.00834669
1 1 0.00712596
1 1 0.00408942
0 1 0.706096
0 1 0.72018
0 1 0.715068
0 1 0.66685
0 1 0.512703
0.0401617 1 0.182742
0.599893 1 0.00460822
0.996979 1 0.000396735
1 1 0.000488289
0 0.000915541 0.852064
0 0.000106813 0.909422
0 0 0.968048
0.151812 0 0.799344
0.514656 0 0.15349
0.594385 0 0.00015259
0.734142 0 0
0.921401 0 0
0.999863 0 0
0 0.0687572 0.827893
0 0.0740978 0.832502
0 0.0360266 0.903334
0.0768749 0 0.872892
0.515297 0 0.284459
0.611856 0 0.00259403
0.774029 0 0
0.972793 0 0
1 0 0
0 0.130999 0.913954
0 0.164004 0.843198
0 0.177356 0.804288
0.0203555 0.115831 0.868421
0.498238 0.0317998 0.455406
0.639872 0.0768444 0.0779583
0.838163 0.0801099 0.00155642
0.997208 0.0624399 0
1 0.0335088 0
0 0.286229 0.912657
0 0.296727 0.919738
0 0.313191 0.876402
0.00590524 0.323125 0.780667
0.413535 0.234302 0.657496
0.679988 0.262882 0.248478
0.924147 0.250401 0.131899
0.999985 0.220386 0.0834211
1 0.18616 0.0562905
0 0.542794 0.681346
0 0.555367 0.713985
0 0.566018 0.748959
0.0305333 0.57821 0.786419
0.354894 0.551751 0.743236
0.718242 0.486458 0.462486
0.983841 0.411521 0.343786
1 0.385229 0.292103
1 0.366171 0.229496
0 0.850156 0.565179
0 0.870878 0.602792
0 0.882185 0.63801
0.00047303 0.877684 0.665232
0.233234 0.841367 0.682277
0.674174 0.805798 0.603418
0.972229 0.701732 0.449378
1 0.637766 0.320867
1 0.610803 0.197498
0 1 0.641703
0 1 0.67866
0 1 0.715709
0 1 0.751553
0.120714 1 0.781491
0.468101 1 0.662943
0.95494 0.999603 0.490578
1 0.970199 0.442176
1 0.884031 0.330755
0 1 0.744396
0 1 0.775952
0 1 0.81146
0 1 0.846418
0.0311742 1 0.857908
0.31603 1 0.71223
0.735805 1 0.452873
0.999573 1 0.396933
1 1 0.363043
0 1 0.808972
0 1 0.838224
0 1 0.87277
0 1 0.901335
0.000869764 1 0.893416
0.167498 1 0.734844
0.502464 1 0.479316
0.978866 1 0.311742
1 1 0.312612
0 0.0330053 1
0 0.014374 1
0 0.000381476 1
0.0175631 0 0.999664
0.543175 0 0.743313
0.738918 0 0.116518
0.794553 0 9.15541e-05
0.871855 0 0
0.98085 0 0
0 0.11931 1
0 0.120516 1
0 0.0859846 1
0.00393683 0.0109712 0.999969
0.467872 0 0.883268
0.757427 0 0.237766
0.821195 0 0.0237583
0.910124 0.000198367 3.0518e-05
0.998917 0.000122072 0
0 0.190509 1
0 0.220981 1
0 0.227298 1
0.000335698 0.175265 1
0.341146 0.0351568 0.970474
0.782223 0.0270848 0.397162
0.860029 0.0807813 0.153933
0.964508 0.120592 0.0682536
1 0.139498 0.0139315
0 0.295659 1
0 0.322759 1
0 0.358633 0.999985
0 0.376776 0.998962
0.170397 0.283162 0.99823
0.804517 0.217685 0.616159
0.9131 0.291783 0.34728
0.998093 0.338521 0.268498
1 0.351522 0.191226
0 0.558282 0.998657
0 0.57882 0.999619
0 0.595392 0.999924
0.00852979 0.609461 0.999985
0.124407 0.599878 0.996048
0.730419 0.496818 0.887556
0.941756 0.549126 0.578393
0.999924 0.568826 0.486778
1 0.53489 0.400092
0 0.858366 0.945907
0 0.882002 0.967514
0 0.897292 0.980316
0.000259403 0.902983 0.985931
0.233234 0.893599 0.984787
0.647776 0.83592 0.96936
0.930953 0.765194 0.778119
0.999893 0.685878 0.631357
1 0.621698 0.543832
0 1 0.934096
0 1 0.955047
0 1 0.964889
0 1 0.967514
0.0995499 1 0.954879
0.555871 0.993957 0.933623
0.901228 0.972488 0.889204
1 0.874861 0.735897
1 0.776471 0.551339
0 1 0.951308
0 1 0.964446
0 1 0.971557
0 1 0.97528
0.0467231 1 0.974334
0.454444 1 0.982544
0.745388 1 0.927077
0.995666 0.999985 0.814206
1 0.993149 0.727993
0 1 0.95494
0 1 0.967102
0 1 0.978592
0 1 0.988769
0.0059205 1 0.998688
0.329885 1 0.997604
0.609262 1 0.946822
0.89575 1 0.797772
1 1 0.742947
0 0.0662547 1
0 0.0476081 1
0 0.00674449 1
0.000885023 0 1
0.410208 0 0.993011
0.838911 0 0.445304
0.907729 0 0.100465
0.957244 0 0.0015259
0.997909 0 0
0 0.156268 1
0 0.156008 1
0 0.124407 1
0 0.0415351 1
0.284092 0 0.999878
0.845487 0 0.60647
0.938048 0 0.218952
0.987976 3.0518e-05 0.0647593
0.999985 0.000213626 0.00288396
0 0.236484 1
0 0.262592 1
0 0.265705 1
0 0.219944 1
0.145922 0.0732128 1
0.843534 0.00433356 0.798596
0.978119 0.0452583 0.375952
0.999634 0.104753 0.224872
1 0.154086 0.136553
0 0.325017 1
0 0.362188 1
0 0.403601 1
0 0.421561 1
0.0456855 0.33959 1
0.795956 0.198367 0.962676
0.99852 0.257847 0.589319
1 0.334051 0.435065
1 0.389593 0.353521
0 0.566506 1
0 0.587533 1
0 0.609751 1
1.5259e-05 0.637064 1
0.014725 0.645624 1
0.563699 0.532967 0.999619
0.997772 0.517555 0.851865
1 0.588602 0.66038
1 0.625116 0.565393
0 0.881163 1
0 0.911757 1
0 0.934813 1
1.5259e-05 0.94873 1
0.244266 0.943267 1
0.50457 0.877302 1
0.911238 0.773556 0.989471
1 0.803281 0.844419
1 0.792187 0.720073
0 1 1
0 1 1
0 1 1
0 1 1
0.0863508 1 1
0.601022 1 1
0.871138 0.987274 1
0.999435 0.96318 0.973785
1 0.855421 0.811261
0 1 1
0 1 1
0 1 1
0 1 1
0.0225071 1 1
0.426535 1 1
0.79585 1 1
0.997238 0.999985 0.99968
1 0.978378 0.902632
0 1 1
0 1 1
0 1 1
0 1 1
0.00395209 1 1
0.336019 1 1
0.704112 1 1
0.938888 1 0.999924
1 1 0.993576
0 0.0988937 1
0 0.0816205 1
0 0.0314488 1
0 0.000259403 1
0.207538 0 1
0.871992 0 0.850355
0.997696 0 0.373281
1 0 0.133074
1 0 0.00631724
0 0.191714 1
0 0.190585 1
0 0.161181 1
0 0.082414 1
0.100923 0.000640879 1
0.839796 0 0.957229
0.999893 0 0.517983
1 0 0.268055
1 0 0.116335
0 0.27985 1
0 0.3019 1
0 0.303639 1
0 0.262257 1
0.0349279 0.123568 1
0.777905 0.00373846 0.995453
1 0.0147707 0.707591
1 0.0699779 0.442176
1 0.134463 0.294362
0 0.365133 1
0 0.406851 1
0 0.448936 1
0 0.465248 1
0.00128176 0.393149 1
0.642741 0.222004 0.999939
0.999969 0.219593 0.928756
1 0.300526 0.667811
1 0.375555 0.515343
0 0.572656 1
0 0.60032 1
0 0.634562 1
0 0.675395 1
0.000350958 0.693584 1
0.356039 0.590753 1
0.979568 0.497566 0.99942
1 0.550866 0.910155
1 0.616266 0.726329
0 0.912032 1
0 0.937407 1
0 0.956542 1
0 0.965103 1
0.17525 0.954757 1
0.322316 0.905196 1
0.741634 0.809812 1
0.999466 0.765942 0.997162
1 0.817075 0.894453
0 1 1
0 1 1
0 1 1
0 1 1
0.118929 1 1
0.604135 1 1
0.70695 0.998871 1
0.977096 0.960433 1
1 0.971664 0.993408
0 1 1
0 1 1
0 1 1
0 1 1
0.0166781 1 1
0.44213 1 1
0.883146 1 1
0.984024 1 1
1 0.999985 0.999954
0 1 1
0 1 1
0 1 1
0 1 1
0.00140383 1 1
0.288167 1 1
0.674952 1 1
0.964294 1 1
1 1 1
0 0.103029 1
0 0.0860456 1
0 0.0361181 1
0 0.000381476 1
0.174121 0 1
0.863905 0 0.883192
0.99852 0 0.391272
1 0 0.143282
1 0 0.00773632
0 0.196216 1
0 0.19527 1
0 0.166537 1
0 0.0897383 1
0.0749828 0.00103761 1
0.822232 0 0.977966
1 0 0.555688
1 0 0.291722
1 0 0.132982
0 0.284779 1
0 0.306508 1
0 0.308797 1
0 0.269306 1
0.0206455 0.134539 1
0.744121 0.00526436 0.999237
1 0.0110018 0.763058
1 0.0621653 0.47657
1 0.12726 0.317983
0 0.369116 1
0 0.41149 1
0 0.454154 1
0 0.470375 1
0 0.401938 1
0.592706 0.228824 1
0.999924 0.211048 0.969039
1 0.290715 0.710323
1 0.367361 0.542443
0 0.569665 1
0 0.599069 1
0 0.635874 1
0 0.678248 1
0 0.698207 1
0.307652 0.600198 1
0.970687 0.495232 1
1 0.540566 0.953719
1 0.60795 0.754238
0 0.91078 1
0 0.936522 1
0 0.956176 1
0 0.964889 1
0.150896 0.95552 1
0.291539 0.909606 1
0.702602 0.81677 1
0.998856 0.760037 0.999924
1 0.810086 0.921477
0 1 1
0 1 1
0 1 1
0 1 1
0.109743 1 1
0.584024 1 1
0.678752 0.999649 1
0.962829 0.963623 1
1 0.967132 0.999847
0 1 1
0 1 1
0 1 1
0 1 1
0.0141756 1 1
0.44242 1 1
0.886564 1 1
0.97879 1 1
1 1 1
0 1 1
0 1 1
0 1 1
0 1 1
0.00077821 1 1
0.270771 1 1
0.66479 1 1
0.961791 1 1
1 1 1
