LUT预设1/LUT全系打包/6.FAKE5207&淡雅系列/FAKE5207/Log灰片使用/FAKE5207莫兰迪绿.cube
TITLE "Generated by Resolve"
LUT_3D_SIZE 33
0 0 0
0 0 0
0 0 0
4.57771e-05 0 0
0.00672923 0 0
0.0383917 0 0
0.0822766 0 0
0.130846 0 0
0.182193 0 0
0.236866 0 0
0.295384 0 0
0.359045 0 0
0.429252 0 0
0.506767 0 0
0.591974 0 0
0.685771 0 0
0.785306 0 0
0.885924 0 0
0.969116 0 0
0.993851 0 0
0.99942 0 0
1 0 0
1 0 0
1 0 0
1 0 0
1 0 0
1 0 0
1 0 0
1 0 0
1 0 0
1 0 0
1 0 0
1 0 0
0 0 0
0 0 0
0 0 0
6.10361e-05 0 0
0.00550851 0 0
0.0329442 0 0
0.0743572 0 0
0.122301 0 0
0.172869 0 0
0.226703 0 0
0.284718 0 0
0.347784 0 0
0.417609 0 0
0.494942 0 0
0.57966 0 0
0.671855 0 0
0.77084 0 0
0.870817 0 0
0.956085 0 0
0.990112 0 0
0.998932 0 0
1 0 0
1 0 0
1 0 0
1 0 0
1 0 0
1 0 0
1 0 0
1 0 0
1 0 0
1 0 0
1 0 0
1 0 0
0 0 0
0 0 0
0 0 0
6.10361e-05 0 0
0.00561532 0 0
0.0328679 0 0
0.0724498 0 0
0.115969 0 0
0.16286 0 0
0.214099 0 0
0.270008 0 0
0.331823 0 0
0.400931 0 0
0.477256 0 0
0.560479 0 0
0.651637 0 0
0.749767 0 0
0.85034 0 0
0.939376 0 0
0.984283 0 0
0.998047 0 0
1 0 0
1 0 0
1 0 0
1 0 0
1 0 0
1 0 0
1 0 0
1 0 0
1 0 0
1 0 0
1 0 0
1 0 0
0 0 0
0 0 0
0 1.5259e-05 0
0 0 0
0.00294499 0 0
0.0253758 0 0
0.0680095 0 0
0.115785 0 0
0.163622 0 0
0.212558 0 0
0.265583 0 0
0.323384 0 0
0.388785 0 0
0.46186 0 0
0.543221 0 0
0.632639 0 0
0.730098 0 0
0.830182 0 0
0.921981 0 0
0.977462 0 0
0.996918 0 0
1 0 0
1 0 0
1 0 0
1 0 0
1 0 0
1 0 0
1 0 0
1 0 0
1 0 0
1 0 0
1 0 0
1 0 0
0 0.000137331 0
0 0.000686656 0
0 0.00158694 0
0 0.000198367 0
0.000427253 0.000137331 0
0.0148318 0 0
0.0543526 0 0
0.104646 0 0
0.15819 0 0
0.213001 0 0
0.267979 0 0
0.32491 0 0
0.386908 0 0
0.455283 0 0
0.532067 0 0
0.618631 0 0
0.712871 0 0
0.811856 0 0
0.904921 0 0
0.969543 0 0
0.995377 0 0
0.999985 0 0
1 0 0
1 0 0
1 0 0
1 0 0
1 0 0
1 0 0
1 0 0
1 0 0
1 0 0
1 0 0
1 0 0
0 0.0117952 0
0 0.0138552 0
0 0.0164645 0
0 0.016968 0
9.15541e-05 0.00849927 0
0.00715648 0.00674449 0
0.0414588 0.00297551 0
0.0893263 0.00109865 0
0.144518 0.000259403 0
0.203037 3.0518e-05 0
0.263569 0 0
0.325628 0 0
0.390021 0 0
0.458396 0 0
0.532204 0 0
0.613748 0 0
0.703319 0 0
0.798627 0 0
0.891096 0 0
0.961654 0 0
0.992706 0 0
0.999603 0 0
1 0 0
1 0 0
1 0 0
1 0 0
1 0 0
1 0 0
1 0 0
1 0 0
1 0 0
1 0 0
1 0 0
0 0.0414893 0
0 0.0447395 0
0 0.0475624 0
0 0.0493935 0
0 0.0431983 0
0.00340276 0.0264439 0
0.0227817 0.0236973 0
0.0742962 0.0178836 0
0.128923 0.0137942 0
0.1879 0.0101625 0
0.251453 0.00610361 0
0.318151 0.00251774 0
0.389013 0.00047303 0
0.462104 0 0
0.538125 0 0
0.618235 0 0
0.703807 0 0
0.794659 0 0
0.884886 0 0
0.955703 0 0
0.989944 0 0
0.999023 0 0
1 0 0
1 0 0
1 0 0
1 0 0
1 0 0
1 0 0
1 0 0
1 0 0
1 0 0
1 0 0
1 0 0
0 0.0782635 0
0 0.081529 0
0 0.0847334 0
0 0.087541 0
0 0.0874647 0
0.0011902 0.0684825 0
0.0116121 0.0507973 0
0.0450752 0.0498512 0
0.112139 0.0447242 0
0.171954 0.0380255 0
0.235859 0.0304875 0
0.305608 0.0222324 0
0.379904 0.0141909 0
0.458579 0.00706493 0
0.540917 0.0019379 0
0.625238 0 0
0.712169 0 0
0.800641 0 0
0.886717 0 0
0.955444 0 0
0.989639 0 0
0.998978 0 0
1 0 0
1 0 0
1 0 0
1 0 0
1 0 0
1 0 0
1 0 0
1 0 0
1 0 0
1 0 0
1 0 0
0 0.117556 0
0 0.121004 0
0 0.124361 0
0 0.127855 0
0 0.130327 0
9.15541e-05 0.127245 0
0.00726329 0.0944533 0
0.0231174 0.0801251 0
0.0717479 0.0814984 0
0.15378 0.0780346 0
0.220142 0.0694438 0
0.289693 0.0588693 0
0.365515 0.0466468 0
0.447471 0.0332494 0
0.535103 0.0204623 0
0.62681 0.00981155 0
0.719783 0.00218204 0
0.810803 0.000427253 0
0.895506 0.000106813 0
0.960479 1.5259e-05 0
0.991699 0 0
0.999451 0 0
1 0 0
1 0 0
1 0 0
1 0 0
1 0 0
1 0 0
1 0 0
1 0 0
1 0 0
1 0 0
1 0 0
0 0.159243 0
0 0.163058 0
0 0.166552 0
0 0.170703 0
0 0.174533 0
0 0.176089 0
0.0009308 0.165133 0
0.0174868 0.124315 0
0.0371099 0.113237 0
0.100923 0.116732 0
0.198383 0.11545 0
0.272206 0.105119 0
0.348486 0.0920272 0
0.431556 0.0765698 0
0.522667 0.0589609 0
0.619287 0.0407568 0
0.719326 0.0239872 0
0.817273 0.0142977 0
0.904677 0.00816358 0
0.966262 0.00454719 0
0.993851 0.00270085 0
0.999832 0.00199893 0
1 0.00169375 0
1 0.00157168 0
1 0.0015259 0
1 0.00157168 0
1 0.00167849 0
1 0.00177005 0
1 0.00187686 0
1 0.0019379 0
1 0.00201419 0
1 0.00205997 0
1 0.00201419 0
0 0.204532 0
0 0.20882 0
0 0.212634 0
0 0.216922 0
0 0.221302 0
0 0.224872 0
0 0.225422 0
0.00538643 0.199878 0
0.0277104 0.157214 0
0.0543984 0.148577 0
0.133074 0.154803 0
0.245838 0.155657 0
0.329931 0.144549 0
0.413901 0.129458 0
0.505104 0.111116 0
0.604471 0.0902113 0
0.70901 0.0678721 0
0.813886 0.0489509 0
0.9075 0.0347448 0
0.968887 0.0249638 0
0.994705 0.0190433 0
0.999969 0.0157778 0
1 0.0138705 0
1 0.0128939 0
1 0.0126497 0
1 0.0128634 0
1 0.0133516 0
1 0.0137942 0
1 0.0142824 0
1 0.0146487 0
1 0.0151217 0
1 0.015259 0
1 0.0150607 0
0 0.253666 0
0 0.257877 0
0 0.261921 0
0 0.266316 0
0 0.271336 0
0 0.276326 0
0 0.279942 0
0.00030518 0.27689 0
0.0155184 0.233158 0
0.0374456 0.192676 0
0.0762341 0.186419 0
0.167376 0.19501 0
0.297826 0.199268 0
0.39321 0.187839 0
0.485557 0.170672 0
0.584985 0.149889 0
0.691859 0.126101 0
0.801923 0.10251 0
0.902419 0.082002 0
0.967147 0.0665293 0
0.99443 0.0557259 0
1 0.0483711 0
1 0.0437018 0
1 0.0413062 0
1 0.0401312 0
1 0.0402228 0
1 0.0408789 0
1 0.0419165 0
1 0.0429694 0
1 0.0440986 0
1 0.0451362 0
1 0.0458686 0
1 0.0455177 0
0 0.306432 0
0 0.311101 0
0 0.315328 0
0 0.319951 0
0 0.325673 0
0 0.331579 0
0 0.337179 0
0 0.340581 0
0.00222782 0.327245 0
0.0271 0.26775 0
0.0543221 0.231785 0
0.0987564 0.227817 0
0.203586 0.238987 0
0.352895 0.246281 0
0.462196 0.234943 0
0.562737 0.21593 0
0.670649 0.193683 0
0.781918 0.168963 0
0.887556 0.14583 0
0.960281 0.12668 0
0.992767 0.111437 0
0.999908 0.100084 0
1 0.0927443 0
1 0.0877546 0
1 0.0851148 0
1 0.0839551 0
1 0.084184 0
1 0.0853285 0
1 0.0863813 0
1 0.087892 0
1 0.0895094 0
1 0.0908827 0
1 0.090547 0
0 0.36379 0
0 0.368688 0
0 0.372992 0
0 0.378698 0
0 0.384543 0
0 0.391165 0
0 0.397543 0
0 0.403418 0
0 0.405509 0
0.00650034 0.374609 0
0.0350958 0.305638 0
0.0703441 0.27425 0
0.120317 0.272267 0
0.244678 0.285985 0
0.41297 0.297139 0
0.538048 0.287282 0
0.647089 0.267216 0
0.759197 0.243946 0
0.866712 0.220523 0
0.948974 0.199557 0
0.989471 0.182055 0
0.99942 0.168139 0
1 0.157885 0
1 0.150423 0
1 0.145632 0
1 0.142687 0
1 0.141817 0
1 0.141375 0
1 0.141207 0
1 0.141787 0
1 0.142702 0
1 0.143755 0
1 0.143282 0
0 0.425361 0
0 0.431037 0
0 0.436332 0
0 0.442222 0
0 0.448249 0
0 0.455055 0
0 0.462547 0
0 0.470115 0
0 0.476539 0
0 0.473793 0
0.0131075 0.419669 0
0.0454566 0.347387 0
0.0833448 0.320241 0
0.143053 0.32076 0
0.290684 0.337026 0
0.479713 0.353307 0
0.619974 0.345434 0
0.733791 0.324636 0
0.843305 0.303197 0
0.934066 0.28333 0
0.98294 0.265171 0
0.998047 0.249943 0
1 0.23801 0
1 0.228641 0
1 0.221302 0
1 0.216373 0
1 0.213123 0
1 0.210254 0
1 0.208408 0
1 0.206439 0
1 0.204929 0
1 0.204013 0
1 0.202121 0
0 0.49279 0
0 0.498573 0
0 0.504875 0
0 0.51046 0
0 0.517113 0
0 0.524514 0
0 0.532815 0
0 0.541741 0
0 0.550317 0
0 0.557153 0
0.000686656 0.541924 0
0.0191196 0.464256 0
0.0569467 0.393027 0
0.0951095 0.370138 0
0.173159 0.373816 0
0.343648 0.393408 0
0.551766 0.414557 0
0.70309 0.410178 0
0.817731 0.39266 0
0.913527 0.374243 0
0.972427 0.358068 0
0.995361 0.343679 0
1 0.331258 0
1 0.321447 0
1 0.312779 0
1 0.306172 0
1 0.300206 0
1 0.295583 0
1 0.290394 0
1 0.285176 0
1 0.280522 0
1 0.275792 0
1 0.272602 0
0 0.56495 0
0 0.571084 0
0 0.577768 0
0 0.583886 0
0 0.591012 0
0 0.59939 0
0 0.608789 0
0 0.618433 0
0 0.627817 0
0 0.637247 0
1.5259e-05 0.642054 0
0.00344854 0.606256 0
0.0247654 0.512383 0
0.0638285 0.445228 0
0.115908 0.426352 0
0.209613 0.432288 0
0.404395 0.455589 0
0.627405 0.48249 0
0.784482 0.484398 0
0.890303 0.471565 0
0.959792 0.457099 0
0.99202 0.444129 0
0.999985 0.433875 0
1 0.424643 0
1 0.416464 0
1 0.409033 0
1 0.40238 0
1 0.395666 0
1 0.388525 0
1 0.380545 0
1 0.372045 0
1 0.364157 0
1 0.359304 0
0 0.640497 0
0 0.647272 0
0 0.654368 0
0 0.661463 0
0 0.669703 0
0 0.679011 0
0 0.688701 0
0 0.69897 0
0 0.709545 0
0 0.720012 0
0 0.730251 0
0.000198367 0.728115 0
0.00874342 0.667308 0
0.0379492 0.56437 0
0.0733959 0.50544 0
0.140505 0.489982 0
0.252125 0.498604 0
0.47042 0.524514 0
0.704341 0.556786 0
0.860212 0.564858 0
0.945449 0.556771 0
0.988113 0.546624 0
0.999741 0.537026 0
1 0.528878 0
1 0.521523 0
1 0.514748 0
1 0.508659 0
1 0.50103 0
1 0.493111 0
1 0.483528 0
1 0.473518 0
1 0.463447 0
1 0.457252 0
0 0.716686 0
0 0.724605 0
0 0.732708 0
0 0.740902 0
0 0.750317 0
0 0.759884 0
0 0.770291 0
0 0.781094 0
0 0.792691 0
0 0.804486 0
0 0.815808 0
1.5259e-05 0.824918 0
0.000961318 0.809323 0
0.0158541 0.726009 0
0.0512551 0.623087 0
0.0975509 0.572457 0
0.169116 0.560616 0
0.302327 0.569863 0
0.542901 0.598413 0
0.78085 0.633906 0
0.923323 0.6477 0
0.980728 0.643809 0
0.998138 0.635538 0
1 0.628321 0
1 0.621515 0
1 0.615549 0
1 0.608927 0
1 0.602045 0
1 0.593698 0
1 0.584054 0
1 0.573281 0
1 0.562219 0
1 0.554986 0
0 0.793103 0
0 0.802502 0
0 0.811078 0
0 0.820752 0
0 0.830564 0
0 0.840574 0
0 0.851362 0
0 0.862852 0
0 0.874403 0
0 0.885801 0
0 0.8972 0
0 0.9075 0
6.10361e-05 0.911757 0
0.00349432 0.879393 0
0.0242924 0.783886 0
0.0648203 0.688243 0
0.123339 0.64448 0
0.204501 0.635309 0
0.363073 0.644862 0
0.624292 0.673121 0
0.85388 0.710246 0
0.965972 0.727474 0
0.995544 0.727108 0
1 0.720531 0
1 0.714687 0
1 0.708583 0
1 0.702312 0
1 0.695415 0
1 0.686885 0
1 0.677897 0
1 0.666575 0
1 0.654765 0
1 0.647913 0
0 0.869963 6.10361e-05
0 0.880003 6.10361e-05
0 0.889708 3.0518e-05
0 0.900267 3.0518e-05
0 0.909483 1.5259e-05
0 0.917525 0
0 0.925444 0
0 0.933333 0
0 0.941451 0
0 0.949447 0
0 0.957137 0
0 0.964218 0
0 0.969665 0
0.000411994 0.967651 0
0.00952163 0.928603 0
0.0413367 0.838453 0
0.0830243 0.755932 0
0.154253 0.718654 0
0.253513 0.710063 0
0.444358 0.718624 0
0.709148 0.745937 0
0.914961 0.783688 0
0.988495 0.803098 0
1 0.804929 0
1 0.799146 0
1 0.793347 0
1 0.7879 0
1 0.781094 0
1 0.773022 0
1 0.763134 0
1 0.751995 0
1 0.740917 0
1 0.733715 0
0 0.938521 0.000701915
0 0.945342 0.000701915
0 0.952193 0.000427253
0 0.959411 0.000183108
0 0.967056 0.000137331
0 0.971527 0.000106813
0 0.975021 6.10361e-05
0 0.978439 3.0518e-05
0 0.981872 1.5259e-05
0 0.985351 0
0 0.988754 0
0 0.991821 0
0 0.993957 0
4.57771e-05 0.994736 0
0.00163272 0.991608 0
0.0196078 0.962921 0
0.0652018 0.890822 0
0.119905 0.821302 0
0.196551 0.790951 0
0.332052 0.781003 0
0.53782 0.788357 0
0.792325 0.815579 0
0.959533 0.852338 0
0.99826 0.872435 0
1 0.876173 0
1 0.870863 0
1 0.864805 0
1 0.858457 0
1 0.850599 0
1 0.84097 0
1 0.830121 0
1 0.818906 0
1 0.812375 0
0 0.982742 0.00480659
0 0.985 0.00471504
0 0.987533 0.00354009
0 0.990509 0.00225834
0 0.993423 0.00158694
0 0.994949 0.00109865
0 0.995834 0.00062562
0 0.996597 0.00030518
0 0.997345 0.000122072
0 0.998108 3.0518e-05
0 0.998825 1.5259e-05
0 0.99942 0
0 0.999832 0
0 1 0
0.000198367 0.999924 0
0.00637827 0.99736 0
0.0372473 0.981201 0
0.0989242 0.931151 0
0.171527 0.880323 0
0.271 0.855467 0
0.423545 0.845396 0
0.635477 0.853391 0
0.868376 0.879225 0
0.987411 0.913176 0
0.999924 0.931075 0
1 0.935561 0
1 0.931701 0
1 0.925811 0
1 0.918746 0
1 0.910582 0
1 0.900359 0
1 0.889723 0
1 0.883223 0
0 0.998352 0.0172274
0 0.998703 0.0170138
0 0.999023 0.0140993
0 0.999451 0.0104067
0 0.999817 0.00755322
0 0.999969 0.00515755
0 1 0.00311284
0 1 0.00167849
0 1 0.00077821
0 1 0.000289921
0 1 7.62951e-05
0 1 1.5259e-05
0 1 0
0 1 0
1.5259e-05 1 0
0.00132753 1 0
0.0213016 0.999313 0
0.0872969 0.98912 0
0.153979 0.957427 0
0.242252 0.927535 0
0.367102 0.909483 0
0.522499 0.901259 0
0.728191 0.908812 0
0.928695 0.934508 0
0.998947 0.959594 0
1 0.972763 0
1 0.977752 0
1 0.976135 0
1 0.972396 0
1 0.967224 0
1 0.959396 0
1 0.94992 0
1 0.944228 0
0 0.999985 0.0410163
0 0.999985 0.0404822
0 1 0.0356909
0 1 0.029099
0 1 0.0222782
0 1 0.0158541
0 1 0.0103151
0 1 0.00610361
0 1 0.00314336
0 1 0.00131228
0 1 0.000381476
0 1 6.10361e-05
0 1 0
0 1 0
0 1 0
0.000106813 1 0
0.00337224 1 0
0.0542153 1 0
0.16875 0.996582 0
0.246937 0.978454 0
0.343771 0.961837 0
0.468498 0.949416 0
0.621851 0.945632 0
0.813046 0.954681 0
0.968277 0.972625 0
0.999908 0.988495 0
1 0.99472 0
1 0.998352 0
1 0.998993 0
1 0.997513 0
1 0.993881 0
1 0.988846 0
1 0.985779 0
0 1 0.071931
0 1 0.0711376
0 1 0.0652323
0 1 0.0564889
0 1 0.0464942
0 1 0.0355535
0 1 0.0251469
0 1 0.0160678
0 1 0.00900282
0 1 0.00415045
0 1 0.00140383
0 1 0.000274662
0 1 1.5259e-05
0 1 0
0 1 0
0 1 0
0.00015259 1 0
0.025803 1 0
0.153155 1 0
0.263813 0.998596 0
0.343465 0.992584 0
0.447532 0.981033 0
0.569329 0.975601 0
0.716335 0.978576 0
0.883772 0.984268 0
0.988815 0.99292 0
1 1 0
1 1 0
1 0.999985 0
1 0.999954 0
1 0.999832 0
1 0.999634 0
1 0.999466 0
0 1 0.102831
0 1 0.101183
0 1 0.0945754
0 1 0.0853132
0 1 0.0740826
0 1 0.0609293
0 1 0.0467384
0 1 0.0324407
0 1 0.0198825
0 1 0.0102388
0 1 0.0039826
0 1 0.000961318
0 1 6.10361e-05
0 1 0
0 1 0
0 1 0
0 1 0
0.00570687 1 0
0.111986 1 0
0.276829 1 0
0.369802 0.999756 0
0.447684 0.997604 0
0.546899 0.993286 0
0.666499 0.992172 0
0.803128 0.996902 0
0.936675 0.996597 0
0.997101 1 0
1 1 0
1 1 0
1 1 0
1 1 0
1 1 0
1 1 0
0 1 0.130663
0 1 0.128176
0 1 0.12108
0 1 0.110719
0 1 0.0987564
0 1 0.0852216
0 1 0.0697795
0 1 0.0525826
0 1 0.0351568
