LUT预设1/LUT全系打包/2024-VINTAGE系列lut/log灰片格式使用/gentle复古暖.cube
TITLE "Generated by Resolve"
LUT_3D_SIZE 5
0 0 0.0166781
0.0876478 0.0227207 0.00933852
0.404105 0.0398566 0
0.587686 0.0502785 0
0.654521 0.0590829 0
0 0.0764172 0.0362707
0.0863203 0.106676 0.011017
0.563622 0.180362 0
0.779187 0.216648 0
0.831571 0.25919 0
0 0.262791 0.0876631
0.0329747 0.349676 0.000228885
0.599237 0.473503 0
0.877073 0.555291 0
0.921874 0.587594 0
0 0.511742 0.167681
0.252567 0.627634 0
0.631037 0.676951 0
0.901778 0.732418 0
0.977005 0.772702 0
0 0.630793 0.227268
0.40856 0.757916 0
0.732754 0.779385 0
0.928786 0.799344 0
1 0.824643 0
0 0.0171054 0.0591745
0.0339818 0.0183261 0.0400244
0.417441 0.00315862 0.0345006
0.694865 0 0.0621347
0.764065 0 0.0878157
0 0.102586 0.0985275
0.0896925 0.117952 0.0916457
0.581125 0.159503 0.0567941
0.941253 0.131655 0.0260014
1 0.167971 0.0345464
0 0.318608 0.186542
0.179599 0.402945 0.18996
0.640894 0.507362 0.0374151
0.999802 0.622782 0
1 0.65745 0
0 0.567193 0.398398
0.246723 0.746273 0.252033
0.707439 0.770718 0.0945907
0.982544 0.804181 0.00563058
1 0.865888 0.0990768
0 0.701549 0.576013
0.354681 0.872877 0.452766
0.77203 0.899245 0.319905
1 0.890913 0.00375372
1 0.889555 0.192126
0 0.0918135 0.230823
0.0332341 0.0303502 0.1682
0.252003 0.0258183 0.172717
0.597757 0.0197757 0.284672
0.811215 0 0.436179
0 0.202899 0.388006
0.0812848 0.183612 0.373007
0.458579 0.195987 0.34847
0.923781 0.117449 0.544717
1 0.145892 0.625559
0 0.453437 0.50985
0.0687266 0.487495 0.528634
0.624765 0.56968 0.538582
0.987289 0.597452 0.535698
1 0.646662 0.566583
0 0.625818 0.633097
0.124422 0.775906 0.669429
0.692348 0.862516 0.6439
0.961822 0.881178 0.558953
1 0.943191 0.722454
0 0.709422 0.748394
0.218235 0.920424 0.801083
0.755291 0.957763 0.794095
0.956481 0.965469 0.731182
1 0.961852 0.737057
0 0.153521 0.371862
0.00292973 0.0530709 0.422614
0.286564 0.0368963 0.409308
0.561929 0.0443732 0.45478
0.788403 0.0380255 0.560815
0 0.269551 0.542916
0.014023 0.236866 0.631617
0.515511 0.211627 0.670878
0.790906 0.24802 0.704067
0.999725 0.200183 0.848722
0 0.535775 0.717311
0.0190127 0.56054 0.75169
0.58436 0.612634 0.899825
0.878202 0.651194 0.812802
1 0.607584 0.881468
0 0.677913 0.78587
0 0.727962 0.825864
0.406806 0.901152 0.91873
0.921691 0.919539 0.884047
1 0.940337 0.898299
0 0.708217 0.809949
0 0.86392 0.933608
0.671763 0.97406 0.948013
0.945968 0.991775 0.952178
0.997101 0.991608 0.938338
0 0.187121 0.443503
0.020737 0.0839094 0.563043
0.341924 0.0369268 0.606867
0.595041 0.0686198 0.624537
0.792752 0.0658885 0.700908
0 0.313298 0.607416
0 0.278431 0.750912
0.583368 0.170382 0.9355
0.842954 0.226184 0.919127
0.982086 0.269932 0.950149
0 0.554467 0.754421
0 0.596231 0.832044
0.553887 0.623011 1
0.880308 0.66273 0.981949
0.988602 0.687083 0.968017
0 0.684779 0.812222
0 0.738613 0.869841
0.303029 0.911009 1
0.896895 0.929824 0.999985
0.98938 0.949477 0.986404
0 0.72253 0.845457
0 0.803662 0.919921
0.185931 0.964706 1
0.854032 0.995789 1
0.99086 0.999512 0.99852
