LUT预设1/LUT全系打包/2024-VINTAGE系列lut/log灰片格式使用/gentle复古暖.cube
TITLE "Generated by Resolve"
LUT_3D_SIZE 33
0 0 0.0166781
0.00370794 6.10361e-05 0.0166018
0.00833143 0.00047303 0.016556
0.0140841 0.00201419 0.0175479
0.0213931 0.00622568 0.0180056
0.0296483 0.010193 0.0163424
0.0423133 0.0142672 0.014313
0.0624247 0.0185092 0.0119173
0.0876478 0.0227207 0.00933852
0.123552 0.0245518 0.00242618
0.168429 0.0250095 0
0.213962 0.0296635 0
0.259266 0.0335241 0
0.300664 0.0353704 0
0.339223 0.0369879 0
0.374029 0.0383764 0
0.404105 0.0398566 0
0.432166 0.0414282 0
0.45951 0.0431525 0
0.48481 0.0451514 0
0.508965 0.0472572 0
0.533364 0.0486763 0
0.555383 0.0487221 0
0.573205 0.0490425 0
0.587686 0.0502785 0
0.59913 0.0509346 0
0.612207 0.0526436 0
0.623331 0.0523232 0
0.633661 0.0535897 0
0.642908 0.0565652 0
0.651698 0.0575875 0
0.653727 0.0583658 0
0.654521 0.0590829 0
0.000213626 0.00047303 0.0168307
0.004654 0.00271611 0.0174563
0.00952163 0.00375372 0.0175784
0.0149081 0.00553903 0.0180819
0.0211643 0.00935378 0.0174716
0.0284733 0.0132753 0.0158846
0.0379187 0.0163729 0.0167697
0.0556954 0.0206455 0.0149691
0.0803388 0.0246738 0.0120699
0.11516 0.0276951 0.00582895
0.155978 0.0294194 0
0.202167 0.0320439 0
0.248997 0.036286 0
0.292882 0.0396887 0
0.331945 0.0416114 0
0.368627 0.0434882 0
0.403555 0.0453346 0
0.432273 0.0473487 0
0.4607 0.049424 0
0.488365 0.0518959 0
0.513756 0.0545357 0
0.538781 0.0565957 0
0.564263 0.0570535 0
0.586389 0.0547494 0
0.605783 0.0547494 0
0.621912 0.0550393 0
0.636133 0.0568856 0
0.648127 0.0578317 0
0.656931 0.0611276 0
0.661524 0.0665293 0
0.665797 0.0716259 0
0.670665 0.0746166 0
0.67158 0.0754864 0
0.00601205 0.0131533 0.0196231
0.00794995 0.0155947 0.0198672
0.0113527 0.0175631 0.0198978
0.0157015 0.0187381 0.0197452
0.0210574 0.0196689 0.0191501
0.0280613 0.0216068 0.0180514
0.0389258 0.0234073 0.0172427
0.0559701 0.0266575 0.0151827
0.0789197 0.029984 0.0146487
0.117144 0.0335546 0.00660716
0.158373 0.0361028 0
0.20499 0.0386816 0
0.253315 0.0435492 0
0.299062 0.0471809 0
0.339666 0.0527657 0
0.377005 0.0569314 0
0.412284 0.0586862 0
0.446723 0.0581826 0
0.476707 0.0602884 0
0.507057 0.0640726 0
0.53463 0.0665904 0
0.55877 0.0683146 0
0.583322 0.0699016 0
0.607721 0.0683604 0
0.62855 0.0657969 0
0.645518 0.0662089 0
0.659846 0.0682231 0
0.671794 0.0704662 0
0.680858 0.0737011 0
0.685466 0.0793622 0
0.68719 0.0864576 0
0.695064 0.0913863 0
0.6963 0.092195 0
0.00849927 0.0241703 0.0217441
0.0102693 0.0257725 0.0218967
0.0130617 0.027512 0.0201877
0.0169528 0.028397 0.0183108
0.0213474 0.0304265 0.017731
0.0281682 0.0322271 0.0181582
0.0394141 0.0339361 0.0191196
0.0573892 0.0376287 0.0166018
0.0821393 0.0393378 0.0141299
0.122332 0.0448005 0.0056611
0.169345 0.0476997 0
0.218585 0.0503243 0
0.267216 0.0540932 0
0.312306 0.0603647 0
0.356863 0.0649119 0
0.396017 0.0688029 0
0.432975 0.0721141 0
0.468864 0.0735943 0
0.501472 0.074815 0
0.533471 0.077409 0
0.559808 0.0802319 0
0.585901 0.0830243 0
0.610529 0.0841993 0
0.63566 0.0821088 0
0.655024 0.0819562 0
0.670161 0.0835584 0
0.68365 0.0847944 0
0.695308 0.0872816 0
0.703822 0.0924697 0
0.708141 0.0988785 0
0.710735 0.105089 0
0.718654 0.109712 0
0.719783 0.110887 0
0.00851453 0.0343175 0.0226139
0.0102388 0.0356909 0.0212406
0.012192 0.0368963 0.0206455
0.0151369 0.0378882 0.0204318
0.0188296 0.0406043 0.019501
0.025864 0.0419165 0.0198215
0.0379034 0.0442206 0.0210422
0.0595102 0.0480659 0.0188296
0.0890059 0.0515755 0.0139315
0.132586 0.0545815 0.00451667
0.181979 0.057496 0
0.233173 0.0615091 0
0.283757 0.0682689 0
0.332998 0.0740673 0
0.379873 0.0783856 0
0.422278 0.082887 0
0.460563 0.0870069 0
0.495354 0.0901198 0
0.52961 0.0920119 0
0.561898 0.0951095 0
0.590951 0.0955673 0
0.616846 0.0981308 0
0.638209 0.101549 0
0.663523 0.100587 0
0.679133 0.103136 0
0.693797 0.105058 0
0.706783 0.108522 0
0.71783 0.112978 0
0.727352 0.116686 0
0.734386 0.121065 0
0.739651 0.127459 0
0.743069 0.133654 0
0.744411 0.13489 0
0.00682078 0.0447547 0.0229343
0.00830091 0.0452735 0.0233158
0.00994888 0.046479 0.0245365
0.0119478 0.0484932 0.0244144
0.015259 0.0504005 0.0228122
0.0222171 0.052018 0.0215152
0.0363622 0.0557717 0.0216526
0.0612955 0.0604105 0.0201419
0.090547 0.0648966 0.0146181
0.139574 0.0680705 0.00471504
0.194888 0.0719921 0
0.251896 0.0766461 0
0.305989 0.0838331 0
0.357107 0.0897688 0
0.406088 0.0949874 0
0.451972 0.099855 0
0.490822 0.104662 0
0.525444 0.108675 0
0.558801 0.111818 0
0.590707 0.114427 0
0.620829 0.114839 0
0.650339 0.115434 0
0.670954 0.119692 0
0.691051 0.123354 0
0.704067 0.127901 0
0.71841 0.130922 0
0.730953 0.134737 0
0.741726 0.138933 0
0.751308 0.143404 0
0.759594 0.148577 0
0.766018 0.154238 0
0.770169 0.159823 0
0.771435 0.161074 0
0.00440986 0.053193 0.0281987
0.00544747 0.0549783 0.028336
0.00575265 0.0573281 0.0285954
0.00694286 0.0596628 0.027985
0.00979629 0.0616007 0.0265049
0.0171511 0.0639048 0.0238804
0.0322271 0.0677195 0.0230716
0.0578927 0.0725872 0.0215915
0.0937362 0.0778363 0.0144045
0.146517 0.0827649 0.00265507
0.205982 0.0897536 0
0.269139 0.0950179 0
0.328817 0.10248 0
0.382589 0.109194 0
0.433173 0.114809 0
0.479149 0.120272 0
0.51809 0.125368 0
0.552621 0.129534 0
0.585809 0.133303 0
0.61828 0.136843 0
0.647852 0.139605 0
0.67599 0.141711 0
0.698421 0.145006 0
0.717647 0.147723 0
0.731548 0.152148 0
0.744396 0.156725 0
0.755978 0.161105 0
0.76614 0.165881 0
0.77438 0.172061 0
0.781003 0.178836 0
0.787915 0.184298 0
0.795865 0.188449 0
0.797101 0.189868 0
0.00103761 0.0646677 0.0303502
0.0009308 0.0664988 0.0310674
0.00132753 0.0689403 0.0317388
0.00230411 0.0716411 0.0309148
0.00450141 0.0749676 0.029572
0.011429 0.07776 0.0262455
0.0252689 0.0807507 0.0225376
0.0531014 0.0851759 0.0182498
0.0924086 0.0918593 0.0108644
0.14725 0.0991684 0.000823987
0.212924 0.10808 0
0.282338 0.115557 0
0.347555 0.12343 0
0.405768 0.13106 0
0.457527 0.137514 0
0.501427 0.144167 0
0.541711 0.15082 0
0.577859 0.155932 0
0.611872 0.160464 0
0.643549 0.164263 0
0.67364 0.167529 0
0.700923 0.170596 0
0.724285 0.173312 0
0.742916 0.176883 0
0.756725 0.181842 0
0.769238 0.187167 0
0.780819 0.19147 0
0.789395 0.197604 0
0.795209 0.204776 0
0.801785 0.211093 0
0.810101 0.216602 0
0.815061 0.221317 0
0.815808 0.22295 0
0 0.0764172 0.0362707
0 0.0784161 0.0362402
3.0518e-05 0.081529 0.0348516
0.000396735 0.0854353 0.0339971
0.00128176 0.0889601 0.0344396
0.00515755 0.0924392 0.0306706
0.0150912 0.0967117 0.024506
0.0432136 0.101289 0.019028
0.0863203 0.106676 0.011017
0.14023 0.116121 0.000244144
0.213184 0.127291 0
0.286137 0.13785 0
0.356909 0.147646 0
0.420249 0.156329 0
0.47541 0.164111 0
0.522057 0.173114 0
0.563622 0.180362 0
0.601343 0.186465 0
0.636713 0.19205 0
0.669612 0.196414 0
0.700175 0.200092 0
0.72639 0.203326 0
0.74815 0.206851 0
0.765438 0.211398 0
0.779187 0.216648 0
0.790188 0.22182 0
0.800473 0.227161 0
0.808835 0.233906 0
0.815091 0.240406 0
0.820462 0.24773 0
0.826108 0.254231 0
0.830945 0.257267 0
0.831571 0.25919 0
0 0.0899519 0.0383154
0 0.09308 0.038407
0 0.0969406 0.0387884
0 0.100923 0.039353
0.00030518 0.105119 0.0384375
0.00120546 0.110628 0.0339208
0.0037995 0.116152 0.0288243
0.0328527 0.121981 0.016968
0.078706 0.128542 0.00364691
0.133028 0.136858 6.10361e-05
0.206592 0.148547 0
0.282719 0.161791 0
0.35996 0.173266 0
0.427741 0.182284 0
0.486748 0.193545 0
0.537316 0.203403 0
0.580362 0.211231 0
0.618585 0.219806 0
0.65449 0.228077 0
0.687602 0.234058 0
0.718288 0.238285 0
0.744976 0.241962 0
0.767224 0.245762 0
0.784802 0.250813 0
0.796994 0.256474 0
0.806851 0.262623 0
0.815808 0.267918 0
0.824903 0.275059 0
0.833585 0.28246 0
0.83856 0.289082 0
0.842039 0.295079 0
0.845411 0.29958 0
0.846326 0.301869 0
0 0.108324 0.0436866
0 0.111482 0.0442206
0 0.115038 0.0450752
0 0.118608 0.0443885
0 0.12401 0.0417945
0 0.13022 0.0378729
0 0.136248 0.0327306
0.0165408 0.143542 0.0180667
0.0628672 0.151202 0.00375372
0.1252 0.160647 0
0.196094 0.172625 0
0.273487 0.186069 0
0.354421 0.199176 0
0.427466 0.212207 0
0.489158 0.226169 0
0.54345 0.238132 0
0.590082 0.248219 0
0.630472 0.258244 0
0.667826 0.267124 0
0.702068 0.274357 0
0.732784 0.280385 0
0.759503 0.285603 0
0.782254 0.2907 0
0.800824 0.296025 0
0.813748 0.302113 0
0.823911 0.308965 0
0.83267 0.31548 0
0.84036 0.321981 0
0.849149 0.328695 0
0.855909 0.334829 0
0.860456 0.341329 0
0.862821 0.346242 0
0.863432 0.348379 0
0 0.127428 0.0498207
0 0.129976 0.0502785
0 0.133227 0.0509804
0 0.137636 0.05066
0 0.143877 0.0471199
0 0.150958 0.0435798
0.000732433 0.158755 0.036408
0.00436408 0.169512 0.0128481
0.0477913 0.178698 0.0019379
0.112139 0.187854 0
0.187045 0.198657 0
0.263081 0.211887 0
0.34287 0.226474 0
0.419837 0.242756 0
0.487343 0.258595 0
0.545388 0.272328 0
0.594415 0.285466 0
0.637232 0.297429 0
0.676875 0.307347 0
0.712825 0.315862 0
0.744121 0.323491 0
0.771588 0.330663 0
0.795438 0.337789 0
0.814969 0.343679 0
0.828931 0.348684 0
0.840101 0.35523 0
0.849821 0.361883 0
0.856794 0.368048 0
0.862226 0.374823 0
0.867491 0.381353 0
0.871839 0.386877 0
0.87393 0.390555 0
0.874281 0.392615 0
0 0.148089 0.0581064
0 0.151369 0.0568093
0 0.155428 0.056199
0 0.160479 0.0551461
0 0.166812 0.0538033
0 0.174197 0.0502327
0 0.184756 0.036759
0.002533 0.198199 0.0122377
0.0256199 0.209491 0.00155642
0.0971847 0.21857 0
0.175036 0.229633 0
0.252857 0.241749 0
0.331167 0.256626 0
0.409674 0.274174 0
0.481209 0.292073 0
0.543648 0.307347 0
0.594873 0.322271 0
0.64036 0.337011 0
0.682918 0.349523 0
0.720958 0.360159 0
0.754574 0.369558 0
0.784344 0.378271 0
0.80914 0.386526 0
0.829084 0.393362 0
0.842161 0.398932 0
0.852903 0.403845 0
0.861723 0.408865 0
0.86807 0.414389 0
0.872465 0.419852 0
0.877028 0.425254 0
0.880354 0.430488 0
0.881788 0.433951 0
0.8822 0.435981 0
0 0.171954 0.0653544
0 0.175906 0.0638895
0 0.180621 0.0628367
0 0.185733 0.0610513
0 0.191897 0.0586099
0 0.200443 0.0551156
0 0.213581 0.0371252
0.00224308 0.228885 0.017258
0.00970474 0.242603 0
0.0850843 0.251545 0
0.164126 0.261372 0
0.242176 0.273655 0
0.321324 0.289601 0
0.400717 0.307622 0
0.474281 0.325643 0
0.540764 0.343481 0
0.59469 0.361578 0
0.64416 0.377676 0
0.688685 0.392401 0
0.72874 0.405097 0
0.764767 0.416083 0
0.795621 0.425589 0
0.820447 0.433814 0
0.840284 0.439033 0
0.853193 0.443183 0
0.863279 0.448142 0
0.871397 0.452277 0
0.877424 0.455848 0
0.881575 0.459739 0
0.885786 0.465354 0
0.889174 0.47068 0
0.890776 0.473793 0
0.89131 0.475776 0
0 0.197818 0.0724193
0 0.202426 0.0707713
0 0.208011 0.0693217
0 0.213855 0.067155
0 0.221683 0.0626841
0 0.231312 0.0556497
0 0.246845 0.038529
0 0.262226 0.0181735
0.0152438 0.277287 0
0.0765393 0.287388 0
0.158663 0.298207 0
0.237736 0.310674 0
0.316716 0.326726 0
0.395468 0.343603 0
0.469505 0.360571 0
0.535775 0.378607 0
0.593484 0.39765 0
0.645685 0.416724 0
0.693416 0.434379 0
0.736492 0.448371 0
0.773098 0.459815 0
0.804196 0.469551 0
0.828748 0.477073 0
0.848997 0.481941 0
0.862669 0.485023 0
0.874281 0.489387 0
0.881514 0.493309 0
0.884947 0.496651 0
0.892638 0.500298 0
0.896147 0.505211 0
0.899855 0.50956 0
0.901549 0.512367 0
0.902174 0.514519 0
0 0.228077 0.0801251
0 0.232746 0.0786297
0 0.238987 0.0751965
0 0.247196 0.0710765
0 0.25742 0.0663767
0 0.269978 0.0543679
0 0.28307 0.038468
0 0.299229 0.0132601
0.0243381 0.31339 7.62951e-05
0.0764172 0.324987 0
0.161532 0.336828 0
0.238071 0.350332 0
0.317327 0.365484 0
0.395056 0.381552 0
0.467231 0.397726 0
0.53341 0.415076 0
0.594369 0.434638 0
0.647456 0.455512 0
0.697917 0.474418 0
0.742428 0.489067 0
0.779385 0.499687 0
0.810788 0.508263 0
0.835523 0.514885 0
0.856565 0.518593 0
0.870069 0.522652 0
0.881819 0.526818 0
0.888747 0.530312 0
0.892393 0.534173 0
0.901274 0.537545 0
0.90779 0.54165 0
0.911116 0.546807 0
0.912291 0.550011 0
0.912825 0.552056 0
0 0.262791 0.0876631
0 0.266453 0.0858625
0 0.273533 0.0814069
0 0.28365 0.0747692
0 0.295323 0.0682383
0 0.308049 0.0526436
0 0.320958 0.0318456
0 0.336873 0.00450141
0.0329747 0.349676 0.000228885
0.0891127 0.36405 0
0.171862 0.377554 0
0.246342 0.392645 0
0.324407 0.407233 0
0.399603 0.422827 0
0.47126 0.439399 0
0.539055 0.456535 0
0.599237 0.473503 0
0.65095 0.491234 0
0.699443 0.508293 0
0.744121 0.52253 0
0.783475 0.533425 0
0.815915 0.541756 0
0.840986 0.547631 0
0.863005 0.551278 0
0.877073 0.555291 0
0.889525 0.559457 0
0.897322 0.5635 0
0.90341 0.567437 0
0.910018 0.57174 0
0.917876 0.577523 0
0.920577 0.582422 0
0.921355 0.585321 0
0.921874 0.587594 0
0 0.297368 0.0967117
0 0.302846 0.0937362
0 0.310628 0.0899825
0 0.322148 0.0818189
0 0.336309 0.0674754
0 0.350988 0.0482948
0 0.366079 0.0217288
0.00840772 0.38204 1.5259e-05
0.0476539 0.394919 1.5259e-05
0.112459 0.407965 0
0.189425 0.423682 0
0.264881 0.436042 0
0.338704 0.449943 0
0.410895 0.463783 0
0.4804 0.47834 0
0.545556 0.493614 0
0.603815 0.508873 0
0.655772 0.523751 0
0.70164 0.538384 0
0.744717 0.55079 0
0.784222 0.56112 0
0.819135 0.569284 0
0.84509 0.576501 0
0.868391 0.581949 0
0.883421 0.585824 0
0.8972 0.590311 0
0.905791 0.595407 0
0.914183 0.600259 0
0.919326 0.605707 0
0.926528 0.613687 0
0.928618 0.616953 0
0.929549 0.619821 0
0.930358 0.622614 0
0 0.33341 0.106096
0 0.340017 0.10248
0 0.349798 0.0964218
0 0.360967 0.0881208
0 0.378607 0.0676127
0 0.395041 0.0409552
0 0.41062 0.0103761
0.0246586 0.425391 0
0.0665446 0.439643 0
0.142977 0.451423 0
0.215625 0.463661 0
0.288991 0.476768 0
0.360357 0.489708 0
0.428397 0.50193 0
0.493828 0.514641 0
0.555398 0.528023 0
0.610788 0.54136 0
0.659541 0.553903 0
0.703883 0.565972 0
0.745464 0.576471 0
0.783612 0.586847 0
0.819165 0.595392 0
0.84802 0.603113 0
0.872328 0.609979 0
0.888624 0.615122 0
0.903792 0.619669 0
0.91342 0.62591 0
0.922789 0.632288 0
0.928328 0.639353 0
0.935439 0.648081 0
0.938628 0.652506 0
0.939834 0.655222 0
0.94078 0.657832 0
0 0.367773 0.116945
0 0.375555 0.11194
0 0.386572 0.102617
0 0.401724 0.0877546
0 0.421286 0.0651102
0 0.438499 0.0306096
0.00302129 0.454368 0
0.0462501 0.468467 0
0.10425 0.480705 0
0.180743 0.491814 0
0.249729 0.503059 0
0.316609 0.514748 0
0.382956 0.525582 0
0.44744 0.537438 0
0.508812 0.548394 0
0.566415 0.559976 0
0.618021 0.571939 0
0.663539 0.582559 0
0.704921 0.592065 0
0.745296 0.60206 0
0.78265 0.611429 0
0.81767 0.61915 0
0.848157 0.626551 0
0.87364 0.63357 0
0.892638 0.641321 0
0.909026 0.646891 0
0.91986 0.653712 0
0.929549 0.660868 0
0.935668 0.668574 0
0.941253 0.675471 0
0.946151 0.679103 0
0.948363 0.682002 0
0.949279 0.684932 0
0 0.400977 0.128786
0 0.40972 0.12163
0 0.423117 0.108659
0 0.442832 0.0871595
0 0.463966 0.057908
0 0.481834 0.0174105
0.0249027 0.497429 0
0.075227 0.510353 0
0.144915 0.520684 0
0.218143 0.530724 0
0.282429 0.539818 0
0.34226 0.548272 0
0.402914 0.557305 0
0.463401 0.568307 0
0.520348 0.578866 0
0.574609 0.589715 0
0.623636 0.59971 0
0.666773 0.608438 0
0.705333 0.616129 0
0.744121 0.624659 0
0.780301 0.632929 0
0.815229 0.640513 0
0.846998 0.647669 0
0.87306 0.654963 0
0.894865 0.662837 0
0.91281 0.670314 0
0.925155 0.678035 0
0.935531 0.685908 0
0.942519 0.693919 0
0.947845 0.700984 0
0.951919 0.704768 0
0.95346 0.70782 0
0.95407 0.71104 0
0 0.433295 0.140902
0 0.444327 0.129488
0 0.459602 0.113573
0 0.482582 0.0879072
0 0.503914 0.0487068
0 0.522255 0.00326543
0.0504005 0.536156 0
0.109697 0.548272 0
0.181933 0.556878 0
0.248814 0.564095 0
0.310964 0.57026 0
0.366613 0.577615 0
0.421241 0.584329 0
0.476753 0.592447 0
0.529213 0.602121 0
0.579797 0.612055 0
0.626108 0.62179 0
0.667659 0.630442 0
0.705165 0.638056 0
0.74258 0.646021 0
0.778393 0.653437 0
0.812772 0.659892 0
0.845853 0.667262 0
0.872038 0.67541 0
0.895827 0.684245 0
0.91516 0.692576 0
0.930785 0.699733 0
0.941466 0.708171 0
0.948379 0.71545 0
0.953872 0.721477 0
0.957839 0.724941 0
0.959381 0.727459 0
0.960327 0.730114 0
0 0.463691 0.151705
0 0.47689 0.13753
0 0.49546 0.116503
0 0.518624 0.0884108
0 0.539773 0.0353399
0.0201877 0.556298 0.00331121
0.0714122 0.567712 0.000137331
0.138323 0.576043 0
0.211383 0.583535 0
0.274525 0.58999 0
0.33373 0.595987 0
0.387442 0.602548 0
0.438453 0.608637 0
0.487739 0.614588 0
0.536599 0.622965 0
0.583581 0.632059 0
0.626978 0.640848 0
0.666423 0.649454 0
0.704036 0.657725 0
0.741253 0.666178 0
0.777295 0.673411 0
0.812222 0.679942 0
0.846769 0.688655 0
0.872679 0.697032 0
0.897246 0.705089 0
0.915526 0.71136 0
0.933196 0.717266 0
0.944091 0.724834 0
0.950011 0.730922 0
0.957702 0.735973 0
0.963424 0.740826 0
0.965194 0.743847 0
0.966155 0.746548 0
0 0.489708 0.160433
0 0.504814 0.142687
0 0.525765 0.116503
0 0.548135 0.0750744
0 0.570062 0.0141146
0.036759 0.583352 0.00148013
0.0844434 0.593988 0
0.16199 0.600763 0
0.233646 0.607355 0
0.295537 0.61297 0
0.352483 0.619211 0
0.406104 0.625849 0
0.453147 0.630518 0
0.498985 0.63653 0
0.543832 0.643549 0
0.587381 0.650813 0
0.628473 0.659724 0
0.666407 0.668757 0
0.703502 0.676234 0
0.740429 0.684871 0
0.777615 0.693187 0
0.813077 0.699184 0
0.84828 0.707454 0
0.873655 0.713817 0
0.900008 0.717571 0
0.916564 0.724407 0
0.933471 0.732631 0
0.946563 0.740475 0
0.954269 0.746059 0
0.961059 0.751629 0
0.967285 0.755215 0
0.970504 0.758267 0
0.971618 0.760754 0
0 0.511742 0.167681
0 0.529091 0.145495
0 0.548959 0.118303
0 0.572915 0.063035
0.00801099 0.594537 0.00941482
0.0407416 0.608423 3.0518e-05
0.100893 0.617166 0
0.182834 0.622766 0
0.252567 0.627634 0
0.315435 0.633082 0
0.369863 0.639429 0
0.421485 0.645838 0
0.466224 0.650904 0
0.509758 0.657084 0
0.55288 0.663844 0
0.593118 0.668254 0
0.631037 0.676951 0
0.667506 0.685603 0
0.70399 0.693049 0
0.741451 0.70074 0
0.779919 0.707729 0
0.814496 0.715053 0
0.848981 0.723064 0
0.87541 0.728756 0
0.901778 0.732418 0
0.918761 0.73962 0
0.935424 0.747799 0
0.94728 0.75555 0
0.958419 0.758816 0
0.964538 0.763104 0
0.971176 0.765743 0
0.975769 0.770001 0
0.977005 0.772702 0
0 0.52987 0.173846
0 0.549249 0.148363
0 0.569757 0.11632
0 0.594842 0.0542763
0.0105592 0.613413 0.0153353
0.0267948 0.628473 0.000213626
0.115633 0.63563 0
0.200992 0.640742 0
0.270344 0.645762 0
0.332189 0.65153 0
0.386908 0.65774 0
0.435813 0.662593 0
0.482307 0.66743 0
0.524147 0.673228 0
0.564202 0.678477 0
0.60351 0.684642 0
0.635264 0.691661 0
0.670436 0.699931 0
0.7066 0.707774 0
0.74435 0.715526 0
0.78381 0.723751 0
0.817319 0.729503 0
0.849027 0.736843 0
0.877592 0.742473 0
0.903151 0.747372 0
0.920684 0.753124 0
0.937041 0.757794 0
0.949386 0.763577 0
0.960784 0.769436 0
0.967926 0.772213 0
0.974502 0.775708 0
0.980529 0.779522 0
0.981796 0.781949 0
0 0.544717 0.180209
0 0.566384 0.151873
0 0.590158 0.108034
7.62951e-05 0.614557 0.0526131
0.00393683 0.631922 0.0155947
0.0432288 0.644877 0
0.134157 0.651255 0
0.217441 0.656535 0
0.291402 0.662272 0
0.349905 0.668925 0
0.405859 0.675242 0
0.451896 0.679332 0
0.497704 0.685008 0
0.539467 0.691218 0
0.577829 0.696651 0
0.613916 0.702815 0
0.645197 0.707973 0
0.675761 0.712749 0
0.711421 0.720516 0
0.748837 0.729503 0
0.788235 0.738079 0
0.820554 0.742367 0
0.852033 0.748791 0
0.87924 0.753796 0
0.903639 0.758511 0
0.922164 0.764141 0
0.939467 0.767208 0
0.952026 0.772824 0
0.963088 0.778103 0
0.971222 0.780682 0
0.977523 0.785443 0
0.984756 0.787457 0
0.986954 0.789212 0
0 0.557244 0.186389
0 0.582391 0.155306
0 0.608743 0.10251
0 0.631571 0.0504005
0 0.650385 0.0071107
0.0671855 0.660578 0
0.150576 0.667231 0
0.235554 0.672053 0
0.312444 0.677577 0
