LUT预设1/LUT全系打包/2024-VINTAGE系列lut/log灰片格式使用/gentle复古暖.cube
TITLE "Generated by Resolve"
LUT_3D_SIZE 9
0 0 0.0166781
0.0213931 0.00622568 0.0180056
0.0876478 0.0227207 0.00933852
0.259266 0.0335241 0
0.404105 0.0398566 0
0.508965 0.0472572 0
0.587686 0.0502785 0
0.633661 0.0535897 0
0.654521 0.0590829 0
0.00851453 0.0343175 0.0226139
0.0188296 0.0406043 0.019501
0.0890059 0.0515755 0.0139315
0.283757 0.0682689 0
0.460563 0.0870069 0
0.590951 0.0955673 0
0.679133 0.103136 0
0.727352 0.116686 0
0.744411 0.13489 0
0 0.0764172 0.0362707
0.00128176 0.0889601 0.0344396
0.0863203 0.106676 0.011017
0.356909 0.147646 0
0.563622 0.180362 0
0.700175 0.200092 0
0.779187 0.216648 0
0.815091 0.240406 0
0.831571 0.25919 0
0 0.148089 0.0581064
0 0.166812 0.0538033
0.0256199 0.209491 0.00155642
0.331167 0.256626 0
0.594873 0.322271 0
0.754574 0.369558 0
0.842161 0.398932 0
0.872465 0.419852 0
0.8822 0.435981 0
0 0.262791 0.0876631
0 0.295323 0.0682383
0.0329747 0.349676 0.000228885
0.324407 0.407233 0
0.599237 0.473503 0
0.783475 0.533425 0
0.877073 0.555291 0
0.910018 0.57174 0
0.921874 0.587594 0
0 0.400977 0.128786
0 0.463966 0.057908
0.144915 0.520684 0
0.402914 0.557305 0
0.623636 0.59971 0
0.780301 0.632929 0
0.894865 0.662837 0
0.942519 0.693919 0
0.95407 0.71104 0
0 0.511742 0.167681
0.00801099 0.594537 0.00941482
0.252567 0.627634 0
0.466224 0.650904 0
0.631037 0.676951 0
0.779919 0.707729 0
0.901778 0.732418 0
0.958419 0.758816 0
0.977005 0.772702 0
0 0.570092 0.192706
0.0149844 0.66743 0
0.329976 0.694484 0
0.532448 0.716274 0
0.67126 0.733104 0
0.798016 0.756878 0
0.908415 0.775311 0
0.969284 0.791592 0
0.997772 0.800793 0
0 0.630793 0.227268
0.0294347 0.734859 0
0.40856 0.757916 0
0.60473 0.770016 0
0.732754 0.779385 0
0.835401 0.787457 0
0.928786 0.799344 0
0.995132 0.814527 0
1 0.824643 0
0 0.00645457 0.0201114
0.0138705 0.00454719 0.0189975
0.0648051 0.0180056 0.0228885
0.265141 0.0271458 0
0.425116 0.039353 0
0.553155 0.0310674 0
0.641871 0.0272679 0
0.695033 0.0206607 0
0.722484 0.0162966 0
0.0078584 0.0400702 0.0297093
0.0175326 0.0412451 0.02916
0.0779126 0.0472267 0.0204623
0.272801 0.0591592 0
0.46128 0.0751049 0
0.611032 0.0859846 0
0.716869 0.0892958 0
0.777249 0.0942245 0
0.821744 0.102159 0
0 0.0838483 0.0467536
0.00836194 0.092546 0.049134
0.083238 0.108522 0.0236973
0.353155 0.138903 0
0.589181 0.172213 0
0.761913 0.194476 0
0.860014 0.203662 0
0.908003 0.221561 0
0.931228 0.241398 0
0 0.159716 0.0840925
0.0142977 0.173602 0.0858473
0.0561685 0.217441 0.0161135
0.336858 0.255375 0
0.637125 0.330159 0
0.824399 0.391424 0
0.926757 0.417472 0
0.961471 0.435996 0
0.969497 0.448188 0
0 0.285176 0.132158
0.0294041 0.310323 0.126802
0.0774243 0.385092 0.0123293
0.347158 0.425696 0
0.629068 0.488014 0
0.851118 0.574044 0
0.95729 0.601404 0
0.994171 0.612863 0
0.999832 0.627054 0
0 0.434897 0.203632
0.0654459 0.489982 0.175921
0.209018 0.573587 0.0448615
0.453727 0.599664 0
0.654795 0.622751 0
0.83122 0.665705 0
0.966659 0.708904 0
1 0.745113 0
1 0.767437 0
0 0.541207 0.280552
0.0337377 0.630411 0.18172
0.274601 0.695979 0.0139315
0.521538 0.704158 0.00277714
0.679698 0.717205 0
0.822934 0.738445 0
0.951415 0.765301 0
1 0.800336 0
1 0.821256 0
0 0.604028 0.334569
0.00204471 0.718074 0.189319
0.318914 0.781537 0.00657664
0.582757 0.788769 0
0.734844 0.789105 0
0.858167 0.798581 0
0.961624 0.809155 0
1 0.824704 0
1 0.842649 0
0 0.671901 0.411933
0.00735485 0.78999 0.260044
0.396048 0.828428 0.123049
0.634211 0.846525 0.0121462
0.790478 0.849867 0
0.910994 0.850401 0
0.993179 0.849165 0
1 0.851942 0
1 0.860731 0
0 0.0171054 0.0591745
0.00302129 0.017792 0.0351568
0.0339818 0.0183261 0.0400244
0.137911 0.0276646 0.0402686
0.417441 0.00315862 0.0345006
0.582849 0.00140383 0.0472877
0.694865 0 0.0621347
0.742184 0 0.075761
0.764065 0 0.0878157
4.57771e-05 0.0493324 0.0860151
0.0137942 0.0482643 0.0706645
0.0503395 0.0535134 0.0563973
0.249302 0.057908 0.0453498
0.478325 0.0697032 0.0310063
0.629206 0.0745251 0.0341039
0.780163 0.029099 0.028336
0.86923 0 0.0328679
0.920836 6.10361e-05 0.0540932
0 0.102586 0.0985275
0.00306706 0.105348 0.0999008
0.0896925 0.117952 0.0916457
0.334203 0.138582 0.0628824
0.581125 0.159503 0.0567941
0.786892 0.154788 0.0403906
0.941253 0.131655 0.0260014
0.999985 0.133364 0.0111238
1 0.167971 0.0345464
0 0.185397 0.121294
0.0153353 0.192538 0.138277
0.123705 0.229465 0.125322
0.343862 0.268177 0.0569619
0.640894 0.323659 0.0571298
0.854093 0.375143 0.05037
0.997497 0.398566 0.00717174
1 0.420264 0
1 0.434058 0
0 0.318608 0.186542
0.0430915 0.339101 0.207156
0.179599 0.402945 0.18996
0.378424 0.461021 0.100328
0.640894 0.507362 0.0374151
0.863752 0.59057 0.0530251
0.999802 0.622782 0
1 0.645411 0
1 0.65745 0
0 0.466712 0.29546
0.0954299 0.521202 0.305089
0.232151 0.613001 0.228244
0.482765 0.644663 0.172183
0.667491 0.65655 0.0815137
0.841276 0.691966 0.0413672
0.998978 0.755413 0.00181582
1 0.79794 0.00436408
1 0.813428 0.0158389
0 0.567193 0.398398
0.0528267 0.6598 0.371664
0.246723 0.746273 0.252033
0.528984 0.768246 0.164904
0.707439 0.770718 0.0945907
0.838682 0.772045 0.0455329
0.982544 0.804181 0.00563058
1 0.846967 0
1 0.865888 0.0990768
0 0.629374 0.477119
0 0.754788 0.432547
0.285435 0.824918 0.322835
0.574151 0.847044 0.243778
0.751629 0.855573 0.111711
0.896406 0.850843 0.00337224
0.999069 0.852949 0
1 0.864454 0.000701915
1 0.879026 0.124804
0 0.701549 0.576013
0 0.831174 0.532204
0.354681 0.872877 0.452766
0.61387 0.892409 0.403037
0.77203 0.899245 0.319905
0.910521 0.896757 0.171832
1 0.890913 0.00375372
1 0.882475 0.0568246
1 0.889555 0.192126
0 0.0458686 0.124422
0.00155642 0.0221866 0.0930495
0.0350347 0.0221103 0.0832685
0.103883 0.0284581 0.0829786
0.280537 0.0201724 0.0907912
0.506127 0.00601205 0.140093
0.672694 0.000198367 0.2038
0.756832 0 0.247532
0.792218 0 0.283177
0 0.085771 0.196246
0.00146487 0.0703441 0.156146
0.0514687 0.0619516 0.117922
0.154604 0.0721141 0.113878
0.394522 0.0738537 0.134783
0.622049 0.0773175 0.189395
0.794018 0.0233463 0.224857
0.879286 0 0.263279
0.928985 0 0.301228
0 0.145983 0.240909
0 0.143557 0.234272
0.0920272 0.140078 0.212192
0.253742 0.15465 0.186954
0.559335 0.164004 0.227054
0.788083 0.142763 0.255695
0.941939 0.0979019 0.280827
0.998474 0.107012 0.312657
1 0.155123 0.345235
0 0.237171 0.257252
0 0.241733 0.261967
0.0792554 0.255634 0.265492
0.339162 0.294774 0.260243
0.659327 0.308751 0.242084
0.881941 0.328481 0.254231
0.997253 0.35729 0.286976
1 0.393362 0.314275
1 0.415015 0.319982
0 0.374685 0.309422
0 0.384909 0.320562
0.188998 0.429038 0.341482
0.412894 0.496635 0.339223
0.63183 0.533227 0.267964
0.887892 0.59678 0.245411
1 0.61912 0.2448
1 0.648844 0.285542
1 0.672557 0.309346
0 0.51043 0.418296
0.055848 0.547082 0.439689
0.244892 0.641917 0.444678
0.484306 0.695079 0.402228
0.671214 0.708003 0.338338
0.837186 0.723156 0.278416
1 0.787228 0.250019
1 0.828931 0.344823
1 0.855772 0.413046
0 0.592416 0.517815
0.0362249 0.675074 0.535195
0.216022 0.780362 0.498772
0.516976 0.816052 0.452186
0.70248 0.831739 0.389639
0.85745 0.833616 0.243214
0.983642 0.846357 0.257923
1 0.8934 0.392218
1 0.916548 0.514824
0 0.649042 0.596078
1.5259e-05 0.7673 0.61503
0.228946 0.860273 0.57055
0.5561 0.886854 0.545174
0.730678 0.901503 0.512581
0.873747 0.90367 0.399039
0.992996 0.895979 0.25452
1 0.901503 0.344625
1 0.928298 0.519371
0 0.713695 0.690028
0 0.850095 0.717906
0.309621 0.904326 0.671199
0.594675 0.926116 0.657938
0.754421 0.93724 0.640223
0.879438 0.939666 0.571817
0.983413 0.932616 0.449058
1 0.920806 0.408103
1 0.926619 0.494163
0 0.0918135 0.230823
0 0.0538186 0.179416
0.0332341 0.0303502 0.1682
0.113909 0.0282139 0.165942
0.252003 0.0258183 0.172717
0.433753 0.0120851 0.205692
0.597757 0.0197757 0.284672
0.749554 0 0.369253
0.811215 0 0.436179
0 0.136156 0.312184
0 0.117342 0.268223
0.0313573 0.0724193 0.258289
0.164416 0.0812695 0.22385
0.332387 0.0900282 0.233036
0.534264 0.101854 0.284611
0.738308 0.0819409 0.387915
0.884916 0.00529488 0.474174
0.941955 0 0.54023
0 0.202899 0.388006
0 0.200046 0.379232
0.0812848 0.183612 0.373007
0.266377 0.174273 0.352331
0.458579 0.195987 0.34847
0.693812 0.194049 0.434043
0.923781 0.117449 0.544717
0.997238 0.0949111 0.593805
1 0.145892 0.625559
0 0.305241 0.444968
0 0.302159 0.447456
0.070985 0.317754 0.463661
0.318853 0.323964 0.527611
0.56144 0.348257 0.449104
0.839597 0.331136 0.542367
0.976425 0.329625 0.573816
1 0.357229 0.5897
1 0.389609 0.604837
0 0.453437 0.50985
0 0.458701 0.512428
0.0687266 0.487495 0.528634
0.331701 0.537835 0.539864
0.624765 0.56968 0.538582
0.853254 0.590936 0.528191
0.987289 0.597452 0.535698
1 0.613306 0.550469
1 0.646662 0.566583
0 0.571008 0.581933
0 0.58439 0.58999
0.143709 0.64686 0.605982
0.431189 0.722881 0.597848
0.664546 0.745205 0.597971
0.82591 0.759487 0.534661
0.992706 0.795041 0.539528
1 0.83064 0.590539
1 0.862837 0.64123
0 0.625818 0.633097
0 0.664988 0.652232
0.124422 0.775906 0.669429
0.468559 0.842252 0.644022
0.692348 0.862516 0.6439
0.830564 0.879866 0.593759
0.961822 0.881178 0.558953
1 0.923064 0.651682
1 0.943191 0.722454
0 0.661158 0.680278
0 0.746624 0.722835
0.0864881 0.874678 0.731365
0.529763 0.91017 0.715801
0.723125 0.928023 0.717327
0.852735 0.937652 0.692546
0.957671 0.935363 0.600946
1 0.938048 0.639185
1 0.961868 0.759609
0 0.709422 0.748394
0 0.834852 0.812345
0.218235 0.920424 0.801083
0.582986 0.943786 0.792752
0.755291 0.957763 0.794095
0.873518 0.965026 0.77969
0.956481 0.965469 0.731182
1 0.958984 0.664088
1 0.961852 0.737057
0 0.127275 0.304921
0 0.10428 0.265583
0.0249485 0.0314183 0.307759
0.127718 0.0325475 0.28893
0.264637 0.0345312 0.292149
0.420966 0.0269932 0.310933
0.564569 0.0272221 0.360403
0.705226 0.0187839 0.433783
0.813031 0.000106813 0.511467
0 0.172519 0.394888
0 0.160098 0.364523
0.0329747 0.113054 0.379522
0.179812 0.0919966 0.383246
0.34966 0.106401 0.375051
0.514031 0.119463 0.398505
0.663081 0.131167 0.465873
0.836057 0.0837568 0.566232
0.950362 0 0.673518
0 0.241001 0.483162
0 0.239048 0.480476
0.0475624 0.215854 0.514382
0.282078 0.188678 0.554376
0.477012 0.216815 0.504509
0.635325 0.234379 0.533806
0.821485 0.2121 0.630564
0.97995 0.141436 0.731151
1 0.149798 0.787808
0 0.348775 0.560891
0 0.349294 0.567315
0.0334783 0.358907 0.594568
0.293492 0.339864 0.74078
0.578012 0.36495 0.64683
0.738125 0.389395 0.64921
0.914244 0.385763 0.721553
1 0.366491 0.771664
1 0.382223 0.788769
0 0.502846 0.637171
0 0.508156 0.646036
0.0402686 0.529229 0.664973
0.297765 0.582818 0.719829
0.606195 0.597101 0.751339
0.771023 0.621561 0.698955
0.952117 0.596063 0.734234
1 0.582177 0.733166
1 0.605554 0.733379
0 0.615808 0.701762
0 0.626505 0.710262
0.0325475 0.660426 0.730632
0.281727 0.735012 0.75938
0.557382 0.775967 0.752377
0.800946 0.782788 0.737575
0.956847 0.784451 0.725567
1 0.800153 0.738125
1 0.836515 0.762387
0 0.653834 0.720531
0 0.674983 0.737789
0.00267033 0.738018 0.763958
0.226093 0.850217 0.783948
0.64361 0.881743 0.767071
0.827787 0.89926 0.777417
0.93991 0.905287 0.743481
0.999893 0.927825 0.779873
1 0.950896 0.828946
0 0.67422 0.739101
0 0.716594 0.771359
0 0.837781 0.832319
0.392279 0.920821 0.825055
0.701869 0.941817 0.829374
0.850538 0.953872 0.83299
0.938155 0.958099 0.806531
0.99704 0.961151 0.796445
1 0.978256 0.869566
0 0.709392 0.784482
0 0.792721 0.84445
0 0.919646 0.904479
0.520043 0.953414 0.88452
0.747005 0.970062 0.887343
0.880369 0.97937 0.889754
0.949294 0.982254 0.879301
0.993118 0.97998 0.833463
1 0.980224 0.860761
0 0.153521 0.371862
0 0.134188 0.338872
0.00292973 0.0530709 0.422614
0.141588 0.0332036 0.415015
0.286564 0.0368963 0.409308
0.435584 0.038529 0.425299
0.561929 0.0443732 0.45478
0.677546 0.0552377 0.498878
0.788403 0.0380255 0.560815
0 0.201343 0.455116
0 0.192065 0.437644
0.00656138 0.131151 0.50695
0.190646 0.104067 0.523781
0.376074 0.117601 0.507942
0.529686 0.134829 0.51989
0.656336 0.151431 0.558312
0.793149 0.13576 0.62652
0.934722 0.0428779 0.733318
0 0.269551 0.542916
0 0.267857 0.551034
0.014023 0.236866 0.631617
0.299306 0.184298 0.726558
0.515511 0.211627 0.670878
0.659144 0.240955 0.663005
0.790906 0.24802 0.704067
0.934005 0.212741 0.783215
0.999725 0.200183 0.848722
0 0.37525 0.63357
0 0.376928 0.639094
0.00106813 0.388449 0.693248
0.272038 0.352987 0.885313
0.602441 0.368154 0.81529
0.745861 0.404913 0.777768
0.862409 0.431144 0.793164
0.968414 0.437079 0.831525
1 0.419287 0.882124
0 0.535775 0.717311
0 0.536202 0.722576
0.0190127 0.56054 0.75169
0.158114 0.612467 0.888624
0.58436 0.612634 0.899825
0.769345 0.633692 0.826856
0.878202 0.651194 0.812802
0.985367 0.632868 0.84744
1 0.607584 0.881468
0 0.644221 0.775525
0 0.651514 0.783475
0.00932326 0.679545 0.804746
0.194537 0.757931 0.874022
0.493294 0.795544 0.923751
0.777279 0.79765 0.887892
0.904143 0.807507 0.844495
0.99823 0.791897 0.877791
1 0.799115 0.883696
0 0.677913 0.78587
0 0.68896 0.798016
0 0.727962 0.825864
0.0926528 0.827161 0.89102
0.406806 0.901152 0.91873
0.731243 0.917784 0.898711
0.921691 0.919539 0.884047
0.995422 0.923705 0.885542
1 0.940337 0.898299
0 0.683604 0.785016
0 0.713664 0.811749
0 0.78526 0.86772
0 0.912993 0.946593
0.543252 0.949599 0.919173
0.818509 0.963729 0.914122
0.937087 0.970794 0.918578
0.984176 0.97406 0.901503
0.999039 0.985245 0.933303
0 0.708217 0.809949
0 0.763684 0.861814
0 0.86392 0.933608
0.257786 0.95288 0.963195
0.671763 0.97406 0.948013
0.86862 0.986908 0.951125
0.945968 0.991775 0.952178
0.981765 0.992065 0.938552
0.997101 0.991608 0.938338
0 0.170932 0.414328
0 0.160372 0.39089
0.010956 0.0951095 0.463066
0.164309 0.023743 0.524071
0.317861 0.023209 0.518181
0.457053 0.047715 0.51696
0.575341 0.058793 0.540505
0.68191 0.0704051 0.573419
0.779858 0.0647746 0.623697
0 0.224399 0.496284
0 0.216037 0.494362
0 0.160342 0.591592
0.208881 0.106386 0.647166
0.405905 0.120287 0.624582
0.556176 0.141604 0.621881
0.676127 0.157839 0.652033
0.795438 0.149508 0.706035
0.913588 0.0917067 0.786755
0 0.287953 0.579004
0 0.287541 0.588052
0.000198367 0.257755 0.70071
0.315297 0.16202 0.879911
0.551476 0.191623 0.819028
0.698558 0.222797 0.796994
0.809049 0.25005 0.807294
0.920928 0.239429 0.854353
0.987579 0.248478 0.89485
0 0.39292 0.664942
0 0.394903 0.676631
0 0.410895 0.759869
0.258656 0.365011 0.974182
0.608484 0.374701 0.936217
0.763378 0.411917 0.898817
0.867903 0.447837 0.890608
0.94609 0.472313 0.895125
0.996002 0.473869 0.916213
0 0.543389 0.740627
0 0.548547 0.754192
0 0.581933 0.807568
0.00898756 0.629129 0.986816
0.56434 0.61857 0.989059
0.768872 0.641627 0.94229
0.877226 0.662013 0.912184
0.950698 0.671489 0.907485
0.999222 0.663111 0.928283
0 0.649195 0.79646
0 0.658274 0.809934
0 0.69514 0.849546
0.00672923 0.778881 0.961944
0.456168 0.798291 1
0.758175 0.80325 0.977859
0.902129 0.815625 0.935821
0.963882 0.83093 0.928161
0.999771 0.828428 0.952621
0 0.686381 0.810864
0 0.696315 0.822095
0 0.728176 0.852781
0.0140841 0.83035 0.94258
0.339559 0.910842 1
0.703151 0.925643 0.988403
0.907118 0.930465 0.967102
0.969024 0.935744 0.948425
0.999954 0.933165 0.965377
0 0.69456 0.813153
0 0.715236 0.833143
0 0.76524 0.880842
0 0.873579 0.967788
0.289693 0.949752 0.998444
0.670466 0.969406 0.986191
0.88513 0.980453 0.97351
0.975448 0.982086 0.968658
0.996246 0.986923 0.974151
0 0.717281 0.833646
0 0.75288 0.868009
0 0.818311 0.922606
0 0.930297 0.999985
0.453346 0.968093 0.997574
0.767758 0.986603 0.986145
0.932052 0.994614 0.983185
0.979553 0.996521 0.984604
0.992844 0.997436 0.980102
0 0.187121 0.443503
0 0.177722 0.434394
0.020737 0.0839094 0.563043
0.181186 0.0357214 0.614191
0.341924 0.0369268 0.606867
0.47892 0.0542153 0.605707
0.595041 0.0686198 0.624537
0.696193 0.0755779 0.654673
0.792752 0.0658885 0.700908
0 0.249577 0.539513
0 0.235233 0.530358
0 0.141619 0.700587
0.236927 0.0872969 0.77322
0.442298 0.105211 0.749615
0.595651 0.124971 0.744823
0.714321 0.139086 0.765408
0.817304 0.146151 0.79823
0.913115 0.115602 0.850828
0 0.313298 0.607416
0 0.31249 0.621912
0 0.278431 0.750912
0.324895 0.169635 0.950896
0.583368 0.170382 0.9355
0.735149 0.196719 0.917266
0.842954 0.226184 0.919127
0.927916 0.246983 0.932235
0.982086 0.269932 0.950149
0 0.40679 0.677058
0 0.416495 0.698589
0 0.431952 0.791913
0.24094 0.380774 0.999985
0.609842 0.384466 1
0.771298 0.416297 0.980575
0.874281 0.455619 0.966369
0.944244 0.479652 0.96112
0.988449 0.49398 0.96318
0 0.554467 0.754421
0 0.560678 0.771069
0 0.596231 0.832044
0.0161593 0.64126 1
0.553887 0.623011 1
0.762203 0.640253 1
0.880308 0.66273 0.981949
0.948928 0.676051 0.96817
0.988602 0.687083 0.968017
0 0.653666 0.803388
0 0.663478 0.81883
0 0.705028 0.866743
0 0.78645 0.989319
0.441169 0.797589 1
0.744091 0.802502 1
0.89868 0.816403 0.994751
0.959442 0.836103 0.979599
0.990219 0.852888 0.978347
0 0.684779 0.812222
0 0.696284 0.827497
0 0.738613 0.869841
0 0.844907 0.977356
0.303029 0.911009 1
0.695796 0.924269 1
0.896895 0.929824 0.999985
0.967498 0.938704 0.988144
0.98938 0.949477 0.986404
0 0.699153 0.822889
0 0.715358 0.839292
0 0.760311 0.882261
0 0.863874 0.97406
0.168444 0.951064 1
0.632914 0.970016 1
0.871748 0.981277 1
0.97171 0.983963 0.997909
0.989242 0.990127 0.990646
0 0.72253 0.845457
0 0.74757 0.86894
0 0.803662 0.919921
0 0.897765 0.99765
0.185931 0.964706 1
0.624048 0.98262 1
0.854032 0.995789 1
0.960235 0.999817 0.999924
0.99086 0.999512 0.99852
