LUT预设1/LUT全系打包/2024-VINTAGE系列lut/log灰片格式使用/light-lime亮橙.cube
TITLE "Generated by Resolve"
LUT_3D_SIZE 9
0.0157321 0 0
0.0259098 0 0
0.0697795 0 0
0.170794 0 0
0.310689 0.00329595 0
0.441917 0.00166323 0
0.458427 0.00170901 0
0.458412 0.00170901 0
0.458396 0.00169375 0
0.0150607 0.000854505 0
0.0196994 0.000335698 0
0.0747387 0.00141909 0
0.180056 0.00292973 0
0.317937 0.00444038 0
0.44625 0.00172427 0
0.458442 0.00172427 0
0.458442 0.00172427 0
0.458427 0.00170901 0
0.0154421 0.0348821 0
0.017792 0.040589 0
0.0486458 0.058793 0
0.287449 0.0907149 7.62951e-05
0.470848 0.0888838 0.00637827
0.576181 0.098085 0.0252995
0.562799 0.0760967 0.0175479
0.550561 0.0655985 0.0122377
0.549859 0.0650034 0.0119326
0.0395972 0.104677 0
0.0454108 0.116625 0
0.0644694 0.138582 0
0.164553 0.201434 0
0.593484 0.231907 0.0273594
0.737545 0.269703 0.0846265
0.743008 0.253773 0.0889143
0.73608 0.246983 0.0867933
0.73698 0.247868 0.0870527
0.0935225 0.224613 0.00134279
0.100893 0.244144 0.00627146
0.112261 0.269093 0.00927749
0.176486 0.335317 0.00540169
0.454902 0.391089 0.00450141
0.837308 0.426398 0.0896162
0.919692 0.430701 0.116899
0.920531 0.431601 0.117098
0.923674 0.434989 0.117144
0.158923 0.387686 0.0394141
0.170062 0.411368 0.0463417
0.182025 0.432609 0.052842
0.25684 0.50837 0.0636759
0.419379 0.577783 0.0501717
0.714733 0.585748 0.0700236
0.999146 0.583505 0.115312
1 0.600916 0.116457
1 0.615152 0.116518
0.25626 0.57641 0.103044
0.272282 0.605783 0.113802
0.284627 0.626886 0.122026
0.337362 0.678508 0.130983
0.46389 0.749538 0.114672
0.649516 0.792538 0.111925
0.911467 0.745815 0.109834
0.989975 0.759915 0.119554
0.982055 0.787121 0.122393
0.346593 0.727916 0.164904
0.346685 0.728038 0.164965
0.346639 0.727993 0.164935
0.367819 0.744335 0.166125
0.473014 0.805814 0.14641
0.624445 0.859144 0.130358
0.829236 0.851331 0.122744
0.97612 0.806256 0.124681
0.976135 0.806256 0.124681
0.346731 0.72813 0.165011
0.346731 0.72813 0.165011
0.346731 0.72813 0.165011
0.377386 0.751156 0.165393
0.485374 0.812024 0.144884
0.636912 0.860838 0.128649
0.825666 0.85214 0.122698
0.976135 0.806271 0.124681
0.976135 0.806256 0.124681
0.0155947 0 0
0.0210117 0 0
0.0669566 0 0
0.163378 0 0
0.304601 0.00288396 0
0.439612 0.00164797 0
0.458457 0.00172427 0
0.458442 0.00172427 0
0.458442 0.00172427 0
0.0148013 0.000335698 0
0.0187686 0.000274662 0
0.0690623 0.000549325 0
0.166705 0.00115969 0
0.307073 0.00328069 0
0.442405 0.00169375 0
0.458381 0.00170901 0
0.458457 0.00172427 0
0.458442 0.00172427 0
0.014023 0.0320439 0
0.0181125 0.0387579 0
0.0476539 0.0569009 0
0.272587 0.0836652 4.57771e-05
0.455848 0.0842451 0.00569161
0.570459 0.0936599 0.0230564
0.556527 0.0704967 0.0148013
0.543221 0.0592813 0.00903334
0.541985 0.0581979 0.00849927
0.0312963 0.0971847 0
0.0420081 0.110414 0
0.0644236 0.137926 0
0.160113 0.196872 0
0.588144 0.228153 0.026215
0.738781 0.270588 0.084947
0.742351 0.253147 0.0886854
0.733913 0.244862 0.0861372
0.733471 0.244434 0.0860151
0.0894484 0.213306 0.000335698
0.096849 0.233341 0.0043183
0.114061 0.268956 0.00717174
0.177203 0.335027 0.005066
0.452262 0.389746 0.00440986
0.845457 0.434134 0.0915541
0.923903 0.43508 0.117205
0.922194 0.433402 0.117052
0.923995 0.43534 0.117082
0.153521 0.37586 0.0361639
0.164401 0.399191 0.0429389
0.181918 0.429175 0.0514992
0.260838 0.508568 0.0621805
0.418769 0.575662 0.0493172
0.71545 0.586648 0.0702525
0.999878 0.590814 0.115526
1 0.608164 0.116503
1 0.619287 0.116442
0.248829 0.562737 0.0980392
0.264424 0.59144 0.108522
0.278187 0.615534 0.117647
0.344671 0.680873 0.127932
0.468193 0.750149 0.114061
0.648295 0.790677 0.111589
0.912032 0.746715 0.109957
0.987854 0.768017 0.120211
0.980194 0.79321 0.12311
0.346166 0.727245 0.164599
0.346548 0.72784 0.164874
0.346487 0.727764 0.164843
0.378073 0.751476 0.165011
0.479988 0.809445 0.145251
0.628641 0.859876 0.129702
0.82858 0.851484 0.122728
0.976135 0.806256 0.124681
0.97612 0.806256 0.124681
0.346731 0.72813 0.165011
0.346731 0.72813 0.165011
0.346731 0.72813 0.165011
0.392218 0.760601 0.162478
0.495613 0.81706 0.143893
0.645136 0.861326 0.127642
0.828244 0.851637 0.122744
0.976135 0.806271 0.124681
0.97612 0.806256 0.124681
0.0119478 0 0
0.0165866 0 0.000640879
0.0574807 0 0.0140841
0.142687 0 0.0154421
0.268498 0 0.00952163
0.406943 0 0.00479133
0.428458 0 0.000793469
0.428977 0 0.000366217
0.429328 0 0.000259403
0.012314 3.0518e-05 0.000228885
0.0165255 0.000793469 0.00364691
0.0591287 0.000167849 0.0162051
0.142092 1.5259e-05 0.0132753
0.26775 0 0.00747692
0.406653 0 0.00364691
0.428107 0 0.000747692
0.428992 0 0.000289921
0.429068 0 0.000274662
0.0116274 0.034699 0.0238499
0.0185245 0.0435645 0.0365606
0.0631266 0.0608225 0.0523232
0.232654 0.0803998 0.0537423
0.403998 0.0889448 0.0583658
0.523491 0.0710155 0.0426184
0.518532 0.0479591 0.0226444
0.506523 0.0382849 0.0146334
0.506386 0.0381933 0.0146029
0.0154116 0.0991836 0.041825
0.0203403 0.113237 0.0480812
0.0789197 0.154131 0.0530861
0.198611 0.208728 0.0128786
0.570626 0.233539 0.057557
0.737682 0.273732 0.101396
0.743633 0.254688 0.0988632
0.729717 0.241291 0.0929732
0.727901 0.23946 0.0921187
0.0345769 0.187198 0.0429084
0.0438087 0.20145 0.0421759
0.135988 0.267826 0.0511025
0.194049 0.341802 0.0196994
0.436622 0.379858 0.00347906
0.839582 0.429328 0.0916152
0.924025 0.43534 0.118227
0.919661 0.430747 0.11783
0.919524 0.43061 0.117815
0.116457 0.307729 0.0453651
0.134691 0.329381 0.048127
0.189242 0.407584 0.0665751
0.268513 0.50605 0.0653849
0.416419 0.570092 0.0475471
0.710353 0.58233 0.0687114
0.999771 0.597818 0.11545
1 0.6121 0.116487
1 0.618723 0.116426
0.22211 0.489448 0.0922408
0.2392 0.528466 0.103136
0.269642 0.587991 0.118761
0.353399 0.677791 0.121859
0.471046 0.746273 0.111437
0.64477 0.78555 0.110582
0.910796 0.745525 0.109667
0.986084 0.774105 0.120912
0.979004 0.797131 0.123552
0.333242 0.699702 0.170809
0.337819 0.71014 0.168978
0.345052 0.723415 0.167056
0.394186 0.761715 0.16257
0.489723 0.814145 0.144427
0.632624 0.860624 0.129137
0.82562 0.852125 0.122698
0.97612 0.806256 0.124681
0.97612 0.806256 0.124681
0.334615 0.701808 0.172549
0.337041 0.707637 0.171176
0.346212 0.722301 0.170657
0.410651 0.77174 0.160754
0.508766 0.82324 0.142855
0.653925 0.862043 0.126497
0.830243 0.851331 0.122789
0.976135 0.806271 0.124681
0.97612 0.806256 0.124681
0.0155184 0 0.0119936
0.0170138 0 0.0290684
0.043183 0 0.0539559
0.122286 0 0.0730907
0.24567 0 0.065156
0.386587 0 0.0606546
0.42269 0 0.0495766
0.423362 0 0.0444495
0.423621 0 0.0425879
0.0131991 1.5259e-05 0.0196994
0.0162356 0.00106813 0.0381781
0.0449683 0.000549325 0.061799
0.124361 3.0518e-05 0.0757
0.248371 0 0.0654612
0.389349 0 0.0603342
0.422751 0 0.0498054
0.423255 0 0.045594
0.423331 0 0.0449836
0.0123293 0.0339666 0.0735027
0.0189059 0.044892 0.0917983
0.0451972 0.0644388 0.124559
0.172808 0.0619669 0.146838
0.33228 0.0543069 0.117891
0.461357 0.0478676 0.0976425
0.474113 0.0241398 0.0635691
0.462043 0.0162661 0.053193
0.462776 0.0167849 0.0538796
0.0163577 0.107744 0.129809
0.0239872 0.125948 0.150103
0.0567788 0.167132 0.188205
0.173053 0.220691 0.230182
0.494301 0.271962 0.242634
0.675868 0.292241 0.253407
0.70811 0.245899 0.205432
0.699168 0.234363 0.194461
0.699962 0.235309 0.195407
0.0230716 0.198962 0.17258
0.0281071 0.21886 0.190478
0.0662699 0.272541 0.218158
0.234684 0.361318 0.236027
0.506523 0.425467 0.157427
0.860258 0.497856 0.257755
0.965011 0.516686 0.293523
0.966873 0.519234 0.295491
0.963989 0.514305 0.29041
0.0393225 0.303166 0.186435
0.0458991 0.319448 0.191989
0.116625 0.374914 0.196445
0.311559 0.49485 0.226505
0.469215 0.600519 0.16556
0.723949 0.607004 0.112047
0.999939 0.651118 0.20235
1 0.681086 0.226398
1 0.683986 0.229007
0.106661 0.422644 0.17203
0.123079 0.438087 0.172534
0.208286 0.485328 0.175051
0.373739 0.636469 0.249744
0.502022 0.755306 0.217075
0.652201 0.792508 0.130205
0.90721 0.744518 0.111818
0.985733 0.791318 0.13077
0.983474 0.81883 0.145022
0.259907 0.56202 0.177111
0.264973 0.568353 0.177951
0.299626 0.597879 0.187503
0.417853 0.739422 0.275441
0.523049 0.829831 0.23473
0.644205 0.867262 0.143008
0.820844 0.853452 0.122866
0.97612 0.806256 0.124681
0.976699 0.810575 0.128191
0.259205 0.566629 0.182849
0.257511 0.566659 0.1841
0.297902 0.595728 0.197696
0.439994 0.751446 0.304189
0.554955 0.844465 0.276036
0.68101 0.88127 0.16875
0.832959 0.853056 0.124788
0.976135 0.806271 0.124681
0.97612 0.806256 0.124681
0.0115816 0 0.0510567
0.0118715 0 0.0737774
0.0294347 0 0.0982376
0.0990616 0 0.139132
0.205631 0 0.157443
0.367941 0 0.140032
0.425788 0 0.124453
0.425361 0 0.119692
0.425132 0 0.117601
0.00965896 1.5259e-05 0.0630961
0.0133364 0.00311284 0.0929427
0.0320439 0.00274662 0.116457
0.10219 0.000427253 0.145052
0.208408 0 0.160357
0.374075 0 0.142397
0.426261 0 0.127428
0.425559 0 0.122576
0.425406 0 0.121462
0.0124208 0.0399023 0.126406
0.0188602 0.0533913 0.149645
0.0368505 0.076585 0.198688
0.107881 0.085069 0.237217
0.285954 0.0589303 0.238422
0.441581 0.0308232 0.18323
0.460014 0.0112306 0.134661
0.442267 0.00468452 0.119219
0.440848 0.00474556 0.118227
0.0170138 0.111147 0.199451
0.0257572 0.134112 0.226459
0.049958 0.176745 0.263203
0.118883 0.231266 0.328222
0.341176 0.245518 0.369558
0.593973 0.23946 0.323064
0.657465 0.210727 0.279591
0.647669 0.197879 0.266346
0.650721 0.201434 0.270451
0.0243687 0.209079 0.271534
0.0327916 0.235462 0.297612
0.0646067 0.292775 0.341756
0.176242 0.373251 0.406714
0.374151 0.449439 0.464347
0.742412 0.512932 0.478813
0.858518 0.483375 0.448524
0.862104 0.488594 0.454704
0.865888 0.494636 0.460334
0.0331731 0.316854 0.329397
0.0390326 0.341451 0.350271
0.0789807 0.401511 0.383291
0.211383 0.492454 0.428855
0.477089 0.609247 0.458549
0.767376 0.661936 0.400092
1 0.758083 0.534295
1 0.792386 0.566354
1 0.807126 0.57969
0.0462348 0.426017 0.357412
0.0521401 0.441672 0.365087
0.107012 0.499275 0.381216
0.279332 0.594369 0.397635
0.537652 0.738613 0.454414
0.707225 0.824506 0.391867
0.951827 0.832059 0.331258
1 0.900542 0.413855
1 0.929946 0.453117
0.102983 0.539696 0.336858
0.104494 0.543801 0.341527
0.159487 0.579217 0.344823
0.376974 0.669535 0.363409
0.570382 0.824384 0.461585
0.699641 0.905592 0.418128
0.869505 0.924224 0.300008
1 0.882292 0.256703
1 0.923552 0.403922
0.102098 0.550164 0.353201
0.0959182 0.550423 0.366918
0.153933 0.588724 0.375204
0.387732 0.685908 0.395102
0.600763 0.841367 0.49633
0.736889 0.921386 0.463676
0.901961 0.936858 0.361822
0.999252 0.879896 0.250004
1 0.88809 0.276967
0.00695811 0 0.107454
0.0080415 0 0.137057
0.022385 0 0.155734
0.0747082 3.0518e-05 0.201175
0.179019 0.000839246 0.25507
0.302449 0 0.257008
0.413138 0 0.241779
0.411749 0 0.243183
0.41059 0 0.244572
0.00831617 0.00164797 0.125154
0.0120546 0.00823987 0.159396
0.0271763 0.00613413 0.179583
0.0788434 0.00285344 0.209216
0.179675 0.00151064 0.255802
0.306294 0 0.261692
0.407843 0 0.249073
0.406989 0 0.251057
0.406027 0 0.253178
0.0126345 0.0513161 0.190463
0.0188754 0.0665751 0.225544
0.0349126 0.0923629 0.279286
0.0777142 0.102632 0.317327
0.208606 0.101961 0.348989
0.379095 0.0460975 0.328359
0.457099 0.00590524 0.260334
0.428061 0.000503548 0.240467
0.422827 0 0.238743
0.0179446 0.125093 0.269749
0.0267796 0.149035 0.298161
0.0472877 0.189899 0.343587
0.0987716 0.246448 0.407187
0.223713 0.274372 0.467292
0.4907 0.248615 0.473976
0.66334 0.196185 0.399313
0.645716 0.170382 0.376028
0.643565 0.167529 0.374945
0.0253605 0.217426 0.350881
0.0350042 0.247303 0.375677
0.0619211 0.30103 0.412604
0.154788 0.381735 0.477653
0.303166 0.460136 0.56376
0.562234 0.471687 0.598932
0.801328 0.435615 0.527825
0.799268 0.414313 0.506889
0.804837 0.423804 0.51725
0.0339818 0.323415 0.412497
0.0434577 0.354559 0.436881
0.0903944 0.420432 0.483009
0.202182 0.514305 0.550774
0.409186 0.615 0.627665
0.657588 0.688273 0.66865
0.960342 0.731411 0.696681
0.984436 0.738521 0.703655
0.995483 0.768383 0.736584
0.0466316 0.433097 0.465751
0.0571908 0.457603 0.485283
0.107851 0.525963 0.524681
0.217273 0.623652 0.579431
0.444556 0.727901 0.625345
0.714488 0.836866 0.661952
0.976654 0.887938 0.624781
1 0.957244 0.704814
1 0.992508 0.73962
0.0681315 0.538949 0.486885
0.0725719 0.548486 0.497475
0.119448 0.605127 0.525124
0.248203 0.696925 0.556405
0.500969 0.793851 0.582895
0.736309 0.917861 0.654047
0.918044 0.985489 0.601404
1 0.965957 0.557229
1 0.997086 0.709621
0.071458 0.555016 0.505669
0.0733349 0.559228 0.521401
0.124743 0.620462 0.557961
0.253849 0.717388 0.601877
0.512718 0.814862 0.633219
0.771069 0.937743 0.697673
0.957397 0.997208 0.65861
1 0.969635 0.571283
1 0.974502 0.589853
0.00576791 0.000289921 0.180423
0.00726329 0.00128176 0.211887
0.0199741 0.000183108 0.22443
0.0556191 0.00408942 0.266438
0.141955 0.011017 0.319234
0.265736 0.0059205 0.348241
0.361242 0 0.306996
0.362737 0 0.305989
0.362737 0 0.305989
0.0077821 0.00914015 0.195651
0.0113069 0.0166171 0.233341
0.0250706 0.012192 0.25008
0.0605325 0.0108034 0.27602
0.144823 0.0118257 0.320165
0.268513 0.00561532 0.348989
0.362524 0 0.306157
0.362753 0 0.306004
0.362753 0 0.306004
0.0130465 0.0665599 0.26717
0.0191348 0.084123 0.303441
0.0348363 0.110674 0.359106
0.0635538 0.118364 0.392828
0.145083 0.122408 0.427665
0.29369 0.0957198 0.432502
0.413581 0.0125429 0.349126
0.378882 0.00112917 0.318502
0.370626 0.000350958 0.312016
0.0190585 0.143664 0.343633
0.0274662 0.166415 0.378302
0.0463569 0.207736 0.421225
0.0906539 0.263279 0.482628
0.171496 0.288838 0.538689
0.322393 0.281895 0.576822
0.580056 0.211826 0.534279
0.565957 0.16199 0.493874
0.555032 0.149554 0.484794
0.0264744 0.233204 0.41883
0.036286 0.26302 0.443976
0.063035 0.313619 0.481865
0.13994 0.389151 0.544839
0.266423 0.468482 0.635462
0.406332 0.490394 0.709239
0.671992 0.44918 0.700923
0.712413 0.406119 0.66891
0.707851 0.399313 0.66569
0.0349737 0.330632 0.482109
0.0481575 0.365148 0.50779
0.0911727 0.425818 0.550698
0.18909 0.51603 0.620249
0.359213 0.614832 0.70602
0.536568 0.688365 0.792126
0.775357 0.687495 0.826017
0.884306 0.661784 0.797543
0.884474 0.667597 0.804303
0.0486 0.434974 0.538613
0.0648661 0.468101 0.565011
0.120928 0.543023 0.617121
0.227344 0.643687 0.688426
0.420493 0.746197 0.772961
0.677638 0.83975 0.843076
0.928328 0.912169 0.8981
1 0.937362 0.924315
1 0.969894 0.961715
0.0691386 0.54583 0.590234
0.0800183 0.565957 0.609155
0.134417 0.637949 0.654734
0.23328 0.732113 0.718578
0.399344 0.827558 0.787732
0.669444 0.920211 0.849928
0.919554 0.9935 0.881865
1 1 0.856306
1 1 0.973434
0.0738384 0.568399 0.619287
0.0830091 0.582055 0.639719
0.143191 0.65771 0.693355
0.253132 0.755627 0.766583
0.438056 0.8533 0.849577
0.719066 0.947829 0.912963
0.963348 1 0.940963
1 1 0.91107
1 1 0.898344
0.00601205 0.00868238 0.258579
0.00714122 0.0123598 0.29308
0.0194095 0.00672923 0.299825
0.0447395 0.0108034 0.312383
0.120775 0.0139315 0.333852
0.23859 0.00956741 0.351827
0.353887 0 0.311971
0.362737 0 0.305989
0.362737 0 0.305989
0.00759899 0.0208743 0.274784
0.0109102 0.0289464 0.312963
0.0239261 0.0204623 0.320134
0.0499733 0.0183261 0.324315
0.125933 0.0175631 0.339117
0.242252 0.0093843 0.352102
0.357076 0 0.309804
0.362753 0 0.306004
0.362753 0 0.305989
0.0137484 0.0851148 0.344198
0.01944 0.102434 0.381598
0.0349279 0.127443 0.434287
0.0563668 0.127703 0.449897
0.118883 0.128496 0.458503
0.261265 0.108644 0.443168
0.424582 0.0292973 0.377279
0.390265 0.0021973 0.327459
0.375921 0.000946059 0.316106
0.0201267 0.16228 0.416602
0.0281376 0.185397 0.446799
0.0465095 0.225193 0.495659
0.0832837 0.27332 0.559777
0.142687 0.290333 0.58265
0.278859 0.290791 0.596323
0.54493 0.245655 0.567849
0.574548 0.177935 0.508476
0.55761 0.154482 0.489204
0.0276188 0.249485 0.486213
0.0378882 0.27689 0.518654
0.0655222 0.327153 0.555993
0.126909 0.394354 0.612207
0.229221 0.467933 0.693919
0.367697 0.496193 0.740047
0.584817 0.474281 0.738491
0.704082 0.418784 0.687007
0.696895 0.399374 0.673854
0.0376135 0.341238 0.551751
0.0514839 0.374441 0.572885
0.0906996 0.431983 0.614633
0.173922 0.514488 0.682002
0.318273 0.613245 0.766506
0.514046 0.69427 0.865309
0.656138 0.707607 0.88069
0.839536 0.661234 0.835248
0.826185 0.645182 0.82652
0.0502785 0.437537 0.600366
0.0690623 0.473777 0.628412
0.12076 0.54403 0.679316
0.221195 0.641535 0.750607
0.394217 0.745602 0.835538
0.639673 0.843656 0.926589
0.90396 0.920409 0.985992
1 0.919646 0.979599
1 0.910842 0.975357
0.0704051 0.5467 0.658915
0.0886702 0.577615 0.679591
0.151507 0.658351 0.733837
0.261189 0.756405 0.803372
0.44976 0.856748 0.890852
0.71603 0.952117 0.967773
0.965743 1 1
1 1 1
1 1 1
0.0748913 0.570932 0.677867
0.0953689 0.599985 0.698283
0.171603 0.687984 0.755901
0.30071 0.78912 0.831159
0.527916 0.888991 0.921386
0.807202 0.979461 0.98793
0.998199 1 1
1 1 1
1 1 1
0.00627146 0.0215152 0.334539
0.0071107 0.0208896 0.342336
0.0186618 0.00929274 0.31696
0.0419928 0.0109255 0.31487
0.111437 0.0139925 0.332174
0.2206 0.0110781 0.350698
0.340993 0 0.321019
0.362753 0 0.305989
0.362737 0 0.305989
0.00770581 0.0334936 0.347921
0.0106355 0.0375677 0.362249
0.0231785 0.0224765 0.336812
0.0479133 0.0192874 0.327749
0.118883 0.0185397 0.339025
0.226398 0.0111543 0.351675
0.344945 0 0.318471
0.362753 0 0.306004
0.362753 0 0.305989
0.014374 0.101488 0.41239
0.01944 0.114946 0.436027
0.0347295 0.133349 0.461875
0.0552987 0.12781 0.453941
0.115007 0.130312 0.459342
0.245991 0.117815 0.450187
0.421622 0.0581826 0.407706
0.407355 0.00535592 0.34107
0.384985 0.00180056 0.323095
0.0212558 0.178958 0.474907
0.0283513 0.19826 0.501396
0.0468452 0.231724 0.543359
0.0809796 0.272389 0.574197
0.141421 0.291081 0.584161
0.270848 0.297719 0.600595
0.511345 0.269871 0.587396
0.592081 0.203677 0.528923
0.571435 0.173587 0.504829
0.028397 0.258518 0.542489
0.0392157 0.284398 0.568139
0.0657206 0.332525 0.594705
0.120897 0.395361 0.639231
0.224948 0.468162 0.702556
0.367437 0.499916 0.742138
0.554696 0.489891 0.750225
0.713344 0.443671 0.703929
0.703578 0.417639 0.686381
0.038819 0.346242 0.588067
0.0528572 0.378988 0.605463
0.0917678 0.436194 0.643107
0.171405 0.517128 0.704021
0.31046 0.614328 0.78201
0.519326 0.698116 0.871458
0.651194 0.715938 0.886549
0.86041 0.687297 0.849714
0.84062 0.662577 0.835966
0.0516518 0.439765 0.625147
0.0710155 0.477134 0.648417
0.121843 0.547066 0.694331
0.223972 0.646113 0.763851
0.397833 0.750469 0.848936
0.639704 0.847822 0.938155
0.910307 0.924498 0.989731
1 0.938506 0.988373
1 0.922911 0.980743
0.0704814 0.546487 0.671397
0.0933547 0.58381 0.694133
0.161959 0.669413 0.747646
0.27837 0.768338 0.817746
0.477256 0.86743 0.903731
0.742519 0.961044 0.976486
0.976516 1 1
1 1 1
1 1 1
0.0762341 0.572763 0.682994
0.10956 0.618463 0.711254
0.198413 0.713146 0.773922
0.345693 0.814939 0.852949
0.601083 0.915892 0.943358
0.885695 0.993576 0.996612
1 1 1
1 1 1
1 1 1
