LUT预设1/LUT全系打包/2024-VINTAGE系列lut/log灰片格式使用/light-lime亮橙.cube
TITLE "Generated by Resolve"
LUT_3D_SIZE 33
0.0157321 0 0
0.0157626 0 0
0.0161746 0 0
0.019791 0 0
0.0259098 0 0
0.034165 0 0
0.0433204 0 0
0.0548257 0 0
0.0697795 0 0
0.0875105 0 0
0.111299 0 0
0.140322 0 0
0.170794 0 0
0.20267 0 0
0.237064 0.000595102 0
0.273426 0.00204471 0
0.310689 0.00329595 0
0.34844 0.00404364 0
0.384817 0.00389105 0
0.417517 0.00262455 0
0.441917 0.00166323 0
0.454292 0.00157168 0
0.458015 0.00170901 0
0.458442 0.00172427 0
0.458427 0.00170901 0
0.458427 0.00170901 0
0.458427 0.00170901 0
0.458427 0.00170901 0
0.458412 0.00170901 0
0.458412 0.00170901 0
0.458396 0.00169375 0
0.458396 0.00169375 0
0.458396 0.00169375 0
0.0157321 0 0
0.0157473 0 0
0.0160678 0 0
0.0195926 0 0
0.025864 0 0
0.0344396 0 0
0.0438849 0 0
0.0558175 0 0
0.0712902 0 0
0.0899214 0 0
0.11458 0 0
0.14406 0 0
0.175036 0 0
0.207492 0 0
0.242603 0.000808728 0
0.279271 0.00227359 0
0.316976 0.00347906 0
0.354894 0.00415045 0
0.390677 0.0037232 0
0.422141 0.00242618 0
0.44477 0.00161746 0
0.455451 0.00161746 0
0.458274 0.00170901 0
0.458442 0.00172427 0
0.458427 0.00170901 0
0.458427 0.00170901 0
0.458427 0.00170901 0
0.458427 0.00170901 0
0.458412 0.00170901 0
0.458412 0.00170901 0
0.458396 0.00169375 0
0.458396 0.00169375 0
0.458396 0.00169375 0
0.0157321 0 0
0.0157321 0 0
0.0158694 0 0
0.018555 0 0
0.0242313 0 0
0.03299 0 0
0.042771 0 0
0.0543832 0 0
0.0700999 0 0
0.0888075 0 0
0.113451 0 0
0.143252 0 0
0.17464 0 0
0.207523 0 0
0.243168 0.000885023 0
0.280278 0.00234989 0
0.318364 0.00350958 0
0.356344 0.00407416 0
0.392172 0.00361639 0
0.42359 0.00238041 0
0.445624 0.00161746 0
0.455985 0.00163272 0
0.458442 0.00172427 0
0.458442 0.00172427 0
0.458442 0.00172427 0
0.458442 0.00172427 0
0.458442 0.00172427 0
0.458427 0.00170901 0
0.458427 0.00170901 0
0.458412 0.00170901 0
0.458412 0.00169375 0
0.458412 0.00169375 0
0.458412 0.00169375 0
0.0154879 0 0
0.0154574 0 0
0.0156252 0 0
0.0171511 1.5259e-05 0
0.0223697 1.5259e-05 0
0.0314794 1.5259e-05 0
0.0418097 1.5259e-05 0
0.0534371 3.0518e-05 0
0.0691844 3.0518e-05 0
0.0881208 4.57771e-05 0
0.112749 7.62951e-05 0
0.142077 9.15541e-05 0
0.173388 0.000106813 0
0.206195 0.000122072 0
0.2421 0.000946059 0
0.279576 0.00238041 0
0.31812 0.00350958 0
0.356146 0.0040589 0
0.392386 0.00360113 0
0.42388 0.00238041 0
0.446097 0.0016022 0
0.456489 0.00161746 0
0.458442 0.00172427 0
0.458442 0.00172427 0
0.458442 0.00172427 0
0.458442 0.00172427 0
0.458442 0.00172427 0
0.458442 0.00172427 0
0.458442 0.00172427 0
0.458427 0.00170901 0
0.458412 0.00170901 0
0.458412 0.00170901 0
0.458412 0.00170901 0
0.0150607 0.000854505 0
0.0149844 0.000900282 0
0.0150912 0.000854505 0
0.0156863 0.000686656 0
0.0196994 0.000335698 0
0.0276799 0.000579843 0
0.0420081 0.00108339 0
0.0572518 0.00120546 0
0.0747387 0.00141909 0
0.0959029 0.00199893 0
0.120653 0.00248722 0
0.149035 0.00268559 0
0.180056 0.00292973 0
0.21265 0.00340276 0
0.247028 0.00410468 0
0.281575 0.00437934 0
0.317937 0.00444038 0
0.355413 0.00462348 0
0.391577 0.0040589 0
0.423423 0.00270085 0
0.44625 0.00172427 0
0.456382 0.00167849 0
0.458473 0.00173953 0
0.458442 0.00172427 0
0.458442 0.00172427 0
0.458457 0.00172427 0
0.458457 0.00172427 0
0.458442 0.00172427 0
0.458442 0.00172427 0
0.458427 0.00170901 0
0.458427 0.00170901 0
0.458427 0.00170901 0
0.458427 0.00170901 0
0.0147555 0.00517281 0
0.014725 0.00604257 0
0.0147402 0.00672923 0
0.0151827 0.0071107 0
0.0179141 0.0074464 0
0.0239567 0.00852979 0
0.0366369 0.0108492 0
0.0597086 0.0104067 0
0.0838941 0.0104829 0
0.111498 0.0121462 0
0.142168 0.0137636 0
0.174731 0.0149844 0
0.208927 0.0167697 0
0.243229 0.0187991 0
0.275792 0.0190738 0
0.307271 0.0176699 0
0.34049 0.0155642 0
0.373739 0.0131838 0
0.40502 0.0102693 0
0.432395 0.007187 0
0.451194 0.00491341 0
0.459602 0.00350958 0
0.46041 0.00274662 0
0.459846 0.00244144 0
0.459617 0.00231937 0
0.459434 0.00222782 0
0.459251 0.00213626 0
0.459052 0.00204471 0
0.4589 0.00195315 0
0.458869 0.0019379 0
0.458854 0.0019379 0
0.458854 0.0019379 0
0.458854 0.00192264 0
0.0145571 0.0132448 0
0.0145266 0.0145724 0
0.0144961 0.0157015 0
0.0149996 0.0165866 0
0.0168307 0.0171511 0
0.0229801 0.0182498 0
0.0294041 0.0217899 0
0.0479133 0.0253452 0
0.0815595 0.0260777 0
0.120104 0.027863 0
0.160861 0.03122 0
0.201755 0.0357519 0
0.242481 0.0405127 0
0.280568 0.0431678 0
0.315801 0.0431373 6.10361e-05
0.349966 0.0411383 0.000137331
0.3841 0.0374304 7.62951e-05
0.415595 0.0326848 1.5259e-05
0.443442 0.0282139 0
0.465888 0.0249027 0.000167849
0.480705 0.0217594 0.000335698
0.484901 0.0178988 0.000244144
0.48072 0.0139773 3.0518e-05
0.475975 0.0111849 0
0.473182 0.00961318 0
0.471275 0.00860609 0
0.469291 0.00758373 0
0.467277 0.00650034 0
0.465934 0.00578317 0
0.465843 0.00572213 0
0.465766 0.00569161 0
0.465736 0.00567636 0
0.465675 0.00563058 0
0.0144961 0.023331 0
0.0145113 0.0248569 0
0.0144961 0.0262303 0
0.0147097 0.0272526 0
0.0161288 0.0280308 0
0.0213779 0.0292821 0
0.030045 0.0324712 0
0.037583 0.038468 0
0.0644083 0.0438392 0
0.113176 0.0467384 0
0.167498 0.0506905 0
0.220005 0.0580301 0
0.26978 0.065568 0
0.313191 0.0690013 0.000244144
0.352956 0.0692302 0.00137331
0.39237 0.0672313 0.0021973
0.430762 0.0633402 0.00132753
0.464408 0.0597086 0.000564584
0.492546 0.05832 0.00125124
0.514565 0.0579232 0.00373846
0.528679 0.0560464 0.00569161
0.531228 0.0508736 0.00450141
0.524742 0.044007 0.00259403
0.516854 0.0378729 0.00201419
0.511757 0.034165 0.00166323
0.508156 0.0316777 0.00143435
0.504387 0.029099 0.0011902
0.500816 0.0267033 0.000976577
0.498604 0.0252232 0.000839246
0.49839 0.0250858 0.000839246
0.498268 0.0250095 0.000823987
0.498146 0.0249485 0.000823987
0.497902 0.0247959 0.000823987
0.0154421 0.0348821 0
0.0157931 0.0367132 0
0.0160983 0.0383917 0
0.0163272 0.0395666 0
0.017792 0.040589 0
0.0216678 0.0417945 0
0.0296788 0.044358 0
0.0373693 0.0505684 0
0.0486458 0.058793 0
0.0881056 0.0666056 0
0.15346 0.0724804 0
0.223392 0.0812238 0
0.287449 0.0907149 7.62951e-05
0.339986 0.0953994 0.00192264
0.385122 0.0957504 0.0059205
0.42916 0.0931563 0.00738537
0.470848 0.0888838 0.00637827
0.507134 0.0881971 0.00738537
0.537148 0.0927443 0.0132296
0.560571 0.097261 0.0204318
0.576181 0.098085 0.0252995
0.580621 0.0940871 0.025803
0.575021 0.0870375 0.0229343
0.567483 0.0802625 0.0196231
0.562799 0.0760967 0.0175479
0.559274 0.0730297 0.0159915
0.555535 0.06981 0.014374
0.552209 0.0669871 0.0129549
0.550561 0.0655985 0.0122377
0.550362 0.0654307 0.0121462
0.550195 0.0652934 0.0120699
0.550027 0.0651408 0.0120089
0.549859 0.0650034 0.0119326
0.0184939 0.0484932 0
0.0191501 0.0507668 0
0.0197299 0.052781 0
0.0201419 0.0542611 0
0.0210574 0.0554971 0
0.0241245 0.0569924 0
0.0315099 0.0597696 0
0.0399023 0.0650797 0
0.0464332 0.0742809 0
0.0658579 0.0853437 0
0.119814 0.0963302 0
0.202914 0.106905 0
0.29102 0.116686 7.62951e-05
0.360204 0.122637 0.00256352
0.414359 0.123476 0.00816358
0.46363 0.120439 0.0107881
0.50811 0.117433 0.0117342
0.545571 0.121126 0.0168612
0.576867 0.130266 0.0265507
0.601389 0.138003 0.0364996
0.617945 0.140017 0.0430304
0.624552 0.136889 0.0449226
0.620432 0.130541 0.042771
0.614282 0.124453 0.0401007
0.610269 0.120516 0.0383764
0.607294 0.117617 0.0370794
0.604334 0.114717 0.0357824
0.601755 0.112215 0.0346532
0.600717 0.111223 0.0342107
0.600702 0.111208 0.0341955
0.600565 0.11107 0.0341344
0.600565 0.11107 0.0341344
0.600427 0.110933 0.0340734
0.0234226 0.0645762 0
0.0244144 0.0673686 0
0.0252232 0.0697032 0
0.0258793 0.0715801 0
0.0264744 0.0731212 0
0.0297856 0.0750896 0
0.0360418 0.078172 0
0.0439612 0.08336 0
0.0503243 0.0922103 0
0.060029 0.104341 0
0.0897078 0.118486 0
0.158221 0.133318 0
0.264042 0.144396 0
0.363973 0.151202 0.00148013
0.436316 0.153933 0.00798047
0.494224 0.152087 0.013489
0.542596 0.15201 0.0187228
0.582193 0.159808 0.0281987
0.614893 0.171954 0.0407416
0.640391 0.180957 0.0522011
0.658183 0.183383 0.0597696
0.665354 0.179583 0.0620584
0.662669 0.173373 0.0606088
0.657115 0.167498 0.05832
0.653407 0.163714 0.0568093
0.650599 0.160861 0.0556649
0.647913 0.158114 0.054551
0.645685 0.155856 0.0536202
0.645029 0.1552 0.0533303
0.645014 0.1552 0.0533303
0.645014 0.1552 0.0533303
0.645014 0.1552 0.0533303
0.645029 0.1552 0.0533303
0.0303044 0.0833295 0
0.0316625 0.0864576 0
0.0327916 0.089128 0
0.0337682 0.0914168 0
0.0345464 0.0932937 0
0.0374609 0.0955978 0
0.0428016 0.0989395 0
0.0501106 0.104601 0
0.0565194 0.113542 0
0.0632944 0.124971 0
0.0797131 0.139467 0
0.121401 0.157427 0
0.206836 0.1729 0
0.333944 0.181247 0.00047303
0.439048 0.186679 0.00552377
0.516075 0.188602 0.0145876
0.572992 0.191592 0.0250095
0.616602 0.201633 0.0382086
0.651621 0.214435 0.0527047
0.678904 0.223926 0.0653239
0.698451 0.227237 0.0740978
0.707179 0.223774 0.0775464
0.705882 0.217807 0.0770581
0.700908 0.212055 0.0752575
0.697108 0.208118 0.0738689
0.694469 0.205447 0.0729229
0.691997 0.202945 0.0720378
0.689799 0.200732 0.0712291
0.689387 0.200305 0.0710765
0.689509 0.200443 0.0711223
0.689647 0.20058 0.0711681
0.689647 0.20058 0.0711681
0.689784 0.200717 0.0712291
0.0395972 0.104677 0
0.0413519 0.108293 0
0.0428168 0.11133 0
0.0441444 0.114122 0
0.0454108 0.116625 0
0.0468452 0.118593 0
0.0518502 0.122301 0
0.0584421 0.129015 0
0.0644694 0.138582 0
0.0703441 0.149645 0
0.0823224 0.163195 0
0.108751 0.181231 0
0.164553 0.201434 0
0.269581 0.212772 0
0.408927 0.219974 0.00196841
0.517571 0.226078 0.0117494
0.593484 0.231907 0.0273594
0.64477 0.242435 0.0439612
0.684627 0.254902 0.0601205
0.715496 0.26508 0.0742351
0.737545 0.269703 0.0846265
0.749416 0.267933 0.0900587
0.750561 0.262806 0.0909895
0.746654 0.257496 0.0899825
0.743008 0.253773 0.0889143
0.740536 0.251362 0.0881666
0.738125 0.248997 0.0874342
0.736202 0.247105 0.0868391
0.73608 0.246983 0.0867933
0.736385 0.247288 0.0868849
0.736675 0.247578 0.0869612
0.736828 0.247715 0.0870069
0.73698 0.247868 0.0870527
0.0515755 0.12932 0
0.0535439 0.133196 0
0.0554208 0.136843 0
0.0570993 0.140154 0
0.0585641 0.142947 0
0.0597086 0.145174 0
0.0639506 0.149416 0
0.0688487 0.156725 0
0.0740673 0.167132 0
0.0805371 0.17937 0
0.0915084 0.192157 0
0.112383 0.208759 0
0.150744 0.230213 0
0.220356 0.248768 0
0.346105 0.256107 0.000244144
0.486656 0.26334 0.0065919
0.593469 0.271321 0.024567
0.661341 0.281193 0.0447852
0.710521 0.293263 0.0628977
0.747845 0.304753 0.0788434
0.774395 0.31165 0.0911879
0.790555 0.312016 0.0986801
0.795316 0.307881 0.101457
0.792859 0.3028 0.101335
0.789654 0.299519 0.100649
0.787442 0.297337 0.10013
0.785245 0.295171 0.0996109
0.783627 0.293584 0.0992294
0.783825 0.293767 0.0992752
0.784421 0.294362 0.0994125
0.784726 0.294652 0.0994736
0.785031 0.294957 0.0995346
0.785321 0.295247 0.0996109
0.0655375 0.157168 0
0.0676127 0.161791 0
0.0695354 0.166033 0
0.0713664 0.169955 0
0.0729381 0.173327 0
0.0746166 0.176486 0
0.0763714 0.179507 1.5259e-05
0.0802014 0.187961 6.10361e-05
0.0854505 0.199481 9.15541e-05
0.0936141 0.212802 9.15541e-05
0.105684 0.226169 3.0518e-05
0.123949 0.241459 0
0.153368 0.261433 0
0.200916 0.283436 0
0.286183 0.297322 0
0.426886 0.301656 0.00215152
0.562188 0.309483 0.0169528
0.659831 0.319051 0.0407111
0.724941 0.330083 0.0614939
0.772061 0.34229 0.0792859
0.805753 0.35169 0.0937667
0.828275 0.354772 0.103532
0.838468 0.352331 0.108263
0.838666 0.347951 0.109255
0.835691 0.34493 0.108827
0.833982 0.343221 0.108568
0.832227 0.341482 0.108339
0.831067 0.340337 0.108171
0.831769 0.341039 0.108293
0.83238 0.341634 0.108385
0.832975 0.342229 0.108476
0.833432 0.342687 0.108537
0.83389 0.34313 0.108614
0.0798047 0.189166 3.0518e-05
0.0817731 0.194308 9.15541e-05
0.0836652 0.199145 0.00015259
0.0854047 0.203616 0.000213626
0.0869154 0.207462 0.000274662
0.0882277 0.210651 0.000320439
0.0896162 0.214176 0.000595102
0.0924392 0.221637 0.00143435
0.0983597 0.233768 0.00213626
0.108461 0.248112 0.00164797
0.122225 0.263127 0.000640879
0.139162 0.278172 0.00030518
0.1626 0.296376 0.000350958
0.198886 0.317876 0.000396735
0.262531 0.335927 0.000213626
0.369909 0.343114 0.000274662
0.506859 0.348424 0.00825513
0.629038 0.357031 0.0315862
0.720745 0.3673 0.0561227
0.783902 0.37882 0.0764477
0.828229 0.38967 0.0930037
0.859327 0.395102 0.104906
0.877546 0.394919 0.111757
0.881895 0.39173 0.114183
0.880079 0.389639 0.114076
0.878889 0.388388 0.11397
0.877653 0.387137 0.113863
0.877226 0.386679 0.113848
0.878233 0.387701 0.113954
0.879103 0.388571 0.114046
0.87982 0.389303 0.114122
0.8804 0.389883 0.114168
0.88098 0.390478 0.114229
0.0935225 0.224613 0.00134279
0.095613 0.230137 0.00283818
0.0975814 0.235355 0.00418097
0.099321 0.239994 0.00534066
0.100893 0.244144 0.00627146
0.102235 0.24773 0.00694286
0.103746 0.251698 0.00764477
0.105806 0.256748 0.00865187
0.112261 0.269093 0.00927749
0.12398 0.285023 0.0071107
0.138796 0.301732 0.00546273
0.155764 0.318105 0.00503548
0.176486 0.335317 0.00540169
0.206714 0.355138 0.00552377
0.257694 0.374075 0.00341802
0.340154 0.386221 0.000946059
0.454902 0.391089 0.00450141
0.576516 0.397101 0.0225223
0.690684 0.40441 0.0468147
0.777249 0.41532 0.0703746
0.837308 0.426398 0.0896162
0.879835 0.43331 0.103624
0.908492 0.434211 0.11249
0.919966 0.432105 0.116518
0.919692 0.430701 0.116899
0.919387 0.43035 0.116945
0.918929 0.429892 0.116976
0.919127 0.430106 0.117021
0.920531 0.431601 0.117098
0.921508 0.432639 0.117113
0.922347 0.433555 0.117128
0.923079 0.434333 0.117128
0.923674 0.434989 0.117144
0.107866 0.262486 0.0103609
0.110201 0.268437 0.0116884
0.112352 0.273945 0.0129244
0.11426 0.278904 0.0140383
0.115969 0.283375 0.0150759
0.117556 0.287556 0.0160678
0.118929 0.291081 0.0168917
0.121614 0.296605 0.0174563
0.127275 0.306981 0.0178073
0.139376 0.323781 0.0171206
0.155093 0.341848 0.017258
0.173144 0.359762 0.0183413
0.194095 0.37734 0.0192111
0.222126 0.396033 0.018677
0.265171 0.414359 0.0148928
0.332845 0.42884 0.0087892
0.425589 0.437842 0.00906386
0.529839 0.442329 0.0205234
0.639994 0.444877 0.0381628
0.746578 0.45127 0.0611734
0.827924 0.462409 0.0836194
0.886534 0.470253 0.100404
0.928435 0.471107 0.110857
0.951278 0.469261 0.116335
0.954604 0.468482 0.117357
0.954986 0.468788 0.117433
0.955077 0.469154 0.117418
0.95581 0.470085 0.117403
0.957412 0.472007 0.117342
0.958724 0.473564 0.117311
0.959808 0.474876 0.117281
0.9608 0.476036 0.11725
0.96144 0.476814 0.117235
0.123629 0.302724 0.019379
0.12607 0.308827 0.0206607
0.128328 0.314519 0.0218662
0.130449 0.319799 0.0229648
0.132357 0.324544 0.0239567
0.134081 0.328832 0.0248569
0.135668 0.332662 0.025742
0.138598 0.338689 0.0266423
0.143923 0.347753 0.0276188
0.154559 0.362951 0.0294041
0.171786 0.382757 0.0325628
0.191577 0.40206 0.0349126
0.213962 0.420737 0.0356298
0.242054 0.438743 0.0335241
0.281605 0.456062 0.0280919
0.338155 0.47129 0.021622
0.415381 0.484993 0.0202335
0.503059 0.493034 0.0271458
0.597192 0.492744 0.037705
0.699138 0.490379 0.0529488
0.797177 0.497887 0.0751659
0.876234 0.506416 0.0951858
0.935225 0.507744 0.107591
0.973342 0.505913 0.114702
0.983734 0.505211 0.11664
0.984207 0.506569 0.116625
0.984909 0.508064 0.116609
0.985992 0.510018 0.116594
0.987518 0.512825 0.116548
0.988754 0.515053 0.116518
0.989822 0.517006 0.116503
0.990753 0.518669 0.116472
0.99144 0.519936 0.116457
0.140398 0.34435 0.028397
0.143114 0.35082 0.0300145
0.145602 0.356771 0.0314946
0.147845 0.362158 0.0327916
0.149981 0.36733 0.0340429
0.151873 0.371954 0.0351415
0.153765 0.376135 0.0363012
0.15613 0.380789 0.0374609
0.161807 0.3897 0.0395819
0.172305 0.403845 0.0428931
0.189258 0.423651 0.0471351
0.210956 0.444694 0.049958
0.235187 0.464393 0.0504311
0.26392 0.48246 0.0475166
0.301198 0.498726 0.0413825
0.351049 0.514534 0.0352026
0.415045 0.531838 0.0341955
0.490059 0.545449 0.0393072
0.571176 0.546471 0.045716
0.658793 0.53991 0.054078
0.752346 0.536629 0.0682078
0.845197 0.541558 0.0876631
0.925521 0.543893 0.102647
0.980621 0.543496 0.111971
0.999771 0.543664 0.11603
1 0.546105 0.116243
0.999954 0.548989 0.116289
0.999802 0.552239 0.116289
0.999786 0.556313 0.116289
0.999817 0.559655 0.116304
0.999847 0.562554 0.116304
0.999878 0.564828 0.116304
0.999908 0.566812 0.116304
0.158923 0.387686 0.0394141
0.162051 0.394232 0.0413214
0.16495 0.400351 0.0431067
0.167605 0.406043 0.04477
0.170062 0.411368 0.0463417
0.172229 0.416083 0.0477302
0.174533 0.420584 0.0491646
0.176547 0.424414 0.0503853
0.182025 0.432609 0.052842
0.191959 0.445701 0.056199
0.207813 0.464271 0.0600443
0.230304 0.486946 0.0631723
0.25684 0.50837 0.0636759
0.285939 0.526436 0.0609751
0.320943 0.542565 0.0555886
0.364706 0.558801 0.0506447
0.419379 0.577783 0.0501717
0.483757 0.594903 0.0541848
0.555398 0.60061 0.058732
0.633082 0.595453 0.0633555
0.714733 0.585748 0.0700236
0.804074 0.580514 0.0823987
0.89778 0.579843 0.0963455
0.971023 0.581353 0.107988
0.999146 0.583505 0.115312
1 0.586908 0.11635
1 0.591012 0.116426
1 0.595514 0.116426
1 0.600916 0.116457
1 0.605402 0.116487
1 0.609293 0.116503
1 0.61239 0.116518
1 0.615152 0.116518
0.180224 0.431815 0.0524605
0.183673 0.438437 0.0547036
0.186862 0.444602 0.0567483
0.189792 0.450233 0.0585641
0.19266 0.455787 0.0603189
0.195163 0.460655 0.0617838
0.19765 0.4654 0.0634775
0.2 0.469825 0.0650492
0.203738 0.475929 0.067216
0.212406 0.487861 0.0703899
0.227207 0.505577 0.0740826
0.249165 0.528222 0.0772717
0.276646 0.55108 0.0775006
0.306127 0.570184 0.0746166
0.33872 0.586252 0.0702525
0.377783 0.603037 0.066804
0.425803 0.621927 0.0666667
0.482383 0.640299 0.0699474
0.546059 0.650874 0.0736248
0.615457 0.650782 0.076524
0.689174 0.641978 0.0795758
0.767361 0.628504 0.0839857
0.858488 0.619623 0.0921645
0.945647 0.618112 0.102876
0.993469 0.621607 0.11281
1 0.625818 0.116121
1 0.631037 0.11635
1 0.636316 0.116258
1 0.642832 0.116182
1 0.648463 0.116106
1 0.653056 0.11606
1 0.657008 0.116045
1 0.660395 0.11603
0.203632 0.476783 0.0675822
0.207202 0.483635 0.0700084
0.210636 0.490211 0.072343
0.21384 0.496345 0.0745251
0.216831 0.502068 0.0765698
0.219562 0.507271 0.0784314
0.222477 0.512795 0.0803845
0.225132 0.517784 0.0821241
0.227497 0.522225 0.0836347
0.234379 0.532418 0.0865034
0.247669 0.548531 0.090135
0.268315 0.56968 0.0931716
0.295628 0.592966 0.0935378
0.325597 0.61323 0.0897841
0.357214 0.630213 0.0849165
0.393179 0.647334 0.0822614
0.436194 0.665736 0.0826123
0.486259 0.683268 0.0852674
0.542168 0.696223 0.0881208
0.603342 0.701427 0.0901198
0.669596 0.696971 0.091249
0.741176 0.683864 0.0917372
0.823087 0.667399 0.0936141
0.909163 0.657679 0.0995499
0.976196 0.657877 0.109087
0.999283 0.662211 0.11487
1 0.668208 0.115984
1 0.674632 0.115969
1 0.682383 0.115938
1 0.689128 0.115908
0.999741 0.695232 0.11603
0.999451 0.700481 0.116182
0.999191 0.704952 0.116304
0.228656 0.52459 0.0845197
0.23267 0.532219 0.0872206
0.236576 0.539635 0.0898299
0.24007 0.546258 0.0921798
0.243366 0.552544 0.094377
0.246555 0.558511 0.0965133
0.249607 0.56408 0.0985733
0.252445 0.569284 0.100481
0.25536 0.574441 0.102296
0.258457 0.57969 0.104036
0.270069 0.593729 0.107836
0.289723 0.613443 0.111208
0.316106 0.635904 0.111803
0.345892 0.656565 0.108034
0.377157 0.67425 0.102022
0.411048 0.691218 0.0982223
0.450141 0.708843 0.0979629
0.493889 0.725139 0.099443
0.542794 0.738872 0.101152
0.597116 0.747051 0.102205
0.656474 0.747478 0.102419
0.723552 0.738628 0.101289
0.799252 0.72163 0.099794
0.874311 0.705776 0.10132
0.94548 0.69752 0.107134
0.990219 0.698604 0.113375
0.99939 0.704601 0.116258
0.998825 0.712322 0.116518
0.998291 0.72134 0.116762
0.997787 0.730144 0.117006
0.995895 0.737667 0.117617
0.994141 0.744244 0.118196
0.99263 0.749889 0.118685
0.25626 0.57641 0.103044
0.260578 0.584298 0.105959
0.26479 0.592004 0.108782
0.268727 0.599237 0.111421
0.272282 0.605783 0.113802
0.2757 0.611673 0.116091
0.279057 0.61738 0.118349
0.282017 0.622415 0.120302
0.284627 0.626886 0.122026
0.288273 0.632395 0.123995
0.296178 0.642023 0.127153
0.313405 0.65893 0.130694
0.337362 0.678508 0.130983
0.365972 0.69839 0.127459
0.39675 0.716396 0.121477
0.428717 0.733089 0.116808
0.46389 0.749538 0.114672
0.502724 0.765484 0.114382
0.545937 0.779339 0.114443
0.594583 0.78941 0.113848
0.649516 0.792538 0.111925
0.712123 0.788312 0.109621
0.781994 0.775509 0.107057
0.847364 0.760098 0.107195
0.911467 0.745815 0.109834
0.966583 0.739437 0.114199
0.994003 0.74197 0.117723
0.992767 0.749996 0.118685
0.989975 0.759915 0.119554
0.987289 0.769955 0.120424
0.985245 0.776761 0.121187
0.983551 0.782269 0.121828
0.982055 0.787121 0.122393
0.285786 0.629114 0.122896
0.290471 0.637034 0.12604
0.294926 0.644572 0.129015
0.298939 0.651423 0.131685
0.302647 0.657816 0.134142
0.306035 0.66331 0.136477
0.309133 0.668315 0.138582
0.312093 0.673152 0.140612
0.314763 0.677516 0.142458
0.318273 0.682597 0.144472
0.323369 0.688838 0.146639
0.335668 0.700755 0.149783
0.357214 0.717357 0.149493
0.384085 0.735439 0.145724
0.413504 0.752926 0.140017
0.443473 0.768963 0.134768
0.475135 0.784695 0.131472
0.509957 0.800214 0.129747
0.54902 0.814328 0.128145
0.593454 0.824964 0.124956
0.645258 0.829999 0.120089
0.704265 0.828824 0.115984
0.766308 0.821012 0.113878
0.823636 0.809995 0.114321
0.881727 0.796323 0.115938
0.939452 0.78378 0.118257
0.977172 0.779568 0.12079
0.983398 0.782757 0.121874
0.981247 0.789807 0.122713
0.978912 0.797406 0.123613
0.977813 0.800946 0.124025
0.97734 0.802396 0.124208
0.976928 0.803708 0.124361
0.315908 0.679362 0.143282
0.320256 0.686397 0.146258
0.324453 0.693248 0.149142
0.328344 0.699626 0.151781
0.331365 0.704524 0.153841
0.332891 0.706798 0.154971
0.334493 0.709209 0.156161
0.336202 0.711803 0.157427
0.337957 0.714504 0.158694
0.33994 0.71751 0.160052
0.344594 0.722835 0.161944
0.352377 0.72932 0.163149
0.36875 0.741192 0.162448
0.392935 0.756649 0.158145
0.420264 0.772473 0.152087
0.448478 0.787518 0.146105
0.477897 0.802213 0.14168
0.51017 0.817212 0.138994
0.54699 0.831891 0.136492
0.589395 0.844068 0.132174
0.63856 0.851621 0.126009
0.693202 0.853162 0.120943
0.749813 0.85005 0.119051
0.80264 0.844175 0.119905
0.85687 0.833982 0.121126
0.914611 0.819867 0.122408
0.960342 0.808957 0.123934
0.97673 0.802899 0.124224
0.977005 0.803479 0.124346
0.97644 0.805234 0.124559
0.97612 0.806256 0.124681
0.97612 0.806256 0.124681
0.97612 0.806256 0.124681
0.338811 0.715969 0.159243
0.340871 0.719142 0.160754
0.343023 0.722423 0.16231
0.345174 0.725704 0.163867
0.346029 0.727031 0.164492
0.345907 0.726848 0.164401
0.345739 0.726604 0.164294
0.345693 0.726513 0.164248
0.345739 0.726589 0.164279
