LUT预设1/LUT全系打包/2024-VINTAGE系列lut/log灰片格式使用/light-lime亮橙.cube
TITLE "Generated by Resolve"
LUT_3D_SIZE 5
0.0157321 0 0
0.0697795 0 0
0.310689 0.00329595 0
0.458427 0.00170901 0
0.458396 0.00169375 0
0.0154421 0.0348821 0
0.0486458 0.058793 0
0.470848 0.0888838 0.00637827
0.562799 0.0760967 0.0175479
0.549859 0.0650034 0.0119326
0.0935225 0.224613 0.00134279
0.112261 0.269093 0.00927749
0.454902 0.391089 0.00450141
0.919692 0.430701 0.116899
0.923674 0.434989 0.117144
0.25626 0.57641 0.103044
0.284627 0.626886 0.122026
0.46389 0.749538 0.114672
0.911467 0.745815 0.109834
0.982055 0.787121 0.122393
0.346731 0.72813 0.165011
0.346731 0.72813 0.165011
0.485374 0.812024 0.144884
0.825666 0.85214 0.122698
0.976135 0.806256 0.124681
0.0119478 0 0
0.0574807 0 0.0140841
0.268498 0 0.00952163
0.428458 0 0.000793469
0.429328 0 0.000259403
0.0116274 0.034699 0.0238499
0.0631266 0.0608225 0.0523232
0.403998 0.0889448 0.0583658
0.518532 0.0479591 0.0226444
0.506386 0.0381933 0.0146029
0.0345769 0.187198 0.0429084
0.135988 0.267826 0.0511025
0.436622 0.379858 0.00347906
0.924025 0.43534 0.118227
0.919524 0.43061 0.117815
0.22211 0.489448 0.0922408
0.269642 0.587991 0.118761
0.471046 0.746273 0.111437
0.910796 0.745525 0.109667
0.979004 0.797131 0.123552
0.334615 0.701808 0.172549
0.346212 0.722301 0.170657
0.508766 0.82324 0.142855
0.830243 0.851331 0.122789
0.97612 0.806256 0.124681
0.0115816 0 0.0510567
0.0294347 0 0.0982376
0.205631 0 0.157443
0.425788 0 0.124453
0.425132 0 0.117601
0.0124208 0.0399023 0.126406
0.0368505 0.076585 0.198688
0.285954 0.0589303 0.238422
0.460014 0.0112306 0.134661
0.440848 0.00474556 0.118227
0.0243687 0.209079 0.271534
0.0646067 0.292775 0.341756
0.374151 0.449439 0.464347
0.858518 0.483375 0.448524
0.865888 0.494636 0.460334
0.0462348 0.426017 0.357412
0.107012 0.499275 0.381216
0.537652 0.738613 0.454414
0.951827 0.832059 0.331258
1 0.929946 0.453117
0.102098 0.550164 0.353201
0.153933 0.588724 0.375204
0.600763 0.841367 0.49633
0.901961 0.936858 0.361822
1 0.88809 0.276967
0.00576791 0.000289921 0.180423
0.0199741 0.000183108 0.22443
0.141955 0.011017 0.319234
0.361242 0 0.306996
0.362737 0 0.305989
0.0130465 0.0665599 0.26717
0.0348363 0.110674 0.359106
0.145083 0.122408 0.427665
0.413581 0.0125429 0.349126
0.370626 0.000350958 0.312016
0.0264744 0.233204 0.41883
0.063035 0.313619 0.481865
0.266423 0.468482 0.635462
0.671992 0.44918 0.700923
0.707851 0.399313 0.66569
0.0486 0.434974 0.538613
0.120928 0.543023 0.617121
0.420493 0.746197 0.772961
0.928328 0.912169 0.8981
1 0.969894 0.961715
0.0738384 0.568399 0.619287
0.143191 0.65771 0.693355
0.438056 0.8533 0.849577
0.963348 1 0.940963
1 1 0.898344
0.00627146 0.0215152 0.334539
0.0186618 0.00929274 0.31696
0.111437 0.0139925 0.332174
0.340993 0 0.321019
0.362737 0 0.305989
0.014374 0.101488 0.41239
0.0347295 0.133349 0.461875
0.115007 0.130312 0.459342
0.421622 0.0581826 0.407706
0.384985 0.00180056 0.323095
0.028397 0.258518 0.542489
0.0657206 0.332525 0.594705
0.224948 0.468162 0.702556
0.554696 0.489891 0.750225
0.703578 0.417639 0.686381
0.0516518 0.439765 0.625147
0.121843 0.547066 0.694331
0.397833 0.750469 0.848936
0.910307 0.924498 0.989731
1 0.922911 0.980743
0.0762341 0.572763 0.682994
0.198413 0.713146 0.773922
0.601083 0.915892 0.943358
1 1 1
1 1 1
