LUT预设1/LUT全系打包/2024-VINTAGE系列lut/log灰片格式使用/复古vintage-O.cube
TITLE "Generated by Resolve"
LUT_3D_SIZE 9
0 0 0
0.0112459 0 0
0.183948 0 0
0.555276 0.0112612 0.00646983
0.78761 0.00860609 0.0385595
0.887083 0.000106813 0.0539101
0.968902 0 0.0656596
1 0 0.0781262
1 0 0.087541
0 0 0
0.00782788 0 0
0.1691 0.00268559 0
0.538201 0.0189975 0.00569161
0.793866 0.0102693 0.0392615
0.896178 4.57771e-05 0.0552224
0.978882 0 0.067216
1 0 0.0799725
1 0 0.0875868
0 0.0768139 0
0.00747692 0.0843977 0
0.130083 0.0845197 0
0.374777 0.0952621 0
0.686534 0.0974441 0.00344854
0.853666 0.068986 0.0322728
0.965957 0.0335851 0.060029
1 0.010544 0.0787366
1 0.00230411 0.0873121
0.0555276 0.207889 0.00314336
0.069337 0.226795 0.00675975
0.176089 0.237079 0.00827039
0.418296 0.249805 0.00454719
0.682231 0.234577 0
0.819745 0.214542 0.000854505
0.91603 0.186648 0.0127108
0.997894 0.14667 0.0339971
1 0.10222 0.0571145
0.284215 0.472602 0.113054
0.319356 0.506935 0.129534
0.381918 0.530251 0.140856
0.570199 0.573724 0.161151
0.760845 0.575845 0.133974
0.863447 0.533669 0.0920119
0.941939 0.483223 0.0603342
0.999298 0.41268 0.0371405
1 0.34374 0.027039
0.535561 0.708095 0.236362
0.552926 0.726711 0.248875
0.565423 0.735668 0.255085
0.661433 0.755459 0.271336
0.787991 0.770123 0.280156
0.879011 0.765637 0.260899
0.957565 0.75433 0.236484
1 0.737392 0.21677
1 0.710475 0.195178
0.635706 0.831434 0.327886
0.644343 0.843503 0.337072
0.648798 0.849607 0.341634
0.694377 0.856077 0.346716
0.788251 0.862058 0.349737
0.871733 0.861616 0.339956
0.949554 0.85742 0.324346
0.999985 0.850477 0.312596
1 0.841123 0.306462
0.693095 0.920211 0.398367
0.699031 0.931624 0.407996
0.702312 0.93817 0.413565
0.71397 0.941558 0.416037
0.78526 0.944625 0.416251
0.861692 0.945235 0.411383
0.937377 0.942779 0.400671
0.998825 0.937972 0.393362
1 0.931395 0.392111
0.730755 0.998199 0.472374
0.734371 1 0.483711
0.736385 1 0.490944
0.737469 1 0.493812
0.780758 1 0.492576
0.851591 1 0.48925
0.924849 1 0.483543
0.995483 1 0.479835
1 1 0.480049
0 0 0.0068513
0.00907912 0 0.00326543
0.183108 0 0.00138857
0.556222 0.0114137 0.0115511
0.787411 0.00862135 0.0393835
0.887343 0.000106813 0.0539406
0.969406 0 0.0657206
1 0 0.078233
1 0 0.0875563
0 0 0.00196841
0.0074464 0 0.00242618
0.171221 0.00376898 0.00285344
0.541878 0.0202487 0.0140993
0.794018 0.0108644 0.0428321
0.897322 6.10361e-05 0.0554513
0.980041 0 0.0673991
1 0 0.0802014
1 0 0.0875868
1.5259e-05 0.0786297 0
0.00787366 0.0864271 0
0.133104 0.0873732 0
0.381872 0.0987106 0
0.689464 0.100908 0.00361639
0.853712 0.0732738 0.0308232
0.966262 0.037232 0.059205
1 0.0124056 0.0787518
1 0.00326543 0.0871901
0.0592966 0.213306 0.00434882
0.0733654 0.2327 0.00781262
0.186587 0.244984 0.00965896
0.433539 0.259495 0.0059968
0.690791 0.242603 0
0.823682 0.220859 0.000793469
0.918471 0.193347 0.0122225
0.99826 0.154025 0.0320439
1 0.110155 0.0540169
0.295109 0.483192 0.118181
0.330159 0.517357 0.134554
0.399008 0.542611 0.146944
0.584924 0.586236 0.167712
0.768872 0.588769 0.142031
0.868559 0.548623 0.100481
0.946426 0.499397 0.0682383
0.99968 0.430915 0.0433204
1 0.359442 0.0289006
0.541238 0.714061 0.24033
0.558129 0.732418 0.25275
0.572152 0.741695 0.259419
0.6701 0.761471 0.275883
0.793439 0.775006 0.283528
0.882628 0.770596 0.264347
0.960571 0.760067 0.240848
1 0.744305 0.222049
1 0.719539 0.202029
0.638483 0.835279 0.330831
0.647089 0.847333 0.33994
0.651637 0.853468 0.344503
0.700755 0.860212 0.349706
0.792981 0.865797 0.352148
0.875303 0.865324 0.342199
0.952605 0.861326 0.327062
1 0.854551 0.315892
1 0.845533 0.310613
0.695018 0.923842 0.401434
0.700893 0.935286 0.411109
0.704173 0.941878 0.416739
0.718181 0.945434 0.419257
0.789761 0.948577 0.419364
0.865492 0.949157 0.414481
0.940688 0.9467 0.404105
0.999268 0.941924 0.397391
1 0.935515 0.396674
0.73196 0.999725 0.476051
0.7355 1 0.487617
0.737148 1 0.493782
0.738598 1 0.496437
0.784588 1 0.495003
0.855238 1 0.491646
0.928069 1 0.486152
0.997177 1 0.483864
1 1 0.484794
0 0 0.120974
0.00170901 0 0.109148
0.143069 0 0.103883
0.504021 0.0119631 0.117052
0.768734 0.0104982 0.1187
0.881041 0.000244144 0.105867
0.966827 0 0.0893263
1 0 0.0843671
1 0 0.0879835
0 6.10361e-05 0.10837
0.00132753 0.00125124 0.11046
0.14052 0.00408942 0.113161
0.495949 0.0212406 0.126848
0.775586 0.0130465 0.137819
0.890288 0.000213626 0.132021
0.976822 0 0.117235
1 0 0.103593
1 0 0.0946212
0 0.0771191 0.0920424
0.000213626 0.0863355 0.101549
0.108736 0.0864881 0.093431
0.356588 0.0987411 0.0877546
0.679164 0.0982986 0.0920882
0.849027 0.0706035 0.109056
0.963745 0.0356603 0.112963
1 0.0120699 0.10901
1 0.00334173 0.0990921
0.0304265 0.208179 0.086717
0.0376745 0.227512 0.106065
0.151308 0.238911 0.105821
0.4056 0.253895 0.0866865
0.679759 0.236927 0.067216
0.819135 0.216495 0.0657969
0.91635 0.190875 0.0593423
0.99823 0.153841 0.059144
1 0.111849 0.0637369
0.277668 0.480262 0.154849
0.306935 0.51487 0.185321
0.377127 0.540703 0.201678
0.570718 0.585702 0.218143
0.764935 0.58996 0.184848
0.867216 0.548547 0.132128
0.946212 0.500511 0.0907301
0.99968 0.435172 0.060029
1 0.365408 0.0354009
0.540505 0.715541 0.248661
0.555566 0.734279 0.270024
0.569375 0.74403 0.282139
0.668956 0.764279 0.299794
0.793301 0.777737 0.304509
0.883238 0.77322 0.2795
0.961593 0.762646 0.249485
1 0.747341 0.227161
1 0.72372 0.205982
0.63946 0.836713 0.332082
0.647944 0.848859 0.342321
0.652415 0.855192 0.348241
0.702983 0.862135 0.354238
0.794766 0.867658 0.356176
0.876799 0.867216 0.345388
0.954009 0.863279 0.329305
1 0.856611 0.317693
1 0.84773 0.312673
0.695888 0.925521 0.402853
0.701762 0.937041 0.412604
0.705043 0.943679 0.41828
0.720272 0.947372 0.420874
0.79202 0.950545 0.42092
0.86746 0.951217 0.416129
0.942443 0.948837 0.405997
0.999481 0.944152 0.399649
1 0.937774 0.39913
0.732555 1 0.477913
0.736019 1 0.489555
0.737514 1 0.495186
0.739178 1 0.497795
0.786694 1 0.496254
0.857282 1 0.492927
0.929931 1 0.487587
0.998138 1 0.485573
1 1 0.487541
0 0 0.319997
0.00422675 0 0.305058
0.108522 0 0.274952
0.341009 0.0231632 0.265232
0.707851 0.0383307 0.255055
0.863691 0.0141909 0.239567
0.958038 0.00241093 0.220676
1 4.57771e-05 0.202564
1 0 0.180575
0 0.00784314 0.30695
0.00520333 0.0108034 0.306508
0.112657 0.00813306 0.284276
0.347219 0.0357214 0.281209
0.716365 0.0479896 0.279271
0.873411 0.0208743 0.267124
0.969268 0.00636301 0.250996
1 0.000961318 0.235782
1 1.5259e-05 0.215488
0 0.0891127 0.267323
3.0518e-05 0.0988174 0.279942
0.0864271 0.0957656 0.265782
0.273121 0.109636 0.261097
0.63537 0.12253 0.252049
0.831098 0.0879683 0.24181
0.95494 0.0462806 0.245304
1 0.0142824 0.242222
1 0.00273136 0.226078
0.00607309 0.212833 0.262242
0.010193 0.234226 0.288991
0.094255 0.243198 0.290028
0.300084 0.27335 0.292729
0.646662 0.263966 0.251896
0.80975 0.223835 0.214679
0.910857 0.190631 0.197086
0.997864 0.151293 0.189853
1 0.107561 0.188556
0.183413 0.478004 0.332708
0.207828 0.517327 0.377325
0.270268 0.545083 0.399268
0.491218 0.596948 0.416983
0.737026 0.610925 0.37084
0.858503 0.557687 0.27924
0.939956 0.499199 0.223011
0.999298 0.428641 0.182712
1 0.357168 0.151522
0.487602 0.719646 0.401358
0.498924 0.740581 0.442893
0.513375 0.751278 0.46244
0.631525 0.772931 0.475868
0.772534 0.788571 0.473106
0.87335 0.784024 0.436774
0.956191 0.771313 0.386908
1 0.753643 0.340658
1 0.728176 0.294499
0.622583 0.840436 0.422553
0.626551 0.854185 0.458122
0.628595 0.861387 0.477073
0.681865 0.868971 0.486137
0.781674 0.875044 0.482979
0.869337 0.874693 0.466484
0.949157 0.870054 0.438682
1 0.862425 0.410025
1 0.852476 0.384207
0.692226 0.927306 0.431846
0.695552 0.939895 0.460227
0.697002 0.947356 0.47921
0.71194 0.951492 0.488457
0.78613 0.954482 0.487465
0.864118 0.955139 0.478416
0.940581 0.952392 0.460243
0.999405 0.947265 0.443976
1 0.940368 0.431724
0.732509 1 0.480537
0.735378 1 0.497261
0.736294 1 0.507286
0.737545 1 0.514244
0.785794 1 0.514305
0.856809 1 0.509941
0.929992 1 0.501869
0.998367 1 0.495964
1 1 0.49514
0.0251774 0.00970474 0.535576
0.0374151 0.00822461 0.528176
0.124285 0.00807202 0.502571
0.243717 0.0266575 0.487648
0.555795 0.104982 0.505501
0.769375 0.118593 0.473884
0.899001 0.085771 0.42118
0.996048 0.0493782 0.378927
1 0.0238956 0.343908
0.0206455 0.0222477 0.528008
0.0358282 0.0246281 0.527367
0.129366 0.0205386 0.511208
0.256291 0.0363317 0.506966
0.584436 0.116442 0.544472
0.775601 0.134615 0.525383
0.893416 0.110079 0.478141
0.994476 0.0768902 0.43563
1 0.0487678 0.39704
0.00578317 0.104112 0.4972
0.0128634 0.112764 0.507332
0.101656 0.109545 0.497047
0.223819 0.115053 0.496239
0.540536 0.178088 0.54493
0.762448 0.195422 0.539574
0.880415 0.155047 0.491417
0.988357 0.103212 0.448783
1 0.0640726 0.414145
0.0230564 0.223972 0.500404
0.0333104 0.245487 0.524285
0.0997177 0.254673 0.528786
0.227619 0.279362 0.540032
0.543023 0.353414 0.586877
0.770962 0.36907 0.578088
0.874983 0.31397 0.520073
0.971847 0.245441 0.45182
1 0.183047 0.394736
0.139879 0.486946 0.581353
0.162737 0.526635 0.617044
0.206378 0.550195 0.633066
0.384634 0.602762 0.655711
0.64097 0.652583 0.671092
0.825925 0.643107 0.634943
0.919631 0.591638 0.569574
0.99469 0.512306 0.492729
1 0.422446 0.417929
0.375601 0.725643 0.63859
0.393591 0.745083 0.66566
0.410636 0.755138 0.677897
0.552468 0.78027 0.690791
0.714885 0.80293 0.69543
0.846433 0.805142 0.678157
0.938582 0.793835 0.637583
0.999756 0.775708 0.583642
1 0.74992 0.524208
0.558236 0.849088 0.639643
0.562829 0.862211 0.666606
0.565713 0.869047 0.679927
0.625864 0.878416 0.68658
0.740444 0.88719 0.684947
0.846174 0.888533 0.673228
0.933318 0.884642 0.653132
0.999298 0.876768 0.623514
1 0.866468 0.591196
0.656001 0.937011 0.617792
0.657771 0.950118 0.648569
0.659083 0.957732 0.665293
0.674556 0.96199 0.672892
0.756039 0.964843 0.671138
0.844038 0.965423 0.662867
0.926986 0.963882 0.650187
0.998581 0.958724 0.630808
1 0.951415 0.610193
0.714076 1 0.604349
0.714031 1 0.635767
0.713314 1 0.652781
0.713878 1 0.661707
0.766323 1 0.662699
0.841627 1 0.658305
0.918853 1 0.650767
0.993042 1 0.64036
1 1 0.628107
0.0649271 0.022385 0.669017
0.0685588 0.0219883 0.666835
0.135866 0.0222019 0.657176
0.232136 0.0332952 0.652873
0.44242 0.087541 0.673869
0.731533 0.164797 0.720851
0.847593 0.175021 0.711711
0.940093 0.160174 0.680873
1 0.143023 0.63563
0.0617533 0.0283055 0.666209
0.0669413 0.0303502 0.667536
0.142138 0.0298924 0.662898
0.245136 0.0396887 0.665019
0.487343 0.100679 0.699611
0.752529 0.170474 0.744915
0.863569 0.179644 0.741817
0.956313 0.166018 0.722957
1 0.153765 0.692699
0.0428931 0.108873 0.647807
0.0457313 0.118227 0.654749
0.114641 0.116487 0.652293
0.222477 0.118791 0.657572
0.464149 0.162631 0.699809
0.749798 0.227619 0.751949
0.864652 0.219577 0.7514
0.959045 0.186603 0.735317
1 0.160647 0.710567
0.054139 0.233539 0.66331
0.0600595 0.254368 0.67863
0.109361 0.262181 0.682658
0.220081 0.279026 0.6925
0.458366 0.334997 0.730037
0.760586 0.419791 0.776761
0.872007 0.411551 0.774273
0.96022 0.36524 0.755993
1 0.310353 0.728344
0.143984 0.493217 0.73666
0.164462 0.53164 0.758007
0.194675 0.550668 0.767269
0.338582 0.591897 0.782025
0.577813 0.647074 0.80354
0.798581 0.674739 0.814237
0.901473 0.665782 0.807797
0.98468 0.634714 0.792294
1 0.586007 0.768368
0.321798 0.724117 0.781369
0.34316 0.743221 0.796521
0.359075 0.752651 0.803662
0.501381 0.775753 0.812467
0.674952 0.80238 0.821775
0.818921 0.81239 0.823606
0.916152 0.808499 0.815946
0.998108 0.798077 0.802808
1 0.781216 0.784344
0.497078 0.84567 0.782467
0.509346 0.858534 0.796857
0.515633 0.865324 0.804334
0.580255 0.875257 0.809812
0.706157 0.889296 0.815488
0.820035 0.894408 0.814755
0.913893 0.89276 0.808515
0.996902 0.887449 0.797818
1 0.879149 0.78172
0.613977 0.940291 0.772412
0.621653 0.952346 0.788495
0.626062 0.959442 0.79762
0.643137 0.964126 0.802487
0.726482 0.969711 0.804837
0.819623 0.971527 0.802457
0.908171 0.970199 0.796353
0.990082 0.966857 0.788327
1 0.961257 0.776608
0.682979 1 0.755657
0.686336 1 0.773724
0.687633 1 0.784146
0.689036 1 0.789807
0.741772 1 0.791089
0.820966 1 0.788525
0.902739 1 0.783444
0.981735 1 0.77705
1 1 0.769116
0.0858625 0.0388342 0.775982
0.0860761 0.0386511 0.775128
0.139422 0.0377813 0.769146
0.226688 0.0460975 0.764492
0.3897 0.0812238 0.778164
0.700236 0.163409 0.827482
0.840391 0.189303 0.839445
0.93785 0.186999 0.834775
1 0.173663 0.823407
0.0848096 0.0407721 0.776287
0.08542 0.0433509 0.777401
0.147646 0.0422065 0.775158
0.241428 0.0506752 0.775982
0.435004 0.0945602 0.799634
0.729809 0.172503 0.847547
0.857755 0.192447 0.858427
0.955459 0.188052 0.856245
1 0.177508 0.84683
0.0660105 0.114015 0.760174
0.0669261 0.124239 0.766262
0.12398 0.123156 0.76611
0.225025 0.123827 0.771267
0.426184 0.153246 0.801144
0.732067 0.223377 0.853346
0.860563 0.225132 0.864439
0.959533 0.204273 0.863325
1 0.182544 0.855344
0.0747082 0.243412 0.775525
0.0802625 0.265721 0.788769
0.119066 0.273289 0.792538
0.222416 0.287449 0.800519
0.425544 0.331273 0.828458
0.743481 0.415152 0.873259
0.868406 0.422782 0.880156
0.962432 0.392325 0.875456
1 0.342031 0.863188
0.157443 0.501442 0.840223
0.176333 0.538399 0.857771
0.199207 0.55465 0.864836
0.323247 0.58761 0.875456
0.548821 0.641443 0.894682
0.781689 0.669703 0.906416
0.893172 0.667857 0.905257
0.982284 0.649912 0.899535
1 0.613428 0.887785
0.313527 0.723033 0.879408
0.334569 0.74197 0.8916
0.347402 0.75079 0.897322
0.468589 0.769268 0.903517
0.651652 0.797421 0.912352
0.804501 0.810147 0.916869
0.90518 0.807752 0.913039
0.991501 0.802411 0.908248
1 0.790372 0.90016
0.46009 0.840665 0.880827
0.474922 0.853468 0.891722
0.483055 0.860502 0.897673
0.548501 0.870161 0.902022
0.684306 0.88574 0.907423
0.805066 0.893172 0.909606
0.902632 0.893065 0.907179
0.988342 0.889799 0.902693
1 0.883314 0.895994
0.582773 0.936095 0.872541
0.594278 0.948516 0.884672
0.600885 0.955917 0.891829
0.618036 0.960754 0.895827
0.70808 0.967926 0.899092
0.804959 0.97171 0.899794
0.896666 0.971862 0.897368
0.980987 0.968917 0.892714
1 0.964141 0.886213
0.665141 1 0.861357
0.670588 1 0.874205
0.673259 1 0.882048
0.674998 1 0.886397
0.726635 1 0.888411
0.808469 1 0.888365
0.892271 1 0.885756
0.972992 1 0.880995
1 1 0.875227
0.0941482 0.0656748 0.862135
0.0941176 0.0656443 0.862089
0.134707 0.0648051 0.861418
0.22211 0.0696574 0.863737
0.363577 0.0916915 0.875868
0.67422 0.173373 0.92192
0.829526 0.205875 0.936751
0.933318 0.209049 0.937758
1 0.200168 0.932921
0.0942855 0.0660105 0.863218
0.0943618 0.0662699 0.863996
0.145937 0.0660716 0.864729
0.237995 0.0731212 0.871031
0.408057 0.105684 0.894392
0.713085 0.187869 0.941482
0.849607 0.212696 0.954543
0.95201 0.213214 0.957549
1 0.206485 0.95285
0.0869764 0.12604 0.861631
0.0870985 0.137224 0.864363
0.13225 0.136873 0.865187
0.229328 0.137316 0.872236
0.407874 0.159075 0.897917
0.719936 0.233005 0.947509
0.854093 0.239826 0.960281
0.957321 0.224659 0.964172
1 0.211368 0.960693
0.0966659 0.263066 0.880964
0.102998 0.28896 0.893004
0.133257 0.298268 0.897078
0.232837 0.314092 0.905058
0.416068 0.3514 0.92694
0.73344 0.428687 0.966079
0.863355 0.436454 0.973816
0.960952 0.412711 0.97322
1 0.366278 0.966003
0.178317 0.518502 0.93846
0.196918 0.555093 0.953918
0.215473 0.570092 0.959945
0.327504 0.597894 0.968078
0.541848 0.646891 0.983932
0.769696 0.671427 0.993744
0.885985 0.669657 0.993378
0.977859 0.655619 0.989593
1 0.627329 0.982422
0.323232 0.724544 0.97055
0.34432 0.743343 0.981125
0.355978 0.752224 0.986023
0.454215 0.766293 0.990295
0.63711 0.793744 0.997269
0.792844 0.807568 0.998505
0.897917 0.805158 0.998215
0.985489 0.799496 0.995438
1 0.790311 0.990387
0.4477 0.837873 0.971099
0.464439 0.851026 0.980636
0.473472 0.858152 0.985763
0.530098 0.866361 0.98909
0.668849 0.882094 0.993713
0.794507 0.890974 0.996597
0.895216 0.891112 0.995041
0.982147 0.887541 0.99147
1 0.883116 0.987366
0.565316 0.93225 0.962448
0.578851 0.944854 0.973404
0.586679 0.952422 0.979583
0.601999 0.957244 0.983032
0.694591 0.964904 0.985855
0.793545 0.969299 0.986908
0.888518 0.970077 0.985748
0.975097 0.968277 0.983276
1 0.964599 0.979889
0.65182 1 0.951568
0.65893 1 0.963058
0.662959 1 0.970321
0.66482 1 0.974273
0.714961 1 0.976287
0.798108 1 0.976745
0.884916 1 0.975982
0.96701 1 0.97319
1 1 0.969039
0.0949264 0.0675364 0.868101
0.0949264 0.0675364 0.868101
0.123354 0.0671092 0.868421
0.210742 0.0720531 0.873777
0.34165 0.0920272 0.891249
0.651896 0.176074 0.945724
0.820691 0.218235 0.973541
0.926482 0.2271 0.988083
1 0.22417 0.999741
0.0949264 0.0675364 0.868101
0.0949264 0.0675364 0.868101
0.135241 0.0672007 0.868772
0.227283 0.0737163 0.875456
0.384009 0.102052 0.898253
0.697108 0.188693 0.953506
0.842115 0.221271 0.976761
0.946029 0.226841 0.990646
1 0.224018 1
0.0890974 0.112978 0.867308
0.0885328 0.123552 0.868009
0.123903 0.123384 0.868421
0.220432 0.123461 0.875334
0.385779 0.142824 0.899855
0.70544 0.219486 0.956298
0.847471 0.239017 0.978119
0.952102 0.23154 0.991547
1 0.225132 1
0.0971389 0.250385 0.891142
0.101015 0.271916 0.896605
0.122988 0.280018 0.898817
0.220096 0.292714 0.906355
0.39089 0.327993 0.930053
0.718471 0.411795 0.976577
0.856596 0.426825 0.992233
0.955917 0.408011 0.998474
1 0.36762 1
0.177813 0.507912 0.960159
0.193698 0.542412 0.968673
0.207523 0.557061 0.972198
0.309575 0.582208 0.979294
0.519203 0.632456 0.994659
0.756527 0.661707 0.999985
0.879713 0.663005 1
0.972839 0.650385 1
1 0.626108 1
0.325154 0.720714 0.999725
0.344427 0.738888 1
0.354391 0.747448 1
0.441123 0.760067 1
0.624079 0.787686 1
0.78407 0.803159 1
0.892439 0.801175 1
0.981079 0.795544 1
1 0.787091 1
0.449424 0.83563 1
0.464439 0.848371 1
0.472984 0.855375 1
0.520119 0.86244 1
0.658656 0.878019 1
0.786999 0.887709 1
0.889784 0.888319 1
0.977859 0.884382 1
1 0.88014 1
0.558373 0.928939 1
0.572702 0.941604 1
0.581231 0.94934 1
0.593759 0.954009 1
0.685969 0.961868 1
0.786404 0.966598 1
0.882445 0.967697 1
0.970367 0.965805 1
1 0.962219 1
0.643503 1 1
0.65182 1 1
0.656779 1 1
0.659175 1 1
0.706889 1 1
0.789868 1 1
0.87808 1 1
0.961837 1 1
1 1 1
