LUT预设1/LUT全系打包/2024-VINTAGE系列lut/log灰片格式使用/复古vintage-O.cube
TITLE "Generated by Resolve"
LUT_3D_SIZE 5
0 0 0
0.183948 0 0
0.78761 0.00860609 0.0385595
0.968902 0 0.0656596
1 0 0.087541
0 0.0768139 0
0.130083 0.0845197 0
0.686534 0.0974441 0.00344854
0.965957 0.0335851 0.060029
1 0.00230411 0.0873121
0.284215 0.472602 0.113054
0.381918 0.530251 0.140856
0.760845 0.575845 0.133974
0.941939 0.483223 0.0603342
1 0.34374 0.027039
0.635706 0.831434 0.327886
0.648798 0.849607 0.341634
0.788251 0.862058 0.349737
0.949554 0.85742 0.324346
1 0.841123 0.306462
0.730755 0.998199 0.472374
0.736385 1 0.490944
0.780758 1 0.492576
0.924849 1 0.483543
1 1 0.480049
0 0 0.120974
0.143069 0 0.103883
0.768734 0.0104982 0.1187
0.966827 0 0.0893263
1 0 0.0879835
0 0.0771191 0.0920424
0.108736 0.0864881 0.093431
0.679164 0.0982986 0.0920882
0.963745 0.0356603 0.112963
1 0.00334173 0.0990921
0.277668 0.480262 0.154849
0.377127 0.540703 0.201678
0.764935 0.58996 0.184848
0.946212 0.500511 0.0907301
1 0.365408 0.0354009
0.63946 0.836713 0.332082
0.652415 0.855192 0.348241
0.794766 0.867658 0.356176
0.954009 0.863279 0.329305
1 0.84773 0.312673
0.732555 1 0.477913
0.737514 1 0.495186
0.786694 1 0.496254
0.929931 1 0.487587
1 1 0.487541
0.0251774 0.00970474 0.535576
0.124285 0.00807202 0.502571
0.555795 0.104982 0.505501
0.899001 0.085771 0.42118
1 0.0238956 0.343908
0.00578317 0.104112 0.4972
0.101656 0.109545 0.497047
0.540536 0.178088 0.54493
0.880415 0.155047 0.491417
1 0.0640726 0.414145
0.139879 0.486946 0.581353
0.206378 0.550195 0.633066
0.64097 0.652583 0.671092
0.919631 0.591638 0.569574
1 0.422446 0.417929
0.558236 0.849088 0.639643
0.565713 0.869047 0.679927
0.740444 0.88719 0.684947
0.933318 0.884642 0.653132
1 0.866468 0.591196
0.714076 1 0.604349
0.713314 1 0.652781
0.766323 1 0.662699
0.918853 1 0.650767
1 1 0.628107
0.0858625 0.0388342 0.775982
0.139422 0.0377813 0.769146
0.3897 0.0812238 0.778164
0.840391 0.189303 0.839445
1 0.173663 0.823407
0.0660105 0.114015 0.760174
0.12398 0.123156 0.76611
0.426184 0.153246 0.801144
0.860563 0.225132 0.864439
1 0.182544 0.855344
0.157443 0.501442 0.840223
0.199207 0.55465 0.864836
0.548821 0.641443 0.894682
0.893172 0.667857 0.905257
1 0.613428 0.887785
0.46009 0.840665 0.880827
0.483055 0.860502 0.897673
0.684306 0.88574 0.907423
0.902632 0.893065 0.907179
1 0.883314 0.895994
0.665141 1 0.861357
0.673259 1 0.882048
0.726635 1 0.888411
0.892271 1 0.885756
1 1 0.875227
0.0949264 0.0675364 0.868101
0.123354 0.0671092 0.868421
0.34165 0.0920272 0.891249
0.820691 0.218235 0.973541
1 0.22417 0.999741
0.0890974 0.112978 0.867308
0.123903 0.123384 0.868421
0.385779 0.142824 0.899855
0.847471 0.239017 0.978119
1 0.225132 1
0.177813 0.507912 0.960159
0.207523 0.557061 0.972198
0.519203 0.632456 0.994659
0.879713 0.663005 1
1 0.626108 1
0.449424 0.83563 1
0.472984 0.855375 1
0.658656 0.878019 1
0.889784 0.888319 1
1 0.88014 1
0.643503 1 1
0.656779 1 1
0.706889 1 1
0.87808 1 1
1 1 1
