LUT预设1/LUT全系打包/2024-VINTAGE系列lut/log灰片格式使用/复古vintage-O.cube
TITLE "Generated by Resolve"
LUT_3D_SIZE 33
0 0 0
0 0 0
0.000122072 0 0
0.00202945 0 0
0.0112459 0 0
0.0376898 0 0
0.0746319 0 0
0.122408 0 0
0.183948 0 0
0.261921 0.00030518 0
0.354742 0.00221256 0
0.457374 0.00663767 0.00138857
0.555276 0.0112612 0.00646983
0.637095 0.0139315 0.014786
0.701396 0.0140688 0.0239872
0.750286 0.0119783 0.0321202
0.78761 0.00860609 0.0385595
0.817014 0.00508125 0.043473
0.842176 0.00227359 0.0473945
0.86537 0.000671397 0.0507973
0.887083 0.000106813 0.0539101
0.907774 0 0.0568551
0.928115 0 0.0597696
0.948455 0 0.0626841
0.968902 0 0.0656596
0.987716 0 0.0687266
0.999084 0 0.0717327
1 0 0.0748455
1 0 0.0781262
1 0 0.0813764
1 0 0.0845197
1 0 0.0868086
1 0 0.087541
0 0 0
0 0 0
1.5259e-05 0 0
0.0016022 0 0
0.00987259 0 0
0.0358129 0 0
0.0727703 0 0
0.121248 0 0
0.184695 0 0
0.264942 0.000366217 0
0.35996 0.00238041 1.5259e-05
0.463767 0.00691234 0.0016022
0.561715 0.0115206 0.00703441
0.643 0.0139925 0.0155947
0.706538 0.013901 0.0248264
0.754589 0.0116274 0.0328679
0.791165 0.00819409 0.0391546
0.820142 0.00469978 0.0439765
0.845182 0.00198367 0.0478523
0.868284 0.000549325 0.0512245
0.889876 9.15541e-05 0.0543221
0.910643 0 0.0572824
0.931105 0 0.0601968
0.951507 0 0.0631266
0.971878 0 0.0661173
0.98999 0 0.0691997
0.999603 0 0.072221
1 0 0.0753796
1 0 0.0786603
1 0 0.0819257
1 0 0.0850385
1 0 0.0870832
1 0 0.0875563
0 0 0
0 0 0
0 0 0
0.0015259 0 0
0.00956741 0 0
0.0354314 0 0
0.0729839 0 0
0.122759 0 0
0.18732 3.0518e-05 0
0.268849 0.000549325 0
0.365255 0.00292973 3.0518e-05
0.470512 0.00766003 0.0018616
0.569039 0.0120851 0.00772107
0.649851 0.0141909 0.016556
0.712444 0.0137331 0.025803
0.759441 0.0112459 0.0337224
0.795178 0.00773632 0.0398566
0.823667 0.00427253 0.0445411
0.848508 0.00167849 0.0483558
0.871534 0.000427253 0.0516976
0.89305 6.10361e-05 0.0547799
0.913771 0 0.0577249
0.934325 0 0.0606699
0.954879 0 0.0636301
0.975189 0 0.0666361
0.99237 0 0.0697185
0.999924 0 0.0727703
1 0 0.0759442
1 0 0.0792554
1 0 0.0825208
1 0 0.0855573
1 0 0.0873579
1 0 0.0875715
0 0 0
0 0 0
0 0 0
0.00141909 0 0
0.00891127 0 0
0.0336614 0 0
0.0709239 4.57771e-05 0
0.120104 0.000167849 0
0.183185 0.000488289 0
0.26215 0.00154116 0
0.357504 0.00459297 6.10361e-05
0.464256 0.00955215 0.00180056
0.566033 0.0135805 0.00762951
0.649607 0.0151217 0.0165866
0.713634 0.0142519 0.0259556
0.761135 0.0114748 0.0339513
0.796979 0.0077821 0.040116
0.825635 0.00418097 0.044831
0.850629 0.00154116 0.048661
0.873686 0.000350958 0.0520027
0.895216 4.57771e-05 0.0550851
0.916014 0 0.0580453
0.936629 0 0.0610056
0.957259 0 0.0639658
0.977569 0 0.0670176
0.993988 0 0.0701152
1 0 0.073167
1 0 0.0763867
1 0 0.0797131
1 0 0.0829328
1 0 0.0858625
1 0 0.0874495
1 0 0.0875868
0 0 0
0 0 0
0 0 0
0.00125124 0 0
0.00782788 0 0
0.0310521 0 0
0.0670481 0.000289921 0
0.112795 0.00112917 0
0.1691 0.00268559 0
0.238773 0.00535592 0
0.326146 0.00994888 4.57771e-05
0.431388 0.0153964 0.00111391
0.538201 0.0189975 0.00569161
0.629694 0.0198672 0.013901
0.701091 0.0183719 0.0234836
0.754208 0.0149233 0.0322576
0.793866 0.0102693 0.0392615
0.824872 0.00544747 0.0445563
0.851102 0.00187686 0.0486915
0.874556 0.000366217 0.0521248
0.896178 4.57771e-05 0.0552224
0.917067 0 0.0582132
0.937804 0 0.0611734
0.958587 0 0.0641642
0.978882 0 0.067216
0.994812 0 0.0703288
1 0 0.0734112
1 0 0.0766461
1 0 0.0799725
1 0 0.0832074
1 0 0.0860304
1 0 0.0874495
1 0 0.0875868
0 0.00573739 0
0 0.0065919 0
0 0.00743114 0
0.00111391 0.00802625 0
0.00706493 0.00833143 0
0.0291447 0.00828565 0
0.0628214 0.00892653 0
0.103578 0.0107424 0
0.151232 0.0137789 0
0.209522 0.0179141 0
0.283192 0.0233158 1.5259e-05
0.377768 0.0289769 0.000350958
0.481926 0.0328222 0.002533
0.579217 0.0338598 0.00776684
0.662058 0.0321355 0.0158541
0.727657 0.0279698 0.0252995
0.777157 0.0219883 0.0342565
0.814603 0.0151827 0.0414893
0.844999 0.00926223 0.0469368
0.871031 0.0055848 0.0511635
0.894286 0.00337224 0.0547036
0.916243 0.00170901 0.0579538
0.937758 0.000610361 0.0610971
0.958999 0.000106813 0.0641947
0.979461 0 0.0673228
0.995178 0 0.0704509
1 0 0.0735332
1 0 0.0767987
1 0 0.0801556
1 0 0.0833906
1 0 0.0861372
1 0 0.0874647
1 0 0.0875868
0 0.0230411 0
0 0.0251469 0
0 0.0272221 0
0.00103761 0.0286412 0
0.00674449 0.0292668 0
0.0276646 0.0289769 0
0.0588693 0.0294652 0
0.0955673 0.0311589 0
0.137514 0.0339055 0
0.188067 0.0376593 0
0.250996 0.0423743 0
0.333043 0.0475013 4.57771e-05
0.428641 0.0515145 0.000686656
0.525139 0.0532082 0.0028687
0.613642 0.0523079 0.00764477
0.688197 0.0489357 0.0150454
0.746914 0.0434119 0.0238346
0.792096 0.0361486 0.0326543
0.828901 0.0283207 0.0407263
0.860136 0.0213626 0.0472725
0.886931 0.0155184 0.0522164
0.91133 0.0105592 0.0563211
0.934569 0.00669871 0.0600443
0.957046 0.00421149 0.0635386
0.978347 0.00271611 0.0669108
0.994583 0.0016022 0.0702068
1 0.000686656 0.0734264
1 0.000137331 0.0767987
1 1.5259e-05 0.0802167
1 0 0.0834821
1 0 0.086183
1 0 0.0874647
1 0 0.0875868
0 0.0483864 0
0 0.0511025 0
0 0.0538186 0
0.00102235 0.0555886 0
0.00683604 0.0561074 0
0.0274205 0.0553292 0
0.0572824 0.0553292 0
0.0916915 0.0563668 0
0.130755 0.0582132 0
0.177188 0.060914 0
0.233921 0.0644388 0
0.306416 0.0686351 0
0.392645 0.0724041 9.15541e-05
0.483848 0.0746777 0.000579843
0.571771 0.0751202 0.00236515
0.649348 0.073579 0.00614939
0.713237 0.0698253 0.0119631
0.764233 0.0636454 0.019913
0.806348 0.0555276 0.0293278
0.84213 0.0467079 0.0380255
0.872862 0.0380713 0.0449836
0.900725 0.029984 0.0510872
0.926757 0.0228733 0.0564431
0.951385 0.0171817 0.0610971
0.974334 0.0127565 0.0652171
0.992386 0.00895705 0.0690318
1 0.00570687 0.0726635
1 0.00337224 0.0763104
1 0.00230411 0.0799268
1 0.00166323 0.083299
1 0.00112917 0.0860914
1 0.000610361 0.0874037
1 0.000198367 0.0875563
0 0.0768139 0
1.5259e-05 0.0795453 0
7.62951e-05 0.0822919 0
0.00123598 0.0841382 0
0.00747692 0.0843977 0
0.0285801 0.083238 0
0.0583505 0.0828565 0
0.092134 0.0833448 0
0.130083 0.0845197 0
0.17464 0.0862898 0
0.228305 0.0888228 0
0.295247 0.0920729 0
0.374777 0.0952621 0
0.460395 0.0977646 4.57771e-05
0.544686 0.0992752 0.000335698
0.621256 0.099382 0.00125124
0.686534 0.0974441 0.00344854
0.739605 0.093019 0.00813306
0.783322 0.0863355 0.01561
0.82063 0.0781415 0.0240787
0.853666 0.068986 0.0322728
0.884627 0.0593271 0.0405737
0.913527 0.0499733 0.0480354
0.940566 0.041413 0.0543984
0.965957 0.0335851 0.060029
0.98761 0.026215 0.0653697
0.999893 0.0195773 0.070222
0.999985 0.0141451 0.0746166
1 0.010544 0.0787366
1 0.00801099 0.0824598
1 0.0059205 0.0855268
1 0.00393683 0.0870222
1 0.00230411 0.0873121
0.00129702 0.105364 0
0.00158694 0.108385 0
0.00199893 0.111345 0
0.00352483 0.113359 0
0.0101472 0.113756 0
0.0315099 0.112734 0
0.0614786 0.112291 0
0.0954604 0.112535 0
0.133394 0.11339 0
0.177676 0.114763 0
0.230228 0.116686 0
0.294911 0.119036 0
0.371115 0.121508 0
0.452781 0.12369 0
0.533684 0.125368 0
0.608011 0.126085 6.10361e-05
0.672084 0.125231 0.000427253
0.723949 0.122484 0.00172427
0.765805 0.117968 0.00483711
0.801602 0.111742 0.0101167
0.834409 0.103822 0.0172885
0.86595 0.0946212 0.0256962
0.895781 0.0849775 0.033814
0.924117 0.075288 0.0412451
0.951995 0.0653544 0.0487984
0.978744 0.0551461 0.0568093
0.998047 0.0452583 0.0640726
0.999908 0.036286 0.0699931
1 0.0284733 0.0754101
1 0.0226139 0.0801862
1 0.0178225 0.0839551
1 0.0137179 0.0858473
1 0.0101778 0.0863966
0.00894179 0.134417 0
0.010132 0.137911 0
0.0114595 0.14136 0
0.0135195 0.143923 0
0.0190738 0.144961 0
0.0379034 0.144717 0
0.0670787 0.144594 0
0.10164 0.145083 0
0.14052 0.146059 0
0.185443 0.147478 0
0.238087 0.149187 0
0.302281 0.151003 0
0.376974 0.152728 0
0.456138 0.154131 0
0.534127 0.15523 0
0.605737 0.155627 0
0.667567 0.154803 1.5259e-05
0.71754 0.152697 0.000122072
0.757519 0.149371 0.000747692
0.791531 0.144701 0.00285344
0.822339 0.138567 0.00698863
0.851286 0.131228 0.0124666
0.878889 0.123003 0.0184024
0.905974 0.114031 0.0247654
0.933959 0.104036 0.0324102
0.962631 0.0929732 0.0414435
0.987396 0.0815442 0.0500496
0.999496 0.0701762 0.0575723
1 0.0583658 0.0659953
1 0.0479744 0.0742504
1 0.0397955 0.0801404
1 0.0333715 0.0830091
1 0.0278172 0.0840772
0.0278782 0.167224 0
0.0304875 0.171603 0
0.0330663 0.175906 0
0.0355688 0.179309 0
0.0389105 0.181262 0
0.0523995 0.182177 0
0.078706 0.183017 0
0.113359 0.184314 0
0.153628 0.186023 0
0.200061 0.188128 0
0.253803 0.190356 0
0.318441 0.192325 0
0.392493 0.193484 0
0.469612 0.193652 0
0.544381 0.193027 0
0.612436 0.191745 0
0.671 0.189654 0
0.718395 0.186862 0
0.756542 0.183536 7.62951e-05
0.789044 0.1794 0.000686656
0.81825 0.174289 0.00251774
0.845228 0.1682 0.00560006
0.87071 0.161212 0.00955215
0.895644 0.153399 0.0141756
0.921141 0.144594 0.0197147
0.94725 0.134813 0.026215
0.972335 0.124346 0.032929
0.992523 0.113039 0.0399939
0.999008 0.100069 0.0493782
1 0.0869612 0.0594186
1 0.0758679 0.0670176
1 0.0669718 0.0712749
1 0.0589609 0.074052
0.0555276 0.207889 0.00314336
0.0595102 0.213504 0.00430304
0.0634928 0.219135 0.00537118
0.0667887 0.223728 0.00619516
0.069337 0.226795 0.00675975
0.0783856 0.228809 0.00714122
0.100679 0.230961 0.00749218
0.134401 0.233768 0.00788891
0.176089 0.237079 0.00827039
0.224353 0.240909 0.00849927
0.279316 0.244755 0.00831617
0.34461 0.248142 0.00712596
0.418296 0.249805 0.00454719
0.493385 0.248798 0.00189212
0.564477 0.245228 0.000396735
0.628077 0.240192 0
0.682231 0.234577 0
0.726009 0.229114 0
0.761486 0.224231 0
0.792004 0.219547 0.00015259
0.819745 0.214542 0.000854505
0.845518 0.208728 0.00256352
0.869673 0.202106 0.00527962
0.892897 0.194751 0.00875868
0.91603 0.186648 0.0127108
0.939376 0.17789 0.0170138
0.962692 0.168627 0.0215915
0.984741 0.158465 0.0268864
0.997894 0.14667 0.0339971
1 0.134005 0.0419318
1 0.122011 0.0488441
1 0.11165 0.0534371
1 0.10222 0.0571145
0.0926375 0.259205 0.0161288
0.0982681 0.266331 0.0191806
0.104112 0.273732 0.0221408
0.108843 0.279759 0.0244297
0.112078 0.283848 0.0259403
0.118517 0.28687 0.0270237
0.13666 0.290257 0.0281071
0.168658 0.294987 0.0294957
0.211292 0.30071 0.0310216
0.260777 0.307134 0.0324102
0.315862 0.313512 0.0329137
0.380316 0.319539 0.0312963
0.452399 0.323461 0.0263371
0.524788 0.322866 0.0198367
0.592065 0.31725 0.0140536
0.650904 0.308217 0.00946059
0.700252 0.29781 0.00544747
0.740001 0.288045 0.00222782
0.772366 0.27982 0.000503548
0.800519 0.272816 7.62951e-05
0.826429 0.266346 0.000213626
0.850782 0.259449 0.000946059
0.873594 0.251942 0.002533
0.895308 0.243778 0.00495918
0.916762 0.234806 0.00810254
0.938445 0.22533 0.0117647
0.960159 0.21561 0.0156558
0.981414 0.205493 0.0198672
0.997482 0.19472 0.0247196
1 0.1832 0.029984
1 0.171542 0.0352178
1 0.160845 0.0389258
1 0.151186 0.0417792
0.143297 0.322148 0.0414282
0.151049 0.330922 0.0459144
0.158984 0.339956 0.0502785
0.165438 0.347295 0.053727
0.169986 0.352483 0.0561074
0.174823 0.356161 0.0577401
0.189014 0.360403 0.0594492
0.218067 0.366705 0.0619364
0.260121 0.374929 0.065095
0.309422 0.383993 0.0683146
0.363149 0.393103 0.0708019
0.424155 0.402075 0.0712444
0.491859 0.409262 0.0677653
0.559838 0.411292 0.0604257
0.622675 0.406561 0.0506752
0.677012 0.396216 0.0397498
0.722072 0.382956 0.0287022
0.758129 0.36968 0.0194705
0.78761 0.357931 0.0138399
0.813596 0.347799 0.0112612
0.83772 0.338598 0.00959792
0.860639 0.329397 0.00825513
0.882124 0.31957 0.00747692
0.902495 0.309102 0.00743114
0.922484 0.297688 0.00816358
0.942687 0.285771 0.00973526
0.962951 0.273579 0.0122072
0.982696 0.261295 0.0153658
0.997696 0.24921 0.0188907
1 0.237018 0.0229343
1 0.224887 0.0272679
1 0.213779 0.0302739
1 0.203677 0.0321202
0.208316 0.394797 0.0755627
0.217823 0.404654 0.0804608
0.227405 0.414618 0.0853132
0.235279 0.422812 0.08925
0.241047 0.428824 0.0921035
0.245426 0.433021 0.0940566
0.256046 0.437461 0.0960708
0.280415 0.444266 0.0991379
0.319097 0.453803 0.103426
0.36643 0.464698 0.108293
0.41706 0.475532 0.11284
0.472145 0.48629 0.116304
0.532509 0.496193 0.117067
0.593866 0.501915 0.113039
0.651499 0.500923 0.103655
0.701808 0.493294 0.090135
0.74342 0.481254 0.0749981
0.776577 0.467674 0.0614786
0.803952 0.454704 0.0519112
0.828336 0.443 0.0457313
0.851072 0.431876 0.0404669
0.872862 0.4206 0.0353399
0.893385 0.408637 0.0307012
0.91281 0.395636 0.0265049
0.931762 0.381567 0.0226596
0.950805 0.366659 0.0195315
0.969909 0.351278 0.0181277
0.987869 0.335302 0.0182193
0.998413 0.319493 0.0190585
1 0.304128 0.0210269
1 0.289555 0.0236362
1 0.276478 0.0255131
1 0.264607 0.026627
0.284215 0.472602 0.113054
0.294362 0.48249 0.11783
0.304616 0.492515 0.122637
0.313115 0.500816 0.126604
0.319356 0.506935 0.129534
0.323919 0.51133 0.131655
0.331258 0.515328 0.133577
0.349523 0.52137 0.136507
0.381918 0.530251 0.140856
0.425223 0.541314 0.146349
0.471229 0.552285 0.151812
0.518853 0.562997 0.15697
0.570199 0.573724 0.161151
0.623606 0.582132 0.161883
0.675517 0.585611 0.157168
0.721981 0.58323 0.147173
0.760845 0.575845 0.133974
0.792126 0.565682 0.120699
0.818189 0.554788 0.109483
0.84155 0.544198 0.100374
0.863447 0.533669 0.0920119
0.884504 0.522591 0.0837568
0.904524 0.51075 0.0758831
0.923522 0.497749 0.0682383
0.941939 0.483223 0.0603342
0.960311 0.467231 0.0525978
0.978531 0.450385 0.0464485
0.994522 0.432029 0.0415351
0.999298 0.41268 0.0371405
1 0.393454 0.0337072
1 0.374945 0.0305943
1 0.358572 0.0282597
1 0.34374 0.027039
0.362127 0.547524 0.149264
0.371862 0.556619 0.153719
0.381613 0.565713 0.15819
0.389761 0.573281 0.161944
0.395697 0.578759 0.164691
0.400046 0.582742 0.166705
0.404654 0.585885 0.168307
0.416785 0.590402 0.170642
0.441474 0.59736 0.174304
0.478401 0.606806 0.17937
0.518685 0.616617 0.184695
0.558984 0.626062 0.189975
0.601892 0.635691 0.195193
0.647883 0.644572 0.198993
0.694133 0.650843 0.199466
0.736645 0.65301 0.195544
0.773022 0.650858 0.187701
0.802915 0.645579 0.177783
0.82826 0.638605 0.167437
0.851087 0.630869 0.15761
0.872526 0.622934 0.148516
0.893187 0.614466 0.139757
0.913054 0.605295 0.131243
0.931991 0.5953 0.122972
0.950256 0.583703 0.114366
0.968277 0.57055 0.105653
0.985565 0.556191 0.0974899
0.99881 0.539986 0.0894179
0.999878 0.521111 0.0805371
1 0.501183 0.0714275
1 0.480949 0.0617075
1 0.462409 0.0533913
1 0.445502 0.0474403
0.433097 0.612375 0.18175
0.44155 0.620066 0.185687
0.449821 0.627649 0.189654
0.45684 0.634028 0.193042
0.461891 0.63859 0.195499
0.465675 0.641993 0.19736
0.468772 0.644572 0.198779
0.476081 0.647669 0.200519
0.49308 0.652583 0.203342
0.521782 0.659815 0.20766
0.555825 0.667979 0.21265
0.590372 0.675898 0.217716
0.6271 0.683864 0.222904
0.667231 0.691722 0.227726
0.708507 0.698421 0.230915
0.747143 0.702541 0.231128
0.780835 0.703487 0.227802
0.809186 0.701732 0.221485
0.833844 0.6981 0.213291
0.856397 0.693339 0.204486
0.877607 0.688121 0.196063
0.898177 0.682643 0.188113
0.91809 0.676692 0.180468
0.937102 0.670146 0.173205
0.955413 0.662593 0.166018
0.973327 0.6542 0.158968
0.989639 0.644785 0.151873
0.999832 0.63389 0.144366
1 0.620157 0.135485
1 0.604669 0.125658
1 0.5879 0.114794
1 0.571344 0.104402
1 0.555856 0.0954757
0.491325 0.664927 0.210132
0.497978 0.671199 0.213733
0.504387 0.677378 0.217334
0.50985 0.682643 0.220462
0.51397 0.68661 0.222843
0.517128 0.689662 0.224674
0.5196 0.692042 0.226108
0.523766 0.694347 0.227512
0.534096 0.697627 0.229648
0.554543 0.702892 0.233265
0.583032 0.709606 0.238071
0.613764 0.716258 0.24303
0.646616 0.722789 0.248005
0.682368 0.72929 0.252781
0.719341 0.735058 0.25655
0.754421 0.739071 0.258228
0.785534 0.74081 0.257115
0.812268 0.74052 0.253285
0.836027 0.73875 0.247303
0.858183 0.735973 0.24007
0.879271 0.732692 0.232593
0.89984 0.729198 0.225269
0.91986 0.725353 0.218265
0.939055 0.721065 0.211704
0.957565 0.716228 0.205524
0.97554 0.71104 0.199725
0.991333 0.705242 0.194018
0.999878 0.698558 0.18822
1 0.69044 0.181827
1 0.681041 0.174823
1 0.670161 0.166964
1 0.658808 0.158999
1 0.647684 0.151385
0.535561 0.708095 0.236362
0.540551 0.713344 0.239841
0.545449 0.718624 0.243397
0.549599 0.72311 0.246433
0.552926 0.726711 0.248875
0.555444 0.729473 0.250751
0.557336 0.731563 0.252171
0.55964 0.73344 0.253452
0.565423 0.735668 0.255085
0.579385 0.7393 0.257923
0.603082 0.744564 0.262226
0.631174 0.750103 0.266835
0.661433 0.755459 0.271336
0.693828 0.760647 0.275608
0.727153 0.765209 0.278996
0.759075 0.768475 0.280674
0.787991 0.770123 0.280156
0.813428 0.770306 0.277485
0.836454 0.76939 0.272938
0.858167 0.767727 0.267155
0.879011 0.765637 0.260899
0.899443 0.763241 0.254444
0.919478 0.760555 0.248081
0.938857 0.757595 0.242054
0.957565 0.75433 0.236484
0.975677 0.75079 0.231327
0.99147 0.746883 0.226444
0.999878 0.742489 0.221698
1 0.737392 0.21677
1 0.731624 0.211688
1 0.72491 0.20618
1 0.717632 0.200565
1 0.710475 0.195178
0.569116 0.745037 0.26186
0.572869 0.749508 0.265171
0.576791 0.754238 0.268696
0.580102 0.758267 0.271702
0.582696 0.761425 0.274037
0.584695 0.763882 0.275868
0.586252 0.765805 0.277302
0.587671 0.767437 0.278508
0.590936 0.769039 0.279774
0.600198 0.771466 0.281804
0.618997 0.77525 0.285084
0.644526 0.77966 0.28893
0.672847 0.784054 0.29279
0.702541 0.788144 0.296315
0.73283 0.791669 0.299046
0.762066 0.794217 0.300389
0.78912 0.795605 0.300023
0.813504 0.795987 0.297963
0.835981 0.795514 0.294301
0.857313 0.794461 0.289509
0.877867 0.793042 0.28426
0.8981 0.791348 0.278767
0.91809 0.78941 0.273182
0.937514 0.787228 0.26775
0.956359 0.784817 0.262684
0.974609 0.782177 0.25803
0.990707 0.77937 0.253727
0.999863 0.776211 0.249577
1 0.772793 0.245579
1 0.768811 0.241627
1 0.764462 0.237766
1 0.759609 0.233845
1 0.754772 0.229969
0.595422 0.777432 0.286137
0.598474 0.781384 0.289204
0.601633 0.785504 0.292424
0.60441 0.789151 0.295262
0.606531 0.791943 0.297414
0.608209 0.794171 0.299138
0.609583 0.796002 0.300557
0.610712 0.797498 0.301701
0.612634 0.798795 0.302724
0.618296 0.800397 0.304067
0.63241 0.802976 0.30631
0.655238 0.806394 0.309316
0.681788 0.809949 0.312459
0.709224 0.813199 0.315251
0.736919 0.8159 0.317311
0.763851 0.817838 0.318257
0.789319 0.818982 0.317922
0.812848 0.81944 0.316304
0.834821 0.819226 0.313298
0.855817 0.818479 0.309163
0.876158 0.817441 0.30457
0.896239 0.81619 0.299809
0.916106 0.814725 0.294972
0.935515 0.813016 0.29015
0.954421 0.811048 0.285588
0.972778 0.808957 0.281437
0.989349 0.806729 0.277562
0.999832 0.804303 0.273823
1 0.801678 0.270344
1 0.798749 0.267231
1 0.795544 0.264454
1 0.792035 0.261799
1 0.788525 0.259113
0.617029 0.805951 0.308232
0.619608 0.809476 0.310979
0.622232 0.813062 0.313771
0.624613 0.816342 0.31632
0.62652 0.818967 0.318349
0.628046 0.821042 0.319951
0.629313 0.822751 0.321263
0.63035 0.82417 0.322332
0.63154 0.82533 0.323217
0.634653 0.826459 0.324132
0.644572 0.828214 0.325628
0.664256 0.830854 0.327871
0.688762 0.833738 0.330312
0.714214 0.836362 0.332464
0.739803 0.838483 0.334005
0.764828 0.840024 0.334661
0.788937 0.840986 0.33434
0.811673 0.841459 0.333028
0.833219 0.841428 0.330587
0.853956 0.840864 0.327016
0.874083 0.840024 0.322866
0.893996 0.839048 0.318593
0.913787 0.837903 0.31426
0.933181 0.83653 0.309972
0.952071 0.834928 0.305913
0.970504 0.833097 0.302205
0.987671 0.831205 0.298772
0.999771 0.829175 0.295491
1 0.826947 0.292348
1 0.824598 0.289738
1 0.821927 0.287633
1 0.819196 0.286
1 0.816297 0.284123
0.635706 0.831434 0.327886
0.638056 0.834684 0.330373
0.640436 0.83801 0.332906
0.642588 0.841031 0.33521
0.644343 0.843503 0.337072
0.645762 0.845472 0.338552
0.646952 0.847135 0.339788
0.647929 0.848493 0.340795
0.648798 0.849607 0.341634
0.650446 0.850568 0.342367
0.656764 0.85182 0.343389
0.672511 0.853803 0.344945
0.694377 0.856077 0.346716
0.717937 0.858198 0.348318
0.741787 0.859922 0.349493
0.765301 0.861204 0.350011
0.788251 0.862058 0.349737
0.810239 0.862531 0.348608
0.831342 0.862638 0.346609
0.851804 0.862287 0.343648
0.871733 0.861616 0.339956
0.891524 0.860807 0.336004
0.911208 0.859876 0.331991
0.930587 0.858763 0.328054
0.949554 0.85742 0.324346
0.968032 0.855879 0.321065
0.985748 0.854215 0.318105
0.999634 0.852399 0.315267
0.999985 0.850477 0.312596
1 0.848386 0.310338
1 0.846036 0.308705
1 0.843641 0.307683
1 0.841123 0.306462
0.65275 0.855009 0.345693
0.654902 0.858045 0.348013
0.657176 0.861295 0.350469
0.659159 0.864179 0.352667
0.660777 0.866545 0.354467
0.662089 0.868482 0.355962
0.663188 0.87013 0.357198
0.664103 0.871489 0.358251
0.66482 0.872557 0.359075
0.665812 0.873503 0.359808
0.669062 0.874434 0.36054
0.680323 0.875807 0.361501
0.699046 0.877531 0.362631
0.720821 0.87924 0.36379
0.743236 0.880674 0.364721
0.765484 0.881773 0.365164
0.787396 0.882551 0.364889
0.808637 0.88304 0.363851
0.829267 0.883223 0.362173
0.849409 0.883085 0.359762
0.869108 0.882612 0.356634
0.888747 0.881941 0.353033
0.908354 0.881163 0.349279
0.927749 0.880278 0.345541
0.946761 0.879164 0.342046
0.965316 0.877852 0.33901
0.983474 0.876371 0.336355
0.998856 0.874769 0.333913
0.999893 0.87306 0.331746
1 0.871183 0.329992
1 0.869093 0.328771
1 0.866911 0.328145
1 0.864607 0.327443
0.667979 0.877119 0.362524
0.669963 0.880156 0.364981
0.672007 0.88333 0.367559
0.673808 0.886198 0.369909
0.675258 0.888502 0.371801
0.676478 0.890486 0.373434
0.67747 0.892164 0.374807
0.678279 0.893553 0.375967
0.67895 0.894667 0.376898
0.679576 0.895628 0.377691
0.680629 0.896391 0.378332
0.687938 0.897368 0.378927
0.703456 0.898665 0.379599
0.723369 0.900023 0.380346
0.744457 0.901259 0.381033
0.765591 0.90222 0.381353
0.786557 0.902892 0.381018
0.80705 0.903334 0.380011
0.827146 0.903609 0.378546
0.846983 0.903563 0.376516
0.866453 0.903227 0.373846
0.885893 0.902708 0.370657
0.905394 0.902037 0.367178
0.924666 0.901259 0.363684
0.943664 0.900298 0.360372
0.962295 0.899168 0.357458
0.980621 0.897856 0.35491
0.996735 0.896437 0.352667
0.999619 0.894881 0.35079
1 0.893278 0.349538
1 0.891447 0.34876
1 0.889418 0.348379
1 0.887388 0.348226
0.68127 0.898741 0.380362
0.683009 0.901747 0.382879
0.68481 0.904891 0.385519
0.686412 0.907759 0.3879
0.687739 0.91014 0.389883
0.688823 0.912108 0.391531
0.689738 0.913817 0.39295
0.690517 0.915251 0.394171
0.691173 0.916472 0.395193
