LUT预设1/LUT全系打包/2024-VINTAGE系列lut/log灰片格式使用/清新CLEAN.cube
TITLE "Generated by Resolve"
LUT_3D_SIZE 5
0.0145876 0.0667582 0.0755474
0.101701 0.0608377 0.0681621
0.650782 0.0141299 0.0263523
1 0.0981308 0.118746
1 0.126467 0.14876
0 0.119295 0.094316
0.0801862 0.132296 0.0986038
0.715572 0.120592 0.0763714
1 0.164782 0.143984
1 0.173007 0.169635
0 0.616602 0.182177
0 0.623514 0.180438
0.612512 0.595376 0.0926223
1 0.567514 0.121187
1 0.554604 0.154543
0.00830091 0.951308 0.289677
0.0111238 0.956313 0.292622
0.393179 0.938079 0.0957961
0.977905 0.927611 0.135134
1 0.91281 0.196551
0.110216 1 0.398733
0.110216 1 0.398733
0.281453 1 0.271321
0.899886 1 0.186465
1 1 0.234028
0 0.083299 0.211963
0.0607614 0.0653849 0.173938
0.64477 0.013489 0.132067
1 0.0970779 0.190707
1 0.127291 0.188525
0 0.125216 0.150622
0.0706188 0.140673 0.162707
0.715587 0.118441 0.170214
1 0.162158 0.201373
1 0.172335 0.206531
0 0.6121 0.225727
0 0.619654 0.225223
0.609186 0.595254 0.117311
1 0.56701 0.135515
1 0.554711 0.160479
0.00849927 0.951156 0.292638
0.0116884 0.956405 0.298344
0.393912 0.938842 0.0962692
0.978912 0.928832 0.135546
1 0.914412 0.19678
0.110216 1 0.398733
0.110216 1 0.398733
0.28426 1 0.269764
0.902144 1 0.186648
1 1 0.234028
0 0.111879 0.605417
0 0.103868 0.614176
0.62446 0.0152132 0.744579
1 0.0821088 0.802167
1 0.110719 0.776226
0 0.184909 0.591134
0 0.196719 0.638941
0.673426 0.105333 0.804105
1 0.133074 0.816007
1 0.145037 0.791775
0.0151217 0.591821 0.685496
0.0359655 0.598688 0.691264
0.482597 0.543435 0.601678
0.993957 0.521737 0.636103
1 0.507149 0.619532
0.0874189 0.902464 0.773266
0.0923476 0.908232 0.785
0.34316 0.88455 0.620798
0.914015 0.907744 0.505562
1 0.891279 0.496071
0.154482 1 0.752239
0.158129 1 0.769375
0.254246 1 0.627985
0.809842 1 0.385702
1 1 0.379675
0 0.139147 0.798199
0 0.139162 0.818631
0.546136 0.0892958 1
1 0.121157 1
1 0.143221 1
0 0.224521 0.836164
0 0.234409 0.871885
0.556619 0.162097 1
1 0.163073 1
1 0.168673 1
0 0.630808 0.883497
0 0.637736 0.891539
0.366247 0.585718 0.968933
0.937362 0.488075 1
1 0.46215 1
0.128557 0.908827 1
0.132586 0.915892 1
0.363226 0.889921 0.987182
0.780362 0.852079 0.930831
1 0.822614 0.967742
0.244266 1 1
0.245075 1 1
0.3393 1 1
0.736049 1 0.96556
1 1 0.887312
0 0.139147 0.798199
0 0.143084 0.821317
0.501472 0.0996109 1
1 0.128542 1
1 0.15285 1
0 0.216831 0.859388
0 0.227237 0.890898
0.514076 0.165728 1
1 0.16405 1
1 0.171603 1
0 0.625971 0.924269
0 0.6327 0.930358
0.327016 0.584466 1
0.897871 0.486915 1
1 0.456001 1
0.118105 0.916335 1
0.122408 0.922972 1
0.318608 0.902159 1
0.729351 0.869368 1
1 0.808972 1
0.242664 1 1
0.242664 1 1
0.337987 1 1
0.71606 1 1
1 1 1
