LUT预设1/LUT全系打包/2024-VINTAGE系列lut/log灰片格式使用/清新coolstyle.cube
TITLE "Generated by Resolve"
LUT_3D_SIZE 9
0.00415045 0.0267491 0.0615854
0.0576028 0.0268864 0.0620127
0.378729 0.0206607 0.0583352
0.676249 0.0205081 0.0604257
0.858076 0.0208133 0.0665904
0.858076 0.0208133 0.0665904
0.858076 0.0208133 0.0665904
0.858076 0.0208133 0.0665904
0.858076 0.0208133 0.0665904
0.00627146 0.0458991 0.0628519
0.0129702 0.0348211 0.0623331
0.2215 0.0245975 0.0605783
0.565713 0.0204776 0.0589761
0.818524 0.0206302 0.0647746
0.858076 0.0208133 0.0665904
0.858076 0.0208133 0.0665904
0.858076 0.0208133 0.0665904
0.858076 0.0208133 0.0665904
0.0132906 0.146746 0.0677806
0.0117647 0.123629 0.0662089
0.108736 0.107576 0.0640574
0.475975 0.0781262 0.0609751
0.762585 0.0510262 0.0656443
0.865187 0.0335546 0.0690166
0.860502 0.0263981 0.0676432
0.858122 0.0209354 0.0666056
0.858076 0.0208133 0.0665904
0.0644236 0.436439 0.117174
0.0514382 0.390417 0.106477
0.0990616 0.367178 0.102708
0.483482 0.386084 0.10576
0.782086 0.335424 0.0728008
0.929931 0.269261 0.0700847
0.913893 0.198901 0.0736706
0.897108 0.136492 0.0753338
0.885542 0.0883955 0.0741741
0.213352 0.713787 0.185077
0.199207 0.69073 0.179751
0.183963 0.665934 0.173968
0.465034 0.660182 0.170626
0.749706 0.638483 0.171435
0.926223 0.606485 0.14641
0.953399 0.564889 0.126619
0.950408 0.514031 0.107301
0.947173 0.458961 0.0893873
0.315175 0.86804 0.226581
0.306279 0.854215 0.222827
0.296529 0.839246 0.218677
0.41648 0.822843 0.210208
0.70782 0.802197 0.205509
0.888899 0.783352 0.210758
0.966201 0.758892 0.20441
0.964324 0.731838 0.194095
0.962371 0.70428 0.183429
0.329351 0.891524 0.232807
0.329351 0.891524 0.232807
0.329351 0.891524 0.232807
0.332265 0.891524 0.232685
0.639979 0.891035 0.227298
0.842313 0.889448 0.233204
0.973327 0.888411 0.245228
0.974426 0.870527 0.240024
0.973129 0.852293 0.234897
0.329351 0.891524 0.232807
0.329351 0.891524 0.232807
0.329351 0.891524 0.232807
0.329351 0.891524 0.232807
0.514107 0.890883 0.227497
0.768978 0.889723 0.229877
0.928161 0.890455 0.241001
0.976364 0.891279 0.246403
0.976364 0.891279 0.246403
0.329351 0.891524 0.232807
0.329351 0.891524 0.232807
0.329351 0.891524 0.232807
0.329351 0.891524 0.232807
0.379385 0.891402 0.230869
0.68835 0.890745 0.227893
0.877501 0.889906 0.235874
0.976364 0.891279 0.246403
0.976364 0.891279 0.246403
0.0053254 0.0274968 0.121462
0.0418555 0.0277714 0.110826
0.350668 0.0220188 0.092607
0.662654 0.0205997 0.0781415
0.858228 0.0208133 0.0690013
0.858091 0.0208133 0.0667277
0.858076 0.0208133 0.0665904
0.858076 0.0208133 0.0665904
0.858076 0.0208133 0.0665904
0.00598154 0.0405585 0.079118
0.00981155 0.0317082 0.0676127
0.204089 0.0243381 0.0622416
0.552041 0.0205081 0.0589151
0.808713 0.0206455 0.0644083
0.858076 0.0208133 0.0665904
0.858076 0.0208133 0.0665904
0.858076 0.0208133 0.0665904
0.858076 0.0208133 0.0665904
0.0126192 0.136416 0.0670787
0.0112001 0.11458 0.0656901
0.0943313 0.0987259 0.0638437
0.457237 0.0704662 0.0607462
0.7505 0.0457923 0.0648203
0.863767 0.0313725 0.0686046
0.859785 0.0251164 0.0673533
0.858076 0.0208133 0.0665904
0.858076 0.0208133 0.0665904
0.0581674 0.416159 0.112306
0.0470588 0.370413 0.102159
0.0833295 0.344244 0.0978408
0.458595 0.364065 0.100404
0.767926 0.313527 0.0705119
0.926253 0.251179 0.0709544
0.909712 0.183444 0.0741588
0.894011 0.123995 0.0751354
0.882856 0.0791943 0.073518
0.207233 0.703807 0.182773
0.192615 0.680018 0.177264
0.176913 0.654414 0.171283
0.446006 0.649851 0.168292
0.739803 0.628916 0.168872
0.920882 0.595743 0.142535
0.952682 0.553201 0.122057
0.949645 0.500496 0.102342
0.946151 0.44062 0.0851148
0.31133 0.862013 0.224948
0.302174 0.847883 0.221088
0.29218 0.832822 0.216861
0.401495 0.816175 0.208774
0.698451 0.795911 0.203861
0.883589 0.777111 0.209125
0.965743 0.752407 0.201923
0.963836 0.724895 0.19144
0.961776 0.696178 0.18027
0.329351 0.891524 0.232807
0.329351 0.891524 0.232807
0.329351 0.891524 0.232807
0.329351 0.891524 0.232807
0.632715 0.891051 0.227222
0.837583 0.889036 0.232792
0.972122 0.886229 0.24445
0.97409 0.866712 0.238849
0.972702 0.846769 0.233326
0.329351 0.891524 0.232807
0.329351 0.891524 0.232807
0.329351 0.891524 0.232807
0.329351 0.891524 0.232807
0.5037 0.890974 0.227726
0.763516 0.889784 0.229679
0.924666 0.89044 0.240635
0.976364 0.891279 0.246403
0.976364 0.891279 0.246403
0.329351 0.891524 0.232807
0.329351 0.891524 0.232807
0.329351 0.891524 0.232807
0.329351 0.891524 0.232807
0.36965 0.891432 0.231235
0.679149 0.890852 0.227802
0.871748 0.889815 0.235294
0.976364 0.891279 0.246403
0.976364 0.891279 0.246403
0.00982681 0.0285954 0.337499
0.040177 0.0290532 0.319951
0.245762 0.032166 0.313146
0.561868 0.044007 0.303731
0.817578 0.0389258 0.273213
0.838529 0.0295109 0.218296
0.85275 0.0234836 0.172625
0.859312 0.021561 0.136568
0.860822 0.0208438 0.119097
0.00898756 0.038819 0.250416
0.0101167 0.0305028 0.217029
0.128939 0.0293431 0.194293
0.498146 0.0268254 0.178439
0.793515 0.0230411 0.163714
0.859525 0.0215 0.137652
0.860761 0.0207675 0.110765
0.85951 0.020676 0.0884108
0.858595 0.020798 0.0747845
0.0127413 0.130449 0.184619
0.0112917 0.108858 0.158816
0.0681926 0.0962387 0.140703
0.433051 0.070161 0.116548
0.73962 0.0417945 0.104189
0.863996 0.0295567 0.0909743
0.859617 0.0238193 0.0755169
0.858091 0.0208133 0.0667735
0.858076 0.0208133 0.0665904
0.0456092 0.404318 0.171466
0.0393988 0.356817 0.143526
0.0641031 0.326192 0.121996
0.432517 0.345678 0.110765
0.75285 0.292256 0.0708782
0.920699 0.231861 0.0716716
0.905394 0.167086 0.0745861
0.890761 0.111009 0.0747997
0.880171 0.0699321 0.0728771
0.200549 0.693309 0.181094
0.18587 0.669093 0.174685
0.169665 0.642512 0.16849
0.425193 0.639109 0.165957
0.729244 0.618738 0.166262
0.915099 0.584588 0.138598
0.951888 0.540261 0.116991
0.948775 0.485328 0.0973983
0.945037 0.421363 0.0810254
0.307057 0.855238 0.223148
0.29778 0.841123 0.219211
0.287556 0.826139 0.214923
0.384817 0.809155 0.207263
0.688136 0.78941 0.202228
0.877836 0.770382 0.207385
0.965255 0.74548 0.199313
0.963348 0.717617 0.188678
0.961196 0.687938 0.176989
0.329351 0.891524 0.232807
0.329351 0.891524 0.232807
0.329351 0.891524 0.232807
0.329503 0.891524 0.232807
0.62446 0.890883 0.227115
0.831937 0.887892 0.232136
0.967849 0.881132 0.242466
0.973663 0.861418 0.237278
0.972229 0.840909 0.231632
0.329351 0.891524 0.232807
0.329351 0.891524 0.232807
0.329351 0.891524 0.232807
0.329351 0.891524 0.232807
0.492164 0.89102 0.22797
0.757473 0.88986 0.229465
0.920638 0.890394 0.240223
0.976364 0.891279 0.246403
0.976364 0.891279 0.246403
0.329351 0.891524 0.232807
0.329351 0.891524 0.232807
0.329351 0.891524 0.232807
0.329351 0.891524 0.232807
0.361608 0.891447 0.23154
0.670558 0.890929 0.227726
0.866056 0.889738 0.234745
0.976104 0.891279 0.246372
0.976364 0.891279 0.246403
0.0131533 0.0309911 0.598779
0.0426795 0.0311742 0.5841
0.203738 0.0360418 0.590845
0.533028 0.0535592 0.606546
0.76408 0.0765698 0.617807
0.76968 0.0755016 0.578653
0.767971 0.0737011 0.534585
0.767239 0.071397 0.487358
0.766262 0.0704662 0.46038
0.012604 0.0373541 0.513573
0.0131075 0.0308843 0.47921
0.101701 0.0310369 0.466377
0.411704 0.0420691 0.485176
0.695872 0.0657054 0.508293
0.767071 0.0712139 0.481712
0.766781 0.0687877 0.43563
0.777035 0.0621653 0.385122
0.791333 0.0537575 0.340841
0.0170291 0.135653 0.468055
0.0153048 0.11223 0.430396
0.0624857 0.097734 0.406699
0.328984 0.100847 0.413306
0.638437 0.106752 0.41915
0.787274 0.0856031 0.387274
0.798688 0.0551156 0.325948
0.818463 0.0387579 0.269062
0.83769 0.0287785 0.221851
0.0368353 0.415824 0.497169
0.032166 0.368185 0.447791
0.0427405 0.3308 0.405829
0.292653 0.38587 0.432059
0.698817 0.35584 0.383383
0.897322 0.283894 0.327077
0.894804 0.190051 0.247364
0.887282 0.115816 0.185229
0.878782 0.06392 0.143389
0.127916 0.701839 0.487907
0.113085 0.676555 0.45156
0.0995956 0.64918 0.412192
0.331197 0.654047 0.378759
0.703075 0.63212 0.323461
0.908034 0.591043 0.244495
0.95288 0.538476 0.180468
0.948959 0.473396 0.127291
0.944244 0.400946 0.0903944
0.253071 0.861051 0.382132
0.250904 0.845502 0.354757
0.248936 0.828656 0.323766
0.341009 0.808362 0.285328
0.671916 0.786007 0.243565
0.86981 0.763958 0.226123
0.96466 0.736889 0.200748
0.962676 0.70782 0.184909
0.960494 0.677012 0.172549
0.321569 0.893797 0.259174
0.325261 0.892943 0.248661
0.328115 0.891951 0.237629
0.329641 0.891554 0.233158
0.613062 0.890272 0.226902
0.824811 0.886687 0.231357
0.962737 0.874479 0.239918
0.973159 0.854658 0.23537
0.971633 0.833494 0.229496
0.329351 0.891524 0.232807
0.329351 0.891524 0.232807
0.329351 0.891524 0.232807
0.329351 0.891524 0.232807
0.477165 0.891081 0.22829
0.749416 0.889967 0.229191
0.915496 0.890333 0.239704
0.976364 0.891279 0.246403
0.976364 0.891279 0.246403
0.329351 0.891524 0.232807
0.329351 0.891524 0.232807
0.329351 0.891524 0.232807
0.329351 0.891524 0.232807
0.352499 0.891478 0.231861
0.660197 0.891005 0.227634
0.859144 0.889632 0.234119
0.974273 0.891234 0.246174
0.976364 0.891279 0.246403
0.0151675 0.0328832 0.728985
0.0412757 0.0335546 0.731899
0.188968 0.04065 0.759823
0.528878 0.0621195 0.810529
0.764187 0.0858625 0.834348
0.78024 0.087129 0.819242
0.778897 0.0855573 0.792065
0.777646 0.0840925 0.763531
0.776883 0.0831617 0.747829
0.0154574 0.0366522 0.72398
0.0157321 0.0329137 0.711849
0.100938 0.0350347 0.714488
0.401465 0.0510872 0.743069
0.69398 0.075227 0.767483
0.777279 0.0836805 0.75642
0.776013 0.0822614 0.728939
0.774289 0.0810407 0.699489
0.773083 0.0801251 0.674647
0.0231479 0.139208 0.721202
0.0207065 0.115984 0.691859
0.0646982 0.100145 0.671824
0.304845 0.103273 0.689815
0.630915 0.109804 0.707942
0.779568 0.0997177 0.69955
0.772686 0.0794385 0.661265
0.771481 0.0779126 0.627802
0.770382 0.0763104 0.596017
0.0442664 0.42475 0.765347
0.0400092 0.379751 0.730449
0.0462348 0.339452 0.698146
0.238163 0.384649 0.724697
0.628016 0.389563 0.732357
0.83267 0.357534 0.716472
0.827588 0.288075 0.664927
0.809781 0.22063 0.601953
0.794781 0.167849 0.536019
0.113542 0.696544 0.763287
0.0964981 0.673289 0.741436
0.0822461 0.647318 0.717815
0.2421 0.65156 0.708995
0.61651 0.660914 0.705699
0.853117 0.636072 0.676143
0.916976 0.597269 0.636484
0.914061 0.546441 0.580758
0.911589 0.48159 0.51284
0.231006 0.857939 0.713756
0.222751 0.843961 0.693858
0.213458 0.828748 0.672435
0.258946 0.814466 0.648859
0.585885 0.811154 0.626963
0.82945 0.788998 0.585657
0.956725 0.763272 0.529091
0.957687 0.731868 0.466041
0.958755 0.696605 0.395544
0.262684 0.907179 0.622354
0.263462 0.907073 0.602716
0.26424 0.906981 0.580835
0.2654 0.906828 0.549569
0.533211 0.910369 0.513542
0.79823 0.901122 0.466957
0.956847 0.881788 0.426963
0.97409 0.859327 0.375463
0.972488 0.834638 0.322118
0.270008 0.906279 0.477302
0.273167 0.905516 0.454887
0.277333 0.90457 0.426932
0.283925 0.90309 0.390707
0.425605 0.901335 0.352834
0.733211 0.89633 0.310933
0.909468 0.89398 0.28716
0.97673 0.893126 0.270359
0.976471 0.891859 0.253239
0.293858 0.900618 0.348211
0.303151 0.898299 0.314427
0.311727 0.896254 0.289006
0.319524 0.894453 0.265888
0.340093 0.892699 0.245869
0.648417 0.890974 0.22742
0.851453 0.889464 0.233524
0.971923 0.891173 0.245899
0.976364 0.891279 0.246403
0.0151675 0.0328832 0.728985
0.0344396 0.0334173 0.731029
0.167941 0.0393225 0.755642
0.507652 0.060502 0.807218
0.755871 0.0857099 0.8477
0.781857 0.0888533 0.85243
0.781857 0.0888533 0.85243
0.781857 0.0888533 0.85243
0.781857 0.0888533 0.85243
0.015259 0.0338293 0.729351
0.0151675 0.0328832 0.728985
0.0927749 0.035523 0.740841
0.384176 0.0526894 0.790433
0.687388 0.0779583 0.837507
0.781857 0.0888533 0.85243
0.781857 0.0888533 0.85243
0.781857 0.0888533 0.85243
0.781811 0.0888075 0.851667
0.0237125 0.128496 0.767529
0.0221103 0.108827 0.760037
0.0603647 0.0937972 0.758587
0.286793 0.0972763 0.794751
0.624445 0.104952 0.837186
0.785199 0.100481 0.855772
0.781857 0.0888533 0.852338
0.781216 0.0882429 0.841779
0.780819 0.0877852 0.831632
0.0478981 0.417456 0.877485
0.0444038 0.375769 0.863294
0.0479133 0.336004 0.850172
0.220371 0.374685 0.886091
0.617594 0.383597 0.91046
0.828824 0.350057 0.904067
0.833249 0.288136 0.876478
0.817624 0.225315 0.83859
0.803174 0.172854 0.798871
0.117235 0.693706 0.935073
0.100969 0.670405 0.92549
0.0865187 0.645472 0.912886
0.220386 0.646342 0.908721
0.599985 0.656214 0.907103
0.820493 0.634577 0.890242
0.890196 0.602274 0.868757
0.881651 0.557473 0.841779
0.871839 0.505043 0.811627
0.235462 0.85304 0.909682
0.22562 0.839246 0.896483
0.214359 0.82417 0.882185
0.24358 0.80766 0.864805
0.553796 0.806607 0.85536
0.788281 0.795727 0.843473
0.928145 0.775708 0.823438
0.928267 0.749538 0.796185
0.926665 0.720913 0.766949
0.26099 0.910155 0.851148
0.26041 0.909957 0.839277
0.259937 0.909819 0.82649
0.25919 0.909087 0.808942
0.48513 0.915938 0.800244
0.743633 0.911833 0.784085
0.925383 0.893477 0.757656
0.954833 0.874418 0.727596
0.954635 0.853101 0.69099
0.259098 0.908965 0.773495
0.259495 0.908797 0.760678
0.259876 0.908598 0.7458
0.260487 0.908415 0.725887
0.351675 0.912596 0.707866
0.660533 0.919951 0.6907
0.878996 0.915953 0.657969
0.972091 0.914656 0.628351
0.973785 0.912657 0.588479
0.26128 0.908156 0.703212
0.26183 0.90779 0.677775
0.262242 0.907576 0.655024
0.262425 0.907454 0.627436
0.267353 0.907408 0.595712
0.566705 0.914458 0.563561
0.822705 0.908721 0.518273
0.969345 0.907271 0.482521
0.977371 0.904555 0.436652
0.0151675 0.0328832 0.728985
0.0276341 0.0332647 0.730251
0.148806 0.0381628 0.751858
0.485756 0.0589761 0.804059
0.747387 0.0846265 0.846448
0.781857 0.0888533 0.85243
0.781857 0.0888533 0.85243
0.781857 0.0888533 0.85243
0.781857 0.0888533 0.85243
0.0151675 0.0328832 0.728985
0.0151675 0.0328832 0.728985
0.08365 0.035111 0.738994
0.360327 0.0512245 0.786938
0.673991 0.0766003 0.835645
0.781857 0.0888533 0.85243
0.781857 0.0888533 0.85243
0.781857 0.0888533 0.85243
0.781857 0.0888533 0.85243
0.0224765 0.113878 0.76199
0.0210727 0.0961471 0.755123
0.0520027 0.081651 0.75256
0.25835 0.0818036 0.785183
0.604242 0.0903487 0.830121
0.782742 0.0919203 0.853315
0.781857 0.0888533 0.85243
0.781857 0.0888533 0.85243
0.781857 0.0888533 0.85243
0.0454566 0.387304 0.867643
0.0421149 0.346609 0.853223
0.0419013 0.306249 0.838499
0.191257 0.334127 0.87042
0.592355 0.351217 0.904753
0.816464 0.323873 0.914473
0.830182 0.267033 0.903975
0.816739 0.210315 0.889204
0.804715 0.164401 0.875715
0.104677 0.678553 0.940047
0.0915999 0.655146 0.935714
0.0796368 0.629648 0.930877
0.189303 0.628763 0.938506
0.580026 0.643214 0.952789
0.808667 0.62118 0.953155
0.888701 0.588342 0.953063
0.880674 0.542107 0.948226
0.871458 0.489219 0.941878
0.236042 0.845762 0.960967
0.227771 0.832227 0.959457
0.218387 0.817319 0.957641
0.236881 0.800397 0.956542
0.537896 0.800031 0.964324
0.77879 0.790829 0.970565
0.917662 0.771969 0.969223
0.915373 0.746075 0.964096
0.910857 0.717937 0.951095
0.27332 0.912016 0.96762
0.27332 0.912016 0.96762
0.27332 0.912016 0.96762
0.272679 0.911162 0.966094
0.472267 0.915297 0.968261
0.727993 0.908568 0.960525
0.903807 0.895674 0.949645
0.938704 0.877745 0.931991
0.935714 0.857588 0.910765
0.270741 0.911681 0.95021
0.269627 0.911543 0.942672
0.268315 0.911376 0.934051
0.2663 0.911131 0.920607
0.339422 0.914412 0.908553
0.64097 0.923812 0.903197
0.849378 0.927413 0.890181
0.956405 0.925597 0.869871
0.957259 0.924758 0.848951
0.264973 0.910979 0.905653
0.263462 0.91078 0.889632
0.262333 0.910536 0.875349
0.261341 0.910246 0.858427
0.260227 0.90985 0.839292
0.527062 0.920058 0.831205
0.776684 0.924727 0.816815
0.946868 0.922377 0.793362
0.962036 0.921386 0.768032
0.0151675 0.0328832 0.728985
0.0210727 0.0330663 0.72958
0.131991 0.0372778 0.748547
0.462364 0.0575113 0.801114
0.734051 0.0830396 0.844434
0.781857 0.0888533 0.85243
0.781857 0.0888533 0.85243
0.781857 0.0888533 0.85243
0.781857 0.0888533 0.85243
0.0151675 0.0328832 0.728985
0.0151675 0.0328832 0.728985
0.0750591 0.0347448 0.737408
0.33666 0.0496681 0.783139
0.660197 0.0751812 0.833524
0.781857 0.0888533 0.85243
0.781857 0.0888533 0.85243
0.781857 0.0888533 0.85243
0.781857 0.0888533 0.85243
0.0213779 0.100252 0.756756
0.0201572 0.0845502 0.750546
0.0440833 0.070634 0.747311
0.231632 0.0681468 0.776379
0.584817 0.0794232 0.824125
0.781857 0.0888533 0.85243
0.781857 0.0888533 0.85243
0.781857 0.0888533 0.85243
0.781857 0.0888533 0.85243
0.0429084 0.356329 0.857023
0.0395666 0.317037 0.842252
0.0372778 0.277073 0.826993
0.167025 0.292958 0.853147
0.56434 0.316518 0.894118
0.802426 0.295171 0.9075
0.824475 0.241917 0.897734
0.811368 0.188968 0.88307
0.799512 0.146532 0.870268
0.0925002 0.661509 0.936812
0.0821241 0.637354 0.932296
0.0734722 0.610391 0.927031
0.160189 0.605646 0.93344
0.553933 0.625681 0.950149
0.794293 0.604303 0.951171
0.885527 0.569787 0.951278
0.876966 0.520302 0.945739
0.867033 0.464637 0.93875
0.229831 0.83563 0.959854
0.221103 0.821653 0.958175
0.21117 0.806226 0.956161
0.219684 0.788022 0.954726
0.514397 0.788693 0.962936
0.765576 0.780194 0.96939
0.91516 0.761059 0.969818
0.913603 0.734539 0.966873
0.908827 0.705623 0.963989
0.27332 0.912016 0.96762
0.27332 0.912016 0.96762
0.27332 0.912016 0.96762
0.272694 0.910857 0.967498
0.451698 0.907927 0.971588
0.714748 0.900847 0.977401
0.893965 0.888899 0.982757
0.9355 0.87216 0.983825
0.931258 0.852308 0.981414
0.27332 0.912016 0.96762
0.27332 0.912016 0.96762
0.27332 0.912016 0.96762
0.27332 0.912016 0.96762
0.33109 0.914519 0.969589
0.630961 0.923705 0.977615
0.840345 0.929656 0.983627
0.950698 0.93051 0.988571
0.950698 0.93051 0.988449
0.27332 0.912016 0.96762
0.27332 0.912016 0.96762
0.27332 0.912016 0.96762
0.27332 0.912016 0.96762
0.27332 0.912016 0.96762
0.514641 0.920058 0.973648
0.76582 0.928374 0.974258
0.933944 0.929686 0.971176
0.951598 0.929213 0.959548
0.0151675 0.0328832 0.728985
0.0166476 0.032929 0.729137
0.120958 0.0367895 0.746334
0.445502 0.0564279 0.798581
0.725383 0.0821241 0.843168
0.781857 0.0888533 0.85243
0.781857 0.0888533 0.85243
0.781857 0.0888533 0.85243
0.781857 0.0888533 0.85243
0.0151675 0.0328832 0.728985
0.0151675 0.0328832 0.728985
0.0674907 0.0344854 0.736171
0.315206 0.0482185 0.779644
0.647593 0.0739147 0.831495
0.781857 0.0888533 0.85243
0.781857 0.0888533 0.85243
0.781857 0.0888533 0.85243
0.781857 0.0888533 0.85243
0.0205692 0.0892042 0.752483
0.0192874 0.0741741 0.746365
0.0369421 0.0607462 0.742535
0.207904 0.0571603 0.768795
0.565377 0.0693828 0.818265
0.780972 0.0887312 0.852262
0.781857 0.0888533 0.85243
0.781857 0.0888533 0.85243
0.781857 0.0888533 0.85243
0.0404822 0.32929 0.847089
0.0371862 0.289235 0.831724
0.0339971 0.25034 0.816358
0.145647 0.254063 0.836027
0.534844 0.281865 0.882338
0.786053 0.266926 0.899718
0.818845 0.218723 0.8916
0.806287 0.170108 0.87744
0.794629 0.130755 0.865461
0.0829328 0.646372 0.933913
0.0756542 0.619272 0.928756
0.0687266 0.590707 0.923003
0.136416 0.580682 0.92752
0.52578 0.606836 0.947021
0.779126 0.585809 0.94905
0.881926 0.549538 0.949065
0.873014 0.497642 0.943023
0.86276 0.43975 0.935256
0.224323 0.826841 0.958846
0.21442 0.811307 0.956817
0.203693 0.795087 0.954513
0.201755 0.774777 0.952453
0.488365 0.776699 0.961547
0.751644 0.769009 0.967971
0.912261 0.74966 0.968414
0.911711 0.722499 0.965667
0.906569 0.692866 0.962707
0.27332 0.912016 0.96762
0.27332 0.912016 0.96762
0.27332 0.912016 0.96762
0.271687 0.90898 0.967269
0.429923 0.899214 0.970031
0.700771 0.892454 0.976364
0.884199 0.880522 0.981643
0.933745 0.863844 0.98294
0.929473 0.843595 0.980117
0.27332 0.912016 0.96762
0.27332 0.912016 0.96762
0.27332 0.912016 0.96762
0.27332 0.912016 0.96762
0.317815 0.914015 0.969177
0.616846 0.923171 0.977066
0.831174 0.92958 0.983368
0.950698 0.93051 0.988571
0.950698 0.93051 0.988571
0.27332 0.912016 0.96762
0.27332 0.912016 0.96762
0.27332 0.912016 0.96762
0.27332 0.912016 0.96762
0.27332 0.912016 0.96762
0.498283 0.919799 0.973892
0.755474 0.928191 0.981414
0.929412 0.930419 0.987594
0.950698 0.93051 0.988571
