LUT预设1/LUT全系打包/2024-VINTAGE系列lut/log灰片格式使用/清新coolstyle.cube
TITLE "Generated by Resolve"
LUT_3D_SIZE 5
0.00415045 0.0267491 0.0615854
0.378729 0.0206607 0.0583352
0.858076 0.0208133 0.0665904
0.858076 0.0208133 0.0665904
0.858076 0.0208133 0.0665904
0.0132906 0.146746 0.0677806
0.108736 0.107576 0.0640574
0.762585 0.0510262 0.0656443
0.860502 0.0263981 0.0676432
0.858076 0.0208133 0.0665904
0.213352 0.713787 0.185077
0.183963 0.665934 0.173968
0.749706 0.638483 0.171435
0.953399 0.564889 0.126619
0.947173 0.458961 0.0893873
0.329351 0.891524 0.232807
0.329351 0.891524 0.232807
0.639979 0.891035 0.227298
0.973327 0.888411 0.245228
0.973129 0.852293 0.234897
0.329351 0.891524 0.232807
0.329351 0.891524 0.232807
0.379385 0.891402 0.230869
0.877501 0.889906 0.235874
0.976364 0.891279 0.246403
0.00982681 0.0285954 0.337499
0.245762 0.032166 0.313146
0.817578 0.0389258 0.273213
0.85275 0.0234836 0.172625
0.860822 0.0208438 0.119097
0.0127413 0.130449 0.184619
0.0681926 0.0962387 0.140703
0.73962 0.0417945 0.104189
0.859617 0.0238193 0.0755169
0.858076 0.0208133 0.0665904
0.200549 0.693309 0.181094
0.169665 0.642512 0.16849
0.729244 0.618738 0.166262
0.951888 0.540261 0.116991
0.945037 0.421363 0.0810254
0.329351 0.891524 0.232807
0.329351 0.891524 0.232807
0.62446 0.890883 0.227115
0.967849 0.881132 0.242466
0.972229 0.840909 0.231632
0.329351 0.891524 0.232807
0.329351 0.891524 0.232807
0.361608 0.891447 0.23154
0.866056 0.889738 0.234745
0.976364 0.891279 0.246403
0.0151675 0.0328832 0.728985
0.188968 0.04065 0.759823
0.764187 0.0858625 0.834348
0.778897 0.0855573 0.792065
0.776883 0.0831617 0.747829
0.0231479 0.139208 0.721202
0.0646982 0.100145 0.671824
0.630915 0.109804 0.707942
0.772686 0.0794385 0.661265
0.770382 0.0763104 0.596017
0.113542 0.696544 0.763287
0.0822461 0.647318 0.717815
0.61651 0.660914 0.705699
0.916976 0.597269 0.636484
0.911589 0.48159 0.51284
0.262684 0.907179 0.622354
0.26424 0.906981 0.580835
0.533211 0.910369 0.513542
0.956847 0.881788 0.426963
0.972488 0.834638 0.322118
0.293858 0.900618 0.348211
0.311727 0.896254 0.289006
0.340093 0.892699 0.245869
0.851453 0.889464 0.233524
0.976364 0.891279 0.246403
0.0151675 0.0328832 0.728985
0.148806 0.0381628 0.751858
0.747387 0.0846265 0.846448
0.781857 0.0888533 0.85243
0.781857 0.0888533 0.85243
0.0224765 0.113878 0.76199
0.0520027 0.081651 0.75256
0.604242 0.0903487 0.830121
0.781857 0.0888533 0.85243
0.781857 0.0888533 0.85243
0.104677 0.678553 0.940047
0.0796368 0.629648 0.930877
0.580026 0.643214 0.952789
0.888701 0.588342 0.953063
0.871458 0.489219 0.941878
0.27332 0.912016 0.96762
0.27332 0.912016 0.96762
0.472267 0.915297 0.968261
0.903807 0.895674 0.949645
0.935714 0.857588 0.910765
0.264973 0.910979 0.905653
0.262333 0.910536 0.875349
0.260227 0.90985 0.839292
0.776684 0.924727 0.816815
0.962036 0.921386 0.768032
0.0151675 0.0328832 0.728985
0.120958 0.0367895 0.746334
0.725383 0.0821241 0.843168
0.781857 0.0888533 0.85243
0.781857 0.0888533 0.85243
0.0205692 0.0892042 0.752483
0.0369421 0.0607462 0.742535
0.565377 0.0693828 0.818265
0.781857 0.0888533 0.85243
0.781857 0.0888533 0.85243
0.0829328 0.646372 0.933913
0.0687266 0.590707 0.923003
0.52578 0.606836 0.947021
0.881926 0.549538 0.949065
0.86276 0.43975 0.935256
0.27332 0.912016 0.96762
0.27332 0.912016 0.96762
0.429923 0.899214 0.970031
0.884199 0.880522 0.981643
0.929473 0.843595 0.980117
0.27332 0.912016 0.96762
0.27332 0.912016 0.96762
0.27332 0.912016 0.96762
0.755474 0.928191 0.981414
0.950698 0.93051 0.988571
