LUT预设1/LUT全系打包/2024-VINTAGE系列lut/log灰片格式使用/清新coolstyle.cube
TITLE "Generated by Resolve"
LUT_3D_SIZE 33
0.00415045 0.0267491 0.0615854
0.00442512 0.0267491 0.0616007
0.0139162 0.0269474 0.0618296
0.027512 0.0270085 0.0619364
0.0576028 0.0268864 0.0620127
0.118303 0.0256962 0.0614939
0.202686 0.023331 0.0606851
0.290806 0.0213016 0.0595254
0.378729 0.0206607 0.0583352
0.464118 0.0205234 0.0582895
0.542397 0.0204929 0.058854
0.611933 0.0205081 0.0594492
0.676249 0.0205081 0.0604257
0.736385 0.0205844 0.0618601
0.792401 0.0206302 0.063798
0.838987 0.0207065 0.0656748
0.858076 0.0208133 0.0665904
0.858076 0.0208133 0.0665904
0.858076 0.0208133 0.0665904
0.858076 0.0208133 0.0665904
0.858076 0.0208133 0.0665904
0.858076 0.0208133 0.0665904
0.858076 0.0208133 0.0665904
0.858076 0.0208133 0.0665904
0.858076 0.0208133 0.0665904
0.858076 0.0208133 0.0665904
0.858076 0.0208133 0.0665904
0.858076 0.0208133 0.0665904
0.858076 0.0208133 0.0665904
0.858076 0.0208133 0.0665904
0.858076 0.0208133 0.0665904
0.858076 0.0208133 0.0665904
0.858076 0.0208133 0.0665904
0.00415045 0.0267491 0.0615854
0.00415045 0.0267491 0.0615854
0.00698863 0.0267796 0.0616312
0.0164187 0.0269627 0.0618448
0.0321813 0.0270085 0.0619669
0.0726024 0.0266575 0.0619364
0.142367 0.0250401 0.0612345
0.229038 0.0226139 0.0603952
0.316564 0.0210574 0.0590982
0.402319 0.0206302 0.0582895
0.484413 0.0204929 0.0584421
0.557504 0.0205234 0.0589456
0.625025 0.0205844 0.0597238
0.688502 0.0205234 0.0606546
0.748714 0.0205234 0.0621195
0.805402 0.0206149 0.0642863
0.854932 0.020798 0.066453
0.85803 0.0208133 0.0665904
0.858076 0.0208133 0.0665904
0.858076 0.0208133 0.0665904
0.858076 0.0208133 0.0665904
0.858076 0.0208133 0.0665904
0.858076 0.0208133 0.0665904
0.858076 0.0208133 0.0665904
0.858076 0.0208133 0.0665904
0.858076 0.0208133 0.0665904
0.858076 0.0208133 0.0665904
0.858076 0.0208133 0.0665904
0.858076 0.0208133 0.0665904
0.858076 0.0208133 0.0665904
0.858076 0.0208133 0.0665904
0.858076 0.0208133 0.0665904
0.858076 0.0208133 0.0665904
0.00430304 0.0281376 0.0616617
0.00415045 0.0268254 0.0615854
0.00433356 0.0267491 0.0615854
0.010544 0.0268559 0.0617227
0.0216526 0.0270085 0.0619364
0.0480354 0.0269627 0.0620279
0.1037 0.0260471 0.0616617
0.183108 0.0239109 0.0608682
0.26891 0.0217136 0.0598459
0.355276 0.0207523 0.0585794
0.440574 0.0205539 0.0582437
0.521248 0.0205234 0.0587015
0.593774 0.0204776 0.0592203
0.660716 0.0204776 0.0601053
0.723995 0.0205234 0.0614176
0.783413 0.0205386 0.0634012
0.838132 0.020676 0.0656138
0.856062 0.020798 0.0664836
0.858076 0.0208133 0.0665904
0.858076 0.0208133 0.0665904
0.858076 0.0208133 0.0665904
0.858076 0.0208133 0.0665904
0.858076 0.0208133 0.0665904
0.858076 0.0208133 0.0665904
0.858076 0.0208133 0.0665904
0.858076 0.0208133 0.0665904
0.858076 0.0208133 0.0665904
0.858076 0.0208133 0.0665904
0.858076 0.0208133 0.0665904
0.858076 0.0208133 0.0665904
0.858076 0.0208133 0.0665904
0.858076 0.0208133 0.0665904
0.858076 0.0208133 0.0665904
0.00520333 0.0358129 0.062211
0.00477607 0.0324712 0.0619364
0.00454719 0.0305333 0.061799
0.00732433 0.0294804 0.0618143
0.0165713 0.0284886 0.0619516
0.0352483 0.0273747 0.0620279
0.0796521 0.0268406 0.0619059
0.154711 0.0247807 0.0610666
0.243992 0.0222019 0.0601816
0.333272 0.0208896 0.0588998
0.420844 0.0205844 0.0582589
0.504509 0.0204776 0.0585794
0.579385 0.0204623 0.0590677
0.647623 0.0205081 0.0599222
0.712108 0.0205386 0.0611582
0.772335 0.0205692 0.063035
0.828428 0.0206149 0.065156
0.853803 0.0207675 0.0663462
0.858076 0.0208133 0.0665904
0.858076 0.0208133 0.0665904
0.858076 0.0208133 0.0665904
0.858076 0.0208133 0.0665904
0.858076 0.0208133 0.0665904
0.858076 0.0208133 0.0665904
0.858076 0.0208133 0.0665904
0.858076 0.0208133 0.0665904
0.858076 0.0208133 0.0665904
0.858076 0.0208133 0.0665904
0.858076 0.0208133 0.0665904
0.858076 0.0208133 0.0665904
0.858076 0.0208133 0.0665904
0.858076 0.0208133 0.0665904
0.858076 0.0208133 0.0665904
0.00627146 0.0458991 0.0628519
0.00576791 0.0404822 0.0625772
0.00538643 0.0374151 0.0623331
0.0055848 0.0358892 0.062211
0.0129702 0.0348211 0.0623331
0.0283513 0.0332799 0.0624094
0.064332 0.0314183 0.062211
0.132616 0.0282444 0.0614481
0.2215 0.0245975 0.0605783
0.313222 0.0223392 0.0592355
0.402747 0.0212863 0.058381
0.48893 0.0206149 0.0585031
0.565713 0.0204776 0.0589761
0.635386 0.0205386 0.0598001
0.70042 0.0205692 0.0609751
0.761624 0.0206149 0.0627146
0.818524 0.0206302 0.0647746
0.850706 0.0207523 0.0662089
0.858076 0.0208133 0.0665904
0.858076 0.0208133 0.0665904
0.858076 0.0208133 0.0665904
0.858076 0.0208133 0.0665904
0.858076 0.0208133 0.0665904
0.858076 0.0208133 0.0665904
0.858076 0.0208133 0.0665904
0.858076 0.0208133 0.0665904
0.858076 0.0208133 0.0665904
0.858076 0.0208133 0.0665904
0.858076 0.0208133 0.0665904
0.858076 0.0208133 0.0665904
0.858076 0.0208133 0.0665904
0.858076 0.0208133 0.0665904
0.858076 0.0208133 0.0665904
0.00746166 0.0603342 0.063447
0.00691234 0.0536202 0.0631876
0.00660716 0.049897 0.0630198
0.0065919 0.0481117 0.0629587
0.00996414 0.0466163 0.0629587
0.0219272 0.0442206 0.0629282
0.0473335 0.0419928 0.0626383
0.100237 0.0393225 0.0620432
0.180774 0.0350347 0.0612955
0.275319 0.0300603 0.0599985
0.370657 0.0265049 0.0589151
0.462165 0.0241855 0.0586862
0.543542 0.0229801 0.0590372
0.616205 0.0222019 0.0597238
0.682841 0.0214389 0.0607156
0.745296 0.0207828 0.0621958
0.803479 0.0206455 0.0642405
0.845212 0.0207675 0.0660105
0.858076 0.0208133 0.0665904
0.858076 0.0208133 0.0665904
0.858076 0.0208133 0.0665904
0.858076 0.0208133 0.0665904
0.858076 0.0208133 0.0665904
0.858076 0.0208133 0.0665904
0.858076 0.0208133 0.0665904
0.858076 0.0208133 0.0665904
0.858076 0.0208133 0.0665904
0.858076 0.0208133 0.0665904
0.858076 0.0208133 0.0665904
0.858076 0.0208133 0.0665904
0.858076 0.0208133 0.0665904
0.858076 0.0208133 0.0665904
0.858076 0.0208133 0.0665904
0.00901808 0.0811475 0.0641642
0.00846876 0.0734112 0.06392
0.00813306 0.068986 0.0637675
0.00798047 0.0670024 0.0637064
0.00915541 0.0653239 0.0636606
0.0172885 0.0624094 0.0635538
0.0371099 0.059205 0.0632181
0.0791638 0.0560006 0.0624704
0.148272 0.0515297 0.0615854
0.237705 0.0450752 0.0605631
0.334783 0.0389868 0.0596628
0.430777 0.0347295 0.0594492
0.51809 0.0316167 0.0597238
0.594903 0.0288701 0.0601205
0.663828 0.0265812 0.0607919
0.727703 0.0250095 0.0620584
0.787198 0.0239872 0.0639963
0.838682 0.0230564 0.066041
0.858366 0.0220188 0.0667735
0.858183 0.021149 0.0666361
0.858076 0.0208133 0.0665904
0.858076 0.0208133 0.0665904
0.858076 0.0208133 0.0665904
0.858076 0.0208133 0.0665904
0.858076 0.0208133 0.0665904
0.858076 0.0208133 0.0665904
0.858076 0.0208133 0.0665904
0.858076 0.0208133 0.0665904
0.858076 0.0208133 0.0665904
0.858076 0.0208133 0.0665904
0.858076 0.0208133 0.0665904
0.858076 0.0208133 0.0665904
0.858076 0.0208133 0.0665904
0.0109255 0.109407 0.0654154
0.0103304 0.0999924 0.0649729
0.00996414 0.0946517 0.064744
0.00981155 0.0924544 0.0646525
0.0099794 0.0904555 0.0645609
0.0143587 0.0869917 0.0643931
0.0297551 0.0832227 0.0641947
0.0639353 0.07953 0.0635538
0.126848 0.0751812 0.0620279
0.212268 0.0682841 0.0606241
0.30695 0.0606851 0.0601511
0.403555 0.0539559 0.0601511
0.494682 0.0489357 0.0605478
0.576349 0.0441291 0.0609598
0.647929 0.0391546 0.0615091
0.712551 0.0348974 0.0626841
0.772641 0.0319524 0.0644236
0.828458 0.0298314 0.0666209
0.85684 0.0280766 0.0677958
0.860716 0.0265049 0.0677043
0.859831 0.0251469 0.0673686
0.859113 0.0238956 0.0670787
0.85864 0.0225834 0.066865
0.858259 0.0213931 0.0666819
0.858076 0.0208133 0.0665904
0.858076 0.0208133 0.0665904
0.858076 0.0208133 0.0665904
0.858076 0.0208133 0.0665904
0.858076 0.0208133 0.0665904
0.858076 0.0208133 0.0665904
0.858076 0.0208133 0.0665904
0.858076 0.0208133 0.0665904
0.858076 0.0208133 0.0665904
0.0132906 0.146746 0.0677806
0.0125429 0.135149 0.0669871
0.0121004 0.128679 0.0665446
0.0119326 0.126101 0.0663767
0.0117647 0.123629 0.0662089
0.0135805 0.119356 0.0659495
0.0248112 0.115297 0.0657664
0.0527352 0.111421 0.0654307
0.108736 0.107576 0.0640574
0.19266 0.100893 0.0614328
0.28716 0.0923934 0.0601816
0.383474 0.0840467 0.0603037
0.475975 0.0781262 0.0609751
0.560494 0.0731975 0.0617075
0.63563 0.0661326 0.0624399
0.702373 0.0581064 0.0638132
0.762585 0.0510262 0.0656443
0.818296 0.0446784 0.0678721
0.855924 0.0398871 0.0694133
0.866972 0.0364691 0.0695354
0.865187 0.0335546 0.0690166
0.863783 0.0313725 0.0686351
0.862638 0.0296483 0.0683604
0.861524 0.0279545 0.06804
0.860502 0.0263981 0.0676432
0.85951 0.024918 0.0672618
0.8589 0.0233921 0.0669871
0.858381 0.0217899 0.066743
0.858122 0.0209354 0.0666056
0.858076 0.0208133 0.0665904
0.858076 0.0208133 0.0665904
0.858076 0.0208133 0.0665904
0.858076 0.0208133 0.0665904
0.0172732 0.196323 0.072282
0.0159762 0.18146 0.0707256
0.0153201 0.173465 0.0699931
0.0150912 0.170489 0.069749
0.0148775 0.167666 0.0695048
0.0149233 0.162234 0.0690623
0.0222019 0.157412 0.0687419
0.0462959 0.154101 0.0684672
0.0968032 0.152987 0.068101
0.178332 0.149722 0.0658427
0.275395 0.140551 0.0622721
0.375082 0.129091 0.0605173
0.470497 0.120867 0.0608072
0.554162 0.115251 0.0616159
0.628824 0.108583 0.0626688
0.696178 0.100175 0.0646372
0.756741 0.0902113 0.0670481
0.812146 0.0803388 0.0693828
0.858732 0.0711681 0.0715801
0.878065 0.0627604 0.0723735
0.875654 0.0554055 0.0717784
0.873259 0.0493019 0.0711833
0.87097 0.0437629 0.0706188
0.868833 0.0395056 0.0700389
0.866819 0.0361028 0.0694591
0.864973 0.0330968 0.0689555
0.863767 0.031342 0.0686809
0.862516 0.029572 0.0683909
0.861341 0.027863 0.0679637
0.860166 0.0261692 0.0675212
0.859297 0.0244602 0.0671702
0.858671 0.0226902 0.0668803
0.858366 0.0217441 0.066743
0.0260624 0.261295 0.0813458
0.023331 0.243137 0.0786145
0.021912 0.233143 0.0771954
0.0214542 0.229648 0.0767224
0.0209354 0.225742 0.0761883
0.0199741 0.218769 0.0752422
0.0233616 0.211902 0.0744488
0.0449378 0.210101 0.0746014
0.0931563 0.21268 0.0751049
0.171786 0.216022 0.0753948
0.270512 0.213397 0.0729686
0.375769 0.203067 0.0670024
0.477913 0.190158 0.0628672
0.564965 0.177829 0.0616159
0.637705 0.167956 0.0618753
0.702022 0.158618 0.0634012
0.759014 0.148531 0.0661631
0.8112 0.137987 0.0692149
0.860258 0.127794 0.0725414
0.887404 0.11635 0.0746624
0.889143 0.104219 0.0746624
0.886275 0.0925154 0.0741741
0.883497 0.0814832 0.0736706
0.880964 0.0722515 0.0730602
0.878431 0.0633097 0.0724651
0.875914 0.0557717 0.0718547
0.873381 0.0491035 0.0712291
0.870939 0.0432288 0.0706188
0.868757 0.0392767 0.0700084
0.86659 0.0355688 0.069398
0.865003 0.0331273 0.0690013
0.863676 0.0313115 0.0687114
0.862974 0.0304112 0.068574
0.0410773 0.34345 0.0961318
0.0369421 0.321614 0.0920119
0.034699 0.30959 0.0897841
0.0339208 0.305333 0.0890211
0.0330816 0.30074 0.0881819
0.0314946 0.292042 0.0865949
0.0308537 0.282643 0.0850233
0.0480049 0.280049 0.0853895
0.0948196 0.285328 0.0868696
0.171145 0.293675 0.0888075
0.270024 0.299413 0.0906691
0.377584 0.296666 0.0869917
0.483772 0.28632 0.0777295
0.576288 0.274052 0.0705272
0.652094 0.259937 0.0660868
0.717266 0.244678 0.0639963
0.773617 0.229709 0.0641337
0.822507 0.216571 0.0657816
0.86714 0.20415 0.0691386
0.898985 0.191531 0.0726787
0.907973 0.177081 0.0744335
0.903838 0.161669 0.0749218
0.899886 0.146685 0.0751965
0.89633 0.133165 0.075227
0.892805 0.119524 0.075227
0.889784 0.106874 0.0747997
0.886793 0.0942855 0.0743267
0.88397 0.0830396 0.0737774
0.881392 0.0731975 0.0731823
0.878737 0.0637369 0.0725567
0.876127 0.0559243 0.0719158
0.873426 0.0486915 0.0712444
0.871931 0.0445869 0.0708629
0.0644236 0.436439 0.117174
0.0573281 0.412772 0.111559
0.0537118 0.400092 0.108598
0.0526741 0.395712 0.107637
0.0514382 0.390417 0.106477
0.0493019 0.381094 0.104417
0.0469368 0.369924 0.102052
0.0559243 0.363134 0.101122
0.0990616 0.367178 0.102708
0.174838 0.377401 0.10544
0.272099 0.386313 0.108888
0.378637 0.389013 0.110185
0.483482 0.386084 0.10576
0.5776 0.377966 0.0968338
0.656794 0.366247 0.0878462
0.723827 0.351888 0.0795758
0.782086 0.335424 0.0728008
0.832563 0.319051 0.0687572
0.876722 0.302922 0.0676585
0.912917 0.28629 0.0687419
0.929931 0.269261 0.0700847
0.92694 0.251286 0.0708019
0.922911 0.233646 0.0717327
0.918471 0.216434 0.0727245
0.913893 0.198901 0.0736706
0.909392 0.182437 0.0743114
0.90486 0.165835 0.0749828
0.900816 0.150591 0.075227
0.897108 0.136492 0.0753338
0.893538 0.122393 0.0752422
0.890318 0.108904 0.0749065
0.887251 0.0958114 0.0744335
0.885542 0.0883955 0.0741741
0.104158 0.524895 0.1393
0.0945296 0.503838 0.134066
0.0894026 0.492592 0.131243
0.087541 0.488289 0.130159
0.0854658 0.483452 0.128954
0.0816358 0.474464 0.126741
0.0771344 0.463645 0.124086
0.0751354 0.45333 0.121675
0.109087 0.453391 0.122194
0.181704 0.462165 0.124758
0.276081 0.470542 0.127108
0.379583 0.474403 0.129442
0.481819 0.47364 0.130617
0.574334 0.469688 0.127306
0.652827 0.461143 0.11899
0.719875 0.449714 0.109071
0.778729 0.436332 0.0986954
0.830701 0.42153 0.0889448
0.875776 0.406332 0.081529
0.914473 0.390539 0.0764782
0.937881 0.373266 0.0730297
0.940429 0.35523 0.0710765
0.938369 0.335302 0.0701305
0.936156 0.315465 0.069398
0.933852 0.295903 0.0690929
0.931319 0.277363 0.0697337
0.928756 0.258228 0.0703899
0.924605 0.240208 0.0713664
0.920012 0.222171 0.0724346
0.915236 0.204028 0.0733959
0.910552 0.186725 0.0741894
0.905974 0.170062 0.0748608
0.903227 0.160021 0.0752575
0.143893 0.600229 0.158358
0.134203 0.582544 0.153887
0.129152 0.573098 0.151476
0.127291 0.569467 0.150561
0.125185 0.565469 0.149554
0.121157 0.558007 0.147646
0.116258 0.548928 0.145327
0.110811 0.538827 0.142733
0.127535 0.534005 0.141695
0.188647 0.538903 0.143282
0.279973 0.546349 0.145159
0.380316 0.54931 0.146273
0.479271 0.547051 0.147173
0.568811 0.543557 0.148013
0.645197 0.537636 0.145327
0.711223 0.528878 0.138216
0.770077 0.51812 0.128283
0.822278 0.50634 0.117784
0.867689 0.49424 0.108476
0.907805 0.481575 0.100389
0.936629 0.467948 0.0933089
0.946822 0.452491 0.0876173
0.945891 0.435813 0.0834669
0.9449 0.418387 0.0793164
0.943816 0.400916 0.0759594
0.942519 0.382681 0.0738079
0.941268 0.364477 0.0715953
0.939269 0.344671 0.0704662
0.937148 0.323888 0.0694896
0.93492 0.303929 0.0691081
0.932448 0.284077 0.0694438
0.929732 0.264775 0.0701305
0.927977 0.252979 0.0705882
0.181888 0.662379 0.173373
0.173053 0.647974 0.169909
0.168399 0.640299 0.168032
0.166705 0.637491 0.167346
0.164645 0.634073 0.166506
0.160937 0.627909 0.164996
0.156573 0.62063 0.163195
0.15172 0.612528 0.161196
0.151797 0.604562 0.159258
0.197818 0.605112 0.159472
0.280674 0.609689 0.160662
0.37763 0.610834 0.159731
0.473259 0.60795 0.159609
0.560876 0.603494 0.160555
0.637049 0.598672 0.161395
0.701869 0.592233 0.159487
0.75964 0.58407 0.153597
0.811841 0.574746 0.144961
0.858076 0.564843 0.136187
0.899138 0.554681 0.128252
0.933135 0.544427 0.120729
0.951446 0.53286 0.114183
0.950698 0.519707 0.109361
0.949981 0.506508 0.104585
0.949172 0.492317 0.0997635
0.948257 0.477058 0.0950179
0.947372 0.461982 0.0902419
0.94638 0.4448 0.085771
0.945403 0.427268 0.0813001
0.944305 0.409293 0.0775616
0.943069 0.390768 0.0747692
0.941711 0.372152 0.0725261
0.940826 0.360296 0.0710765
0.213352 0.713787 0.185077
0.206058 0.7019 0.18233
0.20235 0.695842 0.180926
0.2009 0.693477 0.180392
0.199207 0.69073 0.179751
0.196201 0.685863 0.178622
0.192523 0.679881 0.177218
0.188403 0.673213 0.175647
0.183963 0.665934 0.173968
0.209277 0.662577 0.173236
0.279042 0.66334 0.173281
0.371008 0.663066 0.171771
0.465034 0.660182 0.170626
0.551598 0.654856 0.170581
0.627985 0.649775 0.171481
0.693141 0.644694 0.172351
0.749706 0.638483 0.171435
0.801007 0.631098 0.167132
0.847761 0.622812 0.160037
0.88957 0.614511 0.152804
0.926223 0.606485 0.14641
0.950607 0.597223 0.140261
0.954757 0.586908 0.135485
0.954101 0.576211 0.131151
0.953399 0.564889 0.126619
0.952651 0.553002 0.12195
0.951904 0.54078 0.117159
0.951156 0.527565 0.112276
0.950408 0.514031 0.107301
0.949599 0.499825 0.102403
0.948714 0.484703 0.0975052
0.947784 0.469276 0.0926528
0.947173 0.458961 0.0893873
0.241978 0.758343 0.195987
0.235431 0.74818 0.193484
0.232197 0.743145 0.192248
0.230991 0.741238 0.191791
0.229557 0.738964 0.191241
0.22681 0.734676 0.190188
0.223621 0.729686 0.188968
0.220081 0.724102 0.18761
0.216159 0.717861 0.186145
0.220523 0.712139 0.184848
0.276463 0.710445 0.184115
0.362524 0.709438 0.183139
0.454826 0.706783 0.181155
0.542062 0.701747 0.180545
0.617823 0.695827 0.180331
0.683589 0.690623 0.180972
0.740871 0.685466 0.182391
0.791577 0.679423 0.182376
0.837736 0.672496 0.1794
0.879805 0.665156 0.174014
0.917281 0.658427 0.168185
0.946105 0.650996 0.16286
0.958251 0.64271 0.158404
0.957656 0.6336 0.154589
0.957076 0.624353 0.150759
0.956466 0.61445 0.146715
0.955856 0.604669 0.142702
0.9552 0.593942 0.138338
0.954528 0.583062 0.133928
0.953826 0.571878 0.129412
0.953094 0.559976 0.124697
0.952316 0.547555 0.119829
0.951812 0.539376 0.116625
0.268589 0.798428 0.206943
0.262608 0.789471 0.204456
0.259632 0.785 0.203235
0.258595 0.783413 0.202808
0.257176 0.781277 0.202228
0.254688 0.777539 0.201221
0.251789 0.773175 0.200031
0.248447 0.768139 0.198672
0.244923 0.762753 0.197269
0.241123 0.756893 0.195773
0.276509 0.753506 0.194522
0.35404 0.751736 0.193179
0.44329 0.748928 0.191058
0.531228 0.744427 0.189929
0.606516 0.738201 0.189364
0.672374 0.732464 0.189212
0.731029 0.727306 0.190219
0.782498 0.722377 0.191867
0.828473 0.716793 0.192615
0.8701 0.710277 0.19089
0.907866 0.703914 0.186816
0.940276 0.697505 0.182071
0.960113 0.690547 0.178042
0.960922 0.682704 0.174838
0.960433 0.674846 0.171695
0.959854 0.666514 0.168261
0.959274 0.658015 0.164767
0.958679 0.649134 0.161074
0.958068 0.639841 0.157198
0.957473 0.63061 0.153353
0.956863 0.620874 0.149355
0.956222 0.610529 0.145113
0.955795 0.603708 0.142306
0.293507 0.834775 0.217487
0.287999 0.826688 0.215122
0.285374 0.822843 0.214008
0.284352 0.821347 0.213581
0.283055 0.819455 0.213016
0.280842 0.81619 0.21207
0.278141 0.812192 0.210895
0.275135 0.807736 0.209613
0.271809 0.802853 0.208225
0.268315 0.797696 0.206775
0.27834 0.793103 0.20528
0.344381 0.790127 0.20293
0.430838 0.78735 0.200519
0.518868 0.783383 0.198825
0.59501 0.777508 0.198215
0.660868 0.771298 0.19765
0.719646 0.76614 0.197803
0.771862 0.761578 0.199268
0.818418 0.756863 0.201251
0.860609 0.751446 0.202258
0.898436 0.745403 0.201114
0.932372 0.73933 0.198077
0.95758 0.732891 0.19469
0.963928 0.726024 0.191882
0.963455 0.718868 0.189166
0.962905 0.711635 0.186313
0.962341 0.704067 0.183352
0.961807 0.696513 0.180346
0.961303 0.688731 0.177234
0.960784 0.680598 0.173983
0.960235 0.672145 0.170565
0.959655 0.663569 0.167041
0.959258 0.65771 0.164614
0.315175 0.86804 0.226581
0.310521 0.860746 0.224613
0.308309 0.857328 0.223682
0.307469 0.856046 0.223331
0.306279 0.854215 0.222827
0.304372 0.851255 0.222004
0.302068 0.8477 0.221027
0.299504 0.843732 0.219944
0.296529 0.839246 0.218677
0.293385 0.834638 0.21738
0.290074 0.829847 0.216007
0.336217 0.825956 0.213397
0.41648 0.822843 0.210208
0.50457 0.819043 0.207691
0.582879 0.813825 0.20679
0.649256 0.807752 0.20589
0.70782 0.802197 0.205509
0.760067 0.797528 0.206363
0.807263 0.793118 0.208225
0.850477 0.78851 0.209964
0.888899 0.783352 0.210758
0.922911 0.777829 0.210391
0.951415 0.771862 0.20885
0.966659 0.765423 0.206851
0.966201 0.758892 0.20441
0.965743 0.75227 0.201907
0.965255 0.745647 0.199359
0.964782 0.738918 0.196796
0.964324 0.731838 0.194095
0.963836 0.724529 0.191318
0.963317 0.717067 0.188449
0.962753 0.709484 0.185473
0.962371 0.70428 0.183429
0.327199 0.887877 0.231846
0.325307 0.884703 0.231022
0.324178 0.882811 0.230518
0.323644 0.881926 0.230289
0.322988 0.880827 0.229999
0.321965 0.879133 0.229572
0.32076 0.877134 0.229068
0.319371 0.874846 0.228473
0.317693 0.872129 0.227771
0.315328 0.868437 0.226764
0.312505 0.863996 0.225544
0.329717 0.859556 0.223621
0.400458 0.855894 0.22002
0.487587 0.851774 0.216632
0.569177 0.847318 0.215442
0.636378 0.841978 0.214069
0.695689 0.836362 0.213428
0.748012 0.831006 0.213611
0.79556 0.826307 0.214679
0.83949 0.822003 0.21651
0.87892 0.817639 0.218235
0.913314 0.812894 0.219272
0.944289 0.807645 0.219821
0.966903 0.801816 0.219638
0.968841 0.795987 0.217853
0.968444 0.790036 0.215824
0.967987 0.78378 0.213581
0.967529 0.777569 0.211322
0.967056 0.770947 0.208896
0.966583 0.764279 0.206424
0.96611 0.75758 0.203891
0.965637 0.750744 0.201312
0.965301 0.74609 0.199542
0.329351 0.891524 0.232807
0.329351 0.891524 0.232807
0.329351 0.891524 0.232807
0.329351 0.891524 0.232807
0.329351 0.891524 0.232807
0.329351 0.891524 0.232807
0.329351 0.891524 0.232807
0.329351 0.891524 0.232807
0.329335 0.891493 0.232807
0.32842 0.889937 0.232395
0.326955 0.887449 0.231724
0.325734 0.884596 0.230945
0.381537 0.881636 0.228
0.465232 0.87863 0.224735
0.550988 0.875273 0.222736
0.621805 0.871931 0.221851
0.681849 0.867979 0.221347
0.735592 0.863111 0.221363
0.783627 0.858 0.221759
0.827893 0.853315 0.222965
0.868345 0.849088 0.224903
0.903822 0.844831 0.226673
0.935653 0.840467 0.228092
0.962142 0.835248 0.229145
0.971359 0.829862 0.228504
0.971008 0.824414 0.227008
0.97055 0.818708 0.225284
0.970077 0.813001 0.223514
0.969604 0.80705 0.221622
0.969177 0.801144 0.219638
0.968765 0.795148 0.217578
0.968353 0.78883 0.215381
0.968048 0.784543 0.213855
0.329351 0.891524 0.232807
0.329351 0.891524 0.232807
0.329351 0.891524 0.232807
0.329351 0.891524 0.232807
0.329351 0.891524 0.232807
0.329351 0.891524 0.232807
0.329351 0.891524 0.232807
0.329351 0.891524 0.232807
0.329351 0.891524 0.232807
0.329351 0.891524 0.232807
0.329351 0.891524 0.232807
0.329351 0.891524 0.232807
0.357717 0.891463 0.231662
0.434195 0.891432 0.229389
0.5243 0.890867 0.227314
0.601648 0.890959 0.2271
0.664988 0.890822 0.227436
0.720546 0.888182 0.227802
0.770352 0.883955 0.228336
0.815229 0.879927 0.229145
0.856474 0.876402 0.230732
0.893507 0.873014 0.23299
0.925948 0.869657 0.235004
0.954833 0.866026 0.236759
0.973465 0.861494 0.2374
0.973404 0.856336 0.236042
0.973037 0.851194 0.234607
0.972595 0.845823 0.233051
0.972137 0.840497 0.231495
0.97171 0.834943 0.229908
0.971328 0.829404 0.228367
0.970932 0.823636 0.226764
0.970657 0.819623 0.225605
0.329351 0.891524 0.232807
0.329351 0.891524 0.232807
0.329351 0.891524 0.232807
0.329351 0.891524 0.232807
0.329351 0.891524 0.232807
0.329351 0.891524 0.232807
0.329351 0.891524 0.232807
0.329351 0.891524 0.232807
0.329351 0.891524 0.232807
0.329351 0.891524 0.232807
0.329351 0.891524 0.232807
0.329351 0.891524 0.232807
0.332265 0.891524 0.232685
0.397894 0.891447 0.230381
0.486839 0.890974 0.228016
0.570748 0.890913 0.226978
0.639979 0.891035 0.227298
0.698756 0.890608 0.227985
0.751431 0.889876 0.229252
0.799069 0.889372 0.230991
0.842313 0.889448 0.233204
0.88127 0.889921 0.236271
0.915343 0.890379 0.239734
0.946761 0.89044 0.242954
0.973327 0.888411 0.245228
0.975692 0.884138 0.244221
0.97528 0.879698 0.242863
0.974868 0.875166 0.241459
0.974426 0.870527 0.240024
0.974044 0.866026 0.238651
0.973693 0.861158 0.237278
0.973373 0.856077 0.23592
0.973129 0.852293 0.234897
0.329351 0.891524 0.232807
0.329351 0.891524 0.232807
0.329351 0.891524 0.232807
0.329351 0.891524 0.232807
0.329351 0.891524 0.232807
0.329351 0.891524 0.232807
0.329351 0.891524 0.232807
0.329351 0.891524 0.232807
0.329351 0.891524 0.232807
0.329351 0.891524 0.232807
0.329351 0.891524 0.232807
0.329351 0.891524 0.232807
0.329351 0.891524 0.232807
0.367025 0.891447 0.231312
0.447532 0.891356 0.229023
0.537804 0.890837 0.2271
0.613001 0.891005 0.227192
0.675044 0.890837 0.227634
0.730312 0.890227 0.228656
0.780285 0.88957 0.230259
0.825315 0.889311 0.232136
0.86595 0.889616 0.234775
0.902174 0.890135 0.238239
0.934569 0.890562 0.241672
0.963043 0.890929 0.244846
0.976364 0.891279 0.246403
0.976364 0.891279 0.246403
0.976364 0.891279 0.246403
0.976364 0.891279 0.246403
0.976364 0.891279 0.246403
0.976196 0.889448 0.245853
0.975814 0.885435 0.244617
0.975494 0.881926 0.243534
0.329351 0.891524 0.232807
0.329351 0.891524 0.232807
0.329351 0.891524 0.232807
