LUT预设1/LUT全系打包/2024-VINTAGE系列lut/log灰片格式使用/清新CLEAN.cube
TITLE "Generated by Resolve"
LUT_3D_SIZE 9
0.0145876 0.0667582 0.0755474
0.0359655 0.0659342 0.0717327
0.101701 0.0608377 0.0681621
0.411002 0.0244297 0.0358892
0.650782 0.0141299 0.0263523
0.89427 0.0428931 0.0582895
1 0.0981308 0.118746
1 0.126467 0.14876
1 0.126467 0.14876
0.0152743 0.0765393 0.0812085
0.0291447 0.0755932 0.0788739
0.0896773 0.0707256 0.0725261
0.400504 0.0357671 0.042298
0.650172 0.0190433 0.0295262
0.889967 0.0417639 0.0570687
1 0.0982223 0.118853
1 0.126467 0.14876
1 0.126467 0.14876
0 0.119295 0.094316
0.0028687 0.120607 0.0945907
0.0801862 0.132296 0.0986038
0.409247 0.125612 0.0705882
0.715572 0.120592 0.0763714
0.940871 0.132555 0.0995499
1 0.164782 0.143984
1 0.183948 0.173037
1 0.173007 0.169635
0 0.369299 0.128313
0 0.374914 0.128969
0 0.377554 0.127581
0.319112 0.35053 0.0876173
0.650126 0.344656 0.088365
0.873365 0.344701 0.0995346
1 0.351843 0.128893
1 0.365103 0.16582
1 0.33843 0.166751
0 0.616602 0.182177
0 0.623224 0.184298
0 0.623514 0.180438
0.180484 0.60116 0.0969558
0.612512 0.595376 0.0926223
0.840452 0.58088 0.108644
1 0.567514 0.121187
1 0.572732 0.153719
1 0.554604 0.154543
0 0.806119 0.237003
0 0.812222 0.238468
0 0.811292 0.235737
0.101503 0.790967 0.17322
0.527489 0.780163 0.0894636
0.800961 0.763989 0.106767
1 0.742779 0.12726
1 0.740444 0.163699
1 0.728191 0.169589
0.00830091 0.951308 0.289677
0.0115663 0.957092 0.29308
0.0111238 0.956313 0.292622
0.061738 0.947372 0.245075
0.393179 0.938079 0.0957961
0.732677 0.939193 0.101198
0.977905 0.927611 0.135134
1 0.921706 0.178973
1 0.91281 0.196551
0.0855726 1 0.371405
0.0890669 1 0.375235
0.0890974 1 0.37525
0.115145 1 0.353506
0.349401 1 0.199619
0.705058 1 0.153552
0.960327 1 0.181262
1 1 0.210376
1 1 0.227649
0.110216 1 0.398733
0.110216 1 0.398733
0.110216 1 0.398733
0.122927 1 0.391135
0.281453 1 0.271321
0.640009 1 0.172732
0.899886 1 0.186465
1 1 0.20827
1 1 0.234028
0.00483711 0.0699779 0.0892042
0.0244755 0.0692454 0.0853895
0.0978866 0.0616464 0.0776074
0.40676 0.0251774 0.0456245
0.649409 0.0145266 0.030808
0.89192 0.0422827 0.0576333
1 0.0978103 0.118395
1 0.126467 0.14876
1 0.126467 0.14876
0.0118563 0.0777447 0.0890059
0.0235294 0.0772564 0.0874495
0.0895552 0.0708324 0.0787213
0.399832 0.0359503 0.0498512
0.650126 0.0191806 0.0332494
0.889113 0.0415198 0.0568246
1 0.0981613 0.118776
1 0.126467 0.14876
1 0.126467 0.14876
0 0.119295 0.0986038
0.00366217 0.121019 0.0992142
0.0814069 0.132937 0.101808
0.409262 0.125948 0.0719463
0.715297 0.120974 0.0763561
0.941054 0.133028 0.0996109
1 0.165286 0.144121
1 0.184451 0.173175
1 0.173587 0.169894
0 0.369528 0.128344
0 0.375631 0.129046
0 0.378576 0.127626
0.320363 0.351965 0.0874952
0.651148 0.34638 0.0885328
0.874434 0.346609 0.0997024
1 0.354009 0.129046
1 0.367147 0.165743
1 0.340734 0.166674
0 0.617716 0.182528
0 0.624506 0.18471
0 0.625071 0.180804
0.183459 0.60293 0.0965591
0.61445 0.597208 0.0928054
0.842008 0.582818 0.108766
1 0.569512 0.121416
1 0.574792 0.153918
1 0.556649 0.154467
0 0.807431 0.237308
0 0.813642 0.238804
0 0.812879 0.235981
0.10367 0.792584 0.172366
0.530327 0.781933 0.0894179
0.802777 0.765927 0.106859
1 0.744823 0.127672
1 0.742779 0.164431
1 0.730419 0.170016
0.0090486 0.952636 0.290455
0.0123751 0.958526 0.293919
0.0119783 0.957839 0.293523
0.064271 0.948608 0.244144
0.39765 0.940078 0.0957046
0.735439 0.941512 0.101946
0.980636 0.929976 0.136065
1 0.924346 0.179889
1 0.915434 0.196933
0.0864271 1 0.372351
0.0899825 1 0.376226
0.0900282 1 0.376287
0.116884 1 0.353933
0.354635 1 0.199039
0.708568 1 0.154559
0.963424 1 0.182208
1 1 0.210956
1 1 0.227573
0.110216 1 0.398733
0.110216 1 0.398733
0.110216 1 0.398733
0.123598 1 0.390661
0.285893 1 0.268879
0.6439 1 0.172656
0.90312 1 0.186725
1 1 0.208667
1 1 0.234028
0 0.083299 0.211963
0 0.0818952 0.203235
0.0607614 0.0653849 0.173938
0.380301 0.0239414 0.153597
0.64477 0.013489 0.132067
0.912062 0.044892 0.162905
1 0.0970779 0.190707
1 0.127123 0.201434
1 0.127291 0.188525
0 0.0891432 0.179217
0 0.0886244 0.178515
0.0556191 0.0749676 0.164218
0.376837 0.0332189 0.154421
0.645365 0.0166171 0.134112
0.911711 0.0445411 0.167391
1 0.0973678 0.198062
1 0.126894 0.20882
1 0.127245 0.193866
0 0.125216 0.150622
0 0.127016 0.152499
0.0706188 0.140673 0.162707
0.404181 0.122911 0.168597
0.715587 0.118441 0.170214
0.947906 0.129473 0.172793
1 0.162158 0.201373
1 0.182605 0.219013
1 0.172335 0.206531
0 0.36112 0.198184
0 0.366583 0.203922
0.00767529 0.370184 0.197192
0.307118 0.344411 0.140002
0.646357 0.342351 0.132128
0.87332 0.342657 0.139178
1 0.349035 0.160357
1 0.363088 0.191714
1 0.337072 0.186023
0 0.6121 0.225727
0 0.618738 0.23122
0 0.619654 0.225223
0.172122 0.598947 0.134127
0.609186 0.595254 0.117311
0.838819 0.580621 0.129183
1 0.56701 0.135515
1 0.572305 0.163729
1 0.554711 0.160479
0 0.803876 0.258503
0 0.810071 0.263066
0 0.809583 0.259602
0.10103 0.790143 0.19205
0.524041 0.780133 0.100145
0.80032 0.764584 0.114565
1 0.74342 0.131518
1 0.741238 0.165103
1 0.729137 0.169772
0.00849927 0.951156 0.292638
0.0120394 0.956985 0.29897
0.0116884 0.956405 0.298344
0.0622416 0.947738 0.24802
0.393912 0.938842 0.0962692
0.733471 0.940215 0.101472
0.978912 0.928832 0.135546
1 0.923171 0.1794
1 0.914412 0.19678
0.085832 1 0.371695
0.0894331 1 0.375631
0.0895399 1 0.375738
0.115984 1 0.353796
0.351965 1 0.199466
0.706889 1 0.154162
0.962066 1 0.181857
1 1 0.210758
1 1 0.227604
0.110216 1 0.398733
0.110216 1 0.398733
0.110216 1 0.398733
0.123323 1 0.39086
0.28426 1 0.269764
0.642573 1 0.172686
0.902144 1 0.186648
1 1 0.208545
1 1 0.234028
0 0.0995346 0.448829
0 0.0986496 0.441993
0 0.0843061 0.427817
0.345174 0.0161746 0.460487
0.629114 0.00199893 0.454673
0.914397 0.0325475 0.523568
1 0.079118 0.551308
1 0.110842 0.549432
1 0.112215 0.510689
0 0.106538 0.423331
0 0.106432 0.425269
0 0.0941176 0.423468
0.341604 0.023331 0.464225
0.626093 0.00207523 0.454734
0.915038 0.0325933 0.529793
1 0.0796368 0.562844
1 0.110262 0.56408
1 0.111589 0.529168
0 0.158602 0.370336
0 0.161273 0.376013
0 0.17174 0.424414
0.38558 0.112154 0.515175
0.694072 0.0985275 0.528862
0.940368 0.10811 0.539422
1 0.137835 0.555383
1 0.161135 0.557336
1 0.152316 0.524742
0 0.357351 0.424735
0 0.363806 0.431891
0.0170596 0.365713 0.430213
0.258289 0.333623 0.377707
0.599344 0.312718 0.39794
0.856962 0.317906 0.408911
1 0.319478 0.410437
1 0.332082 0.421805
1 0.308202 0.397314
0.0179751 0.579873 0.497841
0.0209354 0.586679 0.509133
0.0409094 0.58706 0.501991
0.184283 0.565652 0.42121
0.545785 0.557443 0.32961
0.803082 0.562539 0.326177
1 0.550439 0.309087
1 0.551705 0.310323
1 0.5355 0.288487
0.0217136 0.772549 0.497093
0.0240482 0.778119 0.510811
0.0298619 0.777691 0.505165
0.11722 0.762142 0.421378
0.455024 0.753979 0.256062
0.774853 0.754574 0.255482
0.995727 0.732021 0.249042
1 0.727184 0.255482
1 0.71635 0.245365
0.0205539 0.932128 0.454368
0.0263371 0.93698 0.475059
0.0258488 0.936538 0.473365
0.0623331 0.93135 0.405493
0.338048 0.922072 0.221057
0.702129 0.929519 0.187243
0.961563 0.921508 0.202808
1 0.914824 0.228595
1 0.907698 0.237339
0.0888991 1 0.448249
0.0938582 1 0.470268
0.0940871 1 0.471382
0.115618 1 0.439078
0.318868 1 0.268803
0.679179 1 0.192966
0.947021 1 0.212528
1 1 0.236362
1 1 0.250385
0.112703 1 0.439933
0.112993 1 0.445411
0.113039 1 0.446235
0.124239 1 0.436774
0.269352 1 0.312856
0.623316 1 0.194827
0.891035 1 0.20267
1 1 0.221653
1 1 0.245228
0 0.111879 0.605417
0 0.112123 0.603845
0 0.103868 0.614176
0.237812 0.0454108 0.710643
0.62446 0.0152132 0.744579
0.899245 0.0416114 0.78497
1 0.0821088 0.802167
1 0.111421 0.801663
1 0.110719 0.776226
0 0.120073 0.596109
0 0.120592 0.599298
0 0.112062 0.613931
0.232959 0.0508431 0.712657
0.621592 0.0150149 0.745159
0.900618 0.042237 0.790372
1 0.0835431 0.811078
1 0.111711 0.81239
1 0.111055 0.789334
0 0.184909 0.591134
0 0.187015 0.592996
0 0.196719 0.638941
0.294377 0.143572 0.776699
0.673426 0.105333 0.804105
0.921599 0.10779 0.808789
1 0.133074 0.816007
1 0.15465 0.814374
1 0.145037 0.791775
0 0.390387 0.593194
0 0.397009 0.598062
0 0.398566 0.605493
0.167498 0.364874 0.634272
0.575326 0.300893 0.716213
0.828504 0.288487 0.719158
1 0.290455 0.722057
1 0.303014 0.731517
1 0.27866 0.715648
0.0151217 0.591821 0.685496
0.0175937 0.598993 0.693156
0.0359655 0.598688 0.691264
0.180484 0.573526 0.650462
0.482597 0.543435 0.601678
0.725719 0.522179 0.624552
0.993957 0.521737 0.636103
1 0.523827 0.637629
1 0.507149 0.619532
0.075349 0.754788 0.759823
0.0765087 0.761227 0.767651
0.0818494 0.760388 0.765805
0.171679 0.738277 0.725505
0.451682 0.705867 0.63917
0.68069 0.694499 0.570977
0.932311 0.704997 0.559701
1 0.712215 0.560449
1 0.700221 0.540612
0.0874189 0.902464 0.773266
0.0927291 0.908675 0.78584
0.0923476 0.908232 0.785
0.123796 0.900389 0.746441
0.34316 0.88455 0.620798
0.599985 0.881361 0.494133
0.914015 0.907744 0.505562
1 0.901732 0.5093
1 0.891279 0.496071
0.146044 1 0.796277
0.152636 1 0.81297
0.152987 1 0.813886
0.166232 1 0.788312
0.309499 1 0.643687
0.567178 1 0.482948
0.876326 1 0.459663
1 1 0.45301
1 1 0.441917
0.154482 1 0.752239
0.157656 1 0.767163
0.158129 1 0.769375
0.164385 1 0.75668
0.254246 1 0.627985
0.515404 1 0.440177
0.809842 1 0.385702
1 1 0.378042
1 1 0.379675
0 0.124788 0.714412
0 0.125536 0.71548
0 0.121767 0.740093
0.151232 0.079942 0.870634
0.59147 0.0505989 0.968521
0.872099 0.0640726 0.972976
1 0.0995346 0.988128
1 0.12517 0.994995
1 0.123033 0.983154
0 0.13164 0.71252
0 0.132158 0.715053
0 0.127443 0.740627
0.143725 0.0819562 0.868223
0.590921 0.0509804 0.969757
0.87512 0.0651255 0.97586
1 0.101305 0.992874
1 0.126162 0.999268
1 0.124224 0.990066
0 0.206287 0.737774
0 0.208392 0.738354
0 0.215442 0.779721
0.22298 0.176364 0.939376
0.615122 0.129168 1
0.890852 0.123934 1
1 0.145449 1
1 0.162921 1
1 0.152499 0.998184
0 0.411231 0.742382
0 0.417945 0.745937
0 0.419486 0.760891
0.109117 0.385931 0.823835
0.482826 0.329473 0.944091
0.80061 0.291875 0.96553
1 0.281682 0.961501
1 0.290455 0.965393
1 0.267414 0.950057
0 0.614572 0.79942
0 0.621576 0.806271
0.000640879 0.621973 0.807584
0.114885 0.599588 0.791318
0.410803 0.569146 0.822232
0.696086 0.518425 0.88365
0.960113 0.48716 0.873793
1 0.48925 0.874601
1 0.474311 0.86305
0.0713817 0.764355 0.87863
0.073167 0.770565 0.885267
0.0764477 0.769802 0.88426
0.149706 0.751904 0.858351
0.41825 0.725399 0.803449
0.631876 0.695872 0.770382
0.871977 0.66746 0.789609
1 0.679088 0.810407
1 0.672908 0.802838
0.123354 0.899077 0.933593
0.127413 0.90602 0.942809
0.127199 0.905638 0.942336
0.158602 0.897505 0.924468
0.387884 0.873228 0.864179
0.626795 0.847333 0.801175
0.821744 0.843778 0.755581
1 0.860883 0.759213
1 0.866072 0.759808
0.197803 1 0.993469
0.202838 1 0.999481
0.203204 1 0.999725
0.218265 1 0.993744
0.362142 1 0.919539
0.584772 0.999619 0.823911
0.771191 0.998169 0.73875
1 1 0.731762
1 1 0.72752
0.213642 1 0.986877
0.215747 1 0.994858
0.216068 1 0.996078
0.222416 1 0.990402
0.307881 1 0.924163
0.527214 1 0.807507
0.699794 1 0.696208
1 1 0.678737
1 1 0.683146
0 0.139147 0.798199
0 0.139818 0.797772
0 0.139162 0.818631
0.125917 0.110292 0.958022
0.546136 0.0892958 1
0.844572 0.0915999 1
1 0.121157 1
1 0.145144 1
1 0.143221 1
0 0.143587 0.795056
0 0.143938 0.796231
0 0.14197 0.81796
0.119738 0.110964 0.955581
0.546929 0.0899519 1
0.848463 0.0926833 1
1 0.12311 1
1 0.1458 1
1 0.144396 1
0 0.224521 0.836164
0 0.227024 0.836774
0 0.234409 0.871885
0.193866 0.203372 1
0.556619 0.162097 1
0.856016 0.147189 1
1 0.163073 1
1 0.178607 1
1 0.168673 1
0 0.427939 0.836561
0 0.434867 0.839597
0 0.435752 0.854734
0.0857557 0.4038 0.935912
0.427558 0.355444 1
0.754009 0.310414 1
1 0.290318 1
1 0.298039 1
1 0.275807 1
0 0.630808 0.883497
0 0.637964 0.889067
0 0.637736 0.891539
0.0831464 0.6168 0.90312
0.366247 0.585718 0.968933
0.623743 0.542184 1
0.937362 0.488075 1
1 0.478462 1
1 0.46215 1
0.0595254 0.777951 0.950805
0.0620432 0.784161 0.956268
0.0639506 0.783352 0.955688
0.121965 0.768368 0.94403
0.360296 0.746334 0.931395
0.575021 0.717739 0.956039
0.846235 0.666529 0.999908
1 0.648936 1
1 0.637247 1
0.128557 0.908827 1
0.132738 0.916167 1
0.132586 0.915892 1
0.162737 0.90808 1
0.363226 0.889921 0.987182
0.593011 0.871427 0.94786
0.780362 0.852079 0.930831
0.992676 0.827451 0.961807
1 0.822614 0.967742
0.218326 1 1
0.222431 1 1
0.222751 1 1
0.238743 1 1
0.374365 1 1
0.614923 0.999878 1
0.798428 0.97673 0.976608
0.958267 0.956725 0.927077
1 0.956329 0.913222
0.244266 1 1
0.244968 1 1
0.245075 1 1
0.251804 1 1
0.3393 1 1
0.567681 1 1
0.736049 1 0.96556
0.917723 1 0.892103
1 1 0.887312
0 0.139147 0.798199
0 0.139727 0.79971
0 0.141878 0.823789
0.100526 0.117617 0.963729
0.51989 0.099382 1
0.824231 0.101091 1
1 0.130144 1
1 0.15285 1
1 0.15285 1
0 0.141207 0.799847
0 0.141115 0.799893
0 0.142443 0.822736
0.0975204 0.117891 0.962386
0.523049 0.0993515 1
0.83006 0.101442 1
1 0.131197 1
1 0.15285 1
1 0.15285 1
0 0.224002 0.860945
0 0.225803 0.861067
0 0.233692 0.893446
0.174441 0.207385 1
0.528817 0.170367 1
0.832914 0.154559 1
1 0.169192 1
1 0.184344 1
1 0.175387 1
0 0.426017 0.870314
0 0.4327 0.871382
0 0.433997 0.886931
0.0701457 0.40412 0.968978
0.400549 0.360647 1
0.71725 0.318441 1
0.99411 0.294911 1
1 0.303029 1
1 0.28249 1
0 0.635157 0.928206
0 0.641642 0.93109
0 0.641672 0.934752
0.069749 0.620951 0.954223
0.339284 0.591974 1
0.584634 0.552987 1
0.904723 0.494163 1
1 0.47866 1
1 0.463279 1
0.0487678 0.786542 1
0.0516976 0.792309 1
0.0523384 0.791394 1
0.108248 0.776593 0.998795
0.324865 0.756832 1
0.539452 0.729488 1
0.788724 0.685557 1
1 0.652216 1
1 0.638941 1
0.121874 0.922148 1
0.126299 0.928817 1
0.126146 0.928603 1
0.155291 0.921965 1
0.33077 0.907683 1
0.550423 0.892912 1
0.73959 0.873457 1
0.978943 0.830976 1
1 0.813718 1
0.217395 1 1
0.220249 1 1
0.220478 1 1
0.239017 1 1
0.364263 1 1
0.587121 1 1
0.755932 0.998093 1
0.924239 0.963592 1
1 0.943389 1
0.249226 1 1
0.248539 1 1
0.248417 1 1
0.256672 1 1
0.344305 1 1
0.557321 1 1
0.735286 1 1
0.925383 1 1
1 1 1
0 0.139147 0.798199
0 0.139147 0.798199
0 0.143084 0.821317
0.0725261 0.120211 0.951141
0.501472 0.0996109 1
0.810269 0.100557 1
1 0.128542 1
1 0.15285 1
1 0.15285 1
0 0.139147 0.798199
0 0.139147 0.798199
0 0.143221 0.820768
0.0723583 0.120226 0.951064
0.506432 0.0995346 1
0.817517 0.100801 1
1 0.129747 1
1 0.15285 1
1 0.15285 1
0 0.216831 0.859388
0 0.219074 0.860578
0 0.227237 0.890898
0.155657 0.203555 1
0.514076 0.165728 1
0.820096 0.149859 1
1 0.16405 1
1 0.180423 1
1 0.171603 1
0 0.412879 0.868284
0 0.419821 0.869337
0 0.421332 0.88368
0.052842 0.392264 0.961639
0.388296 0.34905 1
0.707164 0.307317 1
0.987518 0.284123 1
1 0.293721 1
1 0.273274 1
0 0.625971 0.924269
0 0.632883 0.927214
0 0.6327 0.930358
0.0568399 0.612436 0.949248
0.327016 0.584466 1
0.576669 0.545434 1
0.897871 0.486915 1
1 0.470939 1
1 0.456001 1
0.0457008 0.780407 0.998398
0.0486458 0.786282 1
0.0481575 0.785321 1
0.100359 0.771466 0.996979
0.313085 0.751751 1
0.530694 0.723598 1
0.778378 0.680186 1
1 0.645274 1
1 0.632319 1
0.118105 0.916335 1
0.122438 0.923018 1
0.122408 0.922972 1
0.149447 0.917235 1
0.318608 0.902159 1
0.541741 0.887053 1
0.729351 0.869368 1
0.970871 0.826841 1
1 0.808972 1
0.211795 1 1
0.215457 1 1
0.215808 1 1
0.233982 1 1
0.353506 1 1
0.572061 1 1
0.737575 0.999802 1
0.908354 0.966323 1
1 0.942428 1
0.242664 1 1
0.242664 1 1
0.242664 1 1
0.249165 1 1
0.337987 1 1
0.540185 1 1
0.71606 1 1
0.898344 1 1
1 1 1
