LUT预设1/LUT全系打包/2024-VINTAGE系列lut/log灰片格式使用/清新CLEAN.cube
TITLE "Generated by Resolve"
LUT_3D_SIZE 33
0.0145876 0.0667582 0.0755474
0.0145876 0.0667582 0.0755474
0.020264 0.0664225 0.0747082
0.0281987 0.0660563 0.0730297
0.0359655 0.0659342 0.0717327
0.0460212 0.0656138 0.0700389
0.0576638 0.0650797 0.0684215
0.0755169 0.0632486 0.0693065
0.101701 0.0608377 0.0681621
0.15256 0.0541238 0.0631571
0.233967 0.0434119 0.0537575
0.323995 0.0332494 0.0442817
0.411002 0.0244297 0.0358892
0.481285 0.018677 0.0301976
0.542763 0.0149996 0.0266117
0.59707 0.013489 0.0252537
0.650782 0.0141299 0.0263523
0.705226 0.0162966 0.0289769
0.761654 0.0205081 0.0339361
0.822156 0.0270085 0.0411994
0.89427 0.0428931 0.0582895
0.947219 0.0573892 0.0739452
0.986496 0.071519 0.0896773
1 0.085481 0.105119
1 0.0981308 0.118746
1 0.11043 0.132052
1 0.122484 0.14461
1 0.126467 0.14876
1 0.126467 0.14876
1 0.126467 0.14876
1 0.126467 0.14876
1 0.126467 0.14876
1 0.126467 0.14876
0.0145876 0.0667582 0.0755474
0.0145876 0.0667582 0.0755474
0.0180819 0.0665599 0.0750744
0.0261997 0.0661173 0.0734264
0.0334936 0.06598 0.0721294
0.0425269 0.0657359 0.070634
0.0534981 0.0652628 0.068864
0.0701762 0.0636606 0.0694133
0.0933089 0.061738 0.0686809
0.13785 0.056199 0.0648508
0.218311 0.0453803 0.0555581
0.309392 0.0348516 0.0457618
0.39913 0.0255283 0.0369573
0.472724 0.0193027 0.0308232
0.536233 0.0153201 0.0269169
0.591455 0.0135348 0.0252537
0.645624 0.014023 0.0261997
0.700557 0.0160525 0.0286717
0.757061 0.0200961 0.033463
0.817639 0.0262913 0.0404212
0.88954 0.0416419 0.0569467
0.944457 0.0565499 0.0730602
0.984665 0.0707408 0.0888228
1 0.0848402 0.104417
1 0.0975967 0.118166
1 0.109972 0.131563
1 0.122103 0.144213
1 0.126467 0.14876
1 0.126467 0.14876
1 0.126467 0.14876
1 0.126467 0.14876
1 0.126467 0.14876
1 0.126467 0.14876
0.0146181 0.0687877 0.0766308
0.0146181 0.0681926 0.0763104
0.0163272 0.0678416 0.0759442
0.0250248 0.0669108 0.0740826
0.0324407 0.0662852 0.0724956
0.0416571 0.0657664 0.0707866
0.0528725 0.0652934 0.068925
0.069749 0.0636912 0.0694285
0.09308 0.0617533 0.0686961
0.138308 0.0561379 0.0647898
0.219944 0.045182 0.055375
0.312093 0.0345464 0.0454871
0.402213 0.0252384 0.0366674
0.475776 0.0190738 0.0305943
0.539223 0.0151675 0.0267796
0.594614 0.0135042 0.0252537
0.649088 0.0140993 0.0263066
0.70425 0.0162509 0.0289006
0.761334 0.0204776 0.0339055
0.822599 0.0270848 0.0412909
0.895293 0.0431525 0.0585794
0.94847 0.0577707 0.0743725
0.987686 0.0720531 0.0902571
1 0.0860914 0.105791
1 0.0987869 0.119463
1 0.111162 0.132815
1 0.123339 0.14551
1 0.126467 0.14876
1 0.126467 0.14876
1 0.126467 0.14876
1 0.126467 0.14876
1 0.126467 0.14876
1 0.126467 0.14876
0.0148623 0.0720531 0.0785229
0.0148318 0.0716564 0.078294
0.0148165 0.0716106 0.0782635
0.0220951 0.071107 0.0768444
0.0321508 0.0702068 0.075227
0.0417182 0.0695048 0.0737621
0.0534981 0.0685893 0.0716106
0.0691539 0.0668193 0.0706493
0.0914931 0.0644999 0.0697948
0.134157 0.058732 0.065919
0.215457 0.0473182 0.0565347
0.307164 0.0356146 0.0462654
0.397833 0.0256504 0.0370642
0.472816 0.0192874 0.030808
0.537072 0.0152743 0.0268711
0.592844 0.0135195 0.0252537
0.647623 0.0140688 0.0262608
0.70312 0.0161898 0.0288396
0.760449 0.0204013 0.033814
0.821805 0.0269627 0.0411383
0.89482 0.0430304 0.0584421
0.948287 0.0577096 0.0743114
0.987686 0.0720531 0.0902571
1 0.0861219 0.105821
1 0.0988937 0.11957
1 0.111284 0.132937
1 0.123491 0.145663
1 0.126467 0.14876
1 0.126467 0.14876
1 0.126467 0.14876
1 0.126467 0.14876
1 0.126467 0.14876
1 0.126467 0.14876
0.0152743 0.0765393 0.0812085
0.0152438 0.0762341 0.0810254
0.015259 0.0762951 0.0810559
0.0201724 0.0761273 0.0803082
0.0291447 0.0755932 0.0788739
0.0401923 0.0747997 0.0776684
0.0532845 0.0736553 0.075761
0.068986 0.072282 0.0731365
0.0896773 0.0707256 0.0725261
0.130846 0.0661936 0.0691081
0.212787 0.056611 0.060914
0.307225 0.0460059 0.0514839
0.400504 0.0357671 0.042298
0.476722 0.0283818 0.0357977
0.540856 0.0231632 0.0314336
0.596658 0.0200961 0.0294347
0.650172 0.0190433 0.0295262
0.703883 0.0193942 0.0310979
0.757717 0.0210727 0.0341955
0.817212 0.0262455 0.0403601
0.889967 0.0417639 0.0570687
0.945235 0.0567941 0.0733043
0.985626 0.0711528 0.0892805
1 0.0853742 0.105013
1 0.0982223 0.118853
1 0.110674 0.132311
1 0.122927 0.145083
1 0.126467 0.14876
1 0.126467 0.14876
1 0.126467 0.14876
1 0.126467 0.14876
1 0.126467 0.14876
1 0.126467 0.14876
0.014847 0.0823224 0.0842756
0.0149386 0.0820325 0.0841535
0.0148928 0.0822003 0.0842145
0.0178073 0.0820935 0.0838483
0.0262303 0.0819409 0.0829633
0.0368353 0.0814069 0.0819562
0.0508278 0.0803845 0.0805371
0.0682231 0.0792401 0.0784314
0.0888991 0.078645 0.0765087
0.127398 0.0763561 0.0743572
0.208835 0.0684215 0.0667887
0.306783 0.0586099 0.0576944
0.405356 0.0490425 0.049134
0.485344 0.0423896 0.0437934
0.553811 0.0381476 0.0411231
0.613733 0.0364996 0.0408179
0.674403 0.0380102 0.0433204
0.739269 0.0431067 0.0496223
0.808652 0.0501869 0.0584726
0.867292 0.0563821 0.06598
0.917266 0.0636606 0.0746014
0.959838 0.0720989 0.0849012
0.993896 0.0821546 0.0970169
1 0.0923018 0.109224
1 0.10161 0.120516
1 0.110796 0.131899
1 0.121965 0.14406
1 0.126467 0.14876
1 0.126467 0.14876
1 0.126467 0.14876
1 0.126467 0.14876
1 0.126467 0.14876
1 0.126467 0.14876
0.0119783 0.090135 0.0873579
0.0120851 0.0898146 0.0872358
0.0119783 0.0901503 0.0873579
0.0123903 0.0901198 0.0873121
0.0217899 0.0904097 0.0868696
0.0320592 0.0908064 0.086717
0.046067 0.090898 0.0865034
0.0657359 0.0899672 0.0851301
0.0894484 0.0893873 0.0820478
0.124956 0.0889754 0.0808881
0.204639 0.0829633 0.0735485
0.308385 0.0743725 0.0646982
0.414313 0.0662852 0.0567788
0.506218 0.0624552 0.0534218
0.582727 0.0612955 0.0533303
0.655772 0.0658885 0.0583505
0.717708 0.0695201 0.0632334
0.776959 0.0735485 0.0685435
0.835203 0.077409 0.0738537
0.889158 0.0819562 0.0803082
0.936004 0.0879835 0.0887312
0.976593 0.0957046 0.09897
1 0.105196 0.110842
1 0.114748 0.122042
1 0.123674 0.132631
1 0.132586 0.143313
1 0.141238 0.154131
1 0.143557 0.15816
1 0.140444 0.156573
1 0.137346 0.154986
1 0.134127 0.15317
1 0.130907 0.151308
1 0.127611 0.149416
0.00709544 0.102281 0.0913405
0.00732433 0.10193 0.0912795
0.00686656 0.102602 0.0913863
0.00683604 0.102632 0.0913863
0.0153811 0.103044 0.0913405
0.0260929 0.10428 0.0920119
0.0391089 0.105348 0.0926528
0.0587472 0.105287 0.0921187
0.0867323 0.104601 0.0886854
0.123751 0.105882 0.088426
0.20589 0.103685 0.0802625
0.335973 0.0990463 0.0716564
0.447776 0.0939956 0.0655222
0.535622 0.0919509 0.0643015
0.606912 0.0914168 0.0652628
0.66862 0.0930648 0.068513
0.727749 0.0958114 0.0729381
0.785199 0.0988022 0.0777295
0.842634 0.101762 0.0825818
0.896635 0.105501 0.0886244
0.943893 0.110918 0.0964218
0.984619 0.118059 0.105974
1 0.127016 0.117556
1 0.136294 0.129351
1 0.144976 0.140352
1 0.15349 0.150866
1 0.161944 0.161105
1 0.165591 0.166567
1 0.162676 0.165835
1 0.159762 0.165103
1 0.156802 0.164294
1 0.153765 0.162936
1 0.150683 0.161578
0 0.119295 0.094316
0 0.118959 0.0942245
0 0.120043 0.0945296
0 0.120226 0.0945907
0.0028687 0.120607 0.0945907
0.0152438 0.122606 0.0954757
0.0282444 0.126055 0.0977493
0.047013 0.13193 0.100664
0.0801862 0.132296 0.0986038
0.122759 0.133959 0.0960098
0.1906 0.134112 0.0906844
0.295842 0.130098 0.0783856
0.409247 0.125612 0.0705882
0.50605 0.12224 0.0677653
0.586633 0.120531 0.0688029
0.652842 0.119921 0.0717174
0.715572 0.120592 0.0763714
0.774273 0.123339 0.0813611
0.83299 0.125963 0.0863203
0.890013 0.12871 0.0920272
0.940871 0.132555 0.0995499
0.984222 0.138933 0.109071
1 0.147326 0.120272
1 0.156695 0.132677
1 0.164782 0.143984
1 0.173159 0.155123
1 0.181537 0.165957
1 0.186572 0.173556
1 0.183948 0.173037
1 0.181277 0.172366
1 0.178546 0.171664
1 0.175799 0.170886
1 0.173007 0.169635
0 0.153872 0.103883
0 0.153384 0.103777
0 0.156466 0.104402
0 0.157443 0.104616
0 0.158267 0.104967
0.00572213 0.167956 0.108324
0.017792 0.173236 0.110506
0.0343633 0.175906 0.111254
0.0661631 0.172747 0.108003
0.111299 0.169726 0.10132
0.177127 0.168185 0.0985275
0.269825 0.1673 0.0879835
0.37438 0.165011 0.0778973
0.472328 0.162539 0.072343
0.554559 0.16112 0.0716106
0.622995 0.160586 0.0730755
0.681956 0.160998 0.0760967
0.739651 0.162539 0.0802625
0.797452 0.164614 0.0852064
0.855665 0.166186 0.0900435
0.911788 0.168322 0.0958267
0.961883 0.171954 0.103777
0.999512 0.177508 0.114351
1 0.185321 0.127581
1 0.193057 0.1411
1 0.199969 0.154086
1 0.207675 0.165652
1 0.213184 0.175296
1 0.20914 0.175525
1 0.205264 0.175509
1 0.201617 0.175158
1 0.19791 0.174807
1 0.194202 0.174441
0 0.224125 0.114305
0 0.22385 0.11429
0 0.227466 0.114611
0 0.228931 0.114748
0 0.228122 0.114672
0 0.232898 0.116121
0.000320439 0.237171 0.117891
0.0125887 0.238849 0.118715
0.0399939 0.234989 0.115923
0.0892042 0.224414 0.106355
0.157687 0.219898 0.0972457
0.254932 0.21706 0.095079
0.353246 0.215427 0.0873732
0.450935 0.213626 0.0786908
0.536217 0.211902 0.0755779
0.608515 0.211353 0.0766308
0.66833 0.211307 0.0788281
0.725261 0.211917 0.0826276
0.78172 0.212802 0.087068
0.838849 0.21384 0.0915694
0.895872 0.215183 0.0965438
0.948852 0.217319 0.103059
0.993561 0.220829 0.111498
1 0.22652 0.122011
1 0.23447 0.133867
1 0.241306 0.145327
1 0.247776 0.156329
1 0.254337 0.167437
1 0.248997 0.167773
1 0.243656 0.168093
1 0.238224 0.168704
1 0.233127 0.17055
1 0.227893 0.172427
0 0.298329 0.120989
0 0.298329 0.120989
0 0.302174 0.121294
0 0.303838 0.121431
0 0.303319 0.121386
0 0.305257 0.122316
0 0.308888 0.123781
0 0.310231 0.124468
0.0138247 0.306676 0.121889
0.0625162 0.293462 0.112688
0.126268 0.288411 0.0990005
0.235477 0.284001 0.0920272
0.337896 0.281453 0.091783
0.435096 0.2804 0.0866102
0.520867 0.279606 0.0822156
0.596048 0.278798 0.0814069
0.658 0.278264 0.0829938
0.714183 0.278218 0.0857557
0.77055 0.278859 0.0896162
0.826902 0.27953 0.0936294
0.884779 0.279927 0.0980697
0.940093 0.280446 0.103334
0.989654 0.2822 0.110887
1 0.286259 0.12076
1 0.29218 0.13193
1 0.298573 0.143465
1 0.304402 0.154543
1 0.309987 0.165469
1 0.30486 0.167117
1 0.29749 0.16701
1 0.290013 0.166903
1 0.282429 0.166781
1 0.275776 0.166842
0 0.369299 0.128313
0 0.369528 0.128344
0 0.373358 0.128786
0 0.375158 0.129
0 0.374914 0.128969
0 0.374914 0.129107
0 0.378393 0.130205
0 0.379736 0.130129
0 0.377554 0.127581
0.0332341 0.364157 0.117174
0.0928511 0.357504 0.103227
0.198764 0.353216 0.0862135
0.319112 0.35053 0.0876173
0.421195 0.348333 0.087541
0.509071 0.346853 0.0870222
0.586191 0.345464 0.0871901
0.650126 0.344656 0.088365
0.705531 0.344381 0.0902876
0.760906 0.34464 0.0929732
0.816434 0.3449 0.0963302
0.873365 0.344701 0.0995346
0.930037 0.344518 0.103746
0.982284 0.345159 0.109789
1 0.347387 0.118502
1 0.351843 0.128893
1 0.358053 0.140566
1 0.362997 0.151492
1 0.36788 0.16231
1 0.365103 0.16582
1 0.358694 0.166094
1 0.352041 0.166323
1 0.345327 0.166522
1 0.33843 0.166751
0 0.436667 0.138048
0 0.437125 0.138125
0 0.440742 0.138781
0 0.44271 0.139147
0 0.44271 0.139147
0 0.441611 0.138949
0 0.444648 0.139605
0 0.446082 0.139193
0 0.445014 0.136767
0.0103304 0.434607 0.125933
0.0636454 0.425666 0.109087
0.155306 0.421469 0.0859846
0.287724 0.419684 0.0788128
0.402853 0.417716 0.0835431
0.49575 0.414862 0.0862287
0.576455 0.412375 0.0897536
0.643595 0.410254 0.0923629
0.699535 0.40882 0.0946975
0.753719 0.408347 0.0973983
0.807767 0.40824 0.0998093
0.86331 0.407782 0.102235
0.919783 0.406683 0.104997
0.973312 0.406165 0.10927
1 0.407111 0.116381
1 0.409781 0.125551
1 0.415091 0.13669
1 0.419394 0.147326
1 0.42356 0.157992
1 0.422538 0.163134
1 0.416449 0.16347
1 0.410269 0.16379
1 0.404089 0.164126
1 0.397635 0.164416
0 0.500557 0.150546
0 0.501183 0.150668
0 0.504799 0.151461
0 0.506859 0.151919
0 0.507073 0.151965
0 0.506249 0.151781
0 0.507408 0.151827
0 0.508949 0.151308
0 0.50837 0.148852
0 0.502327 0.140169
0.0437934 0.490364 0.1205
0.118486 0.486656 0.0957656
0.246647 0.484871 0.0736858
0.376898 0.485512 0.0780194
0.4795 0.482551 0.0840467
0.563577 0.478508 0.0884565
0.635569 0.47509 0.09308
0.693645 0.472328 0.096849
0.747784 0.470588 0.100237
0.801266 0.469535 0.103273
0.855299 0.468406 0.105501
0.910475 0.466514 0.107393
0.964401 0.46508 0.110353
1 0.4645 0.115511
1 0.465858 0.123308
1 0.469581 0.13312
1 0.473411 0.143267
1 0.476188 0.153017
1 0.476371 0.15964
1 0.471122 0.160021
1 0.465507 0.160449
1 0.459846 0.160891
1 0.454032 0.161334
0 0.560662 0.16527
0 0.561425 0.165484
0 0.564858 0.166445
0 0.566964 0.167025
0 0.567346 0.167132
0 0.566766 0.166964
0 0.566842 0.166766
0 0.568139 0.165911
0 0.568017 0.163653
0 0.563851 0.155978
0.0319829 0.551354 0.136294
0.0953384 0.547158 0.111803
0.208835 0.545281 0.080827
0.343114 0.547051 0.0746624
0.45864 0.546319 0.0821851
0.548913 0.542016 0.0878309
0.624262 0.53695 0.0918898
0.685771 0.53312 0.0963149
0.740627 0.53051 0.100816
0.794705 0.528466 0.104891
0.848066 0.526238 0.10779
0.902617 0.5234 0.109773
0.956115 0.52079 0.112093
0.998535 0.519142 0.115969
1 0.518639 0.12195
1 0.520439 0.130297
1 0.523613 0.139467
1 0.525673 0.148501
1 0.526436 0.155978
1 0.521599 0.15639
1 0.516609 0.156802
1 0.51162 0.157229
1 0.506325 0.15758
0 0.616602 0.182177
0 0.617365 0.182422
0 0.620645 0.183474
0 0.622705 0.184131
0 0.623224 0.184298
0 0.622797 0.184161
0 0.621927 0.183825
0 0.623621 0.183001
0 0.623514 0.180438
0 0.62063 0.173556
0.025803 0.608743 0.154818
0.0808118 0.603433 0.131228
0.180484 0.60116 0.0969558
0.308141 0.601404 0.0782788
0.432975 0.603357 0.0817578
0.531701 0.600504 0.0882429
0.612512 0.595376 0.0926223
0.676905 0.590066 0.0957961
0.732464 0.586709 0.100359
0.787228 0.583764 0.10486
0.840452 0.58088 0.108644
0.894301 0.576959 0.110918
0.947845 0.572747 0.113054
0.997513 0.569436 0.116136
1 0.567514 0.121187
1 0.56791 0.128405
1 0.570352 0.136919
1 0.571511 0.145266
1 0.572732 0.153719
1 0.568551 0.154086
1 0.564019 0.154223
1 0.55935 0.154376
1 0.554604 0.154543
0 0.668818 0.198947
0 0.669703 0.199237
0 0.672847 0.200244
0 0.674952 0.200916
0 0.675517 0.201099
0 0.675196 0.200992
0 0.674388 0.200732
0 0.674952 0.199619
0 0.675303 0.197345
0 0.673274 0.191424
0.0223545 0.664439 0.176043
0.073228 0.656306 0.151446
0.159197 0.653376 0.117357
0.27776 0.65185 0.0890669
0.404395 0.653559 0.084184
0.511284 0.65272 0.089662
0.598733 0.648188 0.0945449
0.667903 0.642649 0.0976425
0.724468 0.638117 0.100755
0.778973 0.634318 0.104784
0.832197 0.630564 0.108659
0.885771 0.626017 0.111681
0.939696 0.621088 0.114229
0.990494 0.616541 0.11722
1 0.613321 0.121843
1 0.612329 0.128527
1 0.614099 0.136706
1 0.614969 0.144778
1 0.615641 0.15288
1 0.612711 0.154665
1 0.60853 0.154498
1 0.604303 0.154314
1 0.59997 0.154147
0 0.717754 0.214221
0 0.718654 0.214496
0 0.721599 0.215366
0 0.723659 0.215976
0 0.724315 0.216175
0 0.724178 0.216129
0 0.723507 0.21593
0 0.723568 0.215122
0 0.723903 0.212711
0.000534066 0.722377 0.207523
0.018967 0.716533 0.196094
0.0670481 0.705776 0.170535
0.141054 0.701915 0.138079
0.249973 0.698863 0.103136
0.373861 0.698711 0.0884718
0.486519 0.698924 0.0903792
0.581003 0.695781 0.0952773
0.655985 0.690501 0.0988327
0.715175 0.685466 0.10161
0.769711 0.681025 0.104707
0.823377 0.676738 0.108598
0.876921 0.671962 0.112215
0.931334 0.666529 0.115389
0.983505 0.661158 0.118898
1 0.65713 0.123873
1 0.654948 0.130404
1 0.655756 0.138521
1 0.656748 0.146761
1 0.657206 0.155276
1 0.655283 0.158587
1 0.651347 0.158145
1 0.647288 0.157656
1 0.643153 0.157168
0 0.763668 0.226841
0 0.764553 0.227054
0 0.767346 0.227741
0 0.769406 0.228244
0 0.770092 0.228412
0 0.770016 0.228397
0 0.769543 0.228275
0 0.768902 0.227802
0 0.769162 0.225315
0.000183108 0.768078 0.220722
0.0163729 0.763867 0.210971
0.0584268 0.752453 0.187335
0.122484 0.747448 0.156863
0.222568 0.743465 0.118318
0.340764 0.740948 0.0937514
0.456977 0.740978 0.0896468
0.557549 0.739147 0.0935073
0.639536 0.734722 0.0976425
0.702892 0.729824 0.101137
0.758846 0.725338 0.104555
0.813077 0.720607 0.107912
0.866911 0.715663 0.111849
0.921706 0.710002 0.115724
0.975631 0.704448 0.120226
1 0.699702 0.125734
1 0.696788 0.132937
1 0.696651 0.141375
1 0.698009 0.15021
1 0.698253 0.159152
1 0.697154 0.164385
1 0.693324 0.163821
1 0.689433 0.163241
1 0.685481 0.162661
0 0.806119 0.237003
0 0.806989 0.237217
0 0.809583 0.237827
0 0.811551 0.2383
0 0.812222 0.238468
0 0.812284 0.238483
0 0.811917 0.238392
0 0.811124 0.238193
0 0.811292 0.235737
0 0.810697 0.231418
0.0112612 0.807614 0.222644
0.0462654 0.796994 0.201785
0.101503 0.790967 0.17322
0.1935 0.786358 0.132738
0.305287 0.782361 0.100725
0.421042 0.780896 0.088304
0.527489 0.780163 0.0894636
0.617166 0.777127 0.0941176
0.686824 0.772854 0.098558
0.744823 0.768414 0.102632
0.800961 0.763989 0.106767
0.855421 0.759106 0.11075
0.910857 0.753536 0.115373
0.966094 0.747662 0.120577
1 0.742779 0.12726
1 0.73933 0.135256
1 0.738445 0.14432
1 0.740185 0.153933
1 0.740444 0.163699
1 0.740093 0.171603
1 0.736187 0.170962
1 0.732219 0.170306
1 0.728191 0.169589
0 0.845258 0.246921
0 0.846128 0.247166
0 0.848692 0.247898
0 0.850553 0.248432
0 0.851316 0.248646
0 0.851484 0.248692
0 0.851133 0.2486
0 0.850492 0.248417
0 0.850401 0.24654
0 0.850156 0.24239
0.00715648 0.848096 0.233967
0.0317845 0.841001 0.217456
0.0827039 0.832731 0.187366
0.164385 0.82829 0.146975
0.268711 0.823743 0.109194
0.382757 0.820752 0.0881819
0.492073 0.820035 0.0843366
0.588159 0.818463 0.0880446
0.664652 0.815229 0.0930648
0.726589 0.811627 0.0982681
0.785168 0.807736 0.103578
0.841505 0.803342 0.108659
0.897704 0.798062 0.113558
0.954345 0.792355 0.119707
0.999222 0.787243 0.127413
1 0.783642 0.136706
1 0.782223 0.146868
1 0.784024 0.157595
1 0.784558 0.168246
1 0.785168 0.178882
1 0.781186 0.178408
1 0.777142 0.177768
1 0.773037 0.177127
0 0.882109 0.258457
0 0.882963 0.258762
0 0.885328 0.259632
0 0.88719 0.260319
0 0.887953 0.260594
0 0.888106 0.260655
0 0.887892 0.260578
0 0.887419 0.260395
0 0.886961 0.259251
1.5259e-05 0.887129 0.25507
0.00733959 0.885847 0.247349
0.0250858 0.881422 0.23357
0.0685893 0.872648 0.202716
0.138811 0.868757 0.163073
0.23537 0.864378 0.120897
0.34522 0.860838 0.0919661
0.454856 0.859419 0.0812695
0.55584 0.859022 0.0824903
0.639384 0.857221 0.087541
0.705669 0.854673 0.0934157
0.767025 0.851896 0.0999008
0.825605 0.848402 0.106249
0.883528 0.844099 0.112566
0.941482 0.838651 0.11902
0.995422 0.833661 0.12755
1 0.829801 0.137896
1 0.828077 0.148974
1 0.829389 0.160418
1 0.830457 0.171817
1 0.830884 0.183108
1 0.82797 0.18526
1 0.823911 0.18471
1 0.819791 0.184146
0 0.917235 0.272328
0 0.91812 0.272725
0 0.92047 0.273762
0 0.922316 0.274617
0 0.923125 0.274998
0 0.923369 0.27512
0 0.923217 0.275059
0 0.922759 0.27483
0 0.922057 0.274495
0.00234989 0.922347 0.270359
0.0126802 0.92166 0.26331
0.0274357 0.918853 0.250828
0.0612039 0.910475 0.221637
0.119448 0.907195 0.184009
0.208621 0.904128 0.138384
0.313436 0.900649 0.102525
0.420661 0.898741 0.0842145
0.523949 0.898924 0.0809339
0.614069 0.89868 0.0849928
0.685008 0.897566 0.0912032
0.748745 0.895994 0.0984054
0.81004 0.893675 0.106004
0.869764 0.890425 0.113619
0.929366 0.885878 0.121126
0.986984 0.880919 0.129686
1 0.876844 0.140169
1 0.874571 0.151583
1 0.875151 0.163409
1 0.876677 0.17496
1 0.876936 0.186709
1 0.874922 0.191409
1 0.870909 0.190845
1 0.866911 0.190295
0.00830091 0.951308 0.289677
0.00880446 0.952193 0.290196
0.0100557 0.954406 0.291493
0.0110933 0.956268 0.292592
0.0115663 0.957092 0.29308
0.0117342 0.957397 0.293263
0.0116732 0.95729 0.293202
0.0114595 0.956909 0.292973
0.0111238 0.956313 0.292622
0.0159304 0.956512 0.28954
0.0247959 0.956298 0.28304
0.0371862 0.954467 0.27129
0.061738 0.947372 0.245075
0.110445 0.943954 0.208545
0.191318 0.942336 0.161364
0.288945 0.939956 0.120729
0.393179 0.938079 0.0957961
0.496757 0.938338 0.0867628
0.591104 0.939437 0.0883955
0.666941 0.939529 0.0939498
0.732677 0.939193 0.101198
0.796277 0.938125 0.109377
0.85745 0.935973 0.117815
0.918517 0.932204 0.126284
0.977905 0.927611 0.135134
1 0.923323 0.1449
1 0.920317 0.155978
1 0.920119 0.167742
1 0.921706 0.178973
1 0.921599 0.190555
1 0.920226 0.197604
1 0.91664 0.197116
1 0.91281 0.196551
0.0293126 0.984161 0.310552
0.0298161 0.985153 0.311101
0.0310521 0.987564 0.312444
0.0320897 0.989624 0.313588
0.032578 0.99057 0.314107
0.0327916 0.990982 0.314336
0.0327611 0.990936 0.314321
0.032578 0.99057 0.314107
0.0322728 0.98999 0.313787
0.0349126 0.989731 0.311971
0.0435645 0.989746 0.306294
0.0550393 0.988525 0.295689
0.0708324 0.984497 0.27689
0.112947 0.979355 0.237263
0.18497 0.978927 0.190692
0.276005 0.977844 0.146777
0.375708 0.976516 0.116075
0.478065 0.976837 0.101213
0.574533 0.978683 0.0990921
0.654002 0.97995 0.103059
0.721111 0.980575 0.109468
0.786282 0.980514 0.117571
0.84831 0.979187 0.126101
0.91017 0.976242 0.134722
0.970825 0.972091 0.143709
1 0.967681 0.153063
1 0.96405 0.16321
1 0.962753 0.174029
1 0.964233 0.184619
1 0.963714 0.195438
1 0.962798 0.20444
1 0.959472 0.203876
1 0.956024 0.203281
0.0476387 1 0.330495
0.0482032 1 0.33109
0.0495003 1 0.332494
0.0506294 1 0.3337
0.0511482 1 0.334249
0.0513619 1 0.334493
0.0513619 1 0.334493
0.0512245 1 0.33434
0.0509194 1 0.33402
0.0511635 1 0.333364
0.0592966 1 0.328359
0.0705577 1 0.318868
0.08542 1 0.303456
0.123079 1 0.267399
0.187366 1 0.223758
0.273136 1 0.178439
0.368902 1 0.143755
0.470253 1 0.123934
0.568032 1 0.117983
0.650507 1 0.119966
0.718349 1 0.125093
0.783703 1 0.13225
0.845777 1 0.140032
0.90721 1 0.148043
0.968154 1 0.156497
1 0.99942 0.165438
1 0.998398 0.174395
1 0.997818 0.18381
1 0.999802 0.193408
1 0.999786 0.203098
1 0.997864 0.212482
1 0.995941 0.212436
1 0.993942 0.211673
0.0667124 1 0.351003
0.0672923 1 0.351614
0.0685588 1 0.352987
0.0697032 1 0.354223
0.0702373 1 0.354818
0.0705119 1 0.355108
0.0705425 1 0.355138
0.0704356 1 0.355016
0.070161 1 0.354726
