LUT预设1/柯达5219&2393/柯达5219系列-Log/柯达5219绿调.cube
TITLE "Generated by Resolve"
LUT_3D_SIZE 9
0.0230106 0.030518 0.0598459
0.0262913 0.0316167 0.0603494
0.0836042 0.0467231 0.0586404
0.221576 0.0640421 0.046128
0.521584 0.0813764 0.0116884
0.86891 0.101976 0
0.873579 0.10251 0
0.873579 0.10251 0
0.873579 0.10251 0
0.0230106 0.030518 0.0598459
0.0230259 0.030518 0.0598459
0.0586099 0.0409705 0.0607156
0.200137 0.0621347 0.0482643
0.455451 0.0790875 0.0175937
0.809903 0.0958572 0
0.873579 0.10251 0
0.873579 0.10251 0
0.873579 0.10251 0
0.0349126 0.0812085 0.100374
0.0344854 0.0686656 0.0910353
0.0617838 0.0695354 0.0850538
0.240986 0.0865187 0.0570993
0.607507 0.0970016 0.00872816
0.890532 0.112749 0
0.880232 0.10576 0
0.873976 0.102739 0
0.873686 0.102556 0
0 0.253269 0.210086
0 0.242374 0.202564
0.0012665 0.240055 0.19823
0.323705 0.23035 0.0986191
0.788754 0.2533 0.0390478
1 0.37734 0.0124208
1 0.347829 0.00366217
1 0.310536 0.00062562
1 0.259251 0
0 0.578836 0.419364
0 0.570031 0.41239
0 0.574426 0.415732
0.0359655 0.53611 0.30985
0.688975 0.518502 0.107576
1 0.589792 0.0732433
1 0.595193 0.0843214
1 0.565911 0.0820478
1 0.525567 0.0660258
0 0.872496 0.682841
0 0.870634 0.680781
0 0.875944 0.6869
0 0.854398 0.648783
0.240757 0.824918 0.466316
0.961364 0.813046 0.195804
1 0.793317 0.114794
1 0.748455 0.0917678
1 0.700359 0.0870375
0 0.901366 0.716442
0 0.901366 0.716442
0 0.901366 0.716442
0 0.902022 0.716808
0.00598154 0.908095 0.652766
0.687327 0.93312 0.560601
1 0.939681 0.36759
1 0.911238 0.297215
1 0.860517 0.199786
0 0.901366 0.716442
0 0.901366 0.716442
0 0.901366 0.716442
0 0.901381 0.716442
0 0.908156 0.706935
0.141955 0.908309 0.567803
0.900984 0.94284 0.501976
1 0.941421 0.370565
1 0.941421 0.370565
0 0.901366 0.716442
0 0.901366 0.716442
0 0.901366 0.716442
0 0.901366 0.716442
0 0.904494 0.718212
0.00669871 0.908095 0.649104
0.566629 0.92578 0.565698
0.989303 0.942046 0.421653
1 0.941421 0.370565
0.0230106 0.030518 0.0598459
0.0230106 0.030518 0.0598459
0.0773785 0.0453346 0.0592355
0.236835 0.0652171 0.0445106
0.604486 0.0838178 0.00546273
0.873579 0.10251 0
0.873579 0.10251 0
0.873579 0.10251 0
0.873579 0.10251 0
0.0230106 0.030518 0.0598459
0.0230106 0.030518 0.0598459
0.051606 0.0391852 0.0612039
0.17116 0.0593729 0.0509194
0.442618 0.0781567 0.0194553
0.848417 0.0998093 0
0.873579 0.10251 0
0.873579 0.10251 0
0.873579 0.10251 0
0.0350347 0.0762036 0.0967422
0.0341039 0.0643626 0.0877394
0.055436 0.0656291 0.0836805
0.226795 0.0823072 0.057023
0.50602 0.0916915 0.0171664
0.822049 0.104158 0
0.883009 0.107088 0
0.875486 0.103471 0
0.873777 0.102617 0
0 0.248341 0.206729
0 0.237537 0.199268
0.000732433 0.234989 0.19617
0.305211 0.225208 0.101045
0.772076 0.246418 0.0395819
1 0.373388 0.0112459
1 0.344198 0.00289921
1 0.298848 0.000640879
1 0.242954 0
0 0.574716 0.416114
0 0.565606 0.40882
0 0.569482 0.41181
0.0270085 0.53077 0.310582
0.672068 0.512825 0.110964
1 0.584375 0.0716259
1 0.594049 0.0845655
1 0.56463 0.0822461
1 0.524468 0.0653086
0 0.870924 0.681086
0 0.869429 0.679484
0 0.874739 0.685527
0 0.852903 0.64892
0.220691 0.822873 0.467308
0.955077 0.810941 0.198428
1 0.792142 0.113069
1 0.747372 0.0918288
1 0.69958 0.0868086
0 0.901366 0.716442
0 0.901366 0.716442
0 0.901366 0.716442
0 0.901915 0.716762
0.0047303 0.908141 0.656107
0.671595 0.931975 0.562676
1 0.940047 0.368872
1 0.910292 0.295506
1 0.859617 0.198077
0 0.901366 0.716442
0 0.901366 0.716442
0 0.901366 0.716442
0 0.901366 0.716442
0 0.90808 0.708568
0.128801 0.907942 0.570794
0.892241 0.942855 0.507942
1 0.941421 0.370565
1 0.941421 0.370565
0 0.901366 0.716442
0 0.901366 0.716442
0 0.901366 0.716442
0 0.901366 0.716442
0 0.904311 0.718074
0.00573739 0.908141 0.651194
0.551858 0.925063 0.565423
0.986679 0.942092 0.425177
1 0.941421 0.370565
0.0183871 0.0383459 0.0907912
0.0194095 0.0365454 0.0854047
0.0682536 0.04654 0.100481
0.204211 0.0717632 0.083772
0.547692 0.0826429 0.0445716
0.856275 0.106401 0.00621042
0.867842 0.104341 0
0.872847 0.102785 0
0.873518 0.102556 0
0.0194553 0.0365301 0.0852216
0.0214542 0.0332647 0.0733196
0.0479438 0.0396124 0.0742046
0.180514 0.0625315 0.0583963
0.519799 0.0816663 0.0166781
0.872465 0.103197 0
0.873579 0.10251 0
0.873579 0.10251 0
0.873579 0.10251 0
0.0345617 0.0730755 0.0972305
0.0330663 0.0631113 0.0903182
0.0498512 0.063035 0.0859236
0.195148 0.0774395 0.0618601
0.459678 0.0867323 0.0226749
0.85922 0.106203 0
0.880751 0.10605 0
0.874067 0.1028 0
0.873823 0.102632 0
0 0.247425 0.205921
0 0.236683 0.198611
0.000442512 0.233005 0.195377
0.292149 0.222446 0.102937
0.760327 0.242756 0.0402075
1 0.371237 0.0109407
1 0.330282 0.00158694
1 0.280095 0.000396735
1 0.238697 0
0 0.57612 0.417151
0 0.566201 0.409247
0 0.568841 0.411337
0.0216526 0.529397 0.312413
0.661357 0.510887 0.113542
1 0.581933 0.0705119
1 0.595499 0.0847639
1 0.566461 0.0828717
1 0.52546 0.0656443
0 0.87274 0.683177
0 0.87097 0.681239
0 0.875776 0.686717
0 0.853239 0.650309
0.203052 0.822293 0.46865
0.950607 0.811734 0.203906
1 0.79353 0.113787
1 0.748913 0.0921035
1 0.700954 0.0868696
0 0.901366 0.716442
0 0.901366 0.716442
0 0.901366 0.716442
0 0.901884 0.716762
0.00416571 0.908186 0.657664
0.662257 0.931304 0.563607
1 0.94049 0.370504
1 0.910811 0.29662
1 0.860319 0.199069
0 0.901366 0.716442
0 0.901366 0.716442
0 0.901366 0.716442
0 0.901366 0.716442
0 0.908064 0.708995
0.123156 0.907774 0.572091
0.886717 0.94287 0.511696
1 0.941421 0.370565
1 0.941421 0.370565
0 0.901366 0.716442
0 0.901366 0.716442
0 0.901366 0.716442
0 0.901366 0.716442
0 0.904311 0.718074
0.00563058 0.908141 0.651148
0.549172 0.924926 0.565362
0.985489 0.942107 0.426596
1 0.941421 0.370565
0.00775158 0.0679179 0.157382
0.0089723 0.0628824 0.147692
0.0376745 0.0696269 0.193774
0.190402 0.067628 0.254749
0.41181 0.131685 0.204959
0.726314 0.0995499 0.1935
0.742657 0.0845045 0.174487
0.758709 0.0759136 0.150927
0.771282 0.0705272 0.131975
0.00401312 0.0867781 0.19353
0.00918593 0.0620432 0.145998
0.0263523 0.0584115 0.151629
0.155596 0.0644388 0.199893
0.387686 0.111391 0.161929
0.756603 0.0778973 0.152895
0.764813 0.0724651 0.141238
0.777523 0.070161 0.122011
0.800397 0.0827649 0.0866255
0.012604 0.101503 0.197848
0.0168307 0.129595 0.224399
0.0345922 0.101869 0.194034
0.17023 0.0813001 0.203662
0.421485 0.116136 0.161593
0.766857 0.0843824 0.153903
0.760525 0.0769055 0.147921
0.768902 0.071809 0.13547
0.790677 0.0791638 0.101549
0.011429 0.255177 0.274769
0.0123903 0.24448 0.266651
0.0131685 0.241825 0.26743
0.202609 0.22594 0.240467
0.568597 0.214557 0.113863
0.939895 0.256367 0.0294041
1 0.29218 0.00363165
1 0.263355 0
1 0.227085 0
0 0.555932 0.4542
0 0.545861 0.446174
0 0.547112 0.452277
0.0118715 0.515114 0.388922
0.611536 0.495354 0.178912
0.99968 0.567697 0.114183
1 0.588434 0.103471
1 0.539834 0.0720073
1 0.478981 0.0474861
0 0.865873 0.681224
0 0.86392 0.678096
0 0.867018 0.68484
0 0.843427 0.647272
0.163516 0.81062 0.466651
0.932708 0.800305 0.204837
1 0.786572 0.108721
1 0.743938 0.0916762
1 0.697108 0.0863203
0 0.901366 0.716442
0 0.901366 0.716442
0 0.901366 0.716457
0 0.901686 0.716655
0.00231937 0.908263 0.663508
0.629389 0.929213 0.56553
1 0.940383 0.372869
1 0.90779 0.290745
1 0.857176 0.193393
0 0.901366 0.716442
0 0.901366 0.716442
0 0.901366 0.716442
0 0.901366 0.716442
0 0.907942 0.710857
0.10605 0.907347 0.57673
0.873198 0.942702 0.519036
1 0.941421 0.370581
1 0.941421 0.370565
0 0.901366 0.716442
0 0.901366 0.716442
0 0.901366 0.716442
0 0.901366 0.716442
0 0.904097 0.717952
0.00462348 0.908171 0.653269
0.531044 0.92401 0.565133
0.981094 0.942138 0.431556
1 0.941421 0.370565
0 0.140978 0.290837
0.00015259 0.129229 0.270466
0.0133516 0.146105 0.325628
0.0990005 0.155718 0.507958
0.46949 0.10222 0.56614
0.665064 0.237537 0.448234
0.654322 0.23505 0.422461
0.648722 0.231373 0.403815
0.641138 0.225742 0.377981
0 0.178943 0.355734
0 0.149737 0.305882
0.00750744 0.121416 0.268116
0.0774395 0.131243 0.423316
0.422553 0.0935836 0.502907
0.647852 0.232624 0.406271
0.644251 0.231037 0.396216
0.638788 0.228809 0.38201
0.634607 0.218372 0.348501
0.0105592 0.473823 0.67689
0.0151369 0.500572 0.714046
0.0208896 0.332692 0.541253
0.0852369 0.151171 0.444541
0.446113 0.104448 0.506645
0.653208 0.236484 0.412238
0.649104 0.233265 0.408469
0.644572 0.231937 0.398917
0.633722 0.224491 0.362432
0.0137636 0.494102 0.681086
0.0140688 0.45861 0.631815
0.0256504 0.511604 0.662776
0.128328 0.371283 0.555245
0.473472 0.268666 0.524315
0.806668 0.336721 0.426352
0.819333 0.317143 0.411215
0.803403 0.286534 0.388724
0.789441 0.242206 0.351156
0 0.60264 0.586831
0 0.595575 0.583459
0 0.60145 0.591257
0.0403143 0.548745 0.571069
0.461204 0.514336 0.530434
0.841596 0.47953 0.348684
1 0.52575 0.225071
1 0.495933 0.149508
1 0.454566 0.0824903
0 0.845747 0.743252
0 0.844007 0.742519
1.5259e-05 0.848005 0.748562
0.00180056 0.820081 0.725475
0.0983291 0.799527 0.697414
0.842969 0.786038 0.502297
1 0.789929 0.444938
1 0.746548 0.375418
1 0.665415 0.193332
0 0.891463 0.758618
0 0.891173 0.759793
0 0.89044 0.763439
0 0.890761 0.761975
0.00726329 0.90486 0.763836
0.396002 0.918074 0.62884
0.998657 0.936156 0.470939
1 0.896941 0.353948
1 0.84802 0.248524
0 0.898405 0.728908
0 0.898207 0.729763
0 0.897368 0.733349
0 0.897444 0.732952
0 0.905501 0.729625
0.0604715 0.907897 0.608591
0.838117 0.941344 0.540047
1 0.941436 0.372839
1 0.941436 0.372351
0 0.901305 0.716686
0 0.901335 0.716579
0 0.901259 0.716945
0 0.90132 0.716701
0 0.903563 0.717693
0.00225834 0.908263 0.658686
0.491554 0.922026 0.564614
0.972595 0.942199 0.441016
1 0.941421 0.370565
0 0.180682 0.358648
0 0.180682 0.358648
0.00260929 0.216632 0.434913
0.0657969 0.281392 0.625834
0.416403 0.210697 0.793744
0.770947 0.235431 0.695354
0.770413 0.235355 0.693233
0.769909 0.235187 0.691646
0.768353 0.235248 0.687495
0 0.180682 0.358648
0 0.184588 0.364431
0.000808728 0.202319 0.40441
0.0466011 0.274342 0.588403
0.365606 0.221317 0.78378
0.767849 0.231662 0.696071
0.770245 0.235401 0.692866
0.76994 0.235431 0.692073
0.766949 0.234882 0.683177
0.0124514 0.517922 0.726497
0.0314488 0.586419 0.77937
0.0455787 0.570184 0.77499
0.0631571 0.339467 0.656779
0.396002 0.232547 0.79826
0.771267 0.2365 0.6963
0.771191 0.236011 0.694942
0.770947 0.23563 0.694835
0.769329 0.235111 0.689982
0.0240177 0.679774 0.829877
0.0209659 0.751293 0.859083
0.20734 0.72488 0.841321
0.197162 0.685298 0.832166
0.339712 0.515496 0.825483
0.809216 0.410239 0.749569
0.828946 0.408301 0.717739
0.82092 0.377157 0.705287
0.803357 0.339055 0.675288
0.0205081 0.736202 0.850446
0.0212253 0.736355 0.852613
0.0215 0.753979 0.859342
0.145052 0.785595 0.861952
0.470558 0.708904 0.811536
0.782849 0.610986 0.764981
0.864256 0.621927 0.706874
0.851637 0.583703 0.673381
0.83978 0.531533 0.622431
0 0.883268 0.826444
0 0.883101 0.828305
0 0.888808 0.835447
0.000534066 0.865904 0.81976
0.20441 0.82034 0.803677
0.756527 0.793957 0.765621
0.950469 0.707927 0.584146
0.991211 0.673732 0.457191
0.999664 0.628458 0.345998
4.57771e-05 0.902083 0.815625
3.0518e-05 0.902602 0.816342
1.5259e-05 0.904173 0.818753
0.000106813 0.903044 0.816953
0.112795 0.902632 0.831983
0.48217 0.915419 0.819257
0.947433 0.919631 0.704646
0.998398 0.88716 0.63798
1 0.844205 0.577981
0.000427253 0.889891 0.790051
0.000503548 0.889952 0.790875
0.000686656 0.890394 0.793164
0.000823987 0.89015 0.792874
0.0253758 0.892989 0.799939
0.120928 0.905821 0.797635
0.636332 0.924681 0.685847
1 0.938323 0.576791
1 0.939178 0.553658
0 0.890639 0.762158
0 0.890379 0.763363
0 0.889769 0.766583
0 0.889632 0.767102
0 0.891356 0.766323
0.0107881 0.904753 0.769558
0.24332 0.913909 0.658167
0.923888 0.938384 0.556374
1 0.941329 0.469078
0 0.180682 0.358648
0 0.180682 0.358648
0.00030518 0.209735 0.420111
0.0566415 0.278752 0.608942
0.372305 0.22034 0.787961
0.768414 0.231861 0.697948
0.771069 0.235569 0.695323
0.771069 0.235569 0.695323
0.771069 0.235569 0.695323
0 0.180865 0.358923
0 0.185473 0.365621
0.00105287 0.204166 0.408286
0.0417029 0.273518 0.578836
0.328847 0.231281 0.777752
0.764462 0.227085 0.701564
0.771069 0.235569 0.695323
0.771069 0.235569 0.695323
0.771069 0.235569 0.695323
0.0114748 0.52723 0.729976
0.0247654 0.629389 0.802136
0.0635691 0.617563 0.805051
0.0853132 0.394507 0.713603
0.363668 0.237324 0.790997
0.768902 0.232731 0.698497
0.771359 0.236027 0.695491
0.771069 0.235584 0.695323
0.771069 0.235569 0.695323
0.0204318 0.75404 0.860121
0.207279 0.750607 0.849042
0.340002 0.766125 0.848569
0.376043 0.736431 0.840665
0.350057 0.560311 0.845426
0.800671 0.407584 0.798154
0.839536 0.404013 0.749401
0.83299 0.371176 0.740124
0.822736 0.333898 0.728618
0.0221866 0.743221 0.856107
0.010193 0.799542 0.875532
0.0128634 0.889937 0.897765
0.613169 0.853895 0.874235
0.613001 0.802838 0.861433
0.750042 0.653208 0.865354
0.877531 0.634592 0.804547
0.872129 0.600443 0.794522
0.86424 0.561212 0.785458
0.000961318 0.868925 0.89192
0.00204471 0.861845 0.890578
0.00207523 0.863294 0.890959
0.0438087 0.866636 0.894697
0.381216 0.897826 0.892348
0.767666 0.852171 0.881376
0.912352 0.814878 0.856825
0.902464 0.781308 0.84506
0.892119 0.738598 0.818311
0 0.943633 0.902876
0 0.94406 0.904051
0 0.944686 0.905684
0 0.944656 0.905608
0.0797436 0.941924 0.907027
0.602182 0.937102 0.895369
0.89778 0.918975 0.876341
0.976989 0.819684 0.71429
0.986221 0.755062 0.592371
0 0.919738 0.847166
0 0.920226 0.84802
0 0.921569 0.850752
0 0.920958 0.849363
0.0231785 0.916823 0.848768
0.34992 0.916533 0.851698
0.683284 0.925292 0.846174
0.971603 0.934676 0.773159
0.977859 0.933211 0.749004
0.000411994 0.897536 0.808743
0.000289921 0.897902 0.809216
0.000106813 0.89897 0.810697
3.0518e-05 0.899184 0.811002
0.00357061 0.897993 0.810544
0.1243 0.900465 0.826398
0.386114 0.912718 0.813519
0.813535 0.929015 0.729717
0.994049 0.935073 0.664775
0 0.180682 0.358648
0 0.180682 0.358648
0.000259403 0.202029 0.403861
0.0487068 0.275242 0.592416
0.327092 0.230762 0.777768
0.758724 0.221042 0.706432
0.771069 0.235569 0.695323
0.771069 0.235569 0.695323
0.771069 0.235569 0.695323
0 0.181796 0.360235
0 0.183703 0.362951
0.000900282 0.202365 0.404639
0.0413825 0.272404 0.576379
0.289708 0.239902 0.768856
0.757473 0.22269 0.70631
0.771069 0.235569 0.695323
0.771069 0.235569 0.695323
0.771069 0.235569 0.695323
0.0102541 0.50695 0.713985
0.0203555 0.648768 0.813001
0.0582589 0.618647 0.804913
0.100252 0.436759 0.748821
0.346258 0.240864 0.787182
0.765606 0.229603 0.701122
0.771252 0.235874 0.695445
0.771069 0.235569 0.695323
0.771069 0.235569 0.695323
0.0997177 0.717723 0.844724
0.151064 0.764035 0.857008
0.266102 0.797253 0.861265
0.460548 0.765545 0.847532
0.444465 0.587732 0.852827
0.781552 0.397208 0.808133
0.837736 0.394507 0.746761
0.830152 0.359915 0.736721
0.819547 0.324529 0.725536
0.00570687 0.837171 0.885771
0 0.909545 0.899321
0.682902 0.888899 0.888167
0.738445 0.895476 0.892821
0.727855 0.854994 0.879774
0.754345 0.666636 0.862699
0.876234 0.625055 0.801617
0.869963 0.589334 0.791684
0.861967 0.549447 0.782986
0.00636301 0.826627 0.883345
0.00265507 0.856321 0.889723
0 0.907225 0.898787
0.14725 0.946334 0.915206
0.838941 0.93489 0.914046
0.826123 0.89453 0.895613
0.907576 0.80499 0.85449
0.899046 0.770718 0.842832
0.889754 0.731136 0.832197
0 0.942138 0.907774
0 0.941924 0.907698
0 0.94287 0.907942
0.00512703 0.939651 0.909224
0.204334 0.936904 0.910063
0.651987 0.945846 0.910033
0.897276 0.923049 0.906798
0.935515 0.890562 0.885145
0.924102 0.856519 0.872587
0 0.945891 0.908858
0 0.945891 0.908858
0 0.945891 0.908858
0 0.945891 0.908858
0.00929274 0.945953 0.911864
0.25095 0.946624 0.911894
0.737179 0.943603 0.912108
0.942336 0.944915 0.907759
0.972091 0.87538 0.78967
0 0.934447 0.879789
0 0.934936 0.880873
0 0.936202 0.883787
0 0.936477 0.884474
0.000579843 0.934524 0.879927
0.103044 0.930114 0.878248
0.555825 0.927657 0.87332
0.79675 0.930724 0.866331
0.966476 0.936965 0.820188
0 0.180682 0.358648
0 0.180682 0.358648
0.00015259 0.193942 0.38677
0.0415045 0.271672 0.576455
0.280324 0.241047 0.765606
0.741833 0.210605 0.717769
0.771069 0.235569 0.695323
0.771069 0.235569 0.695323
0.771069 0.235569 0.695323
0 0.181842 0.36025
0 0.183276 0.362234
0.000396735 0.204196 0.408499
0.042359 0.271199 0.576684
0.257313 0.246983 0.76141
0.747631 0.217548 0.712627
0.771069 0.235569 0.695323
0.771069 0.235569 0.695323
0.771069 0.235569 0.695323
0.0118868 0.531655 0.732815
0.0211948 0.656901 0.817365
0.0590219 0.622339 0.806577
0.116609 0.461769 0.769482
0.359274 0.243549 0.792721
0.76022 0.226047 0.704692
0.77113 0.235676 0.695369
0.771069 0.235569 0.695323
0.771069 0.235569 0.695323
0.0784314 0.73843 0.853025
0.193896 0.756222 0.851606
0.213016 0.809567 0.868147
0.47126 0.770291 0.848737
0.521782 0.612665 0.857939
0.772961 0.396002 0.814786
0.835264 0.382452 0.743328
0.82623 0.345815 0.732372
0.815534 0.315038 0.722347
0 0.895888 0.896834
0.278538 0.877058 0.888395
0.636316 0.899535 0.891051
0.719539 0.918532 0.900938
0.787854 0.882002 0.890715
0.805142 0.707439 0.860166
0.87425 0.613016 0.798108
0.867185 0.576318 0.7888
0.859312 0.535378 0.779843
0 0.884962 0.895171
0 0.920485 0.901518
0.0166476 0.94583 0.912688
0.838987 0.941466 0.917342
0.874311 0.938888 0.916579
0.882765 0.925109 0.908919
0.904128 0.804425 0.855161
0.895521 0.757809 0.839261
0.887556 0.717357 0.828458
0 0.905165 0.898482
0 0.914336 0.900191
0 0.931685 0.904402
0.0464637 0.945251 0.915038
0.466011 0.947036 0.908339
0.910018 0.943053 0.917128
0.915236 0.940154 0.91458
0.931579 0.879286 0.88072
0.920699 0.844907 0.86836
0 0.945891 0.908858
0 0.945891 0.908858
0 0.945891 0.908858
0.00015259 0.945968 0.909255
0.0810712 0.945968 0.916182
0.498573 0.947051 0.908202
0.790097 0.942672 0.915236
0.93576 0.944991 0.914733
0.946136 0.928786 0.903593
0 0.945891 0.908858
0 0.945891 0.908858
0 0.945891 0.908858
0 0.945891 0.908858
0 0.945953 0.909056
0.0793469 0.945937 0.91664
0.492912 0.947082 0.908141
0.8177 0.942016 0.91664
0.946487 0.946258 0.913603
