LUT预设1/柯达5219&2393/柯达5219系列-Log/柯达5219绿调.cube
TITLE "Generated by Resolve"
LUT_3D_SIZE 5
0.0230106 0.030518 0.0598459
0.0836042 0.0467231 0.0586404
0.521584 0.0813764 0.0116884
0.873579 0.10251 0
0.873579 0.10251 0
0.0349126 0.0812085 0.100374
0.0617838 0.0695354 0.0850538
0.607507 0.0970016 0.00872816
0.880232 0.10576 0
0.873686 0.102556 0
0 0.578836 0.419364
0 0.574426 0.415732
0.688975 0.518502 0.107576
1 0.595193 0.0843214
1 0.525567 0.0660258
0 0.901366 0.716442
0 0.901366 0.716442
0.00598154 0.908095 0.652766
1 0.939681 0.36759
1 0.860517 0.199786
0 0.901366 0.716442
0 0.901366 0.716442
0 0.904494 0.718212
0.566629 0.92578 0.565698
1 0.941421 0.370565
0.0183871 0.0383459 0.0907912
0.0682536 0.04654 0.100481
0.547692 0.0826429 0.0445716
0.867842 0.104341 0
0.873518 0.102556 0
0.0345617 0.0730755 0.0972305
0.0498512 0.063035 0.0859236
0.459678 0.0867323 0.0226749
0.880751 0.10605 0
0.873823 0.102632 0
0 0.57612 0.417151
0 0.568841 0.411337
0.661357 0.510887 0.113542
1 0.595499 0.0847639
1 0.52546 0.0656443
0 0.901366 0.716442
0 0.901366 0.716442
0.00416571 0.908186 0.657664
1 0.94049 0.370504
1 0.860319 0.199069
0 0.901366 0.716442
0 0.901366 0.716442
0 0.904311 0.718074
0.549172 0.924926 0.565362
1 0.941421 0.370565
0 0.140978 0.290837
0.0133516 0.146105 0.325628
0.46949 0.10222 0.56614
0.654322 0.23505 0.422461
0.641138 0.225742 0.377981
0.0105592 0.473823 0.67689
0.0208896 0.332692 0.541253
0.446113 0.104448 0.506645
0.649104 0.233265 0.408469
0.633722 0.224491 0.362432
0 0.60264 0.586831
0 0.60145 0.591257
0.461204 0.514336 0.530434
1 0.52575 0.225071
1 0.454566 0.0824903
0 0.891463 0.758618
0 0.89044 0.763439
0.00726329 0.90486 0.763836
0.998657 0.936156 0.470939
1 0.84802 0.248524
0 0.901305 0.716686
0 0.901259 0.716945
0 0.903563 0.717693
0.491554 0.922026 0.564614
1 0.941421 0.370565
0 0.180682 0.358648
0.00030518 0.209735 0.420111
0.372305 0.22034 0.787961
0.771069 0.235569 0.695323
0.771069 0.235569 0.695323
0.0114748 0.52723 0.729976
0.0635691 0.617563 0.805051
0.363668 0.237324 0.790997
0.771359 0.236027 0.695491
0.771069 0.235569 0.695323
0.0221866 0.743221 0.856107
0.0128634 0.889937 0.897765
0.613001 0.802838 0.861433
0.877531 0.634592 0.804547
0.86424 0.561212 0.785458
0 0.943633 0.902876
0 0.944686 0.905684
0.0797436 0.941924 0.907027
0.89778 0.918975 0.876341
0.986221 0.755062 0.592371
0.000411994 0.897536 0.808743
0.000106813 0.89897 0.810697
0.00357061 0.897993 0.810544
0.386114 0.912718 0.813519
0.994049 0.935073 0.664775
0 0.180682 0.358648
0.00015259 0.193942 0.38677
0.280324 0.241047 0.765606
0.771069 0.235569 0.695323
0.771069 0.235569 0.695323
0.0118868 0.531655 0.732815
0.0590219 0.622339 0.806577
0.359274 0.243549 0.792721
0.77113 0.235676 0.695369
0.771069 0.235569 0.695323
0 0.895888 0.896834
0.636316 0.899535 0.891051
0.787854 0.882002 0.890715
0.87425 0.613016 0.798108
0.859312 0.535378 0.779843
0 0.905165 0.898482
0 0.931685 0.904402
0.466011 0.947036 0.908339
0.915236 0.940154 0.91458
0.920699 0.844907 0.86836
0 0.945891 0.908858
0 0.945891 0.908858
0 0.945953 0.909056
0.492912 0.947082 0.908141
0.946487 0.946258 0.913603
