LUT预设1/柯达5219&2393/柯达5219系列-Log/柯达5219微调.cube
TITLE "Generated by Resolve"
LUT_3D_SIZE 33
0.00933852 0.0237278 0.0242161
0.00961318 0.0237278 0.0245975
0.0104524 0.0237278 0.0239719
0.0111849 0.0237278 0.0231174
0.0155184 0.0237278 0.0227512
0.0202182 0.0237278 0.0222934
0.0319677 0.0237278 0.0222477
0.0450904 0.0237278 0.0220798
0.0614786 0.0237583 0.0220035
0.0822003 0.0240482 0.0215457
0.104234 0.0243992 0.0210574
0.127153 0.0247807 0.0205081
0.152346 0.0252995 0.0196994
0.181277 0.0258793 0.0186618
0.216022 0.0265049 0.0172122
0.259022 0.0271 0.0150301
0.312596 0.0274205 0.0117037
0.377951 0.0273747 0.00737011
0.45594 0.0264439 0.00354009
0.544198 0.024094 0.00210575
0.640055 0.0205539 0.00144961
0.73727 0.0170138 0.000549325
0.830976 0.0128939 0
0.911894 0.00555428 0.000183108
0.953155 0.00352483 0.000717174
0.961868 0.00343328 0.000854505
0.962234 0.00343328 0.000854505
0.962249 0.00343328 0.000854505
0.962249 0.00343328 0.000854505
0.962249 0.00343328 0.000854505
0.962249 0.00343328 0.000854505
0.962249 0.00343328 0.000854505
0.962249 0.00343328 0.000854505
0.009308 0.0237278 0.0255436
0.00988785 0.0237278 0.0249638
0.0103914 0.0237278 0.0243076
0.0145876 0.0237278 0.024094
0.0194705 0.023743 0.0234226
0.0303502 0.023743 0.0229191
0.0427558 0.023743 0.0223087
0.0586252 0.023743 0.0221103
0.0789807 0.0240177 0.0216526
0.101137 0.0243687 0.0211337
0.124346 0.0247654 0.0205844
0.150179 0.0253147 0.0197757
0.180011 0.0259403 0.0187076
0.2159 0.0265812 0.0172274
0.259861 0.0271458 0.0149844
0.314031 0.027451 0.0116274
0.380072 0.0273442 0.00726329
0.458824 0.0263828 0.00347906
0.549172 0.0239261 0.00209049
0.647669 0.020264 0.00137331
0.748226 0.016556 0.000442512
0.843015 0.0120089 0
0.918196 0.00505074 0.000244144
0.953552 0.00352483 0.000717174
0.961578 0.00343328 0.000839246
0.962234 0.00343328 0.000854505
0.962249 0.00343328 0.000854505
0.962249 0.00343328 0.000854505
0.962249 0.00343328 0.000854505
0.962249 0.00343328 0.000854505
0.962249 0.00343328 0.000854505
0.962249 0.00343328 0.000854505
0.962249 0.00343328 0.000854505
0.00950637 0.0237278 0.0268559
0.00985733 0.0238041 0.0267185
0.0126345 0.0238956 0.0263828
0.0178531 0.0238804 0.0250248
0.027039 0.0238651 0.0238499
0.0385901 0.0238804 0.0228428
0.0542611 0.0238956 0.0224613
0.0736553 0.0241398 0.0219272
0.0962234 0.0245823 0.0213474
0.120348 0.0251469 0.0207523
0.14725 0.0259098 0.0199283
0.178225 0.026688 0.0188296
0.215228 0.0273594 0.0172732
0.260182 0.0277562 0.0149691
0.315679 0.0277562 0.0115206
0.383032 0.0274052 0.0071107
0.463081 0.0262913 0.0033875
0.553613 0.0237736 0.00205997
0.652476 0.0200809 0.00132753
0.753796 0.0163119 0.000381476
0.848676 0.0115969 0
0.921126 0.00486763 0.000274662
0.953582 0.00352483 0.000717174
0.961379 0.00343328 0.000839246
0.962234 0.00343328 0.000854505
0.962249 0.00343328 0.000854505
0.962249 0.00343328 0.000854505
0.962249 0.00343328 0.000854505
0.962249 0.00343328 0.000854505
0.962249 0.00343328 0.000854505
0.962249 0.00343328 0.000854505
0.962249 0.00343328 0.000854505
0.962249 0.00343328 0.000854505
0.00933852 0.0242618 0.0294804
0.00939956 0.0247044 0.0300908
0.0149538 0.0244297 0.0276188
0.022034 0.0241245 0.0248264
0.0333104 0.0247044 0.0240635
0.0477455 0.0250553 0.0232242
0.0655833 0.0254826 0.0224918
0.0885176 0.026276 0.0217746
0.113741 0.0271153 0.0210422
0.141802 0.0280156 0.0201572
0.173571 0.0288853 0.0190127
0.211032 0.0294194 0.0174868
0.256916 0.0294347 0.0151675
0.313634 0.0287938 0.0116579
0.382513 0.0278325 0.00714122
0.464317 0.0263523 0.00337224
0.555016 0.0237278 0.00204471
0.653422 0.0200351 0.00132753
0.753719 0.0163119 0.000381476
0.851164 0.0114137 0
0.926268 0.00462348 0.000335698
0.956405 0.00349432 0.000762951
0.961791 0.00343328 0.000854505
0.962234 0.00343328 0.000854505
0.962249 0.00343328 0.000854505
0.962249 0.00343328 0.000854505
0.962249 0.00343328 0.000854505
0.962249 0.00343328 0.000854505
0.962249 0.00343328 0.000854505
0.962249 0.00343328 0.000854505
0.962249 0.00343328 0.000854505
0.962249 0.00343328 0.000854505
0.962249 0.00343328 0.000854505
0.00924697 0.0302281 0.035111
0.00973526 0.0312505 0.0355688
0.0115511 0.0330053 0.0320134
0.019852 0.0331426 0.0284428
0.0368658 0.0308843 0.0248112
0.0549783 0.03093 0.0236973
0.0778363 0.0314641 0.0225986
0.104387 0.0323186 0.0215305
0.133471 0.0331426 0.0204929
0.166827 0.0337377 0.0192721
0.205875 0.0337987 0.0177005
0.253086 0.0331273 0.0153811
0.310353 0.0314794 0.011902
0.379751 0.0292973 0.00727855
0.462272 0.0268406 0.00341802
0.554345 0.0237888 0.00205997
0.651698 0.0201114 0.00134279
0.751293 0.0164187 0.000411994
0.847181 0.0117037 0
0.921889 0.00482185 0.000274662
0.955139 0.00350958 0.000747692
0.961425 0.00343328 0.000839246
0.962203 0.00343328 0.000854505
0.962234 0.00343328 0.000854505
0.962249 0.00343328 0.000854505
0.962249 0.00343328 0.000854505
0.962249 0.00343328 0.000854505
0.962249 0.00343328 0.000854505
0.962249 0.00343328 0.000854505
0.962249 0.00343328 0.000854505
0.962249 0.00343328 0.000854505
0.962249 0.00343328 0.000854505
0.962249 0.00343328 0.000854505
0.00923171 0.0418708 0.0417792
0.009308 0.0435645 0.0420539
0.00949111 0.0466163 0.0391089
0.0148013 0.0473182 0.0336767
0.0255131 0.0463264 0.0269474
0.0552071 0.043595 0.0245518
0.0852369 0.0431983 0.0227665
0.11812 0.0432136 0.0213169
0.154742 0.043061 0.0198672
0.194858 0.0425574 0.0182498
0.243473 0.04065 0.0159457
0.302602 0.0372473 0.0124361
0.373266 0.032639 0.00769055
0.457221 0.0281224 0.00350958
0.551354 0.0242008 0.00207523
0.650111 0.0202182 0.00135805
0.749676 0.016495 0.000427253
0.844968 0.0118563 0
0.918212 0.00505074 0.000244144
0.953414 0.00352483 0.000717174
0.961379 0.00343328 0.000839246
0.962203 0.00343328 0.000854505
0.962234 0.00343328 0.000854505
0.962249 0.00343328 0.000854505
0.962249 0.00343328 0.000854505
0.962249 0.00343328 0.000854505
0.962249 0.00343328 0.000854505
0.962249 0.00343328 0.000854505
0.962249 0.00343328 0.000854505
0.962249 0.00343328 0.000854505
0.962249 0.00343328 0.000854505
0.962249 0.00343328 0.000854505
0.962249 0.00343328 0.000854505
0.00920119 0.0575723 0.0477913
0.00921645 0.0593576 0.0486763
0.00924697 0.062501 0.047303
0.0102693 0.0648051 0.0404517
0.0169985 0.0651408 0.0317998
0.0376593 0.0610819 0.0272221
0.0794995 0.0580758 0.0236515
0.120943 0.0567941 0.0212711
0.164157 0.0555581 0.0195315
0.217044 0.053254 0.0173342
0.278431 0.0500191 0.0140383
0.351461 0.0443427 0.00926223
0.438331 0.0356451 0.00434882
0.536339 0.0267643 0.00215152
0.639323 0.020798 0.00146487
0.740978 0.0168612 0.000518807
0.840467 0.012192 0
0.918959 0.0049897 0.000244144
0.952895 0.00352483 0.000717174
0.961563 0.00343328 0.000839246
0.962234 0.00343328 0.000854505
0.962249 0.00343328 0.000854505
0.962249 0.00343328 0.000854505
0.962249 0.00343328 0.000854505
0.962249 0.00343328 0.000854505
0.962249 0.00343328 0.000854505
0.962249 0.00343328 0.000854505
0.962249 0.0034638 0.000854505
0.962249 0.00378424 0.000854505
0.962264 0.00523384 0.000854505
0.96228 0.00791943 0.000854505
0.96228 0.00909438 0.000854505
0.96228 0.00872816 0.000854505
0.00918593 0.0761578 0.0527657
0.00917067 0.0781262 0.0543526
0.00914015 0.0816052 0.0547951
0.00918593 0.0856641 0.0492256
0.0113985 0.0879835 0.0398718
0.0189975 0.0839094 0.0303349
0.054963 0.078996 0.0276341
0.109224 0.0746471 0.022797
0.162417 0.0719768 0.0196078
0.220584 0.068925 0.0171664
0.296117 0.0633555 0.0129091
0.38761 0.0548104 0.0069276
0.491463 0.0429694 0.00282292
0.602014 0.0293431 0.00177005
0.712749 0.0193027 0.00077821
0.817334 0.0136416 0
0.905394 0.00605783 0.000122072
0.950896 0.00355535 0.000686656
0.960739 0.00344854 0.000823987
0.962173 0.00343328 0.000854505
0.962249 0.00343328 0.000854505
0.962249 0.0034638 0.000854505
0.962249 0.00349432 0.000854505
0.962249 0.00355535 0.000854505
0.962249 0.00361639 0.000854505
0.962249 0.00367742 0.000854505
0.962249 0.00383001 0.000854505
0.962264 0.00508125 0.000854505
0.96228 0.010193 0.000854505
0.962417 0.0213626 0.000869764
0.9626 0.0343023 0.000885023
0.962692 0.0387121 0.000885023
0.962676 0.037232 0.000885023
0.0089723 0.101289 0.0580911
0.00895705 0.103532 0.0599374
0.00892653 0.10695 0.0614481
0.00886549 0.111345 0.0590066
0.0091249 0.115023 0.0505837
0.0104829 0.113985 0.0346685
0.0287022 0.107317 0.0333104
0.0769818 0.101457 0.028748
0.146761 0.0953078 0.022385
0.215717 0.0899367 0.0176394
0.292241 0.0836652 0.0130617
0.394095 0.0734874 0.00653086
0.517205 0.0572824 0.00238041
0.644739 0.0375219 0.00140383
0.763897 0.0216831 0.000274662
0.867521 0.0110323 0
0.937118 0.0043183 0.000488289
0.960037 0.00349432 0.000823987
0.962203 0.00344854 0.000854505
0.962249 0.00350958 0.000854505
0.962249 0.00361639 0.000854505
0.962249 0.00392157 0.000854505
0.962249 0.00456245 0.000854505
0.962264 0.00581369 0.000854505
0.96228 0.00798047 0.000854505
0.96231 0.0114443 0.000854505
0.962356 0.016556 0.000869764
0.962478 0.0257572 0.000869764
0.962829 0.0442359 0.000900282
0.963989 0.0740978 0.00106813
0.967224 0.111376 0.00213626
0.968048 0.120897 0.00233463
0.967819 0.118242 0.00228885
0.00856031 0.131899 0.0642405
0.00851453 0.134722 0.0662699
0.0084535 0.138186 0.0680247
0.00834669 0.14226 0.0674601
0.00820935 0.146624 0.0613107
0.00817884 0.148684 0.0432898
0.0130159 0.141909 0.0357977
0.0399329 0.135531 0.0352026
0.105943 0.128511 0.0294499
0.196063 0.119783 0.0209506
0.284627 0.111284 0.0144503
0.382086 0.101808 0.0075227
0.505913 0.0836652 0.002533
0.649912 0.0592508 0.00134279
0.78378 0.0350195 0.000106813
0.89099 0.0149691 1.5259e-05
0.949004 0.00674449 0.000656138
0.961852 0.00608835 0.000854505
0.962264 0.00697337 0.000854505
0.96228 0.00830091 0.000854505
0.96228 0.0100557 0.000854505
0.96231 0.0125124 0.000854505
0.962356 0.0163119 0.000869764
0.962432 0.0227665 0.000869764
0.9626 0.033814 0.000885023
0.962966 0.0496834 0.000915541
0.963668 0.0693675 0.000961318
0.966796 0.106416 0.00199893
0.971084 0.155932 0.00300603
0.976242 0.210758 0.00328069
0.979538 0.241459 0.00288396
0.979965 0.245289 0.00280766
0.979629 0.242374 0.0028687
0.0074464 0.170153 0.0695964
0.00732433 0.173663 0.0721141
0.00720226 0.177325 0.0743267
0.00706493 0.181445 0.0751659
0.00691234 0.185733 0.0717937
0.0068513 0.187686 0.0551919
0.00723278 0.183856 0.0376745
0.0160067 0.177203 0.0360723
0.0532082 0.170321 0.0366522
0.143877 0.161715 0.0288396
0.260121 0.149416 0.0178683
0.370581 0.137026 0.00907912
0.48603 0.123369 0.00337224
0.622034 0.0994125 0.00157168
0.763989 0.0684367 0.000228885
0.883711 0.039704 0
0.948455 0.0237278 0.000656138
0.962188 0.0235142 0.000869764
0.962539 0.0302892 0.000885023
0.962692 0.0387427 0.000885023
0.962936 0.0484627 0.000915541
0.963378 0.0596628 0.000946059
0.963836 0.0724041 0.00102235
0.965988 0.0968338 0.00172427
0.968902 0.130602 0.00254826
0.972686 0.174655 0.00320439
0.977539 0.222889 0.00323491
0.982742 0.271153 0.00205997
0.987625 0.3196 0.000350958
0.990982 0.358999 0.000335698
0.992264 0.375051 0.000610361
0.992248 0.374868 0.000610361
0.992035 0.372274 0.000564584
0.00560006 0.218753 0.0740215
0.00541695 0.222782 0.0772259
0.0052491 0.22681 0.0801099
0.00505074 0.230945 0.0820783
0.00479133 0.235492 0.0810101
0.00477607 0.236118 0.0670787
0.00503548 0.231846 0.0443122
0.0059205 0.227039 0.0338903
0.0195468 0.22063 0.0365759
0.0709697 0.213794 0.0373846
0.192477 0.203647 0.0265049
0.341085 0.185916 0.0123903
0.471321 0.167422 0.00375372
0.596185 0.150881 0.0016022
0.729061 0.127138 0.000320439
0.853742 0.0939956 0.000259403
0.936675 0.0658427 0.000549325
0.961898 0.0645609 0.0009308
0.964721 0.0823072 0.00129702
0.967514 0.114549 0.00221256
0.970687 0.151308 0.00294499
0.974105 0.190845 0.00334173
0.977996 0.22707 0.00318914
0.981994 0.264225 0.00238041
0.986252 0.304479 0.000610361
0.989899 0.345388 0.000106813
0.993133 0.38764 0.000793469
0.995789 0.429526 0.00105287
0.997757 0.469932 0.000564584
0.998596 0.495109 0.000167849
0.998734 0.500908 0.000137331
0.998718 0.499855 0.000137331
0.998657 0.497139 0.00015259
0.0021973 0.281285 0.077409
0.0019379 0.286397 0.081529
0.00172427 0.290806 0.0851606
0.00146487 0.29543 0.0886549
0.00128176 0.300435 0.0889296
0.00134279 0.299779 0.0778668
0.00167849 0.292348 0.0547799
0.00209049 0.283986 0.0361334
0.00340276 0.281559 0.0322423
0.023743 0.276844 0.0378119
0.0960861 0.269352 0.0363012
0.259373 0.257862 0.0197147
0.438514 0.231632 0.00485237
0.581613 0.205402 0.00141909
0.704845 0.188785 0.0009308
0.827283 0.170306 0.00146487
0.923903 0.151217 0.00225834
0.964538 0.146365 0.0027924
0.971832 0.165438 0.00311284
0.975448 0.203265 0.00329595
0.980438 0.249668 0.00271611
0.985718 0.298817 0.00077821
0.989868 0.345083 9.15541e-05
0.993332 0.390738 0.000823987
0.996109 0.435035 0.00102235
0.998032 0.477211 0.000427253
0.999146 0.517739 3.0518e-05
0.999756 0.55671 0
0.999985 0.591211 0
1 0.607279 0
1 0.608209 0
1 0.606867 0
1 0.604868 0
0.00112917 0.362066 0.0793164
0.00123598 0.368017 0.084535
0.0011902 0.372992 0.0893873
0.00114443 0.378149 0.0942092
0.00108339 0.383856 0.0966812
0.00114443 0.382879 0.0880903
0.00120546 0.372213 0.0670787
0.0010071 0.35433 0.0432898
0.0009308 0.349722 0.0315557
0.00381476 0.353033 0.0331273
0.0322271 0.34931 0.0388952
0.130922 0.342672 0.0306554
0.346456 0.329625 0.00978103
0.549828 0.290211 0.00238041
0.691539 0.257877 0.00155642
0.806439 0.241306 0.00181582
0.90782 0.232181 0.00248722
0.965194 0.232181 0.00297551
0.979431 0.24445 0.00282292
0.982834 0.272053 0.00202945
0.987106 0.313848 0.000442512
0.991394 0.364202 0.000427253
0.995041 0.416464 0.00114443
0.997635 0.466529 0.000640879
0.999054 0.514122 4.57771e-05
0.999771 0.558968 0
1 0.600839 0
1 0.639704 7.62951e-05
1 0.671397 0.000183108
1 0.684153 0.000198367
1 0.683833 0.000198367
1 0.68275 0.000198367
1 0.681819 0.000213626
0.00015259 0.462089 0.0809644
0.000106813 0.469276 0.088014
7.62951e-05 0.47422 0.0945602
4.57771e-05 0.479622 0.101503
3.0518e-05 0.485924 0.106432
3.0518e-05 0.487022 0.101671
6.10361e-05 0.475319 0.0810254
0.000244144 0.450416 0.0539864
0.000610361 0.425925 0.0360266
0.000503548 0.433051 0.0316167
0.00555428 0.447593 0.0350195
0.0457923 0.439979 0.0396735
0.187106 0.438071 0.0175784
0.457649 0.42153 0.00326543
0.662791 0.367697 0.000335698
0.794034 0.329213 1.5259e-05
0.890669 0.313451 0.00047303
0.959838 0.313146 0.000488289
0.985901 0.327504 0.000213626
0.990402 0.351919 0.000213626
0.992859 0.383505 0.000732433
0.995346 0.422019 0.00109865
0.997604 0.465599 0.000656138
0.998962 0.51017 7.62951e-05
0.999725 0.554955 0
1 0.598367 0
1 0.63949 7.62951e-05
1 0.678706 0.000198367
1 0.709453 3.0518e-05
1 0.720607 0
1 0.719921 0
1 0.719173 0
1 0.718517 0
0 0.571435 0.0846876
0 0.578927 0.0942397
0 0.584756 0.104051
6.10361e-05 0.589639 0.114
0.000137331 0.595407 0.122011
0.000183108 0.598169 0.121279
6.10361e-05 0.588129 0.0984054
0 0.563592 0.0695201
0 0.527169 0.045304
0 0.512123 0.0357214
9.15541e-05 0.53695 0.0355535
0.00962844 0.554757 0.0383764
0.0673991 0.544457 0.0393225
0.289601 0.553521 0.00682078
0.581018 0.530785 0.00122072
0.767895 0.465568 0.000366217
0.880613 0.419623 0.000350958
0.948455 0.404807 0.000671397
0.985962 0.411063 0.00103761
0.995972 0.436561 0.0010071
0.997787 0.470481 0.000564584
0.998779 0.502541 0.000122072
0.999405 0.532647 0
0.999802 0.563836 0
1 0.59649 0
1 0.629862 3.0518e-05
1 0.663676 0.00015259
1 0.697734 0.000106813
1 0.724681 0
1 0.734859 0
1 0.734798 0
1 0.734142 0
1 0.733547 0
0.0021973 0.676661 0.0958572
0.00228885 0.684627 0.111589
0.00210575 0.690257 0.128069
0.0019379 0.694026 0.140459
0.00177005 0.698863 0.151736
0.00170901 0.702037 0.156252
0.00201419 0.696284 0.137255
0.00218204 0.675776 0.0942092
0.0011902 0.641093 0.059144
0.000228885 0.601602 0.0402991
0.000289921 0.605829 0.0373693
0.00166323 0.650813 0.0395666
0.0185855 0.657679 0.0417487
0.110719 0.651301 0.0280766
0.429191 0.670024 0.00613413
0.695994 0.638453 0.000656138
0.861997 0.567742 3.0518e-05
0.944289 0.52195 0
0.982101 0.509819 9.15541e-05
0.997482 0.519539 1.5259e-05
0.999664 0.550072 0
0.999985 0.588266 0
1 0.620157 0
1 0.644388 9.15541e-05
1 0.666041 0.000167849
1 0.687846 0.000167849
1 0.710506 1.5259e-05
1 0.734279 0
1 0.753491 0
1 0.761028 0
1 0.760906 0
1 0.760159 0
1 0.759396 0
0.00202945 0.766018 0.128893
0.0011902 0.773877 0.15584
0.000732433 0.779629 0.177661
0.000427253 0.783368 0.19379
0.000244144 0.78703 0.208042
0.000167849 0.790722 0.217624
0.000244144 0.78851 0.206424
0.00123598 0.773495 0.153872
0.00283818 0.745556 0.0903182
0.00277714 0.706401 0.0540627
0.0021973 0.677577 0.0419776
0.00271611 0.702937 0.0424506
0.00357061 0.750561 0.0451209
0.0343633 0.746059 0.047364
0.219684 0.751598 0.0198367
0.564965 0.77055 0.00666819
0.79968 0.733059 0.00175479
0.933776 0.663203 0.00015259
0.980926 0.625376 0
0.996109 0.616526 0
0.999924 0.627924 3.0518e-05
1 0.658579 0.000137331
1 0.69688 0.000106813
1 0.728344 0
1 0.750546 0
1 0.76701 0
1 0.781872 0
1 0.796918 0
1 0.808972 0
1 0.813596 0
1 0.813016 0
1 0.812177 0
1 0.811383 0
0.000427253 0.841596 0.204379
0.000411994 0.848783 0.236301
0.000335698 0.853788 0.260441
0.000244144 0.857282 0.278752
0.00015259 0.860273 0.293919
0.000122072 0.863386 0.306325
0.000137331 0.863874 0.304952
0.000335698 0.855238 0.264393
0.000366217 0.832319 0.171572
0.00135805 0.799619 0.0877089
0.00256352 0.762295 0.0525978
0.00273136 0.751675 0.0455329
0.0015259 0.795804 0.0473487
0.00750744 0.827253 0.0507668
0.0738994 0.819516 0.0570993
0.417731 0.840848 0.0301061
0.688365 0.853651 0.0179904
0.884443 0.811734 0.00373846
0.972534 0.753948 0.000350958
0.996139 0.724056 1.5259e-05
0.999802 0.719448 0
1 0.732006 0
1 0.760037 0
1 0.794568 0
1 0.823163 0
1 0.841764 0
1 0.854246 0
1 0.863828 7.62951e-05
1 0.871031 0.000137331
1 0.873487 0.000167849
1 0.87277 0.00015259
1 0.87219 0.00015259
1 0.871519 0.00015259
3.0518e-05 0.902068 0.312078
0 0.90782 0.34374
0 0.910796 0.365316
0 0.912718 0.381308
0 0.914168 0.394797
0 0.915862 0.407172
0 0.916915 0.412299
0 0.913283 0.390066
3.0518e-05 0.900175 0.314504
0.00155642 0.874617 0.184161
0.000869764 0.843824 0.0847486
0.000762951 0.816037 0.052781
0.000579843 0.821317 0.0488441
0.0030518 0.868849 0.0537881
0.0354925 0.879698 0.0687572
0.268284 0.885603 0.0700999
0.590738 0.908324 0.0702068
0.799771 0.908934 0.033341
0.936034 0.870878 0.00813306
0.989349 0.83093 0.00077821
0.999329 0.813153 1.5259e-05
0.999985 0.813031 0
1 0.824506 0
1 0.847135 0
1 0.874098 0.000167849
1 0.896666 0.00175479
1 0.911543 0.00317388
1 0.919875 0.00401312
1 0.924102 0.00444038
1 0.9252 0.00454719
1 0.924804 0.00450141
1 0.924392 0.00447089
1 0.923949 0.00442512
0 0.934752 0.42414
0 0.937514 0.45156
0 0.939391 0.471214
0 0.940246 0.485771
0 0.94081 0.496513
0 0.941497 0.506905
0 0.942031 0.513893
0 0.941176 0.505516
0 0.937102 0.461707
0 0.925628 0.355169
0.00189212 0.90248 0.190494
0.00259403 0.878935 0.0823682
0.00192264 0.865354 0.0555734
0.00268559 0.881758 0.0547189
0.0173342 0.907118 0.0701762
0.128908 0.912963 0.109941
0.507897 0.936812 0.171145
0.725704 0.947234 0.140307
0.882002 0.936599 0.0549783
0.964294 0.912428 0.0145418
0.99472 0.891646 0.0021973
0.999695 0.884092 0.000579843
1 0.886854 0.000839246
1 0.896376 0.00173953
1 0.912276 0.00325017
1 0.930694 0.00509651
1 0.94403 0.00682078
1 0.950683 0.00770581
1 0.953124 0.0080415
1 0.953735 0.0081178
1 0.953613 0.00810254
1 0.95346 0.00807202
1 0.953414 0.00807202
0 0.944106 0.52781
0 0.945602 0.552483
0 0.946563 0.569253
0 0.947234 0.581292
0 0.947753 0.590509
0 0.948226 0.598886
0 0.948608 0.605844
0 0.948562 0.604837
0 0.947311 0.582391
0 0.943481 0.51754
0 0.934096 0.384482
0.00199893 0.916426 0.189731
0.00347906 0.904341 0.0815137
0.0033875 0.900664 0.0589609
0.00862135 0.911727 0.0679789
0.0648508 0.915999 0.125216
0.415595 0.944625 0.234607
0.671046 0.959258 0.291691
0.829831 0.959838 0.218463
0.932387 0.950027 0.0774243
0.981933 0.940139 0.0198672
0.997772 0.93283 0.00627146
0.999908 0.931746 0.00520333
1 0.935363 0.0056611
1 0.941756 0.0065156
1 0.949493 0.00755322
1 0.95552 0.00836194
1 0.957992 0.00877394
1 0.958511 0.00888075
1 0.958602 0.00889601
1 0.958602 0.00889601
1 0.958602 0.00889601
1 0.958602 0.00889601
0 0.949508 0.621592
0 0.950515 0.640757
0 0.951278 0.655299
0 0.951843 0.666224
0 0.952255 0.67422
0 0.95256 0.680949
0 0.952834 0.687266
0 0.952926 0.689464
0 0.952514 0.679835
0 0.950652 0.643229
0 0.946166 0.562142
0 0.936263 0.405737
0.0021973 0.919844 0.183673
0.00375372 0.915465 0.0788739
0.00425727 0.914488 0.0643626
0.0307164 0.915831 0.105089
0.273548 0.93843 0.245518
0.62153 0.961975 0.369863
0.789212 0.968109 0.383536
0.904479 0.964691 0.270314
0.966842 0.956909 0.0845045
0.993027 0.953933 0.0209659
0.99939 0.952636 0.00872816
0.999985 0.953368 0.00805676
1 0.955352 0.00833143
1 0.95729 0.00862135
1 0.958434 0.00886549
1 0.958785 0.00894179
1 0.958816 0.00894179
1 0.958816 0.00894179
1 0.958816 0.00894179
1 0.958816 0.00894179
1 0.958816 0.00894179
0 0.95346 0.701762
0 0.954131 0.717464
0 0.954635 0.729702
0 0.95494 0.738689
0 0.955139 0.74551
0 0.955306 0.75111
0 0.955474 0.75668
0 0.955596 0.760449
0 0.955505 0.757382
0 0.954925 0.738079
0 0.952911 0.689174
0 0.947906 0.593118
0 0.936629 0.410727
0.00263981 0.918685 0.167391
0.00376898 0.915785 0.0761578
0.0141604 0.915831 0.0795911
0.117327 0.927337 0.2056
0.541695 0.959762 0.389273
0.754879 0.971466 0.472328
0.876524 0.972381 0.445838
0.954803 0.966781 0.289525
0.988113 0.959045 0.07953
0.998444 0.95816 0.0191043
0.999939 0.958129 0.00924697
1 0.958404 0.00886549
1 0.958679 0.00891127
1 0.958801 0.00894179
1 0.958816 0.00894179
1 0.958816 0.00894179
1 0.958816 0.00894179
1 0.958816 0.00894179
1 0.958816 0.00894179
1 0.958816 0.00894179
0 0.95584 0.768765
0 0.956252 0.782452
0 0.956542 0.79292
0 0.956695 0.800061
0 0.956817 0.805325
0 0.956924 0.809735
0 0.957031 0.813977
0 0.957107 0.817594
0 0.957122 0.817746
0 0.956893 0.808301
0 0.956191 0.780072
0 0.954314 0.722164
0 0.948974 0.611749
0 0.935699 0.397971
0.00317388 0.917372 0.147921
0.00575265 0.915801 0.0749828
0.0439918 0.916075 0.117815
0.378805 0.949218 0.342061
0.706233 0.971313 0.506371
0.852369 0.976059 0.544945
0.938674 0.974655 0.478584
0.984741 0.96701 0.281956
0.997879 0.958877 0.0648814
0.999908 0.958801 0.0158694
1 0.958801 0.00914015
1 0.958816 0.00894179
1 0.958816 0.00894179
1 0.958816 0.00894179
1 0.958816 0.00894179
1 0.958816 0.00894179
1 0.958816 0.00894179
1 0.958816 0.00894179
1 0.958816 0.00894179
0 0.957275 0.824689
0 0.957519 0.834882
0 0.957687 0.842649
0 0.957809 0.84828
0 0.957885 0.852201
0 0.957946 0.854963
0 0.957992 0.857801
0 0.958053 0.860578
0 0.958083 0.861708
0 0.957992 0.857313
0 0.957656 0.841321
0 0.956863 0.806821
0 0.95494 0.738598
0 0.948867 0.609842
0 0.933639 0.369085
0.00383001 0.915892 0.120668
0.0128176 0.915831 0.0796063
0.127047 0.929915 0.227741
0.602518 0.966903 0.484276
0.820401 0.977096 0.590295
0.920439 0.978653 0.592447
0.976608 0.975418 0.485618
0.99736 0.966033 0.252735
0.999939 0.958892 0.0522621
1 0.958831 0.0130312
1 0.958816 0.00900282
1 0.958816 0.00894179
1 0.958816 0.00894179
1 0.958816 0.00894179
1 0.958816 0.00894179
1 0.958816 0.00894179
1 0.958816 0.00894179
1 0.958816 0.00894179
0 0.958206 0.867826
0 0.958328 0.87451
0 0.958434 0.879622
0 0.958511 0.883207
0 0.958556 0.885618
0 0.958587 0.887358
0 0.958633 0.889052
0 0.958663 0.891096
0 0.958694 0.892409
0 0.958663 0.890669
0 0.958495 0.882216
0 0.958068 0.86157
0 0.957153 0.819471
0 0.954955 0.739239
0 0.947601 0.587518
0 0.929931 0.318181
0.00494392 0.915831 0.101152
0.035523 0.916014 0.112276
0.376806 0.950607 0.367086
0.750378 0.975433 0.584848
0.894926 0.980011 0.645838
0.963241 0.97998 0.613764
0.99411 0.97499 0.469291
0.999908 0.964385 0.210544
1 0.958877 0.0393988
1 0.958831 0.0109255
1 0.958816 0.00894179
1 0.958816 0.00894179
1 0.958816 0.00894179
1 0.958816 0.00894179
1 0.958816 0.00894179
1 0.958816 0.00894179
1 0.958816 0.00894179
0 0.958755 0.89575
0 0.958816 0.900603
0 0.958877 0.904265
0 0.958923 0.906981
0 0.958953 0.909087
0 0.958968 0.910658
0 0.958999 0.912154
0 0.959014 0.913832
0 0.959045 0.915175
