LUT预设1/柯达5219&2393/柯达5219系列-Log/柯达2393冷调.cube
TITLE "Generated by Resolve"
LUT_3D_SIZE 33
0.00544747 0.0263218 0.0207523
0.0104372 0.0270542 0.0209354
0.0166171 0.0276951 0.0204929
0.0239872 0.0282902 0.0194247
0.0332189 0.0289769 0.01738
0.0451667 0.0298924 0.0138705
0.0600595 0.0312963 0.00903334
0.077821 0.0332036 0.00418097
0.0994278 0.0349737 0.00112917
0.127092 0.0359045 0.000137331
0.163851 0.0353857 1.5259e-05
0.209964 0.0340276 0
0.262913 0.0321508 0
0.319371 0.0305028 0
0.375448 0.0303502 0
0.428153 0.0327611 0
0.475517 0.0379492 0
0.517739 0.0446784 0
0.555657 0.0506752 0
0.590158 0.0552071 0
0.623056 0.0585184 0
0.653132 0.0611276 0
0.678706 0.0639658 0
0.700465 0.0675517 0
0.718639 0.0710155 0
0.734081 0.0733501 0
0.747311 0.0749828 0
0.758373 0.0772259 0
0.767834 0.0803693 0
0.775601 0.0837568 0
0.782162 0.0869154 0
0.787793 0.0894179 0
0.791775 0.0924849 0
0.00222782 0.0310826 0.0217899
0.0053254 0.0318151 0.0212558
0.0122072 0.0323033 0.0207675
0.0206912 0.0329442 0.0198062
0.0307012 0.0336767 0.0178683
0.043183 0.0345922 0.0144045
0.0586557 0.0358129 0.00947585
0.0772106 0.0374304 0.00440986
0.0999313 0.039292 0.00117494
0.128542 0.040589 0.000137331
0.166171 0.0404517 1.5259e-05
0.21416 0.0396735 0
0.269398 0.0390173 0
0.327428 0.0390478 0
0.384833 0.0403754 0
0.43888 0.0432593 0
0.48777 0.047715 0
0.531472 0.0538643 0
0.569909 0.0610513 0
0.60444 0.0677653 0
0.637736 0.0724346 0
0.667689 0.0757305 0
0.692607 0.0793317 0
0.713619 0.0828107 0
0.730999 0.0851911 0
0.745586 0.0866102 0
0.757824 0.0882887 0
0.768643 0.0908675 0
0.778531 0.0936751 0
0.78703 0.0960708 0
0.794141 0.0980697 0
0.800031 0.0999161 0
0.80444 0.102251 0
0.000579843 0.0366217 0.0235294
0.00236515 0.0371405 0.0222019
0.00604257 0.0381476 0.0216526
0.0142061 0.0387427 0.0203555
0.0263371 0.0392157 0.0182498
0.0410315 0.0399634 0.0147707
0.057847 0.0410773 0.00982681
0.0775769 0.0423896 0.004654
0.10161 0.0436866 0.0012665
0.131624 0.0448463 0.000167849
0.170962 0.0450446 1.5259e-05
0.220935 0.0449073 0
0.27863 0.0453651 0
0.339376 0.046891 0
0.398901 0.0497444 0
0.454337 0.0536355 0
0.504005 0.0580606 0
0.548486 0.0634012 0
0.587991 0.0699779 0
0.622507 0.0775006 0
0.655085 0.0843366 0
0.684062 0.0894942 0
0.708705 0.0939345 0
0.729534 0.0974899 0
0.7467 0.0995193 0
0.760525 0.100786 0
0.771725 0.102663 0
0.781506 0.10515 0
0.790738 0.107454 0
0.799313 0.109377 0
0.80705 0.111192 0
0.81355 0.113207 0
0.818219 0.114809 0
7.62951e-05 0.0430762 0.0260319
0.000656138 0.0436866 0.0239261
0.00280766 0.0446784 0.0228733
0.00764477 0.0455482 0.0215305
0.0180209 0.0459754 0.0191806
0.0349584 0.0463722 0.0151369
0.0562753 0.0471351 0.00967422
0.0790875 0.048188 0.00434882
0.104891 0.049485 0.00114443
0.136767 0.0508888 0.000137331
0.178256 0.0515297 1.5259e-05
0.230777 0.0523384 0
0.291936 0.0539101 0
0.355734 0.0563516 0
0.417929 0.0600443 0
0.47483 0.0646677 0
0.525444 0.0696727 0
0.570428 0.0749676 0
0.610269 0.0808576 0
0.644862 0.0879683 0
0.676936 0.0962234 0
0.704097 0.103761 0
0.727703 0.109056 0
0.747189 0.11194 0
0.76321 0.113283 0
0.776272 0.114321 0
0.786786 0.115908 0
0.796048 0.118242 0
0.805112 0.120638 0
0.813962 0.12311 0
0.821836 0.12668 0
0.82855 0.130098 0
0.8336 0.131426 0
0 0.0501411 0.0284886
6.10361e-05 0.0510414 0.0257267
0.0010071 0.0517433 0.0234989
0.00378424 0.0528115 0.0221714
0.0103914 0.053666 0.0201419
0.0246128 0.0543069 0.0163119
0.0476539 0.0548714 0.0105592
0.0760662 0.0554971 0.00448615
0.106828 0.056672 0.00112917
0.142641 0.0585336 0.000122072
0.187411 0.060029 1.5259e-05
0.243244 0.061738 0
0.308476 0.0643015 0
0.375509 0.0675059 0
0.44007 0.0717479 0
0.49868 0.0768749 0
0.550408 0.0825666 0
0.595544 0.0883955 0
0.634882 0.0944228 0
0.66923 0.100984 0
0.701488 0.108965 0
0.727214 0.117693 0
0.749233 0.124514 0
0.767254 0.127108 0
0.781689 0.127504 0
0.793423 0.127916 0
0.803311 0.129046 0
0.812375 0.131197 0
0.821363 0.134173 0
0.83032 0.138262 0
0.838178 0.144137 0
0.844923 0.148974 0
0.85037 0.150881 0
0 0.05832 0.0306096
0 0.0593118 0.027512
0.000106813 0.0599222 0.0240787
0.00224308 0.0610208 0.0222782
0.0059968 0.0625162 0.0205234
0.0152132 0.0638743 0.0173037
0.0346227 0.0647746 0.0117189
0.0645304 0.065568 0.00503548
0.101045 0.0668193 0.000946059
0.143954 0.0691997 0.000106813
0.195972 0.071519 1.5259e-05
0.257542 0.0737469 0
0.326986 0.0771801 0
0.397299 0.08159 0
0.464012 0.0866102 0
0.524117 0.0922408 0
0.576104 0.0983902 0
0.621057 0.104784 0
0.65948 0.110994 0
0.693278 0.117159 0
0.724834 0.123613 0
0.75024 0.131777 0
0.771389 0.139574 0
0.78851 0.142824 0
0.801923 0.142962 0
0.812924 0.143282 0
0.822339 0.144366 0
0.831159 0.146319 0
0.839719 0.149828 0
0.847883 0.15552 0
0.855085 0.162387 0
0.86183 0.167559 0
0.86743 0.170108 0
0 0.0679484 0.0326085
0 0.0689555 0.0294347
0 0.0697642 0.0252842
0.00122072 0.0708476 0.0223087
0.00428778 0.0726787 0.0199741
0.0102235 0.0747845 0.0168765
0.0231022 0.0766766 0.0118105
0.0476997 0.0784009 0.00540169
0.085008 0.0805066 0.000793469
0.133135 0.0833295 4.57771e-05
0.195438 0.0862287 0
0.267262 0.0890822 0
0.343297 0.0935531 0
0.418479 0.0993668 0
0.487892 0.105669 0
0.54873 0.112154 0
0.600977 0.118776 0
0.645319 0.125231 0
0.682597 0.131044 0
0.715801 0.136629 0
0.745617 0.142107 0
0.77023 0.148257 0
0.791592 0.154879 0
0.808377 0.158694 0
0.821927 0.160113 0
0.832914 0.16144 0
0.842588 0.163424 0
0.851575 0.165972 0
0.85977 0.170047 0
0.866285 0.175921 0
0.87155 0.182635 0
0.877272 0.187533 0
0.882933 0.1897 0
0 0.0791791 0.0349126
0 0.0807965 0.0316167
0 0.0819867 0.0267796
0.000106813 0.0831311 0.0221561
0.00294499 0.0849012 0.0182193
0.00717174 0.0875563 0.0146334
0.0149691 0.0906386 0.0103151
0.0327306 0.0935683 0.00508125
0.0632486 0.0967117 0.00122072
0.107973 0.0998398 1.5259e-05
0.175662 0.103365 0
0.259724 0.107683 0
0.348165 0.113268 0
0.432731 0.120241 0
0.507866 0.128038 0
0.571084 0.13579 0
0.623682 0.142992 0
0.667521 0.149355 0
0.703883 0.154864 0
0.736049 0.160204 0
0.764584 0.165423 0
0.788785 0.170108 0
0.809873 0.174304 0
0.82739 0.177829 0
0.841428 0.180957 0
0.852735 0.183673 0
0.861982 0.186328 0
0.870008 0.189746 0
0.876844 0.194186 0
0.882597 0.200229 0
0.887633 0.206607 0
0.89308 0.211185 0
0.898405 0.213794 0
0 0.0945907 0.0381476
0 0.0966659 0.0347753
0 0.0984817 0.0286259
0 0.10013 0.0215915
0.00030518 0.101961 0.0152438
0.00300603 0.104753 0.0102541
0.00885023 0.108721 0.00637827
0.0198367 0.113222 0.00308232
0.0435492 0.11754 0.000640879
0.0828717 0.121843 1.5259e-05
0.142626 0.12639 0
0.228672 0.132189 0
0.329976 0.138933 0
0.429496 0.146975 0
0.516136 0.155779 0
0.586999 0.164294 0
0.643275 0.172137 0
0.688106 0.179431 0
0.724117 0.186053 0
0.755428 0.192248 0
0.782635 0.19765 0
0.806622 0.202136 0
0.826902 0.206134 0
0.843473 0.209659 0
0.857008 0.212222 0
0.868086 0.21416 0
0.877012 0.216785 0
0.884703 0.220737 0
0.89163 0.225223 0
0.898207 0.230625 0
0.90399 0.236576 0
0.908598 0.242115 0
0.912093 0.245365 0
0 0.114061 0.0408026
0 0.116732 0.0384833
0 0.118532 0.0328832
0 0.1196 0.0240177
1.5259e-05 0.121645 0.014435
0.00184634 0.125109 0.00738537
0.00572213 0.130022 0.00349432
0.0123903 0.136004 0.00134279
0.0284733 0.142138 0.000381476
0.0594034 0.147662 0
0.112444 0.15404 0
0.186862 0.161929 0
0.286244 0.170016 0
0.398871 0.178561 0
0.503075 0.188067 0
0.587533 0.197177 0
0.651896 0.20531 0
0.701289 0.213016 0
0.739635 0.220249 0
0.772457 0.226993 0
0.799878 0.233051 0
0.82298 0.238254 0
0.843015 0.242527 0
0.859968 0.245701 0
0.873594 0.247669 0
0.884306 0.249699 0
0.892851 0.253086 0
0.899916 0.257618 0
0.906371 0.262745 0
0.912795 0.268269 0
0.918669 0.274495 0
0.923095 0.280964 0
0.926284 0.284535 0
0 0.140612 0.0486915
0 0.14464 0.0462196
0 0.147738 0.0401007
0 0.149081 0.0299077
0 0.150408 0.0172427
0.000350958 0.153292 0.00729381
0.00315862 0.158236 0.00242618
0.0101778 0.164782 0.000610361
0.0208438 0.172351 0.000167849
0.042298 0.17995 0
0.0861067 0.187869 0
0.154849 0.197986 0
0.242878 0.209506 0
0.349981 0.221149 0
0.464729 0.232639 0
0.568902 0.242588 0
0.649393 0.251026 0
0.707759 0.258625 0
0.751461 0.26537 0
0.786099 0.271687 0
0.81471 0.277043 0
0.839216 0.280995 0
0.859846 0.284504 0
0.876539 0.287327 0
0.890059 0.289403 0
0.900526 0.291432 0
0.908766 0.294789 0
0.915358 0.299474 0
0.920943 0.305058 0
0.926543 0.310842 0
0.932662 0.31693 0
0.937392 0.324041 0
0.940139 0.329641 0
0 0.173297 0.0590372
0 0.179294 0.0570687
0 0.183719 0.0508125
0 0.185779 0.0401312
0 0.186847 0.024567
3.0518e-05 0.188663 0.0102541
0.00184634 0.192905 0.00254826
0.00737011 0.199405 0.000442512
0.016144 0.207919 4.57771e-05
0.0331731 0.217945 0
0.0646067 0.227909 0
0.128771 0.239872 0
0.210208 0.253819 0
0.307942 0.268254 0
0.419013 0.282734 0
0.531533 0.295323 0
0.62826 0.305577 0
0.700893 0.313115 0
0.753643 0.318547 0
0.792737 0.323278 0
0.82533 0.327993 0
0.852247 0.331182 0
0.873594 0.333806 0
0.890349 0.33611 0
0.903899 0.33843 0
0.914641 0.341131 0
0.922957 0.344778 0
0.929229 0.349432 0
0.93431 0.354559 0
0.939544 0.360296 0
0.94519 0.366629 0
0.949447 0.373449 0
0.952071 0.379568 0
0 0.214527 0.0745556
0 0.222126 0.0732433
0 0.22771 0.0675212
0 0.230747 0.0562448
0 0.231754 0.0379339
0 0.232532 0.0181277
0.000579843 0.235538 0.00509651
0.00407416 0.241352 0.000915541
0.0142519 0.250355 0
0.0301213 0.261769 0
0.0560464 0.274205 0
0.110124 0.288182 0
0.187457 0.304082 0
0.279423 0.320806 0
0.383078 0.338094 0
0.493187 0.353994 0
0.597498 0.367208 0
0.682933 0.375998 0
0.74612 0.380682 0
0.792935 0.383093 0
0.830884 0.385626 0
0.86096 0.387045 0
0.884367 0.388266 0
0.902663 0.389914 0
0.916609 0.39205 0
0.927123 0.394659 0
0.935149 0.39765 0
0.941558 0.400977 0
0.947295 0.405509 0
0.952697 0.410956 0
0.957336 0.416876 0
0.960571 0.422858 0
0.96289 0.428519 0
0 0.261677 0.0948043
0 0.27068 0.0941176
0 0.277867 0.0893111
0 0.282429 0.0780804
0 0.283925 0.0585031
0 0.28423 0.0339208
3.0518e-05 0.285664 0.0129549
0.00267033 0.290562 0.00260929
0.0141146 0.29926 0
0.0317845 0.310918 0
0.061265 0.32546 0
0.10367 0.340841 0
0.174899 0.358175 0
0.263615 0.376669 0
0.362478 0.396262 0
0.466484 0.414816 0
0.569421 0.431052 0
0.660609 0.442512 0
0.733257 0.448753 0
0.78854 0.450752 0
0.831724 0.450614 0
0.866499 0.449882 0
0.893217 0.449073 0
0.913207 0.448844 0
0.927764 0.44892 0
0.937987 0.450019 0
0.945373 0.451759 0
0.951522 0.453651 0
0.95758 0.456672 0
0.963485 0.461128 0
0.968383 0.466423 0
0.971664 0.471656 0
0.973785 0.476158 0
0 0.313176 0.119677
0 0.322835 0.118929
0 0.331334 0.114702
0 0.337469 0.104112
0 0.339925 0.0844587
0 0.340047 0.0557412
0 0.340352 0.0251774
0.00241093 0.343877 0.00515755
0.0141604 0.351919 0
0.037583 0.363867 0
0.0738384 0.379294 0
0.115206 0.395956 0
0.180377 0.414359 0
0.264057 0.434333 0
0.358495 0.45507 0
0.457053 0.475486 0
0.55433 0.493614 0
0.644297 0.507424 0
0.720562 0.515587 0
0.781369 0.519188 0
0.82916 0.518578 0
0.868574 0.516167 0
0.89926 0.513283 0
0.921965 0.509972 0
0.93724 0.506661 0
0.94754 0.504677 0
0.954635 0.504295 0
0.960098 0.504784 0
0.965545 0.50605 0
0.971511 0.508919 0
0.977386 0.51339 0
0.981796 0.517891 0
0.984283 0.521553 0
0 0.365194 0.146319
0 0.374777 0.144976
0 0.38381 0.141024
0 0.391211 0.131655
0 0.395163 0.113268
0 0.396124 0.082063
0 0.396277 0.0419928
0.00216678 0.398505 0.0091249
0.0140993 0.405829 1.5259e-05
0.0461433 0.418555 0
0.0925002 0.434287 0
0.146304 0.452003 0
0.208194 0.470878 0
0.282963 0.491173 0
0.369436 0.5122 0
0.462867 0.533394 0
0.55433 0.552346 0
0.638987 0.567224 0
0.712963 0.577325 0
0.774182 0.581552 0
0.824094 0.58175 0
0.865873 0.579065 0
0.900359 0.574212 0
0.927108 0.56846 0
0.944747 0.562493 0
0.956619 0.557397 0
0.964431 0.554192 0
0.969604 0.552651 0
0.974212 0.552148 0
0.979583 0.55314 0
0.985199 0.55584 0
0.98996 0.559747 0
0.992889 0.563134 0
0 0.412726 0.170642
0 0.422232 0.169009
0 0.43122 0.165103
0 0.439612 0.157061
0 0.445457 0.140902
0 0.448234 0.10985
0 0.448997 0.0620737
0.00207523 0.451316 0.0151064
0.014847 0.458259 9.15541e-05
0.0560769 0.471351 0
0.118639 0.487846 0
0.191226 0.506584 0
0.254337 0.525185 0
0.319112 0.544381 0
0.3944 0.564599 0
0.47808 0.584772 0
0.562905 0.603464 0
0.641535 0.61857 0
0.711376 0.629038 0
0.769482 0.633677 0
0.818494 0.634653 0
0.859617 0.6327 0
0.895964 0.628 0
0.925902 0.620951 0
0.948165 0.614054 0
0.963806 0.60737 0
0.974044 0.602213 0
0.979995 0.598733 0
0.98439 0.596551 0
0.989166 0.595728 0
0.993088 0.596048 0
0.99588 0.59826 0
0.998138 0.601053 0
0 0.454002 0.191546
0 0.462791 0.189441
0 0.471427 0.184726
0 0.479561 0.17586
0 0.48629 0.160372
0 0.490761 0.13022
0 0.493278 0.0790417
0.00230411 0.497078 0.0218814
0.0171664 0.505119 0.000335698
0.0687419 0.519081 0
0.150164 0.537087 0
0.238758 0.55639 0
0.308095 0.574548 0
0.368093 0.592081 0
0.430274 0.609567 0
0.500832 0.627329 0
0.575341 0.643885 0
0.646891 0.657618 0
0.711208 0.66743 0
0.766125 0.672831 0
0.814099 0.674952 0
0.852644 0.67393 0
0.888548 0.671107 0
0.919753 0.665293 0
0.945586 0.658381 0
0.965133 0.651423 0
0.978958 0.64564 0
0.987503 0.640772 0
0.992737 0.637293 0
0.996674 0.635584 0
0.998978 0.634852 0
0.999496 0.635493 0
0.999969 0.637064 0
0 0.486458 0.206516
0 0.494514 0.203723
0 0.502647 0.197711
0 0.510338 0.18735
0 0.517128 0.171466
0 0.522652 0.142687
0 0.527504 0.0918441
0.00262455 0.533959 0.0295262
0.0200198 0.543847 0.000946059
0.08365 0.559853 0
0.182483 0.579385 0
0.282094 0.599252 0
0.35906 0.617319 0
0.418494 0.633616 0
0.470558 0.648737 0
0.526131 0.663783 0
0.588571 0.678492 0
0.651972 0.69102 0
0.711452 0.700191 0
0.763256 0.705592 0
0.808347 0.708461 0
0.84596 0.708675 0
0.88098 0.707073 0
0.911864 0.703029 0
0.939452 0.696818 0
0.961822 0.689937 0
0.978622 0.683421 0
0.989899 0.677913 0
0.996246 0.673793 0
0.999084 0.670893 0
0.999985 0.669429 0
1 0.669291 0
1 0.670695 0
0 0.51429 0.220874
0 0.521553 0.216785
0 0.528786 0.209827
0 0.535668 0.198779
0 0.542519 0.182574
0 0.548653 0.154635
0 0.554864 0.104555
0.00247196 0.563363 0.0389868
0.0200198 0.575662 0.00215152
0.0907607 0.593637 1.5259e-05
0.204807 0.614511 0
0.310842 0.634287 0
0.396231 0.65214 0
0.459022 0.666911 0
0.508385 0.679728 0
0.553491 0.6916 0
0.601907 0.703304 0
0.65565 0.714549 0
0.708766 0.723659 0
0.757946 0.729809 0
0.800885 0.733166 0
0.837583 0.734462 0
0.870268 0.733562 0
0.901823 0.731929 0
0.930312 0.728771 0
0.955764 0.724117 0
0.976059 0.718563 0
0.989853 0.713497 0
0.997375 0.709484 0
0.999893 0.706081 0
1 0.7037 0
1 0.70222 0
1 0.703182 0
0 0.536156 0.234516
0 0.542657 0.229801
0 0.548821 0.222431
0 0.554955 0.21088
0 0.561593 0.194354
0 0.567834 0.167361
0 0.574136 0.119509
0.00180056 0.582925 0.0522164
0.0164492 0.595666 0.00479133
0.0872511 0.613169 4.57771e-05
0.214023 0.634836 0
0.326955 0.655695 0
0.418021 0.674754 0
0.48629 0.690471 0
0.538201 0.703441 0
0.578988 0.714107 0
0.617487 0.72372 0
0.6607 0.733333 0
0.70695 0.742077 0
0.751904 0.748577 0
0.793408 0.752987 0
0.83032 0.755718 0
0.860716 0.755718 0
0.891356 0.755062 0
0.920211 0.753658 0
0.946715 0.751308 0
0.968963 0.747585 0
0.986191 0.743358 0
0.996582 0.739727 0
0.999756 0.736889 0
1 0.734829 0
1 0.733394 0
1 0.733288 0
0 0.552743 0.24712
0 0.558129 0.241917
0 0.563577 0.234134
0 0.569177 0.222599
0 0.575296 0.205417
0 0.581476 0.179126
0 0.587716 0.133486
0.000885023 0.596323 0.0646372
0.0106203 0.610758 0.00820935
0.072282 0.628717 0.000106813
0.205478 0.651408 0
0.329778 0.673838 0
0.426993 0.693797 0
0.502434 0.710552 0
0.558587 0.7234 0
0.600336 0.733394 0
0.635233 0.742168 0
0.669993 0.7505 0
0.708553 0.758679 0
0.748135 0.765103 0
0.78761 0.770367 0
0.824842 0.774762 0
0.854505 0.776089 0
0.883803 0.776226 0
0.912444 0.775586 0
0.938903 0.774456 0
0.962341 0.772763 0
0.98175 0.770199 0
0.994751 0.766918 0
0.999786 0.763882 0
1 0.761608 0
1 0.759808 0
1 0.758785 0
0 0.564034 0.257649
0 0.568597 0.252018
0 0.573617 0.243809
0 0.578973 0.232364
0 0.584848 0.215412
0 0.590967 0.190494
0 0.596857 0.147173
0.000320439 0.604059 0.0776532
0.00587472 0.617975 0.0101625
0.0519265 0.637522 0.000167849
0.185519 0.661768 0
0.322576 0.686305 0
0.428367 0.707713 0
0.510262 0.725643 0
0.571588 0.739147 0
0.617166 0.74931 0
0.652613 0.757733 0
0.683314 0.765148 0
0.715557 0.772305 0
0.748821 0.77818 0
0.784894 0.783795 0
0.820874 0.788693 0
0.850874 0.791302 0
0.87953 0.79237 0
0.907408 0.792386 0
0.932692 0.791897 0
0.956527 0.790738 0
0.976684 0.789029 0
0.991287 0.786664 0
0.999084 0.783948 0
1 0.781735 0
1 0.780591 0
1 0.780026 0
0 0.571817 0.266911
0 0.576242 0.260548
0 0.581216 0.251911
0 0.586267 0.240253
0 0.59176 0.224109
0 0.597742 0.200717
0 0.603586 0.161532
6.10361e-05 0.61001 0.0959029
0.00288396 0.622675 0.0158846
0.0323033 0.642786 0.000335698
0.160983 0.668055 0
0.30901 0.694224 0
0.42501 0.71693 0
0.512795 0.735805 0
0.579568 0.750683 0
0.630259 0.762127 0
0.668894 0.771176 0
0.699565 0.778531 0
0.726619 0.784512 0
0.754772 0.789929 0
0.786191 0.795499 0
0.819959 0.800885 0
0.849241 0.803998 0
0.877134 0.805814 0
0.904219 0.806653 0
0.928893 0.806516 0
0.951705 0.805356 0
0.971801 0.803845 0
0.98822 0.802182 0
0.998383 0.800381 0
1 0.798703 0
1 0.797955 0
1 0.797772 0
0 0.578225 0.276936
0 0.582361 0.269535
0 0.587182 0.260456
0 0.591775 0.248341
0 0.596704 0.23212
0 0.602564 0.209842
0 0.608637 0.174685
0 0.61503 0.115419
0.00140383 0.626368 0.0289311
0.0183108 0.645945 0.00105287
0.135103 0.671717 4.57771e-05
0.29163 0.699809 0
0.418647 0.724437 0
0.513115 0.744427 0
0.585107 0.760449 0
0.640742 0.773068 0
0.68307 0.782696 0
0.715572 0.789792 0
0.740795 0.794873 0
0.765469 0.799725 0
0.791806 0.804608 0
0.821424 0.809415 0
0.84863 0.812726 0
0.874891 0.814969 0
0.901259 0.816358 0
0.925719 0.816663 0
0.947585 0.815778 0
0.967254 0.814435 0
0.984512 0.813199 0
0.996139 0.8121 0
1 0.810956 0
1 0.810452 0
1 0.810895 0
0 0.58378 0.287663
0 0.587167 0.279286
0 0.59176 0.269581
0 0.596262 0.257038
0 0.601129 0.240665
0 0.606912 0.218845
0 0.613413 0.186954
0 0.619959 0.133455
0.000747692 0.629892 0.0472877
0.0102083 0.64828 0.00277714
0.109087 0.673609 0.000183108
0.271962 0.70338 0
0.408927 0.729885 0
0.510781 0.751324 0
0.588266 0.768383 0
0.648295 0.781842 0
0.694453 0.791882 0
0.729168 0.798642 0
0.755901 0.803677 0
0.778363 0.808026 0
0.800793 0.812222 0
0.82472 0.815991 0
0.849134 0.819226 0
0.873396 0.821546 0
0.898665 0.823117 0
0.923064 0.823743 0
0.944106 0.823163 0
0.963424 0.821973 0
0.980575 0.820966 0
0.993194 0.820371 0
0.999985 0.819913 0
1 0.819776 0
1 0.820264 0
0 0.588724 0.298512
0 0.591562 0.290333
0 0.595987 0.28014
0 0.60087 0.267506
0 0.606134 0.250736
0 0.612345 0.229038
0 0.619165 0.198795
0 0.625605 0.149172
0.000396735 0.634119 0.0668345
0.0062562 0.65127 0.00527962
0.0872663 0.675608 0.000411994
0.252522 0.705608 0
0.396979 0.733577 0
0.506371 0.756512 0
0.589181 0.774441 0
0.653559 0.788632 0
0.703304 0.7991 0
0.740261 0.80592 0
0.769329 0.811261 0
0.79144 0.815366 0
0.811475 0.819074 0
0.83035 0.822126 0
0.851667 0.825025 0
0.873442 0.827085 0
0.897093 0.82855 0
0.920699 0.829282 0
0.941085 0.828809 0
0.960052 0.827619 0
0.97731 0.826688 0
0.990814 0.826398 0
0.999512 0.826658 0
0.999985 0.827039 0
1 0.826993 0
0 0.594675 0.311131
0 0.596887 0.303441
0 0.601144 0.293278
0 0.606439 0.280491
0 0.612421 0.2636
0 0.619425 0.241642
0 0.626642 0.211749
0 0.632624 0.164446
0.000289921 0.639567 0.0844282
