LUT预设1/柯达5219&2393/柯达5219系列-Log/柯达2393.cube
TITLE "Generated by Resolve"
LUT_3D_SIZE 9
0.004654 0.00830091 0.005066
0.0204776 0.0130007 0.00732433
0.0564736 0.0204166 0
0.169421 0.0267185 0
0.401968 0.0231022 0
0.568887 0.0395209 0
0.684306 0.0527352 0
0.732647 0.0765393 0
0.763012 0.0895552 0
0 0.0286412 0.0153658
0.0111086 0.0300908 0.0146334
0.0547189 0.0347753 0.00250248
0.177295 0.0414282 0
0.427497 0.0464179 0
0.610407 0.0749828 0
0.720378 0.0991836 0
0.774731 0.100923 0
0.802426 0.109041 0
0 0.0541085 0.0176089
0 0.0614786 0.0165408
0.0504311 0.0669413 0.00228885
0.222156 0.0818952 0
0.524926 0.109773 0
0.704479 0.138689 0
0.803525 0.160998 0
0.846418 0.171054 0
0.873091 0.192096 0
0 0.118059 0.0233158
0 0.136812 0.0211795
0.000503548 0.15407 0
0.252552 0.190234 0
0.603876 0.241489 0
0.786084 0.279423 0
0.878752 0.297093 0
0.913787 0.316411 0
0.935927 0.341344 0
0 0.291493 0.0844434
0 0.328359 0.0863661
0 0.360403 0.0135653
0.238926 0.415366 0
0.660075 0.496956 0
0.847257 0.525383 0
0.936049 0.528283 0
0.964996 0.52987 0
0.983001 0.551034 0
0 0.467048 0.158389
0 0.507683 0.148669
0 0.543877 0.0339208
0.310521 0.625528 0
0.724453 0.69836 0
0.890181 0.703853 0
0.971405 0.696818 0
1 0.69218 0
1 0.698466 0
0 0.541146 0.17377
0 0.570275 0.153338
0 0.603906 0.0251011
0.288777 0.686427 0
0.708095 0.775113 0
0.892058 0.792309 0
0.980346 0.790112 0
1 0.786511 0
1 0.78996 0
0 0.560632 0.181277
0 0.590372 0.151888
0 0.629862 0.0425269
0.263066 0.709102 0
0.689097 0.802472 0
0.888701 0.827665 0
0.985702 0.826413 0
1 0.827955 0
1 0.826902 0
0 0.61503 0.177661
0 0.637308 0.104646
0 0.676509 0
0.317525 0.735012 0
0.687297 0.812207 0
0.880461 0.838575 0
0.983032 0.839673 0
1 0.840635 0
1 0.84268 0
0.00233463 0.0128939 0.0248417
0.0165866 0.0163882 0.0256352
0.0581979 0.0209506 0.0194247
0.171084 0.0247501 0
0.404196 0.0105287 0
0.578088 0.0182345 0
0.696178 0.0352026 0
0.747051 0.068101 0
0.77145 0.0820478 0
0 0.0301061 0.0273289
0.00314336 0.0341955 0.0288853
0.0538186 0.0369573 0.0199283
0.17937 0.0402686 0
0.432395 0.0387121 0
0.619165 0.064683 0
0.737926 0.0741436 0
0.791058 0.0895094 0
0.819348 0.0982986 0
0 0.0596017 0.0319677
0 0.0661021 0.0331426
0.0475929 0.071107 0.0204013
0.225437 0.0810407 0
0.536141 0.09691 0
0.724865 0.121035 0
0.821515 0.143755 0
0.866346 0.151781 0
0.890242 0.176562 0
0 0.129427 0.040238
0 0.148302 0.0410925
0.000427253 0.16321 0.00480659
0.257069 0.195178 0
0.615656 0.239292 0
0.806348 0.275624 0
0.895811 0.294759 0
0.932555 0.309987 0
0.951644 0.341619 0
0 0.30724 0.105516
0 0.353719 0.112551
0 0.376486 0.0283513
0.227222 0.422171 0
0.667948 0.500252 0
0.858015 0.532586 0
0.949523 0.535912 0
0.975891 0.535821 0
0.996033 0.55169 0
0 0.485664 0.181308
0 0.52575 0.172274
0 0.561456 0.0662699
0.28278 0.630213 0
0.725597 0.70367 0
0.894835 0.710918 0
0.979095 0.701244 0
1 0.698466 0
1 0.704372 0
0 0.552911 0.203891
0 0.584024 0.191501
0 0.615106 0.0668193
0.244923 0.689952 0
0.705669 0.778668 0
0.89482 0.796124 0
0.989166 0.794064 0
1 0.794385 0
1 0.797253 0
0 0.572396 0.212726
0 0.606363 0.194965
0 0.639124 0.0827344
0.219852 0.71162 0
0.683375 0.803464 0
0.889708 0.831495 0
0.990509 0.830839 0
1 0.831739 0
1 0.833555 0
0 0.624781 0.242832
0 0.663035 0.216297
0 0.689738 0.0249332
0.248249 0.742672 0
0.667597 0.814374 0
0.88188 0.84593 0
0.998154 0.849073 0
1 0.852308 0
1 0.853147 0
0 0.0206149 0.0612192
4.57771e-05 0.0214237 0.0658885
0.0540627 0.0204166 0.0622873
0.171176 0.0191958 0.028809
0.411963 0 0
0.597406 0 0
0.727916 0 0
0.789487 0 0
0.82208 0 0
0 0.0354162 0.0624857
0 0.0385443 0.066392
0.0476539 0.0390936 0.0612955
0.180255 0.0382849 0.0259251
0.449516 0 0
0.654353 0 0
0.784253 0 0
0.844831 0 0
0.878569 0 0
0 0.0647898 0.0722515
0 0.0723125 0.0776074
0.0289158 0.0764935 0.0707866
0.226291 0.0833448 0.0263981
0.543038 0.0561227 0
0.756573 0.0299992 0
0.87834 0.0257877 0
0.937407 0.00822461 0
0.958633 0.0484474 0
0 0.14522 0.0869154
0 0.168399 0.0990463
0 0.175891 0.0749981
0.255512 0.203098 0.00715648
0.625132 0.222477 0
0.837018 0.237781 0
0.945769 0.242908 0
0.989273 0.260761 0
0.999985 0.296345 0
0 0.344884 0.165621
0 0.393408 0.189532
0 0.413611 0.122225
0.189105 0.436271 0
0.66807 0.50016 0
0.878981 0.530114 0
0.973739 0.535012 0
0.999191 0.536568 0
1 0.548821 0
0 0.512474 0.244465
0 0.551919 0.250889
0 0.598001 0.189792
0.202823 0.635523 0
0.707744 0.699916 0
0.903639 0.715358 0
0.99469 0.710246 0
1 0.703929 0
1 0.714504 0
0 0.574411 0.2795
0 0.605554 0.279469
0 0.649119 0.212131
0.123598 0.697368 0
0.687358 0.780575 0
0.899565 0.805112 0
0.999969 0.806409 0
1 0.806561 0
1 0.808881 0
0 0.592004 0.301747
0 0.633814 0.303212
0 0.67715 0.23856
0.0638285 0.72578 0
0.653651 0.806714 0
0.893233 0.843046 0
1 0.845609 0
1 0.846479 0
1 0.848768 0
0 0.661051 0.374731
0 0.697261 0.374182
0 0.733684 0.291752
0.0758068 0.768994 0.0449531
0.6206 0.826169 0
0.868437 0.858259 0
0.999924 0.873365 0
1 0.878599 0
1 0.874311 0.00355535
0 0.039704 0.158999
0 0.0402991 0.170184
0.0282444 0.00993362 0.170962
0.171542 0.000854505 0.157763
0.408682 0 0.135531
0.599725 0 0.131899
0.734478 0 0.13518
0.800153 0 0.142397
0.835157 0 0.149722
0 0.0582437 0.165621
0 0.0599374 0.177447
0.0135653 0.0383001 0.175753
0.175845 0.0264286 0.162585
0.449577 0 0.146166
0.656641 0 0.14255
0.794461 0 0.152743
0.858747 0 0.166155
0.893156 0 0.180896
0 0.102647 0.198108
0 0.113741 0.224323
0.000183108 0.0926833 0.220493
0.22089 0.0858015 0.203571
0.548562 0.0504921 0.185214
0.774792 0 0.203571
0.911742 0 0.222705
0.966903 0 0.242206
0.978622 0.00450141 0.250095
0 0.197665 0.241611
0 0.232853 0.280903
0 0.226719 0.272465
0.228458 0.22121 0.224598
0.618067 0.229252 0.188418
0.842054 0.229496 0.186526
0.957061 0.22594 0.190707
0.999252 0.24715 0.209323
1 0.2907 0.212741
0 0.405798 0.325704
0 0.456931 0.368521
0 0.490013 0.359518
0.105791 0.473213 0.196307
0.6383 0.506676 0.103136
0.881697 0.52726 0.0674907
0.999893 0.523537 0.0502785
1 0.522408 0.0462501
1 0.535637 0.0372778
0 0.570306 0.422309
0 0.612146 0.45536
0 0.652583 0.428534
0.0619364 0.669261 0.196414
0.646799 0.706081 0.0477607
0.896574 0.720653 0.0212863
1 0.719921 0.000183108
1 0.715236 0
1 0.729244 0
0 0.63299 0.468803
0 0.663554 0.484337
0 0.7019 0.45037
0.0204623 0.738796 0.206516
0.612833 0.794751 0.035996
0.886717 0.822477 0.00743114
1 0.836164 0
1 0.838651 0
1 0.84123 0.0077821
0 0.648814 0.488396
0 0.688624 0.510979
0 0.730419 0.482033
0.00996414 0.772915 0.276402
0.573297 0.831052 0.0972763
0.862013 0.864088 0.0468452
0.999954 0.880842 0.0377508
1 0.883574 0.0446937
1 0.881254 0.101625
0 0.70901 0.555352
0 0.746563 0.574243
0 0.78146 0.539483
0.0248569 0.810101 0.376684
0.551202 0.857023 0.268727
0.818357 0.888563 0.241459
0.986816 0.903517 0.225452
1 0.910613 0.226902
1 0.907729 0.272404
0 0.143496 0.348363
0 0.147799 0.369207
0.00343328 0.0682994 0.36788
0.173526 0 0.371298
0.424735 0 0.373465
0.613519 0 0.38291
0.751614 0 0.388678
0.816114 0 0.398718
0.85182 0 0.408148
0 0.166827 0.3794
0 0.174029 0.398413
0 0.105852 0.398413
0.185183 0 0.403464
0.459113 0 0.402914
0.670192 0 0.420737
0.809583 0 0.433249
0.876204 0 0.45069
0.909743 0 0.469505
0 0.225711 0.440864
0 0.239231 0.47274
0 0.199283 0.482078
0.211231 0.0727245 0.481407
0.55935 0.0155642 0.496422
0.78172 0 0.523461
0.918624 0 0.551308
0.973098 0 0.570947
0.982223 0.00784314 0.57969
0 0.31487 0.502495
0 0.34406 0.543984
0 0.34284 0.567651
0.163821 0.247929 0.540383
0.602411 0.249805 0.535058
0.828138 0.24654 0.548989
0.946258 0.247929 0.558816
0.991333 0.270191 0.571603
1 0.308431 0.578775
0 0.485527 0.575967
0 0.528496 0.618006
0 0.567483 0.645014
0.0259861 0.534585 0.571099
0.583352 0.54316 0.518776
0.839109 0.562646 0.506401
0.971557 0.55642 0.495491
1 0.544701 0.48014
1 0.560784 0.472572
0 0.642954 0.672389
0 0.680735 0.704311
0 0.724239 0.712306
0 0.737392 0.60499
0.567926 0.748547 0.503868
0.831647 0.758389 0.471153
0.979706 0.756405 0.450629
1 0.75288 0.435264
1 0.764157 0.432181
0 0.699107 0.704814
0 0.729046 0.725963
0 0.767254 0.717662
0 0.807385 0.617639
0.517632 0.840726 0.490486
0.817365 0.868101 0.465995
0.976013 0.876646 0.446189
1 0.880583 0.440116
1 0.886503 0.442557
0 0.712077 0.71194
0 0.751293 0.739269
0 0.792401 0.741009
0 0.838651 0.655818
0.473976 0.880598 0.531746
0.792126 0.911376 0.509346
0.962814 0.924712 0.494743
1 0.92932 0.491432
1 0.930144 0.499825
0 0.760555 0.75494
0 0.796216 0.776638
0 0.832135 0.769512
0 0.865232 0.69276
0.464439 0.900694 0.604944
0.762371 0.926452 0.587854
0.938003 0.943343 0.580087
1 0.948592 0.576806
1 0.950545 0.587747
0 0.202213 0.467704
0 0.205432 0.481758
0 0.138857 0.499779
0.179095 0 0.519539
0.437446 0 0.538018
0.628748 0 0.553216
0.767865 0 0.55758
0.834669 0 0.563943
0.870878 0 0.578943
0 0.232059 0.50808
0 0.237446 0.526085
0 0.211002 0.542412
0.186526 0 0.566827
0.476616 0 0.586847
0.688823 0 0.605768
0.826062 0 0.617823
0.891112 0 0.634592
0.922805 0 0.655299
0 0.287144 0.571847
0 0.295521 0.598184
0 0.283284 0.627573
0.218021 0.0366979 0.673365
0.57438 0 0.701335
0.797101 0 0.725521
0.930663 0 0.752377
0.985367 0 0.771542
0.99382 0.0027924 0.778119
0 0.371679 0.639231
0 0.39237 0.67332
0 0.391165 0.704631
0.128344 0.267826 0.743542
0.60119 0.257969 0.749355
0.828336 0.258549 0.764508
0.945418 0.259663 0.77496
0.990036 0.283833 0.782269
1 0.321782 0.786999
0 0.527016 0.713848
0 0.563043 0.748425
0 0.597528 0.780575
0.000488289 0.579675 0.792462
0.55407 0.573388 0.754742
0.816754 0.583856 0.747692
0.953338 0.575235 0.736873
1 0.563836 0.723705
1 0.581781 0.715953
0 0.668711 0.791104
0 0.703578 0.8206
0 0.745708 0.841184
0 0.775113 0.822339
0.507057 0.773236 0.746593
0.796628 0.784848 0.726528
0.951629 0.783856 0.708995
1 0.781308 0.69894
1 0.792554 0.696742
0 0.720897 0.818677
0 0.747814 0.837537
0 0.792157 0.852354
0 0.848005 0.83267
0.452995 0.873579 0.742794
0.773114 0.898833 0.722545
0.945434 0.906188 0.708965
1 0.910613 0.699245
1 0.916472 0.701381
0 0.734722 0.823529
0 0.768948 0.850019
0 0.814359 0.86688
0 0.875044 0.8551
0.410147 0.91368 0.771481
0.748363 0.940841 0.75111
0.929335 0.953384 0.739696
0.999603 0.957443 0.736416
1 0.960861 0.736126
0 0.778637 0.854109
0 0.810864 0.879011
0 0.853117 0.89337
0 0.900343 0.877287
0.408179 0.929244 0.811017
0.72433 0.952407 0.795056
0.91133 0.968795 0.782055
0.992767 0.973724 0.783658
1 0.97702 0.788403
0 0.23328 0.54168
0 0.237354 0.552941
0 0.181048 0.581231
0.186816 0 0.632273
0.441886 0 0.656901
0.642939 0 0.676463
0.780392 0 0.683177
0.851225 0 0.688884
0.887236 0 0.70341
0 0.267262 0.590738
0 0.273304 0.606699
0 0.25716 0.625254
0.191745 0 0.694255
0.482078 0 0.720943
0.699199 0 0.744625
0.842481 0 0.755169
0.908309 0 0.767651
0.9393 0 0.792752
0 0.319097 0.654261
0 0.330922 0.678691
0 0.321843 0.708721
0.22089 0.0204318 0.81088
0.583963 0 0.841474
0.817487 0 0.876051
0.940459 0 0.88751
0.996292 0 0.90837
0.999573 0.00149538 0.911772
0 0.399054 0.713878
0 0.418524 0.743603
0 0.422751 0.784375
0.103319 0.28986 0.872999
0.597498 0.264866 0.894133
0.828412 0.26688 0.907942
0.946578 0.268788 0.914382
0.989685 0.290059 0.91809
1 0.327718 0.922545
0 0.554528 0.798672
0 0.586923 0.82565
0 0.615885 0.859251
0 0.60058 0.92018
0.530709 0.586694 0.915084
0.801083 0.595254 0.908324
0.939254 0.583078 0.900877
0.995377 0.573495 0.893568
1 0.588556 0.883116
0 0.68307 0.858976
0 0.714107 0.883574
0 0.750668 0.910765
0 0.787854 0.940169
0.464912 0.790311 0.911421
0.769116 0.799466 0.89546
0.928771 0.795804 0.883299
0.99765 0.794659 0.877165
1 0.807752 0.875319
0 0.730999 0.878233
0 0.756542 0.896468
0 0.796262 0.918242
0 0.863142 0.946395
0.399298 0.897673 0.911635
0.741527 0.919875 0.892058
0.920089 0.927977 0.882979
0.991318 0.928756 0.875807
1 0.936263 0.874067
0 0.745495 0.886076
0 0.777523 0.907439
0 0.82005 0.929793
0 0.890623 0.960952
0.352422 0.935775 0.925704
0.72047 0.960983 0.907195
0.905791 0.974807 0.897642
0.985946 0.978164 0.891569
0.999969 0.981476 0.888106
0 0.785748 0.911055
0 0.816663 0.932097
0 0.858488 0.954147
0 0.913741 0.976196
0.366018 0.947082 0.940154
0.699565 0.971176 0.922972
0.889998 0.984909 0.91635
0.97528 0.990311 0.91075
0.997269 0.993347 0.915587
0 0.25275 0.587289
0 0.255695 0.599069
0 0.248844 0.625223
0.186954 0 0.702281
0.45066 0 0.742596
0.651102 0 0.757733
0.797513 0 0.769985
0.866163 0 0.773571
0.897673 0 0.788983
0 0.294286 0.644236
0 0.295674 0.655192
0 0.283757 0.674342
0.191959 0 0.776486
0.494545 0 0.813367
0.708751 0 0.835538
0.856489 0 0.848493
0.922988 0 0.859556
0.95555 0 0.882109
0 0.341619 0.698009
0 0.351034 0.72105
0 0.341619 0.753399
0.215595 0.0240787 0.884672
0.59118 0 0.924758
0.820188 0 0.952911
0.952483 0 0.970855
0.999817 0 0.986435
1 0.0059205 0.981353
0 0.417777 0.75581
0 0.437079 0.782483
0 0.440543 0.822995
0.0887312 0.30515 0.93959
0.594446 0.274067 0.970611
0.82533 0.274632 0.982788
0.944076 0.272435 0.987045
0.990951 0.294636 0.990906
1 0.329564 0.994659
0 0.567956 0.842649
0 0.59791 0.863478
0 0.624567 0.896986
0 0.612909 0.980652
0.51284 0.590127 0.99736
0.780972 0.594415 0.993698
0.927871 0.583734 0.992279
0.990494 0.569451 0.9879
1 0.58706 0.982406
0 0.692912 0.893416
0 0.718669 0.91252
0 0.753079 0.942748
0 0.789593 0.98941
0.43386 0.793027 0.997543
0.748135 0.802991 0.990524
0.916732 0.802304 0.982467
0.987442 0.798962 0.976776
1 0.813169 0.974701
0 0.735592 0.908888
0 0.760082 0.924208
0 0.798184 0.951629
0 0.864088 0.993835
0.357794 0.906218 0.997391
0.722194 0.927047 0.982284
0.903929 0.936675 0.972717
0.979873 0.939635 0.970245
0.999985 0.944488 0.968795
0 0.750576 0.912505
0 0.782498 0.933654
0 0.82443 0.960601
0 0.89369 0.998993
0.303639 0.947219 0.999207
0.696773 0.970047 0.986419
0.890364 0.983017 0.975723
0.971954 0.98761 0.972595
0.996658 0.989944 0.969863
0 0.788754 0.93724
0 0.821027 0.958511
0 0.861265 0.982284
0 0.920699 1
0.331228 0.956374 0.999832
0.679774 0.97879 0.992401
0.878035 0.99237 0.982269
0.966033 0.998825 0.977218
0.99324 0.999786 0.977508
0 0.28098 0.633326
0 0.286625 0.647044
0 0.273594 0.671168
0.187396 0 0.765301
0.464912 0 0.800961
0.670619 0 0.820935
0.822583 0 0.836133
0.890929 0 0.839231
0.924636 0 0.854505
0 0.320439 0.680217
0 0.328756 0.700648
0 0.320684 0.724269
0.189822 0 0.842069
0.508751 0 0.883284
0.732601 0 0.906355
0.881743 0 0.918257
0.952651 0 0.933288
0.986526 0 0.957168
0 0.367742 0.730419
0 0.380835 0.753307
0 0.371099 0.789105
0.168902 0.0894026 0.925231
0.584573 0.0513161 0.964538
0.814771 0.0271611 0.987152
0.943114 0.0230259 0.995895
0.993378 0.0412451 0.999573
1 0.105303 1
0 0.437308 0.780606
0 0.456352 0.803128
0 0.4589 0.844877
0.0603647 0.340307 0.973632
0.583932 0.31371 0.999222
0.820005 0.317266 1
0.943938 0.317845 1
0.989471 0.32369 1
1 0.362173 1
0 0.578134 0.858244
0 0.608118 0.87924
0 0.634455 0.913863
0 0.624582 0.994385
0.495827 0.601724 1
0.769223 0.601968 1
0.921004 0.586023 1
0.984405 0.577859 1
1 0.585733 1
0 0.695323 0.904585
0 0.721523 0.924117
0 0.753017 0.951766
0 0.787198 0.999557
0.393927 0.789746 1
0.727626 0.800458 1
0.905592 0.799191 1
0.979675 0.801389 1
0.999817 0.811307 1
0 0.737041 0.917815
0 0.760082 0.934173
0 0.799954 0.960403
0 0.8636 1
0.305943 0.907591 1
0.703929 0.927047 1
0.894926 0.935347 1
0.973266 0.938918 1
0.997681 0.944991 0.999634
0 0.754055 0.924697
0 0.78352 0.941955
0 0.824323 0.969985
0 0.894163 1
0.258427 0.950286 1
0.68246 0.971344 1
0.882246 0.983948 1
0.96846 0.990265 0.999771
0.994018 0.993072 0.999161
0 0.792279 0.948287
0 0.822034 0.96556
0 0.859144 0.990021
0 0.916442 1
0.296284 0.958663 1
0.662882 0.98291 1
0.866606 0.995712 1
0.961501 0.999908 0.999832
0.991287 1 0.99971
