LUT预设1/柯达5219&2393/柯达5219系列-Log/柯达2393.cube
TITLE "Generated by Resolve"
LUT_3D_SIZE 33
0.004654 0.00830091 0.005066
0.00762951 0.00860609 0.00758373
0.0121157 0.0104219 0.00755322
0.0166629 0.012192 0.00708019
0.0204776 0.0130007 0.00732433
0.0245212 0.0146639 0.00675975
0.0320134 0.0158999 0.00352483
0.0438392 0.0173648 0.000732433
0.0564736 0.0204166 0
0.0737926 0.0216526 0
0.0963149 0.0235599 0
0.12668 0.026688 0
0.169421 0.0267185 0
0.224704 0.0256199 0
0.284764 0.0242161 0
0.344854 0.0228428 0
0.401968 0.0231022 0
0.450904 0.0236973 0
0.493828 0.0258793 0
0.533944 0.0310216 0
0.568887 0.0395209 0
0.602884 0.0482643 0
0.633967 0.0513619 0
0.661189 0.0501564 0
0.684306 0.0527352 0
0.700847 0.0610666 0
0.714427 0.0693217 0
0.723415 0.0728771 0
0.732647 0.0765393 0
0.742 0.0802472 0
0.751263 0.0839857 0
0.758663 0.0876173 0
0.763012 0.0895552 0
0.00146487 0.0115969 0.00645457
0.0055848 0.0117189 0.00689708
0.0104829 0.0135195 0.00642405
0.0152895 0.0153048 0.00636301
0.0195315 0.0157473 0.00810254
0.0234989 0.0173495 0.00852979
0.0314336 0.0185855 0.00579843
0.0430915 0.0201419 0.00163272
0.0572213 0.0232395 0
0.0751965 0.0243076 0
0.0972305 0.0258488 0
0.127306 0.0285496 0
0.168872 0.0284276 0
0.222889 0.0271305 0
0.283268 0.0253758 0
0.342489 0.0238804 0
0.399863 0.0242618 0
0.449546 0.0251621 0
0.492943 0.0275731 0
0.533578 0.0323033 0
0.569177 0.0403906 0
0.603265 0.0493629 0
0.634531 0.0535592 0
0.662104 0.0526284 0
0.685573 0.054078 0
0.702342 0.0612345 0
0.715831 0.0695964 0
0.724865 0.0732128 0
0.733883 0.0768139 0
0.742992 0.0804913 0
0.75198 0.0841993 0
0.759045 0.0877546 0
0.763561 0.0895857 0
0.000122072 0.0180514 0.00892653
0.00288396 0.018265 0.00880446
0.00776684 0.0188907 0.00854505
0.0132906 0.0193637 0.00854505
0.0175479 0.0195468 0.00888075
0.0227512 0.0208286 0.00834669
0.03093 0.0220798 0.00677501
0.041413 0.0234531 0.00410468
0.055375 0.0264439 0.00117494
0.0752422 0.0275425 0
0.098558 0.0289616 0
0.128634 0.0316625 0
0.17023 0.0317845 0
0.224537 0.0305943 0
0.28603 0.0289921 0
0.347387 0.0288396 0
0.406638 0.0311131 0
0.458167 0.0349889 0
0.503502 0.0399481 0
0.544747 0.0420233 0
0.579492 0.0478065 0
0.613748 0.0567636 0
0.644419 0.0644846 0
0.671229 0.0668193 0
0.696254 0.0646525 0
0.715496 0.0650187 0
0.729473 0.072755 0
0.738766 0.0763714 0
0.748012 0.0800641 0
0.757229 0.0838483 0
0.764691 0.087602 0
0.769268 0.0898604 0
0.773648 0.0916457 0
0 0.023331 0.0121767
0.000320439 0.0234226 0.0122225
0.00364691 0.0234379 0.0121462
0.0104524 0.0232547 0.0119173
0.0151675 0.0244297 0.0114137
0.0203708 0.0259709 0.0106203
0.0287175 0.0270848 0.00933852
0.0401617 0.0281682 0.00643931
0.0552834 0.0301976 0.00204471
0.0749523 0.0319829 0
0.098909 0.0339361 0
0.129946 0.0359503 0
0.172793 0.0357061 0
0.227115 0.0344549 0
0.288212 0.0339818 0
0.354162 0.0340887 0
0.416602 0.0361334 0
0.469932 0.0416419 0
0.51751 0.0490425 0
0.558602 0.0556802 0
0.594018 0.0606699 0
0.629801 0.0643931 0
0.661357 0.0707866 0
0.684962 0.0802167 0
0.705882 0.0837262 0
0.725139 0.0788128 0
0.74081 0.0767681 0
0.753277 0.0802777 0
0.762844 0.0841688 0
0.772122 0.0878767 0
0.779522 0.0915694 0
0.784375 0.0936446 0
0.788876 0.0959487 0
0 0.0286412 0.0153658
0 0.0290684 0.0154269
0.000366217 0.0293278 0.0153506
0.00529488 0.0294347 0.0151064
0.0111086 0.0300908 0.0146334
0.0178225 0.0305943 0.013962
0.0267338 0.0312505 0.0121309
0.0385443 0.0331273 0.00802625
0.0547189 0.0347753 0.00250248
0.074403 0.0370489 0
0.0995651 0.0400244 0
0.132647 0.0416724 0
0.177295 0.0414282 0
0.234684 0.0408789 0
0.298268 0.0410163 0
0.363958 0.0425727 0
0.427497 0.0464179 0
0.483696 0.0522621 0
0.53434 0.0598917 0
0.575051 0.0678416 0
0.610407 0.0749828 0
0.646494 0.0798047 0
0.677928 0.0866102 0
0.700847 0.0958877 0
0.720378 0.0991836 0
0.738872 0.0947433 0
0.755398 0.0933242 0
0.765011 0.0973526 0
0.774731 0.100923 0
0.784741 0.102892 0
0.792584 0.104616 0
0.797848 0.106401 0
0.802426 0.109041 0
0 0.0349584 0.0171664
0 0.0357977 0.0168307
0 0.0366369 0.0164034
0.000503548 0.0370642 0.0159609
0.00468452 0.0371405 0.0153811
0.0128328 0.03682 0.0147097
0.0231174 0.0370031 0.0130159
0.0361639 0.0387579 0.00891127
0.0537881 0.0402228 0.0028687
0.0758221 0.0419013 0
0.10341 0.0443885 0
0.137987 0.0464942 0
0.184054 0.047776 0
0.242939 0.0481575 0
0.309911 0.0497902 0
0.378744 0.0535744 0
0.443763 0.057847 0
0.501137 0.06392 0
0.55198 0.071809 0
0.59556 0.0800641 0
0.630701 0.0881208 0
0.665858 0.0948959 0
0.69366 0.103685 0
0.716854 0.11249 0
0.737804 0.114229 0
0.754742 0.110552 0
0.768032 0.110613 0
0.777981 0.114229 0
0.788342 0.116289 0
0.798779 0.118593 0
0.809461 0.119997 0
0.815747 0.122988 0
0.821302 0.123262 0
0 0.0395666 0.016495
0 0.0417639 0.0161898
0 0.043534 0.0160067
0 0.0446174 0.0158694
0.000396735 0.044892 0.0154879
0.00622568 0.0445411 0.0149081
0.0176242 0.0448005 0.0131685
0.0334173 0.0456245 0.00915541
0.0543221 0.0467384 0.0030518
0.078996 0.049073 0
0.107683 0.0518654 0
0.144884 0.0539101 0
0.194278 0.0552071 0
0.258686 0.0583047 0
0.330938 0.0626841 0
0.401389 0.0667735 0
0.467124 0.0722362 0
0.525383 0.0776226 0
0.576761 0.0845045 0
0.620157 0.0917525 0
0.655131 0.0985733 0
0.690791 0.107362 0
0.718273 0.117739 0
0.740169 0.126619 0
0.757916 0.128313 0
0.774578 0.125597 0
0.787335 0.124697 0
0.797223 0.128115 0
0.806271 0.135348 0
0.816617 0.140307 0
0.827222 0.1411 0
0.833051 0.144915 0
0.839307 0.145388 0
0 0.0460365 0.0187228
0 0.0469673 0.0189059
0 0.0489509 0.0186313
0 0.0517128 0.0179446
0 0.0528267 0.0173648
0.000579843 0.0528115 0.0166781
0.0103151 0.0534981 0.0136416
0.0294347 0.0541085 0.00915541
0.053254 0.0549783 0.00323491
0.0796979 0.0573281 0
0.110094 0.0600748 0
0.151263 0.0632944 0
0.206104 0.066041 0
0.275425 0.0694133 0
0.353109 0.0753185 0
0.42707 0.0814069 0
0.494636 0.087602 0
0.553109 0.0932326 0
0.603861 0.0989395 0
0.645212 0.10605 0
0.681041 0.113848 0
0.716823 0.121386 0
0.743557 0.132296 0
0.767056 0.140887 0
0.780163 0.141268 0
0.795316 0.141009 0
0.806149 0.141314 0
0.81384 0.143343 0
0.826093 0.153826 0
0.837476 0.160449 0
0.8448 0.163195 0
0.853666 0.166094 0
0.859312 0.16939 0
0 0.0541085 0.0176089
0 0.0566567 0.0169375
0 0.0587625 0.0165255
0 0.0601205 0.0165408
0 0.0614786 0.0165408
0 0.0633097 0.0158083
0.00488289 0.0644388 0.0121157
0.0225986 0.0651865 0.00712596
0.0504311 0.0669413 0.00228885
0.0810559 0.0704662 0
0.115038 0.0745861 0
0.161563 0.0786908 0
0.222156 0.0818952 0
0.295033 0.085832 0
0.377935 0.0932479 0
0.455634 0.101823 0
0.524926 0.109773 0
0.582956 0.115587 0
0.630777 0.122087 0
0.669001 0.130831 0
0.704479 0.138689 0
0.736965 0.14461 0
0.761685 0.15227 0
0.785611 0.161517 0
0.803525 0.160998 0
0.81648 0.15993 0
0.826825 0.163073 0
0.836957 0.165087 0
0.846418 0.171054 0
0.853635 0.179049 0
0.860441 0.184771 0
0.867552 0.18822 0
0.873091 0.192096 0
0 0.0642557 0.0178683
0 0.0661479 0.0178378
0 0.067689 0.0180972
0 0.069398 0.0176547
0 0.0722362 0.0153506
0 0.0747539 0.0136263
0.000350958 0.0763256 0.0109712
0.0147707 0.0781109 0.00529488
0.0438544 0.0805219 0.000976577
0.0785687 0.0842451 0
0.116884 0.0885634 0
0.168276 0.092958 0
0.236088 0.0981003 0
0.314809 0.104875 0
0.40032 0.114809 0
0.483116 0.125872 0
0.554223 0.13489 0
0.609979 0.142382 0
0.658122 0.149432 0
0.694804 0.159289 0
0.728099 0.168368 0
0.756725 0.174395 0
0.7823 0.17792 0
0.804883 0.180362 0
0.823377 0.182193 0
0.838239 0.184482 0
0.84831 0.187854 0
0.857557 0.191226 0
0.865705 0.195911 0
0.872282 0.203052 0
0.877058 0.20885 0
0.881834 0.214374 0
0.887373 0.21622 0
0 0.0770886 0.0194095
0 0.0801556 0.0191501
0 0.0828412 0.0192874
0 0.0855268 0.0189822
0 0.0891585 0.0162051
0 0.0921035 0.0118563
0 0.0948959 0.00469978
0.0009308 0.098024 0.000350958
0.0283818 0.100328 6.10361e-05
0.0740673 0.104265 0
0.117586 0.109422 0
0.174899 0.115633 0
0.247547 0.122911 0
0.329534 0.130373 0
0.418173 0.1411 0
0.502098 0.152712 0
0.574334 0.163592 0
0.631983 0.175448 0
0.678798 0.183597 0
0.715023 0.190082 0
0.748867 0.199054 0
0.778439 0.205371 0
0.803555 0.209751 0
0.823896 0.212818 0
0.842268 0.213993 0
0.855528 0.216556 0
0.864668 0.221546 0
0.873625 0.226062 0
0.882918 0.228672 0
0.888762 0.235431 0
0.893675 0.240772 0
0.897993 0.246708 0
0.901717 0.251041 0
0 0.09308 0.0206302
0 0.095613 0.0205692
0 0.0987106 0.0203708
0 0.1028 0.0200198
0 0.106661 0.0177005
0 0.110445 0.0132601
0 0.115007 0.00489815
0 0.119814 0
0.0103609 0.1234 0
0.0509499 0.127169 0
0.10956 0.132723 0
0.173068 0.14049 0
0.251514 0.150225 0
0.339437 0.160662 0
0.430411 0.172091 0
0.51426 0.18378 0
0.588678 0.197269 0
0.649027 0.210101 0
0.69807 0.21976 0
0.734859 0.227832 0
0.769497 0.233463 0
0.798001 0.238178 0
0.823667 0.243671 0
0.844434 0.248112 0
0.860777 0.250767 0
0.873564 0.254047 0
0.882887 0.260166 0
0.890455 0.265675 0
0.897154 0.269795 0
0.904494 0.276265 0
0.910414 0.281178 0
0.914672 0.28751 0
0.917189 0.293965 0
0 0.118059 0.0233158
0 0.122942 0.02327
0 0.127962 0.0231632
0 0.131838 0.0233921
0 0.136812 0.0211795
0 0.141283 0.0163119
0 0.145205 0.00624094
0 0.149859 0
0.000503548 0.15407 0
0.0304875 0.159197 0
0.0939651 0.166796 0
0.168551 0.17763 0
0.252552 0.190234 0
0.344488 0.203098 0
0.439918 0.217624 0
0.527077 0.230716 0
0.603876 0.241489 0
0.665492 0.252934 0
0.714565 0.264729 0
0.751415 0.272999 0
0.786084 0.279423 0
0.816587 0.284474 0
0.842786 0.288487 0
0.862913 0.29279 0
0.878752 0.297093 0
0.891173 0.300755 0
0.900404 0.305623 0
0.908186 0.311208 0
0.913787 0.316411 0
0.921447 0.322332 0
0.927413 0.327916 0
0.931365 0.33547 0
0.935927 0.341344 0
0 0.147341 0.0317693
0 0.153094 0.0307774
0 0.160052 0.0296025
0 0.16582 0.0298314
0 0.172015 0.0282902
0 0.178241 0.0234379
0 0.183749 0.0127413
0 0.188464 0.00283818
0 0.192355 0
0.0134279 0.197955 0
0.0680858 0.206958 0
0.156786 0.219745 0
0.248371 0.234714 0
0.345647 0.250462 0
0.446601 0.267063 0
0.538521 0.282277 0
0.616419 0.295949 0
0.677577 0.306416 0
0.728191 0.314977 0
0.76524 0.324514 0
0.799619 0.332998 0
0.8309 0.338842 0
0.857801 0.342855 0
0.87921 0.346548 0
0.895888 0.351904 0
0.908156 0.356039 0
0.917128 0.35993 0
0.924315 0.365301 0
0.930709 0.37084 0
0.936431 0.37615 0
0.941299 0.381598 0
0.946517 0.389532 0
0.949783 0.398352 0
0 0.190402 0.0442817
0 0.197452 0.045594
0 0.205325 0.0457923
0 0.212573 0.0453956
0 0.220111 0.0437476
0 0.227665 0.0389868
0 0.233951 0.0287327
0 0.238224 0.010956
0 0.242512 0
0.000488289 0.248875 0
0.0411231 0.258366 0
0.136233 0.272755 0
0.240558 0.290166 0
0.346822 0.308659 0
0.453834 0.327657 0
0.548531 0.344228 0
0.629618 0.358694 0
0.689418 0.368963 0
0.737911 0.378775 0
0.776059 0.386069 0
0.812894 0.391745 0
0.845319 0.395972 0
0.872007 0.39939 0
0.894957 0.404181 0
0.91043 0.408331 0
0.923445 0.411612 0
0.932082 0.415702 0
0.939025 0.420554 0
0.945006 0.425437 0
0.95082 0.431678 0
0.9561 0.4383 0
0.959381 0.445533 0
0.962982 0.45211 0
0 0.238117 0.0635996
0 0.24654 0.064683
0 0.255863 0.0641489
0 0.264378 0.0652628
0 0.27306 0.0641184
0 0.282597 0.0581674
0 0.290852 0.0459144
0 0.295781 0.024979
0 0.299657 0.00622568
0 0.30544 0
0.0290074 0.31487 0
0.119463 0.331777 0
0.239277 0.353109 0
0.352987 0.373465 0
0.464393 0.393668 0
0.561196 0.411963 0
0.642023 0.42855 0
0.704707 0.439567 0
0.755795 0.448341 0
0.795254 0.455283 0
0.829938 0.460624 0
0.860639 0.464332 0
0.887297 0.466514 0
0.909377 0.468086 0
0.92221 0.469596 0
0.93434 0.471763 0
0.942733 0.473915 0
0.949248 0.477272 0
0.955276 0.480415 0
0.960647 0.485451 0
0.967559 0.492409 0
0.97261 0.498436 0
0.975006 0.504143 0
0 0.291493 0.0844434
0 0.299657 0.0856641
0 0.308782 0.0865492
0 0.318059 0.0884565
0 0.328359 0.0863661
0 0.338872 0.0798657
0 0.347478 0.0675059
0 0.354162 0.0424659
0 0.360403 0.0135653
0 0.365805 0
0.0227817 0.375097 0
0.108415 0.39266 0
0.238926 0.415366 0
0.364126 0.440635 0
0.477424 0.462043 0
0.576242 0.481422 0
0.660075 0.496956 0
0.723018 0.505455 0
0.773373 0.515175 0
0.811872 0.521416 0
0.847257 0.525383 0
0.877073 0.528542 0
0.902129 0.530526 0
0.92372 0.530129 0
0.936049 0.528283 0
0.945525 0.52665 0
0.952911 0.526787 0
0.957702 0.528466 0
0.964996 0.52987 0
0.969375 0.532906 0
0.974701 0.540536 0
0.98056 0.545922 0
0.983001 0.551034 0
0 0.343053 0.106371
0 0.352224 0.109606
0 0.362219 0.111696
0 0.372427 0.111955
0 0.384115 0.108354
0 0.395453 0.10251
0 0.403998 0.0908675
0 0.410636 0.0662089
0 0.416602 0.0264897
0 0.422568 0
0.0236973 0.433829 0
0.113893 0.454551 0
0.252094 0.480568 0
0.381125 0.50547 0
0.499992 0.527749 0
0.599771 0.547509 0
0.679713 0.560555 0
0.7402 0.569421 0
0.790616 0.575921 0
0.829389 0.580972 0
0.863355 0.58529 0
0.891371 0.586526 0
0.91458 0.585473 0
0.934417 0.583947 0
0.947631 0.582422 0
0.958022 0.580224 0
0.966247 0.578927 0
0.970428 0.57908 0
0.97789 0.577386 0
0.981125 0.57818 0
0.983124 0.582773 0
0.989395 0.587167 0
0.992248 0.591592 0
0 0.393927 0.130983
0 0.402975 0.1337
0 0.413962 0.135958
0 0.426017 0.13637
0 0.437324 0.132342
0 0.447044 0.124239
0 0.455467 0.109529
0 0.462287 0.0800946
0 0.468009 0.0320745
0 0.474952 0
0.027985 0.488273 0
0.126696 0.51136 0
0.270146 0.539986 0
0.40351 0.566567 0
0.52166 0.589487 0
0.620172 0.608545 0
0.699733 0.620569 0
0.759136 0.62562 0
0.80679 0.629892 0
0.842695 0.63241 0
0.875303 0.634531 0
0.90161 0.634272 0
0.923583 0.632105 0
0.942763 0.63006 0
0.956634 0.627802 0
0.969314 0.625483 0
0.978469 0.62327 0
0.985458 0.623545 0
0.989029 0.623728 0
0.992966 0.6215 0
0.994171 0.625162 0
0.99762 0.626581 0
0.999847 0.629526 0
0 0.433249 0.146914
0 0.442145 0.146899
0 0.452369 0.147036
0 0.463554 0.146014
0 0.47451 0.142184
0 0.485069 0.134203
0 0.494255 0.118486
0 0.501823 0.0839094
0 0.508415 0.031754
0 0.517006 0
0.0357977 0.532815 0
0.14902 0.557183 0
0.295598 0.585733 0
0.4271 0.612909 0
0.540734 0.634714 0
0.637247 0.651133 0
0.714672 0.66183 0
0.772351 0.666575 0
0.81944 0.669001 0
0.852934 0.669017 0
0.883848 0.669871 0
0.908721 0.668833 0
0.930495 0.666331 0
0.950027 0.664439 0
0.964401 0.66363 0
0.974777 0.661006 0
0.984009 0.6589 0
0.99266 0.657633 0
0.995697 0.658839 0
0.999283 0.658656 0
0.999969 0.659327 0
1 0.66247 0
1 0.664744 0
0 0.467048 0.158389
0 0.476875 0.157702
0 0.487694 0.156085
0 0.497887 0.152865
0 0.507683 0.148669
0 0.517952 0.140597
0 0.527077 0.124239
0 0.535637 0.0886397
0 0.543877 0.0339208
0 0.554192 0
0.0433509 0.572351 0
0.167025 0.597345 0
0.310521 0.625528 0
0.438239 0.651896 0
0.552514 0.67425 0
0.648508 0.689097 0
0.724453 0.69836 0
0.781186 0.702449 0
0.826719 0.704784 0
0.85951 0.704479 0
0.890181 0.703853 0
0.915022 0.701976 0
0.937331 0.699931 0
0.957458 0.698589 0
0.971405 0.696818 0
0.982651 0.694362 0
0.989792 0.692744 0
0.998184 0.692271 0
1 0.69218 0
1 0.693706 0
1 0.691798 0
1 0.696162 0
1 0.698466 0
0 0.494179 0.164584
0 0.503334 0.162417
0 0.512688 0.159335
0 0.52134 0.155795
0 0.530846 0.151202
0 0.540536 0.141665
0 0.54844 0.124498
0 0.557229 0.08925
0 0.566751 0.0341039
0 0.577066 0
0.0452583 0.595102 0
0.173709 0.620371 0
0.318029 0.64889 0
0.444083 0.675486 0
0.554742 0.697322 0
0.648463 0.713329 0
0.725582 0.724132 0
0.782452 0.729259 0
0.827298 0.731395 0
0.860258 0.730556 0
0.892271 0.729931 0
0.918273 0.728695 0
0.940505 0.727596 0
0.961059 0.727214 0
0.975097 0.725444 0
0.988251 0.723629 0
0.995117 0.722622 0
1 0.72369 0
1 0.723735 0
1 0.725216 0
1 0.725216 0
1 0.727504 0
1 0.730297 0
0 0.513924 0.168826
0 0.523186 0.1673
0 0.532036 0.164385
0 0.53994 0.159625
0 0.548791 0.152224
0 0.557504 0.140917
0 0.564614 0.124727
0 0.572549 0.0866102
0 0.583658 0.0300755
0 0.597864 0
0.0405737 0.615778 0
0.164508 0.639506 0
0.31075 0.667369 0
0.438926 0.694575 0
0.549966 0.716777 0
0.641917 0.73254 0
0.720348 0.744625 0
0.778637 0.751522 0
0.825895 0.754284 0
0.858412 0.752667 0
0.891234 0.752728 0
0.919615 0.752194 0
0.942367 0.751431 0
0.962341 0.751736 0
0.976547 0.750301 0
0.990463 0.748898 0
0.998749 0.747784 0
1 0.746517 0
1 0.748775 0
1 0.748867 0
1 0.751034 0
1 0.750957 0
1 0.753658 0
0 0.529686 0.171115
0 0.536599 0.16817
0 0.544213 0.164034
0 0.552789 0.15874
0 0.561059 0.151751
0 0.568276 0.141222
0 0.574487 0.125322
0 0.582361 0.0801404
0 0.592813 0.0204318
0 0.606775 0
0.0362097 0.626261 0
0.15314 0.649134 0
0.300343 0.677882 0
0.428397 0.706096 0
0.541482 0.731167 0
0.633768 0.748409 0
0.712215 0.762707 0
0.772442 0.771557 0
0.82414 0.776471 0
0.858625 0.775753 0
0.890715 0.775494 0
0.920226 0.774823 0
0.94493 0.774258 0
0.965621 0.775418 0
0.980072 0.774289 0
0.994293 0.773159 0
0.999893 0.772457 0
1 0.77145 0
1 0.770733 0
1 0.774121 0
1 0.773907 0
1 0.775891 0
1 0.776196 0
0 0.541146 0.17377
0 0.546761 0.171328
0 0.553201 0.167315
0 0.561212 0.160433
0 0.570275 0.153338
0 0.578866 0.143954
0 0.585748 0.126436
0 0.593256 0.0834669
0 0.603906 0.0251011
0 0.617624 0
0.0310826 0.635248 0
0.140108 0.658198 0
0.288777 0.686427 0
0.417853 0.712947 0
0.530648 0.737316 0
0.625544 0.757809 0
0.708095 0.775113 0
0.7691 0.785199 0
0.820096 0.791318 0
0.858412 0.793011 0
0.892058 0.792309 0
0.921706 0.790677 0
0.944457 0.790127 0
0.96582 0.791257 0
0.980346 0.790112 0
0.994736 0.788952 0
1 0.788098 0
1 0.787198 0
1 0.786511 0
1 0.789914 0
1 0.78996 0
1 0.789578 0
1 0.78996 0
0 0.548547 0.175692
0 0.555093 0.17293
0 0.56199 0.169329
0 0.569604 0.162936
0 0.577447 0.154742
0 0.585031 0.143709
0 0.59263 0.125383
0 0.600381 0.0870069
0 0.610681 0.0317845
0 0.625742 0
0.0271305 0.643214 0
0.12961 0.665782 0
0.277623 0.694804 0
0.410651 0.721218 0
0.52398 0.745388 0
0.619043 0.767178 0
0.702724 0.785 0
0.765362 0.796063 0
0.818998 0.804883 0
0.857374 0.808408 0
0.891859 0.809628 0
0.924147 0.809705 0
0.947158 0.808042 0
0.969741 0.80647 0
0.984421 0.805417 0
0.99881 0.804166 0
1 0.803586 0
1 0.802777 0
1 0.802609 0
1 0.805615 0
1 0.805554 0
1 0.804883 0
1 0.804379 0
0 0.553506 0.177096
0 0.56083 0.173205
0 0.568368 0.168383
0 0.575967 0.162371
0 0.58294 0.154528
0 0.588907 0.14284
0 0.595926 0.124529
0 0.605402 0.0917678
0 0.61648 0.0394598
0 0.631357 0
0.0256046 0.649165 0
0.123232 0.670298 0
0.268696 0.699489 0
0.402914 0.726375 0
0.517174 0.75082 0
0.614084 0.773602 0
0.699062 0.792157 0
0.762234 0.803128 0
0.815198 0.810575 0
0.855695 0.815213 0
0.891737 0.817685 0
0.925124 0.81799 0
0.94789 0.816358 0
0.970947 0.814618 0
0.985611 0.813611 0
1 0.812589 0
1 0.812177 0
1 0.811856 0
1 0.814649 0
1 0.814664 0
1 0.814664 0
1 0.814374 0
1 0.814054 0
0 0.556893 0.178882
0 0.564462 0.174456
0 0.572183 0.169009
0 0.579385 0.161883
0 0.585916 0.152346
0 0.592172 0.139712
0 0.600168 0.120516
0 0.611139 0.090959
0 0.623056 0.0428473
