LUT预设1/柯达5219&2393/柯达5219系列-Log/柯达5219基准.cube
TITLE "Generated by Resolve"
LUT_3D_SIZE 9
0.0230106 0.030518 0.0598459
0.0261692 0.0315862 0.0603342
0.0830854 0.0466316 0.0586862
0.219425 0.0638743 0.0463722
0.515755 0.0811933 0.0121309
0.868742 0.101961 0
0.873579 0.10251 0
0.873579 0.10251 0
0.873579 0.10251 0
0.0230106 0.030518 0.0598459
0.0230106 0.030518 0.0598459
0.0573892 0.0406958 0.0608225
0.196597 0.0618448 0.0486458
0.449409 0.0789044 0.0180819
0.803632 0.095201 0
0.873579 0.10251 0
0.873579 0.10251 0
0.873579 0.10251 0
0.0349889 0.0807965 0.100099
0.0345312 0.068452 0.090898
0.0593271 0.0687266 0.0851301
0.233371 0.0855726 0.0580301
0.59144 0.0957809 0.00981155
0.888548 0.111406 0
0.879286 0.10518 0
0.873671 0.102556 0
0.873579 0.10251 0
0 0.250858 0.208881
0 0.240162 0.201389
0 0.238056 0.198245
0.311009 0.227985 0.100542
0.772854 0.248096 0.0397955
1 0.374701 0.0116426
1 0.345846 0.00300603
1 0.309239 0
1 0.255467 0
0 0.573663 0.415503
0 0.56492 0.408667
0 0.570062 0.412619
0.0225528 0.532143 0.311391
0.67068 0.512566 0.109438
1 0.581598 0.0705425
1 0.593225 0.0842298
1 0.565103 0.0820325
1 0.522347 0.0648966
0 0.870512 0.680537
0 0.86833 0.678111
0 0.874327 0.685023
0 0.852186 0.649897
0.184802 0.819913 0.463584
0.954086 0.80853 0.19704
1 0.791836 0.11252
1 0.747967 0.0901198
1 0.696864 0.0867781
0 0.901366 0.716442
0 0.901366 0.716442
0 0.901366 0.716442
0 0.901595 0.716579
0 0.908461 0.661341
0.654536 0.930831 0.564584
1 0.939849 0.366766
1 0.912306 0.298054
1 0.857267 0.193698
0 0.901366 0.716442
0 0.901366 0.716442
0 0.901366 0.716442
0 0.901366 0.716442
0 0.908186 0.713527
0.0771344 0.905852 0.567346
0.882963 0.94316 0.51841
1 0.941421 0.370565
1 0.941421 0.370565
0 0.901366 0.716442
0 0.901366 0.716442
0 0.901366 0.716442
0 0.901366 0.716442
0 0.903639 0.717769
0 0.908553 0.659907
0.511299 0.922316 0.567834
0.983642 0.942489 0.438163
1 0.941421 0.370565
0.0230106 0.030518 0.0598459
0.0230106 0.030518 0.0598459
0.0766155 0.045182 0.0593118
0.233356 0.0649577 0.0449226
0.594583 0.0833906 0.00593576
0.873579 0.10251 0
0.873579 0.10251 0
0.873579 0.10251 0
0.873579 0.10251 0
0.0230106 0.030518 0.0598459
0.0230106 0.030518 0.0598459
0.0507973 0.0389868 0.061265
0.169268 0.059205 0.0511025
0.437659 0.0780041 0.0198825
0.847807 0.0997482 0
0.873579 0.10251 0
0.873579 0.10251 0
0.873579 0.10251 0
0.0350958 0.0754864 0.0962539
0.0341039 0.0638895 0.0874037
0.0535744 0.0649271 0.08365
0.220722 0.0814527 0.0576638
0.489464 0.0903639 0.0185397
0.805951 0.101106 0
0.881559 0.106249 0
0.874968 0.103166 0
0.873579 0.10251 0
0 0.245457 0.205219
0 0.235447 0.198093
0 0.233341 0.195911
0.294392 0.223255 0.102708
0.757458 0.241779 0.0403143
1 0.370367 0.0103151
1 0.341558 0.00199893
1 0.29688 0
1 0.238117 0
0 0.568597 0.411612
0 0.559915 0.404669
0 0.565118 0.408667
0.0158389 0.527077 0.311482
0.655161 0.506767 0.112581
1 0.575189 0.0686809
1 0.591623 0.0844434
1 0.563394 0.0825513
1 0.52079 0.06392
0 0.868498 0.678264
0 0.866728 0.676356
0 0.872816 0.683299
0 0.850278 0.649317
0.169329 0.817441 0.464393
0.947021 0.805966 0.198962
1 0.790234 0.110353
1 0.746395 0.0901808
1 0.695689 0.0864881
0 0.901366 0.716442
0 0.901366 0.716442
0 0.901366 0.716442
0 0.901579 0.716579
0 0.908461 0.664012
0.641398 0.929671 0.566659
1 0.940139 0.367208
1 0.910796 0.295109
1 0.856062 0.191424
0 0.901366 0.716442
0 0.901366 0.716442
0 0.901366 0.716442
0 0.901366 0.716442
0 0.90811 0.71487
0.0727703 0.905852 0.571572
0.874922 0.943297 0.524605
1 0.941421 0.370565
1 0.941421 0.370565
0 0.901366 0.716442
0 0.901366 0.716442
0 0.901366 0.716442
0 0.901366 0.716442
0 0.903487 0.717693
0 0.908553 0.661509
0.494423 0.921645 0.566796
0.979767 0.942489 0.441505
1 0.941421 0.370565
0.0179599 0.0390784 0.0930953
0.0189822 0.0372168 0.0877699
0.0679179 0.0467231 0.103914
0.201144 0.0722362 0.086717
0.53904 0.0821851 0.047776
0.855253 0.106523 0.00686656
0.867552 0.104402 0
0.872938 0.102754 0
0.873549 0.102541 0
0.0199588 0.0356756 0.082536
0.0212863 0.0335699 0.0746471
0.0470741 0.0396887 0.0767224
0.176425 0.062562 0.0602274
0.507637 0.0812695 0.0184176
0.872267 0.103304 0
0.873579 0.10251 0
0.873579 0.10251 0
0.873579 0.10251 0
0.0344701 0.0720378 0.0975509
0.0327153 0.0621195 0.090837
0.0481727 0.0622873 0.0866865
0.193256 0.0771344 0.0626841
0.457313 0.0859998 0.0231174
0.862211 0.105653 0
0.879408 0.105241 0
0.873594 0.102525 0
0.873579 0.10251 0
0 0.243519 0.203815
0 0.233845 0.196994
0 0.231357 0.194842
0.283238 0.220996 0.104356
0.748119 0.239063 0.0408484
1 0.368185 0.0100404
1 0.325322 0
1 0.275944 0
1 0.234134 0
0 0.569406 0.412222
0 0.560586 0.405158
0 0.564996 0.40856
0.0129244 0.526345 0.313176
0.646983 0.50631 0.115312
1 0.573312 0.0677501
1 0.592798 0.0846265
1 0.564843 0.0831617
1 0.521019 0.0639506
0 0.870344 0.6804
0 0.868193 0.678019
0 0.874006 0.684672
0 0.850797 0.650462
0.157656 0.817594 0.466239
0.942489 0.806897 0.204257
1 0.791333 0.110765
1 0.747555 0.0902724
1 0.696757 0.0865034
0 0.901366 0.716442
0 0.901366 0.716442
0 0.901366 0.716442
0 0.901579 0.716579
0 0.908461 0.665034
0.634485 0.929091 0.567605
1 0.940551 0.368292
1 0.910948 0.295415
1 0.856504 0.191913
0 0.901366 0.716442
0 0.901366 0.716442
0 0.901366 0.716442
0 0.901366 0.716442
0 0.908095 0.714977
0.0703899 0.905806 0.57322
0.870604 0.943389 0.527947
1 0.941421 0.370565
1 0.941421 0.370565
0 0.901366 0.716442
0 0.901366 0.716442
0 0.901366 0.716442
0 0.901366 0.716442
0 0.903517 0.717723
0 0.908537 0.661158
0.493095 0.92163 0.566552
0.97818 0.942473 0.442512
1 0.941421 0.370565
0.00717174 0.0703288 0.162036
0.00825513 0.0657511 0.153323
0.0353704 0.0729992 0.201175
0.18941 0.0661021 0.271275
0.403021 0.135973 0.215595
0.719417 0.106157 0.202319
0.737423 0.0876631 0.182254
0.754513 0.0759594 0.157427
0.768551 0.0693523 0.136217
0.00491341 0.0810864 0.182528
0.00920119 0.0617685 0.14548
0.0242618 0.0612802 0.157855
0.153429 0.0631266 0.215564
0.371893 0.116884 0.172564
0.748562 0.0780499 0.165057
0.757534 0.0704204 0.152346
0.771237 0.0667735 0.131975
0.796414 0.0807965 0.092546
0.0118257 0.101991 0.200931
0.0173342 0.115938 0.205219
0.0276799 0.098497 0.189181
0.165789 0.079057 0.222644
0.399496 0.122286 0.174746
0.755535 0.083711 0.16875
0.751644 0.0755779 0.160235
0.76109 0.0691539 0.147158
0.785122 0.0767071 0.109712
0.00994888 0.257191 0.284169
0.0107271 0.247166 0.276371
0.0110323 0.246204 0.279057
0.188876 0.225788 0.264851
0.563119 0.224643 0.141512
0.958236 0.269825 0.0377813
1 0.294057 0.00538643
1 0.263401 0
1 0.223606 0
0 0.545098 0.462348
0 0.536065 0.45539
0 0.5402 0.462654
0.00914015 0.511971 0.419165
0.589517 0.492638 0.209674
1 0.559869 0.131075
1 0.586252 0.11281
1 0.530709 0.0692149
1 0.465309 0.0420996
0 0.859983 0.679194
0 0.858015 0.674754
0 0.862058 0.684169
0 0.838651 0.647639
0.125032 0.805432 0.46804
0.922118 0.79527 0.207965
1 0.78349 0.105776
1 0.741497 0.0902419
1 0.692134 0.085832
0 0.901366 0.716442
0 0.901366 0.716442
0 0.901366 0.716457
0 0.901473 0.716533
0 0.908461 0.670054
0.601068 0.926986 0.568963
1 0.940337 0.371557
1 0.907027 0.287816
1 0.85275 0.185183
0 0.901366 0.716442
0 0.901366 0.716442
0 0.901366 0.716442
0 0.901366 0.716442
0 0.907927 0.716426
0.0637217 0.905837 0.579721
0.857389 0.943236 0.534661
1 0.941421 0.370565
1 0.941421 0.370565
0 0.901366 0.716442
0 0.901366 0.716442
0 0.901366 0.716442
0 0.901366 0.716442
0 0.903304 0.717601
0 0.908522 0.662989
0.471077 0.920699 0.565484
0.97142 0.942458 0.447898
1 0.941421 0.370565
0 0.147097 0.301534
0 0.137133 0.284428
0.0115511 0.15787 0.345342
0.0916915 0.173281 0.530556
0.470893 0.0998703 0.605783
0.676036 0.239704 0.472343
0.66154 0.238483 0.442771
0.652522 0.235798 0.420905
0.641428 0.230808 0.391211
0 0.175982 0.350668
0 0.13698 0.28394
0.00569161 0.129137 0.280644
0.0692912 0.146532 0.443259
0.420386 0.0891432 0.54786
0.654719 0.23801 0.430823
0.648676 0.236805 0.417594
0.641001 0.234989 0.400946
0.63154 0.226032 0.362875
0.00273136 0.342565 0.550942
0 0.344778 0.568933
0.00833143 0.256107 0.450385
0.0751812 0.167071 0.46598
0.443442 0.0974441 0.556527
0.660624 0.241505 0.43978
0.655146 0.238529 0.432502
0.64921 0.237507 0.42063
0.63209 0.231891 0.378332
0.0144503 0.53463 0.728756
0.0146029 0.473579 0.650553
0.0149996 0.485405 0.637354
0.106004 0.379324 0.565179
0.461509 0.268879 0.576394
0.778073 0.351202 0.451499
0.79646 0.330907 0.432975
0.783062 0.300298 0.408301
0.77023 0.253285 0.366171
0 0.611414 0.613123
0 0.604929 0.610101
0 0.612772 0.619562
0.0323949 0.562112 0.596613
0.447303 0.516869 0.56762
0.861494 0.54522 0.464393
1 0.561898 0.340398
1 0.520256 0.22707
1 0.468681 0.115282
0 0.841581 0.746563
0 0.839567 0.745037
0 0.845243 0.751797
0 0.818769 0.73048
0.120912 0.793866 0.718822
0.818418 0.782788 0.544457
1 0.791653 0.493828
1 0.746746 0.421363
1 0.644114 0.173663
0 0.889464 0.768872
0 0.889281 0.769512
0 0.888838 0.772595
0 0.888945 0.771038
0.0139925 0.902052 0.781643
0.286137 0.914305 0.653178
1 0.935958 0.505943
1 0.895781 0.388876
1 0.843732 0.27985
0 0.896223 0.737865
0 0.895994 0.738796
0 0.895094 0.742489
0 0.895171 0.742153
0 0.903273 0.744091
0.0249943 0.90837 0.633249
0.814282 0.940826 0.560662
1 0.941436 0.37438
1 0.941451 0.373617
0 0.901244 0.716991
0 0.901305 0.716731
0 0.901167 0.717388
0 0.901244 0.717021
0 0.902708 0.717281
0 0.908522 0.667933
0.422919 0.918608 0.563272
0.958206 0.942412 0.458534
1 0.941421 0.370565
0 0.180682 0.358648
0 0.180682 0.358648
0.00248722 0.216632 0.434897
0.0656901 0.281468 0.625818
0.413458 0.211261 0.793667
0.771069 0.235569 0.695323
0.771069 0.235569 0.695323
0.771069 0.235569 0.695323
0.771069 0.235569 0.695323
0 0.180682 0.358648
0 0.180682 0.358648
0 0.194461 0.387823
0.0455024 0.274769 0.587091
0.357427 0.224491 0.783902
0.767941 0.231113 0.698451
0.771069 0.235569 0.695323
0.771069 0.235569 0.695323
0.770275 0.235294 0.692805
0 0.328054 0.553567
0.00415045 0.41593 0.639628
0.0135958 0.433646 0.665003
0.0573281 0.32285 0.639292
0.38526 0.231769 0.79649
0.770565 0.234974 0.696757
0.771069 0.235569 0.695323
0.771069 0.235569 0.695323
0.770932 0.235523 0.694881
0.0236667 0.672816 0.826505
0.0228733 0.70457 0.840742
0.0911269 0.671534 0.829664
0.124071 0.658534 0.826429
0.321614 0.547982 0.841367
0.814252 0.411887 0.786908
0.84004 0.408042 0.749508
0.834073 0.376425 0.740566
0.81854 0.336217 0.714031
0.0222171 0.725139 0.849073
0.0217899 0.728695 0.850507
0.0215152 0.751461 0.859205
0.100618 0.784298 0.867353
0.428992 0.719829 0.82327
0.77467 0.619074 0.813336
0.862593 0.62887 0.739025
0.846738 0.591134 0.702892
0.830579 0.536843 0.645823
0 0.889815 0.849363
0 0.889082 0.850736
0 0.895491 0.858122
0 0.875425 0.846555
0.187594 0.83151 0.82974
0.744167 0.797375 0.796567
0.955352 0.785702 0.721889
0.979324 0.726482 0.622309
0.999298 0.66743 0.505806
0 0.909056 0.826535
0 0.909438 0.826947
0 0.910918 0.829374
0 0.909743 0.827192
0.100786 0.90663 0.839536
0.538018 0.915969 0.837797
0.931167 0.91809 0.738384
0.996033 0.886656 0.674983
1 0.838407 0.606668
0.0011902 0.891981 0.798856
0.00131228 0.892012 0.799283
0.00122072 0.892653 0.800839
0.00149538 0.892256 0.800504
0.028687 0.892943 0.807965
0.168383 0.903868 0.810803
0.56318 0.922072 0.714473
1 0.937072 0.609216
1 0.93817 0.583154
0 0.889006 0.771695
0 0.888899 0.772442
0 0.888563 0.775189
0 0.888502 0.775494
0 0.889128 0.773144
0.0225986 0.90164 0.785351
0.148836 0.911833 0.694316
0.889799 0.936141 0.592462
1 0.940948 0.495811
0 0.180682 0.358648
0 0.180682 0.358648
0 0.209308 0.419211
0.0568093 0.278981 0.609613
0.370871 0.220691 0.787884
0.767987 0.231174 0.698405
0.771069 0.235569 0.695323
0.771069 0.235569 0.695323
0.771069 0.235569 0.695323
0 0.180682 0.358648
0 0.180682 0.358648
0 0.191333 0.381216
0.0399023 0.27277 0.574975
0.321614 0.232944 0.776318
0.763378 0.226184 0.702388
0.771069 0.235569 0.695323
0.771069 0.235569 0.695323
0.771069 0.235569 0.695323
0 0.280827 0.494926
0.00666819 0.457603 0.678157
0.0145266 0.45211 0.681636
0.0659953 0.337148 0.661662
0.353429 0.234684 0.787594
0.767834 0.231098 0.698497
0.771069 0.235569 0.695323
0.771069 0.235569 0.695323
0.771069 0.235569 0.695323
0.0232853 0.696315 0.837156
0.026688 0.687449 0.833478
0.1075 0.693111 0.836332
0.160052 0.678859 0.831174
0.319203 0.5561 0.842756
0.795285 0.399542 0.801007
0.838682 0.398154 0.747906
0.831907 0.365438 0.738506
0.82092 0.327428 0.726604
0.0224002 0.745373 0.856962
0.0117952 0.792157 0.873198
0.00495918 0.841489 0.886702
0.434882 0.787762 0.852705
0.511559 0.76846 0.849165
0.738613 0.650156 0.867613
0.877043 0.630426 0.803326
0.871473 0.595926 0.793149
0.862928 0.554681 0.783963
0.0040589 0.844434 0.887007
0.00584421 0.841627 0.88658
0.00474556 0.849561 0.888319
0.0365606 0.865599 0.894865
0.301015 0.890578 0.892226
0.73698 0.848585 0.878492
0.911681 0.812573 0.856535
0.90164 0.77911 0.845243
0.890944 0.738048 0.833982
0 0.945891 0.908858
0 0.945891 0.908858
0 0.945891 0.908858
0 0.945891 0.908858
0.0725261 0.944671 0.915343
0.599115 0.942931 0.906035
0.892088 0.920241 0.900267
0.951385 0.884153 0.842985
0.960296 0.829099 0.768475
0 0.929717 0.868513
0 0.929885 0.868711
0 0.930907 0.870924
0 0.930083 0.868971
0.0133974 0.925566 0.863722
0.31574 0.923003 0.861936
0.708247 0.92578 0.866835
0.967529 0.93579 0.803235
0.973419 0.932189 0.777005
0 0.903227 0.816968
0 0.903487 0.817273
0 0.90457 0.818814
0 0.904646 0.818906
0 0.902937 0.816587
0.114595 0.9028 0.833539
0.457084 0.91249 0.830365
0.770993 0.928069 0.761624
0.987655 0.934066 0.695033
0 0.180682 0.358648
0 0.180682 0.358648
0 0.200656 0.400961
0.0488441 0.27541 0.593011
0.326543 0.230854 0.778012
0.757977 0.220203 0.707103
0.771069 0.235569 0.695323
0.771069 0.235569 0.695323
0.771069 0.235569 0.695323
0 0.180682 0.358648
0 0.180682 0.358648
0 0.183459 0.364553
0.0369726 0.270451 0.566751
0.283848 0.241154 0.767514
0.75581 0.221561 0.707469
0.771069 0.235569 0.695323
0.771069 0.235569 0.695323
0.771069 0.235569 0.695323
0 0.264607 0.474693
0.00663767 0.460655 0.680003
0.00979629 0.433158 0.661845
0.0657969 0.345937 0.666117
0.330632 0.235935 0.78175
0.764065 0.227817 0.701427
0.771069 0.235569 0.695323
0.771069 0.235569 0.695323
0.771069 0.235569 0.695323
0.0223087 0.671214 0.825498
0.04448 0.67013 0.82681
0.0616464 0.710628 0.843381
0.175814 0.688304 0.832456
0.350591 0.570291 0.844617
0.775235 0.386511 0.811139
0.836423 0.386419 0.74461
0.828595 0.352636 0.73463
0.817243 0.317159 0.723186
0.00854505 0.810895 0.87892
0.00468452 0.840528 0.886488
0.125841 0.809964 0.874434
0.468132 0.809079 0.858747
0.560327 0.790967 0.855329
0.732479 0.658686 0.86537
0.875441 0.618647 0.79968
0.868864 0.583078 0.789944
0.860395 0.541726 0.781338
0.00656138 0.823941 0.882933
0.00196841 0.85832 0.890135
0 0.904189 0.8981
0.0365148 0.931151 0.910063
0.7187 0.887678 0.888411
0.767956 0.867384 0.884367
0.905821 0.800687 0.853193
0.897856 0.76672 0.841596
0.888533 0.72491 0.830533
0 0.935042 0.90576
0 0.933043 0.904936
0 0.934173 0.905135
0.0074464 0.931945 0.907698
0.163363 0.940307 0.912581
0.62536 0.945449 0.909072
0.878767 0.920317 0.9066
0.934798 0.888395 0.884184
0.922866 0.852537 0.871183
0 0.945891 0.908858
0 0.945891 0.908858
0 0.945891 0.908858
0 0.945891 0.908858
0.00444038 0.946181 0.911528
0.235798 0.9467 0.912505
0.750896 0.943816 0.913542
0.939391 0.945449 0.914275
0.948394 0.930785 0.899123
0 0.942504 0.899855
0 0.94313 0.901564
0 0.943969 0.903746
0 0.944503 0.905226
0 0.943297 0.902022
0.0841535 0.938064 0.896681
0.524407 0.934646 0.884398
0.80351 0.932189 0.887724
0.960601 0.938918 0.846143
0 0.180682 0.358648
0 0.180682 0.358648
0 0.191363 0.381353
0.0411994 0.271611 0.575875
0.280888 0.240909 0.766369
0.741482 0.210208 0.718196
0.771069 0.235569 0.695323
0.771069 0.235569 0.695323
0.771069 0.235569 0.695323
0 0.180682 0.358648
0 0.180682 0.358648
0 0.180682 0.358648
0.0348821 0.26746 0.559808
0.251133 0.248325 0.759991
0.745571 0.216556 0.713939
0.771069 0.235569 0.695323
0.771069 0.235569 0.695323
0.771069 0.235569 0.695323
0 0.296574 0.513405
0.00679026 0.461357 0.679973
0.00766003 0.425238 0.652583
0.0670787 0.352132 0.67068
0.320119 0.233448 0.778744
0.758312 0.224216 0.705333
0.771069 0.235569 0.695323
0.771069 0.235569 0.695323
0.771069 0.235569 0.695323
0.0208286 0.654078 0.816312
0.049897 0.670054 0.827176
0.0389563 0.720211 0.847349
0.168551 0.688441 0.832746
0.376822 0.580179 0.846006
0.765499 0.378683 0.819852
0.833539 0.372946 0.740688
0.823987 0.336965 0.729686
0.812711 0.30721 0.719799
0.00613413 0.827222 0.883574
0.00656138 0.81796 0.881224
0.293782 0.794171 0.85893
0.302846 0.829831 0.87126
0.587228 0.802625 0.859266
0.753353 0.674113 0.869505
0.872953 0.604257 0.795499
0.865583 0.568368 0.786786
0.857527 0.526162 0.777844
0 0.88307 0.894926
0 0.915312 0.900328
0 0.944137 0.908278
0.465995 0.918425 0.897185
0.767056 0.912032 0.900221
0.809628 0.889967 0.893385
0.901869 0.797406 0.853056
0.893797 0.752148 0.837644
0.886275 0.709789 0.826429
0 0.898054 0.897063
0 0.911864 0.899596
0 0.929671 0.903746
0.0265202 0.945327 0.913634
0.414893 0.947112 0.908507
0.872053 0.940948 0.917937
0.893706 0.931838 0.91191
0.930266 0.875593 0.879301
0.919264 0.839872 0.866499
0 0.945891 0.908858
0 0.945891 0.908858
0 0.945891 0.908858
0.000503548 0.946212 0.910628
0.0930343 0.94612 0.916777
0.479942 0.947112 0.908095
0.790494 0.942626 0.915267
0.930739 0.94461 0.915404
0.945647 0.925628 0.901884
0 0.945891 0.908858
0 0.945891 0.908858
0 0.945891 0.908858
0 0.945891 0.908858
0 0.945891 0.908858
0.0704051 0.945785 0.916564
0.485115 0.947158 0.908019
0.83917 0.941421 0.917845
0.946487 0.946258 0.91371
