LUT预设1/柯达5219&2393/柯达5219系列-Log/柯达5219基准.cube
TITLE "Generated by Resolve"
LUT_3D_SIZE 5
0.0230106 0.030518 0.0598459
0.0830854 0.0466316 0.0586862
0.515755 0.0811933 0.0121309
0.873579 0.10251 0
0.873579 0.10251 0
0.0349889 0.0807965 0.100099
0.0593271 0.0687266 0.0851301
0.59144 0.0957809 0.00981155
0.879286 0.10518 0
0.873579 0.10251 0
0 0.573663 0.415503
0 0.570062 0.412619
0.67068 0.512566 0.109438
1 0.593225 0.0842298
1 0.522347 0.0648966
0 0.901366 0.716442
0 0.901366 0.716442
0 0.908461 0.661341
1 0.939849 0.366766
1 0.857267 0.193698
0 0.901366 0.716442
0 0.901366 0.716442
0 0.903639 0.717769
0.511299 0.922316 0.567834
1 0.941421 0.370565
0.0179599 0.0390784 0.0930953
0.0679179 0.0467231 0.103914
0.53904 0.0821851 0.047776
0.867552 0.104402 0
0.873549 0.102541 0
0.0344701 0.0720378 0.0975509
0.0481727 0.0622873 0.0866865
0.457313 0.0859998 0.0231174
0.879408 0.105241 0
0.873579 0.10251 0
0 0.569406 0.412222
0 0.564996 0.40856
0.646983 0.50631 0.115312
1 0.592798 0.0846265
1 0.521019 0.0639506
0 0.901366 0.716442
0 0.901366 0.716442
0 0.908461 0.665034
1 0.940551 0.368292
1 0.856504 0.191913
0 0.901366 0.716442
0 0.901366 0.716442
0 0.903517 0.717723
0.493095 0.92163 0.566552
1 0.941421 0.370565
0 0.147097 0.301534
0.0115511 0.15787 0.345342
0.470893 0.0998703 0.605783
0.66154 0.238483 0.442771
0.641428 0.230808 0.391211
0.00273136 0.342565 0.550942
0.00833143 0.256107 0.450385
0.443442 0.0974441 0.556527
0.655146 0.238529 0.432502
0.63209 0.231891 0.378332
0 0.611414 0.613123
0 0.612772 0.619562
0.447303 0.516869 0.56762
1 0.561898 0.340398
1 0.468681 0.115282
0 0.889464 0.768872
0 0.888838 0.772595
0.0139925 0.902052 0.781643
1 0.935958 0.505943
1 0.843732 0.27985
0 0.901244 0.716991
0 0.901167 0.717388
0 0.902708 0.717281
0.422919 0.918608 0.563272
1 0.941421 0.370565
0 0.180682 0.358648
0 0.209308 0.419211
0.370871 0.220691 0.787884
0.771069 0.235569 0.695323
0.771069 0.235569 0.695323
0 0.280827 0.494926
0.0145266 0.45211 0.681636
0.353429 0.234684 0.787594
0.771069 0.235569 0.695323
0.771069 0.235569 0.695323
0.0224002 0.745373 0.856962
0.00495918 0.841489 0.886702
0.511559 0.76846 0.849165
0.877043 0.630426 0.803326
0.862928 0.554681 0.783963
0 0.945891 0.908858
0 0.945891 0.908858
0.0725261 0.944671 0.915343
0.892088 0.920241 0.900267
0.960296 0.829099 0.768475
0 0.903227 0.816968
0 0.90457 0.818814
0 0.902937 0.816587
0.457084 0.91249 0.830365
0.987655 0.934066 0.695033
0 0.180682 0.358648
0 0.191363 0.381353
0.280888 0.240909 0.766369
0.771069 0.235569 0.695323
0.771069 0.235569 0.695323
0 0.296574 0.513405
0.00766003 0.425238 0.652583
0.320119 0.233448 0.778744
0.771069 0.235569 0.695323
0.771069 0.235569 0.695323
0.00613413 0.827222 0.883574
0.293782 0.794171 0.85893
0.587228 0.802625 0.859266
0.872953 0.604257 0.795499
0.857527 0.526162 0.777844
0 0.898054 0.897063
0 0.929671 0.903746
0.414893 0.947112 0.908507
0.893706 0.931838 0.91191
0.919264 0.839872 0.866499
0 0.945891 0.908858
0 0.945891 0.908858
0 0.945891 0.908858
0.485115 0.947158 0.908019
0.946487 0.946258 0.91371
