LUT预设1/柯达5219&2393/柯达5219系列-Log/柯达5219微调.cube
TITLE "Generated by Resolve"
LUT_3D_SIZE 9
0.00933852 0.0237278 0.0242161
0.0155184 0.0237278 0.0227512
0.0614786 0.0237583 0.0220035
0.152346 0.0252995 0.0196994
0.312596 0.0274205 0.0117037
0.640055 0.0205539 0.00144961
0.953155 0.00352483 0.000717174
0.962249 0.00343328 0.000854505
0.962249 0.00343328 0.000854505
0.00924697 0.0302281 0.035111
0.0368658 0.0308843 0.0248112
0.133471 0.0331426 0.0204929
0.310353 0.0314794 0.011902
0.651698 0.0201114 0.00134279
0.955139 0.00350958 0.000747692
0.962249 0.00343328 0.000854505
0.962249 0.00343328 0.000854505
0.962249 0.00343328 0.000854505
0.0089723 0.101289 0.0580911
0.0091249 0.115023 0.0505837
0.146761 0.0953078 0.022385
0.517205 0.0572824 0.00238041
0.937118 0.0043183 0.000488289
0.962249 0.00361639 0.000854505
0.96228 0.00798047 0.000854505
0.962829 0.0442359 0.000900282
0.967819 0.118242 0.00228885
0.0021973 0.281285 0.077409
0.00128176 0.300435 0.0889296
0.00340276 0.281559 0.0322423
0.438514 0.231632 0.00485237
0.923903 0.151217 0.00225834
0.980438 0.249668 0.00271611
0.996109 0.435035 0.00102235
0.999985 0.591211 0
1 0.604868 0
0.0021973 0.676661 0.0958572
0.00177005 0.698863 0.151736
0.0011902 0.641093 0.059144
0.0185855 0.657679 0.0417487
0.861997 0.567742 3.0518e-05
0.999664 0.550072 0
1 0.666041 0.000167849
1 0.753491 0
1 0.759396 0
0 0.934752 0.42414
0 0.94081 0.496513
0 0.937102 0.461707
0.00192264 0.865354 0.0555734
0.507897 0.936812 0.171145
0.99472 0.891646 0.0021973
1 0.912276 0.00325017
1 0.953124 0.0080415
1 0.953414 0.00807202
0 0.95584 0.768765
0 0.956817 0.805325
0 0.957122 0.817746
0 0.948974 0.611749
0.0439918 0.916075 0.117815
0.938674 0.974655 0.478584
1 0.958801 0.00914015
1 0.958816 0.00894179
1 0.958816 0.00894179
0 0.95903 0.914656
0 0.959213 0.927123
0 0.959304 0.932937
0 0.958999 0.912551
0 0.942916 0.507729
0.738888 0.975677 0.601282
0.999649 0.970764 0.362356
1 0.958816 0.00894179
1 0.958816 0.00894179
0 0.95967 0.953338
0 0.959808 0.959381
0 0.959854 0.961501
0 0.959808 0.959304
0 0.958236 0.869291
0.0744945 0.922194 0.193164
0.990082 0.98204 0.659007
1 0.958816 0.00918593
1 0.958816 0.00894179
0.00932326 0.0237278 0.0313115
0.0172274 0.0237278 0.0357977
0.0433051 0.0237278 0.0236515
0.144137 0.0251011 0.0202792
0.331212 0.0274357 0.0105898
0.678782 0.019089 0.00108339
0.959365 0.0034638 0.000808728
0.962249 0.00343328 0.000854505
0.962249 0.00343328 0.000854505
0.00923171 0.0314488 0.0465553
0.0244144 0.028397 0.0542153
0.0998093 0.0332036 0.033463
0.266423 0.0321355 0.0186007
0.599405 0.0221714 0.00180056
0.949386 0.00357061 0.000656138
0.962249 0.00343328 0.000854505
0.962249 0.00343328 0.000854505
0.962249 0.00343328 0.000854505
0.00895705 0.103044 0.0677348
0.0104219 0.0993515 0.0884108
0.121355 0.095079 0.0468605
0.433951 0.0751965 0.00756847
0.866651 0.0141451 0
0.962264 0.00672923 0.000854505
0.962417 0.0206912 0.000869764
0.967056 0.10927 0.00209049
0.975753 0.206256 0.00329595
0.00234989 0.27425 0.096025
0.00131228 0.283116 0.139208
0.00199893 0.286824 0.103975
0.377462 0.246784 0.0161746
0.920287 0.20972 0.00270085
0.991257 0.362417 0.000396735
0.999161 0.51841 3.0518e-05
1 0.649653 0.000122072
1 0.679469 0.000198367
0.00135805 0.679088 0.164858
4.57771e-05 0.708156 0.282902
1.5259e-05 0.706157 0.304936
0.00959792 0.63476 0.0587778
0.820966 0.600885 0.00376898
0.999939 0.609461 0
1 0.713527 1.5259e-05
1 0.818524 1.5259e-05
1 0.823865 0
0 0.942016 0.523827
0 0.949371 0.633188
0 0.949416 0.653895
0 0.916518 0.370916
0.427893 0.936873 0.303807
0.992279 0.90399 0.0107118
1 0.928115 0.00483711
1 0.950774 0.00772107
1 0.950545 0.00769055
0 0.957183 0.820554
0 0.958206 0.868208
0 0.958389 0.877012
0 0.957855 0.851118
0.00679026 0.922515 0.218616
0.920974 0.979156 0.607233
1 0.958831 0.0117189
1 0.958816 0.00894179
1 0.958816 0.00894179
0 0.95935 0.936309
0 0.959579 0.949279
0 0.959655 0.95256
0 0.95964 0.951843
0 0.958297 0.87277
0.389761 0.956313 0.455055
0.996551 0.978393 0.556268
1 0.958816 0.0089723
1 0.958816 0.0089723
0 0.95993 0.965164
0 0.960052 0.970932
0 0.960067 0.97113
0 0.960021 0.969192
1.5259e-05 0.959731 0.956237
0.00740063 0.944259 0.529015
0.981186 0.984817 0.757061
1 0.958831 0.0124971
1 0.958816 0.00895705
0.00921645 0.0237278 0.0399329
0.015671 0.023743 0.0654765
0.0554971 0.0237278 0.0592966
0.0931258 0.0242008 0.032578
0.280751 0.0272526 0.0155947
0.679301 0.0190585 0.00108339
0.959182 0.0034638 0.000808728
0.962249 0.00343328 0.000854505
0.962249 0.00343328 0.000854505
0.00920119 0.0341955 0.0664225
0.0130922 0.0336004 0.0850233
0.0842145 0.0284123 0.095552
0.192752 0.0318151 0.0503548
0.552926 0.0238041 0.0124208
0.915694 0.0052491 0.000244144
0.962249 0.00343328 0.000854505
0.962249 0.00343328 0.000854505
0.962249 0.00343328 0.000854505
0.00798047 0.112505 0.107652
0.00852979 0.102876 0.119493
0.0809339 0.0897231 0.125032
0.303868 0.0851606 0.0680552
0.731914 0.0417487 0.0143282
0.96173 0.023331 0.00154116
0.963378 0.0597696 0.000991836
0.973846 0.188327 0.00335698
0.981476 0.259464 0.00251774
0.00173953 0.284306 0.107424
0.00125124 0.27538 0.158526
0.00575265 0.26009 0.215106
0.314366 0.24889 0.103639
0.8925 0.253269 0.0201572
0.995331 0.42153 0.00146487
1 0.595621 3.0518e-05
1 0.714855 1.5259e-05
1 0.756725 0
0.00128176 0.658824 0.150195
3.0518e-05 0.685252 0.314717
0 0.682719 0.417655
0.00120546 0.650889 0.308812
0.753796 0.611872 0.0338598
0.999527 0.648859 0.00158694
1 0.807218 0.034699
1 0.900298 0.117372
1 0.897154 0.0717784
0 0.939971 0.504494
0 0.949889 0.674189
0 0.94934 0.730968
0 0.942916 0.716823
0.127886 0.90544 0.302068
0.987579 0.910811 0.0400244
1 0.934661 0.00572213
1 0.94667 0.0130007
1 0.947005 0.0147555
0 0.957214 0.822187
0 0.95874 0.89482
0 0.959045 0.91545
0 0.958968 0.910338
4.57771e-05 0.95613 0.778164
0.857694 0.981018 0.694347
1 0.958892 0.0514839
1 0.958892 0.0522774
1 0.959335 0.0745861
0 0.959472 0.943526
0 0.959838 0.96083
0 0.959915 0.964401
0.0107118 0.959884 0.960693
0.0881208 0.963272 0.955276
0.0476234 0.951583 0.654948
0.98967 0.984604 0.74461
1 0.962386 0.154055
1 0.962066 0.14522
0 0.960052 0.970748
0 0.96022 0.978729
0 0.96022 0.978317
0.057969 0.960494 0.9738
0.362432 0.975326 0.965652
0.0403754 0.959136 0.907729
0.942641 0.98613 0.82472
1 0.962829 0.167102
1 0.962417 0.155001
0.00920119 0.023743 0.0519265
0.00946059 0.0239261 0.0848249
0.0429847 0.0245518 0.137224
0.122438 0.0249485 0.0979477
0.167529 0.0255589 0.0521248
0.451957 0.0265354 0.0120089
0.92285 0.00477607 0.000366217
0.962142 0.00343328 0.000854505
0.962249 0.00343328 0.000854505
0.0084535 0.0424659 0.0977035
0.00773632 0.0429236 0.126268
0.0299382 0.0285801 0.224948
0.190799 0.0282597 0.157275
0.281163 0.0296788 0.0764324
0.800992 0.0142824 0.00849927
0.961761 0.00343328 0.000961318
0.962249 0.00343328 0.00221256
0.962249 0.00343328 0.00233463
0.004654 0.123384 0.200473
0.00520333 0.117815 0.198657
0.0297398 0.101854 0.22089
0.229511 0.0628824 0.226551
0.492317 0.0557717 0.115007
0.93962 0.00402838 0.0694591
0.962386 0.00509651 0.0719768
0.962478 0.0156405 0.0699931
0.962524 0.0220951 0.0518044
0.000167849 0.316457 0.225452
7.62951e-05 0.305409 0.265614
0.00289921 0.272953 0.291081
0.213245 0.235645 0.297887
0.701839 0.241047 0.19321
0.987289 0.341695 0.10164
1 0.606073 0.0469825
1 0.762432 0.0154726
1 0.800275 0.00823987
0.000396735 0.681697 0.228885
1.5259e-05 0.688029 0.337102
0 0.657801 0.438788
0.0100862 0.618997 0.524819
0.65362 0.59147 0.289998
0.998779 0.68716 0.269566
0.99913 0.876295 0.435752
0.998337 0.941711 0.477241
0.998657 0.948531 0.457465
0 0.937285 0.499107
0 0.945403 0.63975
0 0.941756 0.731899
0 0.923125 0.76762
0.0123598 0.904295 0.669337
0.963272 0.905867 0.327123
1 0.91754 0.243885
0.998993 0.949081 0.433021
0.998978 0.951247 0.435843
0 0.956802 0.804227
0 0.958511 0.883299
0 0.959152 0.923659
0.00141909 0.959228 0.927138
0.0309606 0.959136 0.912825
0.471962 0.96936 0.675868
0.997986 0.975906 0.493431
0.997269 0.977508 0.53373
0.996338 0.978744 0.565637
0 0.959396 0.939452
0 0.959869 0.961898
0 0.960052 0.97055
0.203037 0.97142 0.967575
0.677028 0.984344 0.954116
0.37528 0.974563 0.914626
0.96112 0.987091 0.851377
0.995483 0.979873 0.59527
0.995682 0.979599 0.58822
0 0.960021 0.969284
0 0.960266 0.980957
0 0.960311 0.983139
0.411963 0.976852 0.969909
0.760815 0.985504 0.961486
0.777508 0.985122 0.956802
0.668437 0.981399 0.838209
0.994034 0.981659 0.646235
0.995239 0.980148 0.603311
0.00920119 0.0237888 0.0676585
0.0080415 0.0243381 0.11043
0.00793469 0.0258793 0.212207
0.0930343 0.0280461 0.304417
0.241199 0.0275578 0.162539
0.293507 0.0273899 0.0749523
0.521218 0.0248264 0.0385138
0.805646 0.0140688 0.016968
0.881132 0.00830091 0.0116426
0.00640879 0.0510567 0.160311
0.0049897 0.0523232 0.201907
0.00131228 0.0349584 0.339529
0.0928817 0.0432593 0.53547
0.367483 0.0290074 0.227848
0.446754 0.027039 0.116777
0.718456 0.016846 0.0885634
0.920363 0.00486763 0.0669261
0.939956 0.0039826 0.0488746
0.00154116 0.167636 0.324041
0.000549325 0.17438 0.373007
0.00180056 0.153979 0.400946
0.0798657 0.065919 0.583734
0.465736 0.0396887 0.321584
0.612268 0.0560922 0.204089
0.920394 0.00610361 0.181064
0.9635 0.0037995 0.185672
0.963867 0.00341802 0.1682
0 0.386847 0.525704
0 0.396185 0.563622
0.00209049 0.371008 0.53402
0.0904707 0.306264 0.525307
0.548379 0.185367 0.484001
0.844678 0.213001 0.3682
0.966293 0.098085 0.38114
0.971817 0.171038 0.438163
0.972885 0.186389 0.431235
0 0.727596 0.49015
0 0.736324 0.564813
0 0.703761 0.606043
0.00552377 0.637476 0.627756
0.520684 0.562554 0.605951
0.961913 0.628595 0.527184
0.995621 0.81912 0.570855
0.994476 0.936004 0.632059
0.994751 0.952682 0.62298
0 0.943557 0.595483
0 0.948882 0.692424
0 0.940932 0.739025
0 0.911467 0.766934
0.132555 0.869551 0.7935
0.880613 0.864073 0.637888
0.993362 0.903517 0.668513
0.991379 0.951415 0.748455
0.991897 0.953994 0.725582
0 0.957214 0.82179
0 0.958434 0.879683
0 0.958999 0.912764
0.00105287 0.959182 0.924559
0.38555 0.973129 0.914626
0.311894 0.967056 0.857542
0.985794 0.978973 0.720806
0.991852 0.979248 0.731289
0.991547 0.978698 0.743221
0 0.959426 0.940871
0 0.959808 0.95967
0 0.960037 0.970184
0.124071 0.967376 0.972839
0.761044 0.985397 0.957061
0.834607 0.982513 0.951217
0.801312 0.984878 0.876051
0.990509 0.98555 0.779919
0.990784 0.985321 0.771145
0 0.960006 0.968338
0 0.960235 0.979538
0 0.960342 0.984436
0.402365 0.976562 0.970153
0.84123 0.98204 0.959274
0.903105 0.976165 0.957565
0.819471 0.980896 0.925597
0.988296 0.987045 0.839506
0.990295 0.985733 0.786862
0.00863661 0.0248417 0.0917983
0.00669871 0.0259403 0.151125
0.00209049 0.0279545 0.286595
0.00422675 0.0542 0.551659
0.258 0.0289464 0.516991
0.409644 0.0281834 0.180835
0.479255 0.0260929 0.0995041
0.612589 0.0211795 0.096788
0.651164 0.0193332 0.0977035
0.00218204 0.0500038 0.283467
0.00114443 0.0618143 0.335134
0.000106813 0.0521096 0.508705
0.000259403 0.0791485 0.751888
0.427832 0.0245212 0.650492
0.546685 0.0250706 0.226139
0.638773 0.019913 0.176989
0.751553 0.0146639 0.190646
0.753094 0.0144656 0.180331
0 0.260471 0.515267
0 0.285359 0.65182
0 0.26978 0.663905
0.00735485 0.137926 0.764462
0.50544 0.0193027 0.767117
0.670649 0.0247807 0.347921
0.780835 0.0389868 0.320134
0.897704 0.0465248 0.357595
0.90341 0.038407 0.343725
0 0.491554 0.755856
0 0.55584 0.784054
0.00128176 0.582849 0.788647
0.0380102 0.508095 0.77113
0.477562 0.199649 0.843107
0.789593 0.223804 0.546014
0.921035 0.331044 0.538613
0.982818 0.360037 0.571984
0.982162 0.342535 0.559411
0 0.756741 0.740383
0 0.78291 0.800931
0 0.773022 0.833524
0.0120394 0.729519 0.825986
0.415793 0.658259 0.787991
0.841733 0.58854 0.712367
0.979324 0.621836 0.69514
0.988479 0.648966 0.722164
0.988769 0.659175 0.719722
0 0.949859 0.753628
0 0.952941 0.816052
0 0.94873 0.842664
0 0.924315 0.842817
0.0775158 0.869261 0.837827
0.822217 0.836286 0.81268
0.988556 0.880796 0.793103
0.989334 0.942168 0.822263
0.989349 0.950317 0.821927
0 0.958221 0.868894
0 0.958892 0.905364
0 0.959182 0.92546
0 0.959182 0.925566
0.15314 0.965896 0.920134
0.765118 0.958373 0.907332
0.956725 0.953429 0.837736
0.988739 0.956786 0.844923
0.988678 0.95729 0.847349
0 0.95964 0.951705
0 0.95993 0.964843
0 0.960067 0.971664
0.0081178 0.960082 0.970565
0.674754 0.984192 0.957946
0.871153 0.979614 0.953201
0.84477 0.97969 0.924392
0.98439 0.986587 0.868788
0.985718 0.986374 0.860685
0 0.960113 0.973388
0 0.960281 0.981537
0 0.960357 0.985046
0.0553445 0.960586 0.979553
0.811261 0.983948 0.960159
0.92224 0.974166 0.957259
0.928206 0.97348 0.955993
0.971389 0.987366 0.905074
0.98143 0.987747 0.873228
0.00740063 0.0276799 0.129717
0.00444038 0.0273136 0.216052
0.000732433 0.0356146 0.398917
0 0.0720989 0.686992
0.0727245 0.0792248 0.791226
0.531548 0.0257725 0.409918
0.558373 0.0238956 0.162524
0.652033 0.0189822 0.147448
0.689616 0.0170138 0.153521
0.000411994 0.0540017 0.452216
0.000106813 0.0771801 0.507134
0 0.0717327 0.667399
0 0.0855879 0.844953
0.211536 0.0294041 0.896712
0.672877 0.0192111 0.428504
0.700465 0.0175326 0.253468
0.785321 0.0142672 0.26421
0.788586 0.0140841 0.259998
0 0.369604 0.675212
0 0.399588 0.844663
0 0.429175 0.850904
0.00141909 0.279255 0.897063
0.36141 0.0337377 0.924651
0.790829 0.0139773 0.594156
0.828443 0.0184939 0.419532
0.910094 0.0371862 0.452338
0.909545 0.0345922 0.445502
0 0.600198 0.885679
0 0.710048 0.918914
0.00633249 0.777462 0.938231
0.0435187 0.732967 0.926528
0.433616 0.540276 0.961761
0.87985 0.0835126 0.783459
0.934615 0.311208 0.636179
0.983825 0.413977 0.665263
0.984115 0.410224 0.659159
0 0.796231 0.877623
0 0.841138 0.915999
0 0.858427 0.937041
0.0446632 0.852979 0.935454
0.474372 0.814389 0.908003
0.8542 0.617182 0.911727
0.954849 0.6607 0.778256
0.988006 0.715663 0.796658
0.988144 0.712718 0.791806
0 0.951217 0.879957
0 0.955001 0.914794
0 0.954284 0.934539
0 0.940398 0.936156
0.118776 0.899977 0.924788
0.789837 0.861952 0.897581
0.945571 0.853513 0.866926
0.986679 0.862898 0.872709
0.987289 0.863371 0.870649
0 0.959167 0.923735
0 0.959472 0.943954
0 0.959701 0.954498
0 0.95964 0.951949
0.0465553 0.958953 0.938735
0.742 0.955505 0.915785
0.937041 0.938262 0.908324
0.987015 0.950713 0.904433
0.987167 0.953597 0.902724
0 0.959991 0.967727
0 0.960159 0.975906
0 0.960235 0.979278
0 0.960174 0.976242
0.448707 0.977829 0.960723
0.838727 0.982193 0.952743
0.91899 0.973739 0.949493
0.968612 0.976501 0.920226
0.970413 0.975952 0.918059
0 0.960281 0.981903
0 0.960388 0.986526
0 0.960403 0.987518
0.00205997 0.960327 0.983001
0.675486 0.984344 0.963699
0.900938 0.976364 0.957626
0.946502 0.97116 0.957458
0.956024 0.976074 0.938491
0.966964 0.98085 0.92723
0.00563058 0.0305943 0.18323
0.00158694 0.0303349 0.307958
3.0518e-05 0.0508278 0.525811
0 0.0809949 0.774105
0.00680552 0.0882582 0.891569
0.551781 0.0194553 0.697597
0.63621 0.0208133 0.240116
0.700893 0.0168612 0.194873
0.740612 0.0152285 0.204166
0 0.0656443 0.629984
0 0.0868238 0.665248
0 0.0868849 0.783383
0 0.0886549 0.894591
0.0397192 0.0887312 0.901778
0.737621 0.0145418 0.715541
0.761044 0.0159152 0.339193
0.826307 0.0132448 0.324971
0.837308 0.0127565 0.325689
0 0.439841 0.817563
0 0.507652 0.935195
0 0.580468 0.938506
0.000289921 0.440925 0.945159
0.27277 0.180514 0.938567
0.850584 0.00946059 0.850278
0.883604 0.0122835 0.523629
0.94345 0.0225223 0.524086
0.948669 0.0211337 0.523537
0 0.690929 0.95317
0 0.808759 0.972992
0.0124208 0.879942 0.979706
0.0789807 0.869352 0.975448
0.452094 0.759945 0.976257
0.894179 0.27158 0.948348
0.970291 0.275303 0.729442
0.983627 0.409903 0.725719
0.983627 0.409262 0.724651
0 0.84181 0.941894
0 0.890883 0.964782
0.000411994 0.917983 0.9776
0.176471 0.931807 0.981003
0.632471 0.9178 0.958038
0.827741 0.803098 0.972427
0.981643 0.656138 0.859205
0.987137 0.721477 0.842161
0.987152 0.720668 0.841123
0 0.956191 0.943328
0 0.959381 0.962371
0 0.95967 0.974121
0.00207523 0.955062 0.974319
0.470481 0.945296 0.958038
0.827939 0.921035 0.944259
0.952834 0.855955 0.930556
0.974029 0.878737 0.90425
0.974716 0.878904 0.903197
0 0.95993 0.96524
0 0.960159 0.97583
0 0.960266 0.981155
0 0.96025 0.979873
0.0420996 0.95993 0.97052
0.740215 0.96286 0.948058
0.924941 0.939605 0.942077
0.968215 0.940764 0.934157
0.971664 0.941268 0.932982
0 0.960342 0.984436
0 0.960403 0.987289
0 0.960418 0.987945
0 0.960372 0.98616
0.170443 0.970703 0.97818
0.780194 0.984863 0.956909
0.920501 0.972442 0.952056
0.960372 0.968658 0.947921
0.962142 0.968933 0.947829
0 0.960418 0.988327
0 0.960433 0.988678
0 0.960433 0.988693
0 0.960357 0.985656
0.518746 0.980041 0.967498
0.849485 0.981308 0.95903
0.939071 0.972137 0.957351
0.956374 0.970138 0.956161
0.961135 0.971649 0.949554
0.00277714 0.0304723 0.261875
0.000610361 0.038117 0.420294
0 0.0668193 0.647944
0 0.0853132 0.840467
0 0.0888075 0.901946
0.428611 0.0209506 0.882734
0.694759 0.0183719 0.333837
0.727352 0.0160372 0.224552
0.763363 0.0147097 0.228702
0 0.0809339 0.759335
0 0.101152 0.785946
0 0.095491 0.860639
0 0.0903639 0.901915
0.00520333 0.0888228 0.901946
0.699458 0.0132296 0.876143
0.792813 0.0152132 0.402655
0.84062 0.0129549 0.348821
0.854414 0.0123293 0.349371
0 0.500679 0.895048
0 0.569024 0.959533
3.0518e-05 0.667735 0.966445
0.00015259 0.553353 0.960143
0.18764 0.37734 0.958297
0.815915 0.0131075 0.929778
0.91429 0.00972 0.595758
0.953719 0.0195621 0.551003
0.959792 0.020737 0.55111
0 0.74522 0.976013
0 0.865904 0.982513
0.0177615 0.923461 0.986526
0.110964 0.920836 0.988464
0.379232 0.854688 0.980545
0.857481 0.547936 0.969406
0.979614 0.30631 0.797681
0.983459 0.410437 0.749371
0.983581 0.414786 0.748623
0 0.876844 0.970214
0 0.919249 0.982361
0.00225834 0.943679 0.987137
0.389639 0.960754 0.982742
0.728252 0.954147 0.970672
0.82974 0.884352 0.975769
0.98291 0.707607 0.916197
0.986755 0.723796 0.861082
0.986786 0.724285 0.860426
0 0.959945 0.971298
0 0.960296 0.982208
0 0.960388 0.987167
0.0118563 0.959487 0.98584
0.659388 0.966232 0.971206
0.868482 0.951034 0.96022
0.942535 0.893904 0.962509
0.980041 0.878447 0.918242
0.980987 0.878614 0.917433
0 0.960342 0.984604
0 0.960418 0.988159
0 0.960433 0.988632
0 0.960388 0.986801
0.182574 0.970642 0.980102
0.823484 0.970153 0.961669
0.926192 0.954467 0.956695
0.966918 0.939895 0.946914
0.967453 0.940078 0.945708
0 0.960433 0.988693
0 0.960433 0.988708
0 0.960433 0.988708
0 0.960403 0.987823
0.132509 0.96817 0.980346
0.769131 0.985183 0.961242
0.910475 0.974273 0.95729
0.958526 0.967224 0.958068
0.95964 0.967269 0.957885
0 0.960433 0.988708
0 0.960433 0.988708
0 0.960433 0.988708
0 0.960388 0.986969
0.354803 0.975265 0.971695
0.825849 0.983276 0.959747
0.92578 0.973754 0.957259
0.957732 0.969985 0.958618
0.958083 0.970123 0.958434
