LUT预设1/柯达5219&2393/柯达5219系列-Log/柯达5219微调.cube
TITLE "Generated by Resolve"
LUT_3D_SIZE 5
0.00933852 0.0237278 0.0242161
0.0614786 0.0237583 0.0220035
0.312596 0.0274205 0.0117037
0.953155 0.00352483 0.000717174
0.962249 0.00343328 0.000854505
0.0089723 0.101289 0.0580911
0.146761 0.0953078 0.022385
0.937118 0.0043183 0.000488289
0.96228 0.00798047 0.000854505
0.967819 0.118242 0.00228885
0.0021973 0.676661 0.0958572
0.0011902 0.641093 0.059144
0.861997 0.567742 3.0518e-05
1 0.666041 0.000167849
1 0.759396 0
0 0.95584 0.768765
0 0.957122 0.817746
0.0439918 0.916075 0.117815
1 0.958801 0.00914015
1 0.958816 0.00894179
0 0.95967 0.953338
0 0.959854 0.961501
0 0.958236 0.869291
0.990082 0.98204 0.659007
1 0.958816 0.00894179
0.00921645 0.0237278 0.0399329
0.0554971 0.0237278 0.0592966
0.280751 0.0272526 0.0155947
0.959182 0.0034638 0.000808728
0.962249 0.00343328 0.000854505
0.00798047 0.112505 0.107652
0.0809339 0.0897231 0.125032
0.731914 0.0417487 0.0143282
0.963378 0.0597696 0.000991836
0.981476 0.259464 0.00251774
0.00128176 0.658824 0.150195
0 0.682719 0.417655
0.753796 0.611872 0.0338598
1 0.807218 0.034699
1 0.897154 0.0717784
0 0.957214 0.822187
0 0.959045 0.91545
4.57771e-05 0.95613 0.778164
1 0.958892 0.0514839
1 0.959335 0.0745861
0 0.960052 0.970748
0 0.96022 0.978317
0.362432 0.975326 0.965652
0.942641 0.98613 0.82472
1 0.962417 0.155001
0.00920119 0.0237888 0.0676585
0.00793469 0.0258793 0.212207
0.241199 0.0275578 0.162539
0.521218 0.0248264 0.0385138
0.881132 0.00830091 0.0116426
0.00154116 0.167636 0.324041
0.00180056 0.153979 0.400946
0.465736 0.0396887 0.321584
0.920394 0.00610361 0.181064
0.963867 0.00341802 0.1682
0 0.727596 0.49015
0 0.703761 0.606043
0.520684 0.562554 0.605951
0.995621 0.81912 0.570855
0.994751 0.952682 0.62298
0 0.957214 0.82179
0 0.958999 0.912764
0.38555 0.973129 0.914626
0.985794 0.978973 0.720806
0.991547 0.978698 0.743221
0 0.960006 0.968338
0 0.960342 0.984436
0.84123 0.98204 0.959274
0.819471 0.980896 0.925597
0.990295 0.985733 0.786862
0.00740063 0.0276799 0.129717
0.000732433 0.0356146 0.398917
0.0727245 0.0792248 0.791226
0.558373 0.0238956 0.162524
0.689616 0.0170138 0.153521
0 0.369604 0.675212
0 0.429175 0.850904
0.36141 0.0337377 0.924651
0.828443 0.0184939 0.419532
0.909545 0.0345922 0.445502
0 0.796231 0.877623
0 0.858427 0.937041
0.474372 0.814389 0.908003
0.954849 0.6607 0.778256
0.988144 0.712718 0.791806
0 0.959167 0.923735
0 0.959701 0.954498
0.0465553 0.958953 0.938735
0.937041 0.938262 0.908324
0.987167 0.953597 0.902724
0 0.960281 0.981903
0 0.960403 0.987518
0.675486 0.984344 0.963699
0.946502 0.97116 0.957458
0.966964 0.98085 0.92723
0.00277714 0.0304723 0.261875
0 0.0668193 0.647944
0 0.0888075 0.901946
0.694759 0.0183719 0.333837
0.763363 0.0147097 0.228702
0 0.500679 0.895048
3.0518e-05 0.667735 0.966445
0.18764 0.37734 0.958297
0.91429 0.00972 0.595758
0.959792 0.020737 0.55111
0 0.876844 0.970214
0.00225834 0.943679 0.987137
0.728252 0.954147 0.970672
0.98291 0.707607 0.916197
0.986786 0.724285 0.860426
0 0.960342 0.984604
0 0.960433 0.988632
0.182574 0.970642 0.980102
0.926192 0.954467 0.956695
0.967453 0.940078 0.945708
0 0.960433 0.988708
0 0.960433 0.988708
0.354803 0.975265 0.971695
0.92578 0.973754 0.957259
0.958083 0.970123 0.958434
