LUT预设1/柯达5219&2393/柯达5219系列-Log/柯达5219基准.cube
TITLE "Generated by Resolve"
LUT_3D_SIZE 33
0.0230106 0.030518 0.0598459
0.0230106 0.030518 0.0598459
0.0230106 0.030518 0.0598459
0.0230106 0.030518 0.0598459
0.0261692 0.0315862 0.0603342
0.0362707 0.0347753 0.0611429
0.0505226 0.0389715 0.0613413
0.0646067 0.0425422 0.0603799
0.0830854 0.0466316 0.0586862
0.107042 0.0510567 0.0564431
0.136522 0.0556344 0.0538491
0.173754 0.0596628 0.0508125
0.219425 0.0638743 0.0463722
0.275395 0.0682841 0.0400092
0.341924 0.0726787 0.0315862
0.422415 0.0773632 0.0214237
0.515755 0.0811933 0.0121309
0.619654 0.0844129 0.0039826
0.729976 0.0899062 0
0.829389 0.0980697 0
0.868742 0.101961 0
0.873579 0.10251 0
0.873579 0.10251 0
0.873579 0.10251 0
0.873579 0.10251 0
0.873579 0.10251 0
0.873579 0.10251 0
0.873579 0.10251 0
0.873579 0.10251 0
0.873579 0.10251 0
0.873579 0.10251 0
0.873579 0.10251 0
0.873579 0.10251 0
0.0230106 0.030518 0.0598459
0.0230106 0.030518 0.0598459
0.0230106 0.030518 0.0598459
0.0230106 0.030518 0.0598459
0.0234226 0.0306554 0.0599069
0.0306554 0.03299 0.0607004
0.0435492 0.0370031 0.0614939
0.0563821 0.0404974 0.0609598
0.0732738 0.04448 0.0596017
0.0947433 0.0489357 0.057557
0.12137 0.053315 0.0552377
0.153689 0.0576791 0.0524453
0.194018 0.0616007 0.0489052
0.242573 0.0656901 0.0438697
0.302541 0.0701457 0.0366369
0.373861 0.0746929 0.0273594
0.45861 0.0791638 0.0172122
0.555398 0.0822766 0.00892653
0.661357 0.0858778 0.00077821
0.772137 0.0928511 0
0.853376 0.100389 0
0.873243 0.10248 0
0.873579 0.10251 0
0.873579 0.10251 0
0.873579 0.10251 0
0.873579 0.10251 0
0.873579 0.10251 0
0.873579 0.10251 0
0.873579 0.10251 0
0.873579 0.10251 0
0.873579 0.10251 0
0.873579 0.10251 0
0.873579 0.10251 0
0.0230106 0.030518 0.0598459
0.0230106 0.030518 0.0598459
0.0230106 0.030518 0.0598459
0.0230106 0.030518 0.0598459
0.0230106 0.030518 0.0598459
0.0271763 0.0318914 0.0604105
0.0367895 0.0349737 0.0612955
0.050248 0.0388495 0.061326
0.0688334 0.0434882 0.0599832
0.091783 0.0484016 0.0578317
0.118395 0.0528572 0.0555123
0.14786 0.0570687 0.052903
0.183688 0.0606241 0.0498817
0.226047 0.0643931 0.045716
0.279088 0.068574 0.0395972
0.343313 0.0728008 0.0313725
0.419821 0.0773632 0.0214847
0.508751 0.0811627 0.0124819
0.608957 0.0837873 0.00485237
0.716274 0.0885176 0
0.821363 0.0969406 0
0.866743 0.101686 0
0.873579 0.10251 0
0.873579 0.10251 0
0.873579 0.10251 0
0.873579 0.10251 0
0.873579 0.10251 0
0.873579 0.10251 0
0.873579 0.10251 0
0.873579 0.10251 0
0.873579 0.10251 0
0.873579 0.10251 0
0.873579 0.10251 0
0.0230106 0.030518 0.0598459
0.0230106 0.030518 0.0598459
0.0230106 0.030518 0.0598459
0.0230106 0.030518 0.0598459
0.0230106 0.030518 0.0598459
0.0245823 0.0310521 0.0600748
0.0312657 0.0332189 0.060853
0.0446937 0.0372778 0.0614023
0.0634928 0.0422065 0.0603952
0.0880293 0.0476234 0.0582284
0.117647 0.0527199 0.0555734
0.151843 0.0575113 0.0525826
0.192081 0.0614328 0.0490883
0.238041 0.0654002 0.0443885
0.28983 0.0693065 0.0382544
0.348623 0.0731518 0.0306706
0.417243 0.0772412 0.0218051
0.496345 0.0809796 0.0133364
0.587259 0.0830701 0.00653086
0.686015 0.0865949 0
0.791211 0.0939193 0
0.860609 0.10103 0
0.873579 0.10251 0
0.873579 0.10251 0
0.873579 0.10251 0
0.873579 0.10251 0
0.873579 0.10251 0
0.873579 0.10251 0
0.873579 0.10251 0
0.873579 0.10251 0
0.873579 0.10251 0
0.873579 0.10251 0
0.873579 0.10251 0
0.0230106 0.030518 0.0598459
0.0230106 0.030518 0.0598459
0.0230106 0.030518 0.0598459
0.0230106 0.030518 0.0598459
0.0230106 0.030518 0.0598459
0.0233005 0.0306096 0.0598917
0.0277104 0.0320592 0.0604562
0.0395209 0.0357519 0.0612955
0.0573892 0.0406958 0.0608225
0.082002 0.0463264 0.0588083
0.113008 0.051957 0.0559548
0.150607 0.0573587 0.0526741
0.196597 0.0618448 0.0486458
0.251286 0.0664683 0.0429236
0.312627 0.0708171 0.0353857
0.377676 0.0749676 0.0268559
0.449409 0.0789044 0.0180819
0.529473 0.0817121 0.0108034
0.616617 0.0839551 0.00430304
0.707744 0.0879072 0
0.803632 0.095201 0
0.8636 0.101396 0
0.873579 0.10251 0
0.873579 0.10251 0
0.873579 0.10251 0
0.873579 0.10251 0
0.873579 0.10251 0
0.873579 0.10251 0
0.873579 0.10251 0
0.873579 0.10251 0
0.873579 0.10251 0
0.873579 0.10251 0
0.873579 0.10251 0
0.0233005 0.0310674 0.0603799
0.0230564 0.0305943 0.0599069
0.0230106 0.030518 0.0598459
0.0230106 0.030518 0.0598459
0.0230106 0.030518 0.0598459
0.0230106 0.030518 0.0598459
0.0255589 0.0313725 0.0602121
0.0345617 0.0342565 0.0610513
0.0515908 0.0391546 0.0612039
0.0756237 0.0449226 0.0593881
0.105547 0.0507973 0.0565499
0.142687 0.0563668 0.0533303
0.189288 0.0611429 0.0493477
0.248692 0.0662242 0.0432136
0.3234 0.0715038 0.0340124
0.406119 0.0766461 0.0231785
0.497368 0.080827 0.0133822
0.593606 0.0833143 0.00602731
0.690562 0.087129 0
0.781506 0.0934462 0
0.848814 0.099733 0
0.871138 0.10222 0
0.873579 0.10251 0
0.873579 0.10251 0
0.873579 0.10251 0
0.873579 0.10251 0
0.873579 0.10251 0
0.873579 0.10251 0
0.873579 0.10251 0
0.873579 0.10251 0
0.873579 0.10251 0
0.873579 0.10251 0
0.873579 0.10251 0
0.0267796 0.0383307 0.066804
0.026215 0.0369573 0.0655985
0.025864 0.0361639 0.0649577
0.0255436 0.0354162 0.0643931
0.0251621 0.0345769 0.0637369
0.0247196 0.0336919 0.0629587
0.0252079 0.0331426 0.0622873
0.0309453 0.0342565 0.0620584
0.0464942 0.038117 0.0617533
0.0698863 0.0436713 0.0598764
0.100206 0.0499428 0.0569924
0.138476 0.0558175 0.0536812
0.186175 0.0608225 0.0496223
0.247135 0.0660716 0.0433814
0.328023 0.071809 0.0334173
0.424689 0.0776684 0.0208438
0.535866 0.0818341 0.0103304
0.651133 0.0850843 0.00166323
0.762097 0.0915541 0
0.848081 0.0996872 0
0.871015 0.102205 0
0.873518 0.10251 0
0.873579 0.10251 0
0.873579 0.10251 0
0.873579 0.10251 0
0.873579 0.10251 0
0.873579 0.10251 0
0.873579 0.10251 0
0.873579 0.10251 0
0.873579 0.10251 0
0.873579 0.10251 0
0.873579 0.10251 0
0.873579 0.10251 0
0.033463 0.0572824 0.0826581
0.0328832 0.0550088 0.0809033
0.0321202 0.0525978 0.0790265
0.0313268 0.0500649 0.0770581
0.0304417 0.0471962 0.0748302
0.0294957 0.0445716 0.0726329
0.0285954 0.0427253 0.0709087
0.032639 0.0425727 0.0695811
0.0483558 0.0450294 0.0677043
0.0737011 0.0499275 0.0648051
0.107286 0.0561227 0.0610361
0.149142 0.0618143 0.0565957
0.2009 0.0665599 0.0510719
0.265583 0.0713664 0.043183
0.345968 0.0759899 0.0322271
0.443305 0.0807813 0.0195621
0.557031 0.0838941 0.00923171
0.680232 0.0870527 0
0.801312 0.0948348 0
0.866438 0.101701 0
0.873472 0.102495 0
0.873579 0.10251 0
0.873579 0.10251 0
0.873579 0.10251 0
0.873579 0.10251 0
0.873579 0.10251 0
0.873579 0.10251 0
0.873579 0.10251 0
0.873579 0.10251 0
0.873579 0.10251 0
0.873579 0.10251 0
0.873579 0.10251 0
0.873579 0.10251 0
0.0349889 0.0807965 0.100099
0.0350652 0.0775921 0.0977951
0.0350347 0.0745403 0.0955367
0.0348516 0.0717632 0.0934157
0.0345312 0.068452 0.090898
0.0342107 0.0656138 0.088716
0.0341344 0.0649882 0.0882277
0.0395056 0.0662699 0.0880751
0.0593271 0.0687266 0.0851301
0.0929122 0.073228 0.0796674
0.132509 0.0775769 0.0733043
0.177829 0.0817884 0.0665751
0.233371 0.0855726 0.0580301
0.30161 0.0890059 0.0465858
0.385595 0.0919509 0.0327306
0.483101 0.0944533 0.0202029
0.59144 0.0957809 0.00981155
0.707774 0.0979629 0
0.82739 0.105333 0
0.885985 0.112688 0
0.888548 0.111406 0
0.886137 0.109575 0
0.883848 0.107866 0
0.881743 0.106386 0
0.879286 0.10518 0
0.877287 0.10425 0
0.875654 0.103487 0
0.874418 0.102907 0
0.873671 0.102556 0
0.873579 0.10251 0
0.873579 0.10251 0
0.873579 0.10251 0
0.873579 0.10251 0
0.030518 0.109133 0.118959
0.0316625 0.104723 0.116091
0.0323644 0.101976 0.11429
0.032517 0.101366 0.113863
0.0327001 0.100649 0.113375
0.033051 0.0993515 0.112505
0.0331273 0.0990005 0.112276
0.0369726 0.0988632 0.111162
0.0561074 0.0991226 0.106142
0.0985428 0.102464 0.0970626
0.152956 0.105348 0.0865492
0.210132 0.108873 0.0774548
0.276463 0.112779 0.0665904
0.355367 0.117128 0.0523537
0.447868 0.12105 0.0369421
0.551736 0.124315 0.0243839
0.66302 0.127031 0.0130007
0.7785 0.133242 0.00154116
0.89044 0.146578 0
0.957305 0.164126 0
0.955749 0.158541 0
0.946883 0.150256 0
0.937713 0.141924 0
0.927993 0.133791 0
0.916442 0.126787 0
0.90547 0.120531 0
0.895842 0.115145 0
0.887251 0.110338 0
0.881041 0.106905 0
0.87892 0.105592 0
0.877684 0.104784 0
0.876936 0.104295 0
0.876127 0.103822 0
0.0182956 0.14789 0.14551
0.0187839 0.146105 0.144366
0.0193179 0.144213 0.142992
0.0199588 0.14197 0.14139
0.0205081 0.140002 0.139986
0.0209659 0.138384 0.138827
0.0210422 0.13817 0.138643
0.0217899 0.137804 0.138155
0.0356756 0.136248 0.132418
0.0831617 0.137789 0.118532
0.153552 0.139132 0.102571
0.231037 0.140963 0.0886549
0.310369 0.144259 0.0749981
0.401343 0.148241 0.0589303
0.504662 0.15169 0.0437934
0.613153 0.15584 0.0310979
0.722683 0.162463 0.0195621
0.832914 0.173175 0.00833143
0.932189 0.19321 0
0.996063 0.229496 0
1 0.23212 0
1 0.223972 0
0.996536 0.214832 0
0.990982 0.205509 0
0.983352 0.193164 0
0.975357 0.181399 0
0.967498 0.170977 0
0.960037 0.161196 0
0.952224 0.152346 0
0.943923 0.144656 0
0.93727 0.138857 0
0.931899 0.134188 0
0.928527 0.131289 0
0.00582895 0.19501 0.173281
0.00650034 0.192401 0.171954
0.00712596 0.189868 0.170642
0.00781262 0.187137 0.169177
0.00830091 0.185153 0.168093
0.0087129 0.18349 0.167117
0.00869764 0.183536 0.167163
0.00852979 0.184161 0.167529
0.0143893 0.182559 0.162753
0.0446937 0.182361 0.147814
0.12047 0.18172 0.12578
0.222583 0.18085 0.104036
0.326497 0.181537 0.0842298
0.426627 0.184222 0.0664378
0.537514 0.187747 0.0516518
0.651286 0.192844 0.0396887
0.762005 0.201648 0.0302281
0.869352 0.217548 0.0199435
0.960693 0.243473 0.00909438
1 0.284459 0
1 0.303853 0
1 0.297429 0
1 0.289097 0
1 0.28069 0
1 0.271962 0
1 0.262882 0
1 0.253376 0
1 0.242893 0
1 0.230442 0
0.997269 0.214298 0
0.989303 0.200259 0
0.981796 0.188617 0
0.975235 0.178897 0
0 0.250858 0.208881
0 0.248096 0.206973
0 0.245121 0.204883
0 0.242512 0.203037
0 0.240162 0.201389
0 0.238697 0.200351
0 0.239353 0.200717
0 0.240391 0.201373
0 0.238056 0.198245
0.0119631 0.234775 0.185565
0.0646982 0.234577 0.158679
0.1729 0.231327 0.129793
0.311009 0.227985 0.100542
0.428473 0.228641 0.0759136
0.541207 0.231556 0.0597391
0.658579 0.237339 0.0487831
0.772854 0.248096 0.0397955
0.881743 0.266545 0.0318151
0.970703 0.296391 0.0237888
1 0.339483 0.016144
1 0.374701 0.0116426
1 0.369802 0.00926223
1 0.361883 0.00715648
1 0.35407 0.00514229
1 0.345846 0.00300603
1 0.337484 0.000854505
1 0.328893 0
1 0.319646 0
1 0.309239 0
1 0.297795 0
1 0.28452 0
1 0.270161 0
1 0.255467 0
0 0.317968 0.243366
0 0.314961 0.241703
0 0.31194 0.240146
0 0.309117 0.238727
0 0.306874 0.237613
0 0.305425 0.236912
0 0.306279 0.237369
0 0.308309 0.238483
0 0.305531 0.236912
0 0.299733 0.227512
0.0176852 0.297871 0.201984
0.100542 0.29279 0.17113
0.245045 0.287495 0.134157
0.405844 0.283055 0.0944381
0.523323 0.284504 0.0710765
0.642084 0.290013 0.057908
0.760601 0.300633 0.0493019
0.87277 0.319631 0.0437934
0.966735 0.348852 0.0383459
1 0.392157 0.0359045
1 0.443931 0.0352026
1 0.439826 0.0325475
1 0.432563 0.0297704
1 0.424949 0.0269932
1 0.417472 0.0244144
1 0.409674 0.0217594
1 0.401953 0.0191196
1 0.392813 0.0161746
1 0.382559 0.013138
1 0.371496 0.00991836
1 0.359396 0.00663767
1 0.346395 0.00349432
1 0.332174 0.000122072
0 0.396033 0.293568
0 0.392844 0.291829
0 0.389914 0.290227
0 0.386816 0.28838
0 0.384649 0.28687
0 0.38349 0.285939
0 0.385 0.287007
0 0.387289 0.28867
0 0.385519 0.287282
0 0.378744 0.278111
0 0.371283 0.252964
0.0383001 0.36582 0.217746
0.1467 0.358724 0.18558
0.327688 0.353872 0.143633
0.495354 0.349981 0.0962081
0.613123 0.351537 0.0708019
0.731075 0.360418 0.0583352
0.848325 0.376394 0.0522164
0.951934 0.403082 0.0505074
1 0.443748 0.0524605
1 0.498543 0.0564431
1 0.502419 0.0555123
1 0.496834 0.0534218
1 0.491005 0.0513313
1 0.4851 0.0492256
1 0.478294 0.0467994
1 0.471092 0.0442359
1 0.462654 0.0412299
1 0.452888 0.0376898
1 0.441657 0.0334478
1 0.429191 0.0287633
1 0.41619 0.0241703
1 0.40264 0.0196078
0 0.482551 0.347341
0 0.479774 0.345342
0 0.476677 0.343145
0 0.474098 0.341283
0 0.472068 0.339788
0 0.471077 0.33904
0 0.473152 0.340414
0 0.476509 0.342672
0 0.474998 0.341604
0 0.468177 0.334981
0 0.457603 0.316503
0.00598154 0.451408 0.284428
0.0720226 0.440726 0.240146
0.210819 0.433738 0.198657
0.420859 0.430793 0.155138
0.583276 0.42742 0.100038
0.703227 0.430579 0.0738384
0.811399 0.441077 0.0590677
0.921279 0.461082 0.0538643
1 0.49221 0.0588693
1 0.540963 0.073518
1 0.55816 0.0821698
1 0.553491 0.0799268
1 0.547814 0.0771801
1 0.541863 0.0742962
1 0.535683 0.0713054
1 0.528618 0.0678111
1 0.520531 0.0637675
1 0.511818 0.0594186
1 0.502037 0.0552834
1 0.491508 0.0514839
1 0.480735 0.0476234
1 0.468193 0.0431525
0 0.573663 0.415503
0 0.571328 0.413733
0 0.568887 0.411826
0 0.566278 0.409766
0 0.56492 0.408667
0 0.564218 0.408103
0 0.56701 0.410254
0 0.570459 0.412955
0 0.570062 0.412619
0 0.56379 0.407492
0 0.553079 0.392935
0 0.541817 0.355581
0.0225528 0.532143 0.311391
0.116121 0.52137 0.269245
0.30106 0.51693 0.221164
0.518227 0.515465 0.167071
0.67068 0.512566 0.109438
0.787655 0.515694 0.0765393
0.887037 0.526589 0.0603647
0.97525 0.547662 0.0575418
1 0.581598 0.0705425
1 0.606531 0.0849165
1 0.602945 0.0849317
1 0.598184 0.0844892
1 0.593225 0.0842298
1 0.587518 0.0839094
1 0.581003 0.0834669
1 0.57351 0.082826
1 0.565103 0.0820325
1 0.555856 0.0809949
1 0.545281 0.0759747
1 0.534005 0.0705882
1 0.522347 0.0648966
0 0.660578 0.480446
0 0.6589 0.478584
0 0.65687 0.476509
0 0.655039 0.474662
0 0.653651 0.473381
0 0.653651 0.47332
0 0.656565 0.475654
0 0.66041 0.478828
0 0.660227 0.478614
0 0.655726 0.474769
0 0.646097 0.464561
0 0.633829 0.439231
0 0.624369 0.399161
0.0458228 0.613046 0.346044
0.167727 0.605234 0.300511
0.412802 0.604578 0.259022
0.618128 0.600336 0.181552
0.756283 0.596826 0.117632
0.860838 0.596918 0.0776989
0.949279 0.607843 0.0635843
1 0.630976 0.0678416
1 0.657938 0.0851453
1 0.654108 0.0860151
1 0.648447 0.0862898
1 0.642161 0.0865644
1 0.634974 0.0866407
1 0.627008 0.0867018
1 0.61854 0.0866102
1 0.610071 0.0858473
1 0.601267 0.0850233
1 0.591714 0.0841077
1 0.581933 0.0833448
1 0.571435 0.0822614
0 0.740902 0.550973
0 0.739315 0.549676
0 0.73814 0.54876
0 0.736843 0.547692
0 0.736263 0.54728
0 0.736522 0.547585
0 0.738949 0.549706
0 0.742901 0.55317
0 0.743404 0.553628
0 0.740001 0.550744
0 0.733227 0.543984
0 0.722057 0.525338
0 0.711421 0.485832
0.00657664 0.702312 0.442115
0.0844434 0.690349 0.390066
0.252293 0.685344 0.33901
0.520211 0.688914 0.306661
0.708568 0.680598 0.208103
0.839353 0.673854 0.127977
0.924407 0.673396 0.0869764
0.993408 0.68545 0.0732738
1 0.707561 0.0865949
1 0.703853 0.0875715
1 0.697368 0.0867933
1 0.690135 0.0859083
1 0.68249 0.0855116
1 0.674586 0.0855116
1 0.666102 0.0855116
1 0.656703 0.0858625
1 0.646433 0.086305
1 0.635569 0.0865492
1 0.624155 0.0866255
1 0.613153 0.0861677
0 0.810498 0.614862
0 0.809506 0.613626
0 0.808301 0.612222
0 0.807553 0.611292
0 0.806897 0.610498
0 0.807523 0.610986
0 0.81004 0.613489
0 0.813367 0.616892
0 0.814099 0.617563
0 0.811948 0.615259
0 0.806836 0.609689
0 0.798169 0.598184
0 0.788281 0.573709
0 0.779309 0.530449
0.0194095 0.769146 0.475105
0.132342 0.761624 0.430961
0.383154 0.759594 0.389548
0.615702 0.762676 0.342443
0.78407 0.756649 0.256764
0.906722 0.746014 0.14966
0.976516 0.745571 0.10576
1 0.757229 0.0927443
1 0.758022 0.0903334
1 0.75024 0.0901503
1 0.741634 0.0899977
1 0.732509 0.0897231
1 0.722179 0.0890516
1 0.711284 0.0883497
1 0.70071 0.0872206
1 0.689754 0.0859541
1 0.678645 0.0855421
1 0.667613 0.0855726
1 0.656413 0.0859083
0 0.870512 0.680537
0 0.869841 0.679774
0 0.868986 0.678843
0 0.868513 0.678309
0 0.86833 0.678111
0 0.868727 0.678584
0 0.870802 0.680964
0 0.873732 0.684337
0 0.874327 0.685023
0 0.872694 0.683146
0 0.868833 0.678752
0 0.861692 0.669505
0 0.852186 0.649897
0 0.844846 0.618814
0 0.837018 0.576608
0.0515297 0.826215 0.520027
0.184802 0.819913 0.463584
0.497795 0.82472 0.443763
0.699992 0.825559 0.390936
0.853422 0.819455 0.30248
0.954086 0.80853 0.19704
1 0.807889 0.143191
1 0.809995 0.128389
1 0.801434 0.120684
1 0.791836 0.11252
1 0.781857 0.104738
1 0.771084 0.097734
1 0.759594 0.0903944
1 0.747967 0.0901198
1 0.735775 0.0898604
1 0.72256 0.0890211
1 0.708904 0.0881361
1 0.696864 0.0867781
0 0.897032 0.711406
0 0.89688 0.711223
0 0.896834 0.711162
0 0.896864 0.711208
0 0.896971 0.71133
0 0.897261 0.711666
0 0.897749 0.71223
0 0.898329 0.712917
0 0.898497 0.7131
0 0.898344 0.712917
0 0.897917 0.712428
0 0.897414 0.711574
0 0.897658 0.709407
0 0.896574 0.698619
0 0.889647 0.659968
0 0.880964 0.604288
0.0780499 0.872892 0.557748
0.29276 0.870268 0.511467
0.57203 0.877699 0.489708
0.772381 0.880552 0.452461
0.906859 0.870741 0.346624
0.987945 0.860578 0.251514
1 0.857832 0.20058
1 0.850248 0.182666
1 0.839857 0.16524
1 0.829114 0.150637
1 0.817761 0.136889
1 0.805768 0.123873
1 0.793408 0.113558
1 0.780621 0.103792
1 0.76704 0.0952316
1 0.753048 0.0902724
1 0.739864 0.0899672
0 0.901366 0.716442
0 0.901366 0.716442
0 0.901366 0.716442
0 0.901366 0.716442
0 0.901366 0.716442
0 0.901366 0.716442
0 0.901366 0.716442
0 0.901366 0.716442
0 0.901366 0.716442
0 0.901366 0.716442
0 0.901366 0.716442
0 0.901442 0.716487
0 0.902312 0.716915
0 0.906157 0.716609
0 0.906783 0.696941
0 0.905821 0.661936
0.0219883 0.903914 0.622751
0.0918135 0.902007 0.566354
0.368322 0.911711 0.553735
0.660258 0.919264 0.547311
0.828977 0.921645 0.49688
0.944183 0.914641 0.403876
1 0.902129 0.304067
1 0.895079 0.265293
1 0.885054 0.245518
1 0.873777 0.224125
1 0.862196 0.202487
1 0.849622 0.181247
1 0.836484 0.159564
1 0.823224 0.143297
1 0.809232 0.127001
1 0.79498 0.114549
1 0.781353 0.104067
0 0.901366 0.716442
0 0.901366 0.716442
0 0.901366 0.716442
0 0.901366 0.716442
0 0.901366 0.716442
0 0.901366 0.716442
0 0.901366 0.716442
0 0.901366 0.716442
0 0.901366 0.716442
0 0.901366 0.716442
0 0.901366 0.716442
0 0.901381 0.716442
0 0.901854 0.716716
0 0.90544 0.718044
0 0.908263 0.710597
0 0.908354 0.679118
0 0.907988 0.645624
0.0488899 0.906081 0.596323
0.199802 0.910445 0.559106
0.550637 0.923491 0.567575
0.737087 0.935363 0.551949
0.883879 0.94052 0.51043
0.982651 0.93846 0.428901
1 0.93344 0.361349
1 0.923583 0.326207
1 0.912856 0.299138
1 0.901793 0.277638
1 0.890074 0.255131
1 0.877165 0.230167
1 0.863386 0.204425
1 0.848981 0.179965
1 0.834119 0.156497
1 0.82031 0.139651
0 0.901366 0.716442
0 0.901366 0.716442
0 0.901366 0.716442
0 0.901366 0.716442
0 0.901366 0.716442
0 0.901366 0.716442
0 0.901366 0.716442
0 0.901366 0.716442
0 0.901366 0.716442
0 0.901366 0.716442
0 0.901366 0.716442
0 0.901366 0.716442
0 0.901595 0.716579
0 0.903685 0.717678
0 0.907576 0.716808
0 0.908354 0.692226
0 0.908461 0.661341
0.0269169 0.906859 0.620066
0.0890059 0.906264 0.565087
0.399985 0.917708 0.56286
0.654536 0.930831 0.564584
0.818708 0.942046 0.547021
0.931258 0.942565 0.480598
1 0.941451 0.41207
1 0.939849 0.366766
1 0.938613 0.363241
1 0.936233 0.3579
1 0.924529 0.328237
1 0.912306 0.298054
1 0.899397 0.272969
1 0.885878 0.246983
1 0.871199 0.218784
1 0.857267 0.193698
0 0.901366 0.716442
0 0.901366 0.716442
0 0.901366 0.716442
0 0.901366 0.716442
0 0.901366 0.716442
0 0.901366 0.716442
0 0.901366 0.716442
0 0.901366 0.716442
0 0.901366 0.716442
0 0.901366 0.716442
0 0.901366 0.716442
0 0.901366 0.716442
0 0.901427 0.716472
0 0.902205 0.71693
0 0.90631 0.718318
0 0.9084 0.706004
0 0.908415 0.674525
0.00328069 0.907759 0.640635
0.0521096 0.905943 0.590982
0.217044 0.911009 0.559228
0.550179 0.924269 0.568536
0.729747 0.936584 0.556725
0.874205 0.943206 0.524254
0.96875 0.942473 0.450355
1 0.941238 0.390265
1 0.941421 0.370565
1 0.941268 0.370184
1 0.93991 0.366613
1 0.938323 0.36257
1 0.930556 0.343267
1 0.917296 0.310048
1 0.903593 0.281117
1 0.890898 0.256565
0 0.901366 0.716442
0 0.901366 0.716442
0 0.901366 0.716442
0 0.901366 0.716442
0 0.901366 0.716442
0 0.901366 0.716442
0 0.901366 0.716442
0 0.901366 0.716442
0 0.901366 0.716442
0 0.901366 0.716442
0 0.901366 0.716442
0 0.901366 0.716442
0 0.901381 0.716442
0 0.901671 0.716625
0 0.904723 0.718151
0 0.908034 0.715465
0 0.908324 0.687922
0 0.908476 0.65861
0.0294347 0.906706 0.617517
0.0912032 0.906355 0.565042
0.386282 0.917189 0.562463
0.640726 0.929717 0.566293
0.797345 0.940887 0.550149
0.912657 0.942718 0.495216
0.991974 0.942199 0.427344
1 0.941375 0.375036
1 0.941421 0.370565
1 0.941421 0.370565
1 0.94139 0.370504
1 0.940612 0.36846
1 0.938811 0.36379
1 0.932036 0.346838
1 0.919951 0.316213
0 0.901366 0.716442
0 0.901366 0.716442
0 0.901366 0.716442
0 0.901366 0.716442
0 0.901366 0.716442
0 0.901366 0.716442
0 0.901366 0.716442
0 0.901366 0.716442
0 0.901366 0.716442
