LUT预设1/柯达5219&2393/柯达5219系列-Log/柯达2393.cube
TITLE "Generated by Resolve"
LUT_3D_SIZE 5
0.004654 0.00830091 0.005066
0.0564736 0.0204166 0
0.401968 0.0231022 0
0.684306 0.0527352 0
0.763012 0.0895552 0
0 0.0541085 0.0176089
0.0504311 0.0669413 0.00228885
0.524926 0.109773 0
0.803525 0.160998 0
0.873091 0.192096 0
0 0.291493 0.0844434
0 0.360403 0.0135653
0.660075 0.496956 0
0.936049 0.528283 0
0.983001 0.551034 0
0 0.541146 0.17377
0 0.603906 0.0251011
0.708095 0.775113 0
0.980346 0.790112 0
1 0.78996 0
0 0.61503 0.177661
0 0.676509 0
0.687297 0.812207 0
0.983032 0.839673 0
1 0.84268 0
0 0.0206149 0.0612192
0.0540627 0.0204166 0.0622873
0.411963 0 0
0.727916 0 0
0.82208 0 0
0 0.0647898 0.0722515
0.0289158 0.0764935 0.0707866
0.543038 0.0561227 0
0.87834 0.0257877 0
0.958633 0.0484474 0
0 0.344884 0.165621
0 0.413611 0.122225
0.66807 0.50016 0
0.973739 0.535012 0
1 0.548821 0
0 0.574411 0.2795
0 0.649119 0.212131
0.687358 0.780575 0
0.999969 0.806409 0
1 0.808881 0
0 0.661051 0.374731
0 0.733684 0.291752
0.6206 0.826169 0
0.999924 0.873365 0
1 0.874311 0.00355535
0 0.143496 0.348363
0.00343328 0.0682994 0.36788
0.424735 0 0.373465
0.751614 0 0.388678
0.85182 0 0.408148
0 0.225711 0.440864
0 0.199283 0.482078
0.55935 0.0155642 0.496422
0.918624 0 0.551308
0.982223 0.00784314 0.57969
0 0.485527 0.575967
0 0.567483 0.645014
0.583352 0.54316 0.518776
0.971557 0.55642 0.495491
1 0.560784 0.472572
0 0.699107 0.704814
0 0.767254 0.717662
0.517632 0.840726 0.490486
0.976013 0.876646 0.446189
1 0.886503 0.442557
0 0.760555 0.75494
0 0.832135 0.769512
0.464439 0.900694 0.604944
0.938003 0.943343 0.580087
1 0.950545 0.587747
0 0.23328 0.54168
0 0.181048 0.581231
0.441886 0 0.656901
0.780392 0 0.683177
0.887236 0 0.70341
0 0.319097 0.654261
0 0.321843 0.708721
0.583963 0 0.841474
0.940459 0 0.88751
0.999573 0.00149538 0.911772
0 0.554528 0.798672
0 0.615885 0.859251
0.530709 0.586694 0.915084
0.939254 0.583078 0.900877
1 0.588556 0.883116
0 0.730999 0.878233
0 0.796262 0.918242
0.399298 0.897673 0.911635
0.920089 0.927977 0.882979
1 0.936263 0.874067
0 0.785748 0.911055
0 0.858488 0.954147
0.366018 0.947082 0.940154
0.889998 0.984909 0.91635
0.997269 0.993347 0.915587
0 0.28098 0.633326
0 0.273594 0.671168
0.464912 0 0.800961
0.822583 0 0.836133
0.924636 0 0.854505
0 0.367742 0.730419
0 0.371099 0.789105
0.584573 0.0513161 0.964538
0.943114 0.0230259 0.995895
1 0.105303 1
0 0.578134 0.858244
0 0.634455 0.913863
0.495827 0.601724 1
0.921004 0.586023 1
1 0.585733 1
0 0.737041 0.917815
0 0.799954 0.960403
0.305943 0.907591 1
0.894926 0.935347 1
0.997681 0.944991 0.999634
0 0.792279 0.948287
0 0.859144 0.990021
0.296284 0.958663 1
0.866606 0.995712 1
0.991287 1 0.99971
