LUT预设1/柯达5219&2393/柯达5219系列-Log/柯达2393冷调.cube
TITLE "Generated by Resolve"
LUT_3D_SIZE 5
0.00544747 0.0263218 0.0207523
0.0994278 0.0349737 0.00112917
0.475517 0.0379492 0
0.718639 0.0710155 0
0.791775 0.0924849 0
0 0.0945907 0.0381476
0.0435492 0.11754 0.000640879
0.643275 0.172137 0
0.857008 0.212222 0
0.912093 0.245365 0
0 0.412726 0.170642
0.014847 0.458259 9.15541e-05
0.562905 0.603464 0
0.948165 0.614054 0
0.998138 0.601053 0
0 0.578225 0.276936
0.00140383 0.626368 0.0289311
0.68307 0.782696 0
0.901259 0.816358 0
1 0.810895 0
0 0.674907 0.430671
0 0.694499 0.181613
0.720012 0.820737 0
0.925597 0.845335 0
1 0.842954 0
0 0.0389868 0.107729
0.088014 0.0314336 0.102373
0.489891 0 0.0477302
0.771893 0 0.0425879
0.860807 0 0.0590066
0 0.125139 0.152056
0.0773632 0.130282 0.136034
0.664164 0.122103 0.0640116
0.941238 0.0717174 0.0749218
0.996216 0.134493 0.0973526
0 0.475898 0.305608
0 0.561578 0.348013
0.64683 0.598642 0.00273136
0.998367 0.597559 0
1 0.597879 0
0 0.662654 0.522957
0 0.734829 0.572885
0.706661 0.799435 1.5259e-05
0.962692 0.834653 0
1 0.833188 0
0 0.758114 0.730007
0 0.817349 0.745647
0.511055 0.841917 0.185824
0.977447 0.887449 0.0663005
1 0.888579 0.01738
0 0.201251 0.449256
0.069398 0.0149233 0.461707
0.504707 0 0.486717
0.797711 0 0.51104
0.888167 0 0.540627
0 0.307332 0.568933
0.00640879 0.223239 0.613855
0.653315 0.128237 0.641398
0.940688 0.0818341 0.686427
0.991226 0.157412 0.711345
0 0.590448 0.708247
0 0.661555 0.748623
0.627024 0.647303 0.640452
0.964736 0.645029 0.615503
1 0.641291 0.599985
0 0.732647 0.788495
0 0.811429 0.800549
0.462257 0.882429 0.726848
0.92575 0.908141 0.594156
1 0.913832 0.595376
0 0.789166 0.840116
0 0.864942 0.892241
0.274556 0.929763 0.871611
0.915938 0.957671 0.694286
0.999832 0.960647 0.675654
0 0.270695 0.605539
0.0235294 0.142519 0.659571
0.515267 0 0.739101
0.824521 0 0.769619
0.920729 0 0.794675
0 0.375494 0.72372
0.00267033 0.309545 0.802441
0.660945 0.117296 0.915465
0.946609 0.0899825 0.943465
0.998764 0.166049 0.956588
0 0.625162 0.849424
0 0.687785 0.916396
0.564019 0.673365 0.95555
0.930678 0.663783 0.939788
1 0.661631 0.933471
0 0.750744 0.903258
0 0.825925 0.949676
0.45745 0.917082 0.953613
0.91046 0.944717 0.930541
0.999756 0.951019 0.926589
0 0.801846 0.935622
0 0.877287 0.979919
0.416419 0.956725 0.976822
0.859663 0.990188 0.974441
0.990829 0.995514 0.944991
0 0.314351 0.679423
0.00935378 0.247532 0.727459
0.532357 0 0.856245
0.857984 0 0.888777
0.956481 0 0.914763
0 0.409079 0.770703
0.0010071 0.376638 0.849912
0.644373 0.190753 0.984237
0.942657 0.179507 0.999939
0.999222 0.237949 1
0 0.635645 0.880949
0 0.689387 0.943679
0.521401 0.675486 1
0.9093 0.661753 1
0.999908 0.661433 1
0 0.753292 0.928252
0 0.826047 0.977935
0.390005 0.92192 1
0.891096 0.949065 1
0.993881 0.955596 0.999649
0 0.805325 0.956619
0 0.875578 0.998184
0.37145 0.962676 1
0.861753 0.995438 1
0.98761 1 0.999664
