LUT预设1/柯达5219&2393/柯达5219系列-Log/柯达2393冷调.cube
TITLE "Generated by Resolve"
LUT_3D_SIZE 9
0.00544747 0.0263218 0.0207523
0.0332189 0.0289769 0.01738
0.0994278 0.0349737 0.00112917
0.262913 0.0321508 0
0.475517 0.0379492 0
0.623056 0.0585184 0
0.718639 0.0710155 0
0.767834 0.0803693 0
0.791775 0.0924849 0
0 0.0501411 0.0284886
0.0103914 0.053666 0.0201419
0.106828 0.056672 0.00112917
0.308476 0.0643015 0
0.550408 0.0825666 0
0.701488 0.108965 0
0.781689 0.127504 0
0.821363 0.134173 0
0.85037 0.150881 0
0 0.0945907 0.0381476
0.00030518 0.101961 0.0152438
0.0435492 0.11754 0.000640879
0.329976 0.138933 0
0.643275 0.172137 0
0.782635 0.19765 0
0.857008 0.212222 0
0.89163 0.225223 0
0.912093 0.245365 0
0 0.214527 0.0745556
0 0.231754 0.0379339
0.0142519 0.250355 0
0.187457 0.304082 0
0.597498 0.367208 0
0.830884 0.385626 0
0.916609 0.39205 0
0.947295 0.405509 0
0.96289 0.428519 0
0 0.412726 0.170642
0 0.445457 0.140902
0.014847 0.458259 9.15541e-05
0.254337 0.525185 0
0.562905 0.603464 0
0.818494 0.634653 0
0.948165 0.614054 0
0.98439 0.596551 0
0.998138 0.601053 0
0 0.536156 0.234516
0 0.561593 0.194354
0.0164492 0.595666 0.00479133
0.418021 0.674754 0
0.617487 0.72372 0
0.793408 0.752987 0
0.920211 0.753658 0
0.996582 0.739727 0
1 0.733288 0
0 0.578225 0.276936
0 0.596704 0.23212
0.00140383 0.626368 0.0289311
0.418647 0.724437 0
0.68307 0.782696 0
0.791806 0.804608 0
0.901259 0.816358 0
0.984512 0.813199 0
1 0.810895 0
0 0.603784 0.327657
0 0.62118 0.280812
0.000183108 0.646952 0.100877
0.369574 0.737118 0
0.714015 0.809079 0
0.833295 0.830014 0
0.899825 0.836545 0
0.972549 0.834424 0
1 0.835935 0
0 0.674907 0.430671
0 0.679652 0.372412
0 0.694499 0.181613
0.30811 0.747311 0
0.720012 0.820737 0
0.863279 0.84181 0
0.925597 0.845335 0
0.973114 0.842451 0
1 0.842954 0
0.00015259 0.0308995 0.047364
0.0279545 0.0317082 0.0455787
0.0973373 0.0350805 0.0284733
0.267216 0.013962 0.000793469
0.489036 0.000259403 0
0.649454 0.00471504 0
0.748333 0.0208591 0
0.803494 0.0123293 0
0.832502 0.0202029 0
0 0.052842 0.0528115
0.00901808 0.0575265 0.0513008
0.104845 0.0601053 0.0297398
0.312261 0.055024 0.000701915
0.565118 0.0400549 0
0.727398 0.0449531 0
0.819593 0.0576028 0
0.873838 0.0323033 0
0.892546 0.0639353 0
0 0.100832 0.0646525
0 0.111147 0.0703441
0.0704662 0.121019 0.0284123
0.373312 0.134234 0.000228885
0.656886 0.140932 0
0.812833 0.149279 0
0.894057 0.164584 0
0.933761 0.174243 0
0.958846 0.19498 0
0 0.231708 0.113115
0 0.266667 0.128038
0.0320134 0.260426 0.0055848
0.257435 0.311742 1.5259e-05
0.669215 0.353567 0
0.862348 0.37171 0
0.943084 0.382589 0
0.975753 0.399817 0
0.987854 0.420417 0
0 0.444144 0.236439
0 0.482383 0.243427
0.00306706 0.485832 0.0429541
0.34284 0.539544 0
0.61503 0.605997 0
0.854414 0.631083 0
0.971069 0.610056 0
0.998032 0.600336 0
1 0.605081 0
0 0.57232 0.342184
0 0.60061 0.336309
0 0.62118 0.167285
0.419013 0.681941 0
0.679881 0.731487 0
0.827619 0.758892 0
0.94641 0.756024 0
1 0.740368 0
1 0.740261 0
0 0.629343 0.422309
0 0.645319 0.401999
0 0.657359 0.264485
0.311269 0.720088 1.5259e-05
0.725597 0.792462 0
0.832349 0.813123 0
0.925734 0.821424 0
0.997147 0.819287 0
1 0.813764 0
0 0.657511 0.499489
0 0.681468 0.487098
0 0.69546 0.372534
0.154543 0.730083 0.00248722
0.717891 0.815808 0
0.867292 0.838682 0
0.931807 0.845228 0
0.992859 0.844556 0
1 0.844526 0
0 0.719768 0.605615
0 0.739513 0.589059
0 0.753185 0.494484
0.0425116 0.758724 0.0996872
0.671855 0.824155 0
0.879606 0.854429 0
0.966949 0.862058 0
0.998352 0.861692 0
1 0.861631 0
0 0.0389868 0.107729
0.00520333 0.0359503 0.111894
0.088014 0.0314336 0.102373
0.262745 0.00773632 0.0743725
0.489891 0 0.0477302
0.6607 0 0.039765
0.771893 0 0.0425879
0.829969 0 0.0515145
0.860807 0 0.0590066
0 0.0647593 0.121416
0.00109865 0.0650339 0.125521
0.0907301 0.0620279 0.114473
0.307698 0.0517739 0.0843671
0.576638 0.00221256 0.0640421
0.757977 0 0.0588235
0.867384 0 0.0574807
0.916289 0 0.067689
0.947021 1.5259e-05 0.0833448
0 0.125139 0.152056
0 0.129717 0.157427
0.0773632 0.130282 0.136034
0.376791 0.140093 0.0997787
0.664164 0.122103 0.0640116
0.839307 0.093843 0.0611429
0.941238 0.0717174 0.0749218
0.981918 0.0881819 0.0893873
0.996216 0.134493 0.0973526
0 0.268467 0.202258
0 0.296635 0.214542
0.0053254 0.300984 0.196292
0.318807 0.320912 0.0564279
0.70367 0.334539 0.0190433
0.890074 0.349004 0.0158541
0.985687 0.352651 0.0154574
1 0.365927 0.018143
1 0.39115 0.0173495
0 0.475898 0.305608
0 0.526024 0.359365
0 0.561578 0.348013
0.338476 0.553933 0.0224613
0.64683 0.598642 0.00273136
0.898955 0.609186 0
0.998367 0.597559 0
1 0.591638 0
1 0.597879 0
0 0.603662 0.420966
0 0.658183 0.512047
0 0.691035 0.484047
0.215732 0.689464 0.0667582
0.707408 0.731228 0
0.845304 0.755505 0
0.986236 0.759564 0
1 0.747662 0
1 0.755001 0
0 0.662654 0.522957
0 0.706493 0.603876
0 0.734829 0.572885
0.0363165 0.74345 0.21561
0.706661 0.799435 1.5259e-05
0.86424 0.823316 0
0.962692 0.834653 0
1 0.834348 0
1 0.833188 0
0 0.700893 0.625727
0 0.744244 0.688914
0 0.770855 0.665064
0.00225834 0.783123 0.431113
0.629023 0.824781 0.0149691
0.887526 0.855207 0.00267033
0.96907 0.867002 0.00407416
0.999985 0.870787 0.00132753
1 0.867109 0.000381476
0 0.758114 0.730007
0 0.793683 0.768139
0 0.817349 0.745647
0 0.822766 0.585504
0.511055 0.841917 0.185824
0.859205 0.874006 0.067689
0.977447 0.887449 0.0663005
0.999603 0.890211 0.0507515
1 0.888579 0.01738
0 0.100175 0.272633
0 0.0809339 0.279332
0.0755932 0.0030518 0.275013
0.260975 7.62951e-05 0.269352
0.488746 0 0.264698
0.662287 0 0.279026
0.782773 0 0.29099
0.841794 0 0.305608
0.870695 0 0.320058
0 0.142535 0.313802
0 0.135271 0.327337
0.0547494 0.0543221 0.317739
0.303655 0.034226 0.31696
0.578149 0.00112917 0.328588
0.75906 0 0.349187
0.871885 0 0.365621
0.924895 0 0.385168
0.953964 4.57771e-05 0.410437
0 0.224231 0.382757
0 0.229969 0.405829
0.0303349 0.160143 0.384649
0.358007 0.147646 0.375784
0.65687 0.129366 0.377676
0.834852 0.104341 0.403342
0.936233 0.0779278 0.424109
0.97673 0.0948043 0.444099
0.989242 0.151507 0.458579
0 0.364187 0.447181
0 0.390036 0.472801
0.00222782 0.360555 0.436942
0.323705 0.345861 0.380209
0.680186 0.356542 0.36144
0.868925 0.368658 0.36614
0.970642 0.369329 0.373007
0.99971 0.380865 0.38056
1 0.403876 0.382132
0 0.543999 0.526879
0 0.585504 0.554467
0 0.605539 0.517708
0.169436 0.604776 0.45095
0.652201 0.620768 0.310887
0.883192 0.625666 0.289998
0.991272 0.615335 0.275364
1 0.60531 0.259174
1 0.614176 0.249073
0 0.660533 0.608454
0 0.695491 0.626123
0 0.737835 0.629587
0.0383612 0.757748 0.562844
0.651606 0.763958 0.297108
0.826001 0.779416 0.231373
0.990127 0.777264 0.180301
1 0.774487 0.216892
1 0.784619 0.219898
0 0.698512 0.641306
0 0.735454 0.680888
0 0.786969 0.723201
0.00552377 0.823484 0.664378
0.520348 0.836576 0.375509
0.850874 0.859861 0.263676
0.952163 0.86952 0.202579
1 0.869749 0.133135
1 0.872206 0.221881
0 0.726482 0.695567
0 0.771359 0.75993
0 0.816388 0.802563
4.57771e-05 0.854109 0.763272
0.346578 0.871855 0.535302
0.83653 0.893141 0.322942
0.95259 0.906767 0.326131
0.998383 0.909178 0.279957
1 0.904738 0.239124
0 0.776364 0.776532
0 0.8168 0.83563
0 0.849515 0.862226
0 0.879973 0.8318
0.201678 0.895705 0.677012
0.772732 0.910155 0.454963
0.950027 0.923919 0.427451
0.995697 0.927596 0.421866
1 0.92639 0.374563
0 0.201251 0.449256
0 0.198291 0.463203
0.069398 0.0149233 0.461707
0.267063 0 0.475227
0.504707 0 0.486717
0.679438 0 0.502113
0.797711 0 0.51104
0.857572 0 0.524041
0.888167 0 0.540627
0 0.242161 0.503365
0 0.245563 0.525521
0.0371405 0.0803082 0.532967
0.314214 0.0033875 0.556115
0.588602 0 0.573266
0.773053 0 0.59527
0.883284 0 0.611444
0.938033 0 0.627771
0.966476 0 0.652354
0 0.307332 0.568933
0 0.314946 0.597162
0.00640879 0.223239 0.613855
0.347692 0.148333 0.629374
0.653315 0.128237 0.641398
0.837171 0.100786 0.668376
0.940688 0.0818341 0.686427
0.979934 0.102602 0.699229
0.991226 0.157412 0.711345
0 0.427451 0.631983
0 0.45211 0.665995
0.000213626 0.438407 0.6804
0.267857 0.375463 0.65948
0.656611 0.380728 0.655573
0.851514 0.389975 0.665812
0.956298 0.390707 0.671687
0.997513 0.400763 0.674846
1 0.422202 0.672709
0 0.590448 0.708247
0 0.62884 0.738003
0 0.661555 0.748623
0.147494 0.639109 0.68188
0.627024 0.647303 0.640452
0.842741 0.655161 0.629374
0.964736 0.645029 0.615503
1 0.63035 0.603189
1 0.641291 0.599985
0 0.699947 0.774014
0 0.732143 0.792126
0 0.77322 0.78764
0.0980392 0.782391 0.700313
0.572793 0.801785 0.665858
0.809247 0.813016 0.607065
0.965362 0.812558 0.593835
1 0.813397 0.586221
1 0.818524 0.582193
0 0.732647 0.788495
0 0.764202 0.803708
0 0.811429 0.800549
0.0297093 0.851331 0.74789
0.462257 0.882429 0.726848
0.801572 0.898222 0.618021
0.92575 0.908141 0.594156
0.999603 0.908904 0.573159
1 0.913832 0.595376
0 0.749569 0.804196
0 0.787045 0.826398
0 0.834241 0.841215
0.000106813 0.884367 0.842206
0.341756 0.916152 0.804501
0.718624 0.933059 0.701686
0.934035 0.944198 0.640955
0.986297 0.946792 0.626734
1 0.947433 0.602609
0 0.789166 0.840116
0 0.827802 0.86891
0 0.864942 0.892241
0 0.907286 0.912718
0.274556 0.929763 0.871611
0.645716 0.946059 0.791089
0.915938 0.957671 0.694286
0.984253 0.962066 0.696193
0.999832 0.960647 0.675654
0 0.237659 0.538689
0 0.241611 0.555871
0.0538186 0.0461891 0.582132
0.269673 0 0.609216
0.513115 0 0.629221
0.690913 0 0.647028
0.811566 0 0.654093
0.873411 0 0.665476
0.903563 0 0.684916
0 0.284672 0.598581
0 0.290898 0.623789
0.0262608 0.164004 0.655161
0.320668 0.000289921 0.709682
0.597604 0 0.728435
0.782895 0 0.749783
0.894438 0 0.761456
0.947723 0 0.779293
0.976959 1.5259e-05 0.803311
0 0.349386 0.66244
0 0.356176 0.69189
0.0040589 0.265538 0.73579
0.339849 0.148852 0.783978
0.660548 0.120668 0.803815
0.842542 0.0948959 0.826368
0.943893 0.085893 0.840101
0.983886 0.107454 0.850172
0.996384 0.162615 0.861112
0 0.463386 0.733135
0 0.483787 0.761364
3.0518e-05 0.472465 0.796002
0.223423 0.396399 0.829664
0.646815 0.397665 0.830274
0.845335 0.407721 0.83859
0.951492 0.405295 0.841535
0.993469 0.413062 0.84268
1 0.432959 0.838911
0 0.613977 0.798978
0 0.647868 0.828199
0 0.680339 0.855726
0.109545 0.66305 0.856596
0.596521 0.666728 0.825986
0.819455 0.670176 0.816861
0.94583 0.658442 0.806332
0.997467 0.647776 0.798901
1 0.656947 0.794293
0 0.712978 0.851179
0 0.742916 0.8701
0 0.78439 0.885954
0.0538796 0.806928 0.866987
0.551034 0.818555 0.818204
0.800214 0.830945 0.804105
0.941649 0.832074 0.793545
0.997757 0.831937 0.788525
1 0.841123 0.788708
0 0.744015 0.861204
0 0.774945 0.880095
0 0.823789 0.894972
0.0142672 0.875441 0.88014
0.50164 0.902785 0.827878
0.764462 0.923842 0.828244
0.922637 0.930907 0.795041
0.995941 0.932525 0.787549
1 0.937118 0.790082
0 0.760082 0.871916
0 0.79556 0.894423
0 0.843503 0.911345
0.00758373 0.900999 0.906645
0.446235 0.934798 0.873075
0.709682 0.959182 0.892668
0.905379 0.965759 0.831342
0.977249 0.96994 0.816358
0.999985 0.971588 0.807874
0 0.797543 0.899046
0 0.833753 0.920043
0 0.873899 0.935668
0.00456245 0.92015 0.942977
0.396567 0.947723 0.930129
0.656825 0.968978 0.935454
0.854902 0.978378 0.884932
0.976104 0.982422 0.84947
0.997299 0.982254 0.842832
0 0.270695 0.605539
0 0.268986 0.619364
0.0235294 0.142519 0.659571
0.273442 0 0.716426
0.515267 0 0.739101
0.696696 0 0.758831
0.824521 0 0.769619
0.888151 0 0.777432
0.920729 0 0.794675
0 0.31426 0.665949
0 0.321386 0.689174
0.0209049 0.195193 0.733455
0.321233 0.000274662 0.821271
0.603906 0 0.846235
0.791302 0 0.867491
0.9075 0 0.878035
0.961608 0 0.892012
0.988327 0 0.913008
0 0.375494 0.72372
0 0.383734 0.752331
0.00267033 0.309545 0.802441
0.328145 0.14905 0.890883
0.660945 0.117296 0.915465
0.849928 0.087602 0.939223
0.946609 0.0899825 0.943465
0.98677 0.115068 0.951171
0.998764 0.166049 0.956588
0 0.483177 0.789883
0 0.504967 0.823026
1.5259e-05 0.495354 0.864652
0.187488 0.409888 0.944671
0.630716 0.404364 0.94847
0.834653 0.413779 0.95462
0.945876 0.409934 0.954574
0.989609 0.413504 0.954513
1 0.433768 0.954833
0 0.625162 0.849424
0 0.652705 0.872618
0 0.687785 0.916396
0.0835431 0.676341 0.965789
0.564019 0.673365 0.95555
0.796597 0.676799 0.948592
0.930678 0.663783 0.939788
0.989578 0.651728 0.935866
1 0.661631 0.933471
0 0.71986 0.896422
0 0.747158 0.915953
0 0.786603 0.943404
0.0191196 0.819303 0.97322
0.512901 0.833112 0.952041
0.774533 0.843076 0.941314
0.921218 0.843778 0.932799
0.986511 0.84416 0.928405
1 0.852186 0.926497
0 0.750744 0.903258
0 0.7785 0.922621
0 0.825925 0.949676
0.00602731 0.889464 0.980804
0.45745 0.917082 0.953613
0.749844 0.936645 0.93872
0.91046 0.944717 0.930541
0.98027 0.947082 0.92639
0.999756 0.951019 0.926589
0 0.769146 0.914611
0 0.801343 0.935225
0 0.847608 0.960662
0.00331121 0.913939 0.988907
0.416922 0.947951 0.965499
0.727001 0.968902 0.950332
0.892317 0.980835 0.949172
0.971466 0.984634 0.934569
0.997925 0.986709 0.934951
0 0.801846 0.935622
0 0.837049 0.957214
0 0.877287 0.979919
0.00544747 0.930571 0.99649
0.416419 0.956725 0.976822
0.697856 0.977386 0.968246
0.859663 0.990188 0.974441
0.958801 0.994263 0.952377
0.990829 0.995514 0.944991
0 0.294209 0.650141
0 0.291752 0.663508
0.00968948 0.21503 0.699031
0.27303 0 0.782147
0.524178 0 0.811826
0.707866 0 0.830198
0.840162 0 0.841291
0.905333 0 0.850904
0.935546 0 0.865721
0 0.335729 0.701152
0 0.33901 0.723857
0.0140688 0.227466 0.774289
0.317433 0.000579843 0.886687
0.609705 1.5259e-05 0.916457
0.797116 0 0.93225
0.917082 0 0.943709
0.972457 0 0.95552
0.998505 0.000366217 0.973968
0 0.391485 0.75314
0 0.39881 0.780377
0.00180056 0.337743 0.836973
0.31603 0.166751 0.942718
0.654505 0.144091 0.967285
0.84152 0.128008 0.984649
0.945907 0.125414 0.99176
0.987305 0.148577 0.995972
0.998291 0.197253 0.998352
0 0.495644 0.819928
0 0.517571 0.849775
0 0.511528 0.895048
0.174426 0.421927 0.992508
0.623545 0.419135 0.998245
0.8262 0.424063 0.999481
0.93872 0.416922 0.999588
0.98764 0.415412 0.999557
0.999985 0.432654 0.999481
0 0.632074 0.874617
0 0.659983 0.897444
0 0.686275 0.936996
0.0606088 0.680781 0.997726
0.540276 0.672557 0.999985
0.778637 0.672648 0.999512
0.917845 0.661555 0.999054
0.982788 0.652125 0.998688
1 0.661311 0.997803
0 0.722087 0.915419
0 0.748302 0.934813
0 0.78529 0.965255
0.0102693 0.821485 0.999405
0.477028 0.832074 0.999939
0.754391 0.844678 0.999039
0.908919 0.846036 0.996719
0.978866 0.846448 0.994507
0.999451 0.855894 0.992844
0 0.752255 0.922271
0 0.780453 0.941527
0 0.826719 0.973434
0.000656138 0.894926 0.999878
0.418021 0.922469 0.999832
0.728847 0.941405 0.996719
0.897063 0.949538 0.991302
0.97232 0.953201 0.986755
0.995438 0.956207 0.98555
0 0.77113 0.930404
0 0.803281 0.951751
0 0.847623 0.981018
0.000183108 0.917922 1
0.381903 0.954574 0.999969
0.709972 0.974319 0.99852
0.884855 0.98555 0.992752
0.964752 0.989776 0.988464
0.992126 0.992081 0.986236
0 0.805188 0.952682
0 0.840955 0.975601
0 0.878233 0.997391
0.00402838 0.933242 1
0.392218 0.962829 1
0.68893 0.982666 0.999466
0.868955 0.993072 0.995422
0.957107 0.999283 0.991882
0.988128 0.999985 0.989166
0 0.314351 0.679423
0 0.318242 0.700298
0.00935378 0.247532 0.727459
0.271794 0 0.828992
0.532357 0 0.856245
0.721233 0 0.875456
0.857984 0 0.888777
0.926085 0 0.898131
0.956481 0 0.914763
0 0.355596 0.72459
0 0.360708 0.748547
0.00262455 0.267063 0.796399
0.300145 0.015198 0.914611
0.60705 0.00195315 0.948821
0.80885 0.000701915 0.973877
0.929076 0.000564584 0.982147
0.988861 0.000823987 0.99237
0.999985 0.00325017 0.998825
0 0.409079 0.770703
0 0.415518 0.796674
0.0010071 0.376638 0.849912
0.291768 0.212879 0.961074
0.644373 0.190753 0.984237
0.833738 0.183291 0.996612
0.942657 0.179507 0.999939
0.984665 0.192538 1
0.999222 0.237949 1
0 0.507362 0.831067
0 0.530221 0.860258
0 0.522667 0.906981
0.152544 0.441581 0.99823
0.610025 0.43856 1
0.818982 0.442832 1
0.934417 0.437964 1
0.986007 0.43151 1
0.999969 0.443488 1
0 0.635645 0.880949
0 0.663554 0.904875
0 0.689387 0.943679
0.0440528 0.685527 0.998672
0.521401 0.675486 1
0.765301 0.676158 1
0.9093 0.661753 1
0.978439 0.656123 1
0.999908 0.661433 1
0 0.724575 0.921202
0 0.749416 0.940093
0 0.783276 0.97145
0.00596628 0.819699 0.999985
0.447486 0.830304 1
0.73933 0.84332 1
0.900298 0.845014 1
0.974609 0.846616 1
0.998688 0.854032 1
0 0.753292 0.928252
0 0.780377 0.945434
0 0.826047 0.977935
0 0.89366 1
0.390005 0.92192 1
0.717937 0.940475 1
0.891096 0.949065 1
0.967575 0.952743 0.999832
0.993881 0.955596 0.999649
0 0.772396 0.935073
0 0.803311 0.956024
0 0.846403 0.984039
0 0.916671 1
0.358679 0.955001 1
0.697826 0.974411 1
0.877821 0.985428 1
0.962234 0.990723 0.999695
0.990173 0.99382 0.999191
0 0.805325 0.956619
0 0.838315 0.976486
0 0.875578 0.998184
0.00288396 0.932174 1
0.37145 0.962676 1
0.677913 0.98349 1
0.861753 0.995438 1
0.954543 0.999786 0.999573
0.98761 1 0.999664
