LUT预设1/柯达5219&2393/柯达5219系列-Log/柯达5219绿调.cube
TITLE "Generated by Resolve"
LUT_3D_SIZE 33
0.0230106 0.030518 0.0598459
0.0230106 0.030518 0.0598459
0.0230106 0.030518 0.0598459
0.0230411 0.0305333 0.0598459
0.0262913 0.0316167 0.0603494
0.0364385 0.0348211 0.0611429
0.0507362 0.0390326 0.061326
0.0649729 0.0426184 0.0603494
0.0836042 0.0467231 0.0586404
0.10782 0.0511788 0.0563821
0.137652 0.0557565 0.0537575
0.175311 0.0598001 0.05066
0.221576 0.0640421 0.046128
0.278248 0.0684672 0.0396429
0.345739 0.0729076 0.0310979
0.427253 0.0775616 0.0209506
0.521584 0.0813764 0.0116884
0.626322 0.0847486 0.00375372
0.7364 0.0904555 1.5259e-05
0.831678 0.0982986 0
0.86891 0.101976 0
0.873579 0.10251 0
0.873579 0.10251 0
0.873579 0.10251 0
0.873579 0.10251 0
0.873579 0.10251 0
0.873579 0.10251 0
0.873579 0.10251 0
0.873579 0.10251 0
0.873579 0.10251 0
0.873579 0.10251 0
0.873579 0.10251 0
0.873579 0.10251 0
0.0230106 0.030518 0.0598459
0.0230106 0.030518 0.0598459
0.0230106 0.030518 0.0598459
0.0230106 0.030518 0.0598459
0.0235599 0.0307012 0.0599222
0.0309453 0.0330816 0.0607156
0.0438849 0.0370947 0.0614786
0.0569009 0.0406195 0.060914
0.074052 0.0446479 0.0595254
0.0958572 0.0491188 0.0574655
0.123033 0.0535439 0.0551003
0.155978 0.057908 0.0522469
0.19707 0.0618601 0.0485847
0.246952 0.0660105 0.0433356
0.308125 0.0704967 0.0359197
0.381048 0.0750744 0.0265049
0.467811 0.079469 0.0164187
0.566201 0.0826581 0.00810254
0.67335 0.0866407 0.000701915
0.781231 0.0936904 0
0.855573 0.100618 0
0.873259 0.10248 0
0.873579 0.10251 0
0.873579 0.10251 0
0.873579 0.10251 0
0.873579 0.10251 0
0.873579 0.10251 0
0.873579 0.10251 0
0.873579 0.10251 0
0.873579 0.10251 0
0.873579 0.10251 0
0.873579 0.10251 0
0.873579 0.10251 0
0.0230106 0.030518 0.0598459
0.0230106 0.030518 0.0598459
0.0230106 0.030518 0.0598459
0.0230106 0.030518 0.0598459
0.0231022 0.0305486 0.0598611
0.0274357 0.0319829 0.060441
0.0372015 0.0350958 0.0612955
0.0508888 0.0390021 0.0612802
0.069688 0.0436713 0.0599069
0.0929274 0.0485847 0.0577401
0.119738 0.0530404 0.0553902
0.149722 0.0572518 0.0527504
0.186374 0.0608682 0.0496223
0.22977 0.064683 0.0452888
0.28426 0.0689097 0.038941
0.349935 0.0731975 0.030518
0.427985 0.0777142 0.0206607
0.518532 0.0814221 0.0117342
0.620035 0.0842756 0.0043183
0.72813 0.0894636 0
0.826719 0.0975052 0
0.867597 0.101793 0
0.873579 0.10251 0
0.873579 0.10251 0
0.873579 0.10251 0
0.873579 0.10251 0
0.873579 0.10251 0
0.873579 0.10251 0
0.873579 0.10251 0
0.873579 0.10251 0
0.873579 0.10251 0
0.873579 0.10251 0
0.873579 0.10251 0
0.0230106 0.030518 0.0598459
0.0230106 0.030518 0.0598459
0.0230106 0.030518 0.0598459
0.0230106 0.030518 0.0598459
0.0230564 0.0305333 0.0598459
0.0247959 0.0311131 0.0601053
0.0317388 0.0333562 0.0608682
0.0454108 0.0374609 0.0613565
0.0644846 0.0424201 0.0603037
0.0894179 0.0478676 0.0581064
0.119326 0.0529488 0.0554208
0.154025 0.0577096 0.0523842
0.194644 0.0616464 0.0488289
0.241291 0.0656443 0.0439918
0.293736 0.0695506 0.0377508
0.353674 0.0734417 0.0300145
0.424079 0.0775616 0.021088
0.504906 0.0811627 0.0127108
0.597177 0.0834211 0.00587472
0.697246 0.0873884 0
0.799222 0.0947433 0
0.862257 0.101213 0
0.873579 0.10251 0
0.873579 0.10251 0
0.873579 0.10251 0
0.873579 0.10251 0
0.873579 0.10251 0
0.873579 0.10251 0
0.873579 0.10251 0
0.873579 0.10251 0
0.873579 0.10251 0
0.873579 0.10251 0
0.873579 0.10251 0
0.0230106 0.030518 0.0598459
0.0230106 0.030518 0.0598459
0.0230106 0.030518 0.0598459
0.0230106 0.030518 0.0598459
0.0230259 0.030518 0.0598459
0.0234531 0.0306554 0.0599069
0.0281529 0.0321965 0.0604868
0.0402686 0.0359503 0.0612802
0.0586099 0.0409705 0.0607156
0.0836194 0.0466163 0.0586557
0.115236 0.0522774 0.0557565
0.153399 0.0576181 0.05243
0.200137 0.0621347 0.0482643
0.255222 0.066743 0.0424353
0.317052 0.0710918 0.0348058
0.382574 0.075227 0.026276
0.455451 0.0790875 0.0175937
0.537011 0.0818952 0.0102541
0.625345 0.0843671 0.00393683
0.717632 0.0886854 0
0.809903 0.0958572 0
0.864683 0.101518 0
0.873579 0.10251 0
0.873579 0.10251 0
0.873579 0.10251 0
0.873579 0.10251 0
0.873579 0.10251 0
0.873579 0.10251 0
0.873579 0.10251 0
0.873579 0.10251 0
0.873579 0.10251 0
0.873579 0.10251 0
0.873579 0.10251 0
0.0233158 0.0311131 0.0604257
0.0230716 0.0306096 0.0599222
0.0230259 0.0305333 0.0598611
0.0230259 0.0305333 0.0598611
0.0230259 0.0305333 0.0598611
0.0231174 0.0305638 0.0598764
0.0259861 0.0315099 0.0602579
0.0354162 0.0345006 0.0610666
0.0528572 0.0394598 0.0611124
0.0774395 0.0452735 0.0592203
0.107927 0.0511482 0.0563363
0.145861 0.0566873 0.0530556
0.19379 0.0615244 0.0488746
0.254795 0.0666514 0.0424659
0.330159 0.071931 0.0331273
0.413886 0.0769818 0.0223697
0.505577 0.0810101 0.0128176
0.601846 0.0836652 0.00555428
0.698482 0.0877699 0.000198367
0.786786 0.0940108 0
0.84947 0.0998245 0
0.871107 0.10222 0
0.873579 0.10251 0
0.873579 0.10251 0
0.873579 0.10251 0
0.873579 0.10251 0
0.873579 0.10251 0
0.873579 0.10251 0
0.873579 0.10251 0
0.873579 0.10251 0
0.873579 0.10251 0
0.873579 0.10251 0
0.873579 0.10251 0
0.0268101 0.0384375 0.0668956
0.0262608 0.0370794 0.0657054
0.0258946 0.0362707 0.0650492
0.0255741 0.0354925 0.0644694
0.0251774 0.034638 0.0637827
0.0247807 0.033753 0.0630045
0.0255283 0.0332799 0.0623484
0.0318151 0.0345312 0.0621042
0.0479591 0.0385138 0.061677
0.0719463 0.0441596 0.0597391
0.102968 0.0504311 0.0568093
0.142351 0.0562905 0.0534066
0.191608 0.0613565 0.0491035
0.254719 0.0666819 0.0424811
0.337667 0.0724498 0.0321813
0.435889 0.0781415 0.0198062
0.54757 0.0822003 0.00946059
0.661936 0.0857862 0.0016022
0.76936 0.0923476 0
0.847517 0.0996719 0
0.869917 0.102083 0
0.873365 0.102495 0
0.873579 0.10251 0
0.873579 0.10251 0
0.873579 0.10251 0
0.873579 0.10251 0
0.873579 0.10251 0
0.873579 0.10251 0
0.873579 0.10251 0
0.873579 0.10251 0
0.873579 0.10251 0
0.873579 0.10251 0
0.873579 0.10251 0
0.033463 0.0574807 0.0827955
0.0328832 0.0551766 0.0810254
0.0321202 0.0527504 0.0791333
0.0313115 0.0500954 0.0770886
0.0304265 0.0472267 0.0748455
0.0294804 0.0446326 0.0726635
0.0288701 0.0428931 0.0709697
0.0337072 0.0429999 0.0696727
0.0501717 0.0456245 0.0677043
0.0764172 0.05066 0.0646982
0.110948 0.0569009 0.0608835
0.154025 0.0625315 0.0562753
0.207309 0.0673533 0.0504921
0.27422 0.072221 0.0421912
0.356695 0.0768292 0.0309606
0.456641 0.0814679 0.0184634
0.571389 0.0845502 0.00822461
0.694469 0.0882582 6.10361e-05
0.808194 0.0958419 0
0.866682 0.101991 0
0.873808 0.102754 0
0.87396 0.102724 0
0.873884 0.102663 0
0.873823 0.102632 0
0.873747 0.102586 0
0.873686 0.102556 0
0.87364 0.102541 0
0.87361 0.102525 0
0.873579 0.10251 0
0.873579 0.10251 0
0.873579 0.10251 0
0.873579 0.10251 0
0.873579 0.10251 0
0.0349126 0.0812085 0.100374
0.0350042 0.0778668 0.0979782
0.0349889 0.0748302 0.0957198
0.0348058 0.071931 0.0935225
0.0344854 0.0686656 0.0910353
0.0341955 0.0659648 0.0889601
0.0344854 0.0654765 0.0885023
0.0408637 0.0669566 0.0882277
0.0617838 0.0695354 0.0850538
0.0961013 0.0740215 0.0794385
0.136797 0.0784619 0.0729839
0.183413 0.0826429 0.0660105
0.240986 0.0865187 0.0570993
0.311864 0.0900587 0.0452735
0.397818 0.0929885 0.0314794
0.497734 0.0955062 0.0191196
0.607507 0.0970016 0.00872816
0.725277 0.100114 4.57771e-05
0.836957 0.107744 0
0.888792 0.11429 0
0.890532 0.112749 0
0.887892 0.110704 0
0.885374 0.108797 0
0.882933 0.107134 0
0.880232 0.10576 0
0.878004 0.104692 0
0.876173 0.103807 0
0.8748 0.103136 0
0.873976 0.102739 0
0.873823 0.102647 0
0.873747 0.102602 0
0.873701 0.102571 0
0.873686 0.102556 0
0.0302892 0.109819 0.119432
0.0314488 0.105379 0.116548
0.0321202 0.10277 0.114824
0.0322881 0.102113 0.114366
0.0325322 0.101183 0.113725
0.0328679 0.0999313 0.112902
0.0332189 0.0995956 0.112612
0.0381628 0.0996414 0.111299
0.059205 0.100114 0.105898
0.102937 0.103395 0.0965744
0.158343 0.106462 0.0860609
0.217075 0.109987 0.0766461
0.285649 0.114076 0.0653239
0.366644 0.118379 0.0508583
0.461646 0.122362 0.0356909
0.567575 0.125734 0.023209
0.679759 0.129046 0.0117647
0.79501 0.136385 0.00154116
0.901305 0.150881 0
0.958526 0.165805 0
0.956069 0.160067 0
0.947448 0.151736 0
0.938384 0.143389 0
0.928512 0.135393 0
0.917266 0.128313 0
0.906737 0.122026 0
0.897459 0.116594 0
0.889418 0.111879 0
0.883848 0.108614 0
0.881743 0.107225 0
0.880186 0.106188 0
0.879194 0.105516 0
0.878462 0.105058 0
0.0179904 0.149065 0.146197
0.0184787 0.14725 0.145037
0.0190738 0.145129 0.143526
0.0197147 0.142885 0.141939
0.0202487 0.140948 0.140566
0.0206912 0.139422 0.139483
0.0208133 0.139208 0.139269
0.0226596 0.13875 0.138354
0.0394141 0.137469 0.131884
0.0888685 0.138949 0.117708
0.160555 0.140459 0.101778
0.239185 0.142382 0.0876173
0.321141 0.145846 0.0734722
0.41413 0.149737 0.0574044
0.519234 0.153445 0.0424964
0.628565 0.158114 0.0299687
0.739055 0.165423 0.0184482
0.848066 0.177691 0.00759899
0.942565 0.200687 0.000335698
0.996719 0.232227 0
1 0.233845 0
0.999466 0.225589 0
0.995743 0.216403 0
0.990036 0.206516 0
0.982605 0.194339 0
0.974945 0.182895 0
0.967468 0.17258 0
0.960266 0.162921 0
0.952697 0.154131 0
0.944961 0.146487 0
0.938781 0.140871 0
0.933776 0.136294 0
0.930983 0.13373 0
0.00567636 0.196796 0.174441
0.00634775 0.193957 0.172946
0.00695811 0.191379 0.171603
0.00759899 0.188708 0.170153
0.00810254 0.186526 0.168917
0.00846876 0.185 0.168032
0.00843824 0.185122 0.168109
0.00883497 0.18555 0.168017
0.016907 0.184054 0.162264
0.0515755 0.183932 0.146654
0.129885 0.183261 0.124407
0.232868 0.182467 0.102571
0.338064 0.183459 0.0826276
0.440452 0.186358 0.0649729
0.552636 0.190097 0.0503853
0.66659 0.195926 0.0387884
0.777813 0.20589 0.0291752
0.883253 0.223438 0.0188602
0.966949 0.252094 0.00840772
1 0.290059 0.000717174
1 0.30605 0.000518807
1 0.299336 0.000411994
1 0.29099 0.000320439
1 0.282506 0.000228885
1 0.273686 0.000122072
1 0.264515 3.0518e-05
1 0.25478 0
1 0.243854 0
0.999451 0.230716 0
0.995697 0.215091 0
0.98822 0.201877 0
0.981277 0.190433 0
0.976425 0.182666 0
0 0.253269 0.210086
0 0.250462 0.208164
0 0.247242 0.205966
0 0.244648 0.20415
0 0.242374 0.202564
0 0.241108 0.201678
0 0.24181 0.202075
0 0.242527 0.20235
0.0012665 0.240055 0.19823
0.01738 0.237018 0.183993
0.0756085 0.236408 0.156817
0.187304 0.23328 0.127718
0.323705 0.23035 0.0986191
0.442405 0.231327 0.0745251
0.556832 0.234592 0.0586862
0.674205 0.241306 0.0479133
0.788754 0.2533 0.0390478
0.895109 0.273594 0.0311437
0.975128 0.305837 0.023331
1 0.347951 0.016434
1 0.37734 0.0124208
1 0.371923 0.0100557
1 0.364004 0.00791943
1 0.356085 0.00582895
1 0.347829 0.00366217
1 0.339437 0.00172427
1 0.330724 0.000946059
1 0.321202 0.000793469
1 0.310536 0.00062562
1 0.298604 0.00047303
1 0.285039 0.00030518
1 0.270848 0.00015259
1 0.259251 0
0 0.321355 0.245563
0 0.318029 0.243717
0 0.315022 0.242161
0 0.31223 0.240757
0 0.310063 0.239658
0 0.308568 0.23888
0 0.309575 0.239429
0 0.311086 0.240269
0 0.307973 0.237781
0.00205997 0.302556 0.226398
0.0273442 0.300359 0.200168
0.116808 0.295201 0.168261
0.262455 0.290196 0.131136
0.419409 0.286519 0.0932174
0.539513 0.288319 0.070222
0.658549 0.294697 0.0572213
0.776974 0.306615 0.0488746
0.886915 0.327199 0.0433661
0.971557 0.358968 0.0386358
1 0.4038 0.0367132
1 0.44622 0.0358892
1 0.441901 0.0332799
1 0.434623 0.0305333
1 0.427115 0.0278172
1 0.419623 0.0252384
1 0.411826 0.0225681
1 0.4038 0.0198672
1 0.394446 0.0168917
1 0.383993 0.0137636
1 0.372641 0.0104524
1 0.360265 0.0071107
1 0.346883 0.00381476
1 0.336034 0.00125124
0 0.400122 0.296132
0 0.396963 0.294377
0 0.394003 0.292714
0 0.390677 0.2907
0 0.388617 0.28925
0 0.387778 0.288548
0 0.38941 0.289708
0 0.391257 0.291035
0 0.388846 0.288655
0 0.381918 0.27747
0.00502022 0.374563 0.251148
0.0515755 0.369131 0.216526
0.169375 0.362127 0.182132
0.347509 0.357305 0.139254
0.509957 0.354559 0.0952163
0.630747 0.357046 0.0702525
0.749035 0.366827 0.0580758
0.864057 0.384375 0.0522621
0.958938 0.413214 0.0510567
1 0.45626 0.0536507
1 0.501762 0.0573587
1 0.504601 0.0566567
1 0.499001 0.054551
1 0.493141 0.0524147
1 0.487022 0.0501869
1 0.480156 0.0476844
1 0.472679 0.0449683
1 0.463905 0.0417639
1 0.453819 0.0380102
1 0.442344 0.0336614
1 0.429847 0.0290379
1 0.416785 0.0244755
1 0.406653 0.0210574
0 0.487602 0.351125
0 0.484443 0.348837
0 0.481422 0.346685
0 0.478904 0.344854
0 0.477028 0.343465
0 0.476432 0.342992
0 0.478721 0.344533
0 0.481086 0.346105
0 0.478889 0.34432
0 0.471916 0.33637
0.000808728 0.461875 0.315999
0.0153353 0.454719 0.281575
0.0905776 0.444572 0.237568
0.238941 0.43801 0.195514
0.440879 0.435264 0.149996
0.600259 0.433021 0.0991836
0.720302 0.437095 0.0731518
0.829526 0.448875 0.0590372
0.93373 0.470436 0.0550698
0.998779 0.504341 0.0615091
1 0.546777 0.0750286
1 0.56025 0.0819104
1 0.555428 0.0796979
1 0.549722 0.0770581
1 0.543755 0.0743114
1 0.537392 0.0713817
1 0.530114 0.0679484
1 0.521889 0.0640269
1 0.512932 0.0599222
1 0.502922 0.0559854
1 0.492287 0.0520638
1 0.481025 0.0479438
1 0.471534 0.0444953
0 0.578836 0.419364
0 0.576516 0.417563
0 0.574075 0.415625
0 0.571313 0.413428
0 0.570031 0.41239
0 0.569833 0.412207
0 0.572747 0.414466
0 0.575677 0.41677
0 0.574426 0.415732
0 0.567544 0.409247
0 0.556756 0.391394
0.00340276 0.545647 0.353445
0.0359655 0.53611 0.30985
0.142046 0.526284 0.266011
0.330205 0.522164 0.216983
0.539483 0.520455 0.162249
0.688975 0.518502 0.107576
0.804288 0.522622 0.0758068
0.90219 0.534829 0.0607767
0.978714 0.557839 0.0603494
1 0.589792 0.0732433
1 0.609201 0.084947
1 0.60531 0.0849165
1 0.600427 0.0845655
1 0.595193 0.0843214
1 0.589197 0.0840009
1 0.582345 0.0835584
1 0.574548 0.0829023
1 0.565911 0.0820478
1 0.556359 0.0801251
1 0.545632 0.0752728
1 0.534325 0.0700999
1 0.525567 0.0660258
0 0.665705 0.484901
0 0.663996 0.483055
0 0.662028 0.481071
0 0.660288 0.479347
0 0.659144 0.478279
0 0.659571 0.478584
0 0.662287 0.480751
0 0.665537 0.483452
0 0.664729 0.482704
0 0.65948 0.477913
0 0.649882 0.465751
0 0.638071 0.438224
0.00743114 0.628214 0.395911
0.0640879 0.617533 0.34435
0.205173 0.610681 0.298894
0.441245 0.609201 0.250401
0.638544 0.605447 0.177218
0.77377 0.602274 0.115328
0.876875 0.603998 0.0778668
0.958099 0.616678 0.0657511
0.999649 0.64004 0.0717174
1 0.660594 0.0854353
1 0.656352 0.0861677
1 0.650462 0.0863661
1 0.643885 0.0865339
1 0.636469 0.0865797
1 0.628367 0.0865949
1 0.619852 0.0863661
1 0.611185 0.0856641
1 0.602075 0.0849012
1 0.592325 0.0841077
1 0.582223 0.0833143
1 0.574334 0.0825513
0 0.745602 0.555291
0 0.744091 0.55404
0 0.742901 0.553079
0 0.741726 0.552102
0 0.741268 0.551766
0 0.741878 0.552377
0 0.744564 0.554726
0 0.747936 0.557733
0 0.747829 0.557656
0 0.743938 0.554162
0 0.736507 0.54548
0 0.725536 0.523705
0.00109865 0.715175 0.484169
0.0196231 0.705531 0.438727
0.110567 0.694911 0.386587
0.294759 0.691279 0.339162
0.547799 0.692393 0.293965
0.728496 0.685008 0.201572
0.853208 0.679393 0.127764
0.937392 0.680766 0.0880903
0.993805 0.694133 0.0779583
1 0.710262 0.0871595
1 0.706386 0.087602
1 0.699596 0.0868544
1 0.692134 0.0861219
1 0.684276 0.0858167
1 0.67602 0.0857557
1 0.667124 0.0857862
1 0.657389 0.0860456
1 0.646891 0.0863355
1 0.635828 0.0864881
1 0.624506 0.0864424
1 0.616342 0.0861372
0 0.814817 0.619577
0 0.813825 0.618341
0 0.812696 0.617029
0 0.811978 0.616159
0 0.811551 0.615595
0 0.812451 0.616388
0 0.815091 0.619058
0 0.817975 0.622003
0 0.818204 0.622187
0 0.815579 0.619333
0 0.809903 0.612772
0 0.801068 0.599039
0 0.791363 0.57142
0.00343328 0.782254 0.526604
0.0391089 0.772656 0.473854
0.174441 0.765927 0.429114
0.416678 0.764691 0.385885
0.642176 0.766094 0.332723
0.804074 0.759564 0.24448
0.918181 0.751156 0.150591
0.980316 0.752544 0.10901
1 0.761135 0.0957198
1 0.760082 0.0929885
1 0.752178 0.0923476
1 0.743328 0.0915541
1 0.733822 0.0906081
1 0.723262 0.0894179
1 0.712352 0.0882429
1 0.701564 0.0871443
1 0.69041 0.0861372
1 0.679103 0.0858015
1 0.667811 0.085832
1 0.659541 0.0859846
0 0.872496 0.682841
0 0.871839 0.682109
0 0.871092 0.6813
0 0.87071 0.680858
0 0.870634 0.680781
0 0.871275 0.681529
0 0.873365 0.68394
0 0.875746 0.686687
0 0.875944 0.6869
0 0.874037 0.684718
0 0.869871 0.679774
0 0.862806 0.669291
0 0.854398 0.648783
0 0.847333 0.616693
0.0096437 0.838956 0.571649
0.0741741 0.829145 0.515114
0.240757 0.824918 0.466316
0.526314 0.82855 0.438224
0.724224 0.828428 0.380224
0.870024 0.82179 0.290745
0.961364 0.813046 0.195804
0.999268 0.81236 0.147555
1 0.811719 0.132006
1 0.803113 0.123613
1 0.793317 0.114794
1 0.783047 0.106615
1 0.771954 0.0989242
1 0.760342 0.0928511
1 0.748455 0.0917678
1 0.735897 0.0906081
1 0.722484 0.0892042
1 0.709163 0.087953
1 0.700359 0.0870375
0 0.897368 0.711788
0 0.897246 0.711635
0 0.897215 0.711604
0 0.897246 0.71165
0 0.897383 0.711803
0 0.897673 0.712154
0 0.898146 0.712688
0 0.898604 0.713237
0 0.898711 0.713344
0 0.898512 0.713115
0 0.898116 0.712612
0 0.89781 0.711589
0 0.897902 0.708003
0 0.896056 0.692409
0 0.889357 0.651621
0.0157626 0.881376 0.599161
0.117739 0.874861 0.552773
0.338262 0.874556 0.511315
0.602258 0.881209 0.487098
0.79472 0.881682 0.436957
0.920043 0.872572 0.336721
0.988052 0.864134 0.250889
1 0.859602 0.204273
1 0.851347 0.185046
1 0.841016 0.168276
1 0.830045 0.153246
1 0.818448 0.138949
1 0.806256 0.125826
1 0.793622 0.114687
1 0.780514 0.104631
1 0.766751 0.096376
1 0.752895 0.0920272
1 0.743404 0.0911727
0 0.901366 0.716442
0 0.901366 0.716442
0 0.901366 0.716442
0 0.901366 0.716442
0 0.901366 0.716442
0 0.901366 0.716442
0 0.901366 0.716442
0 0.901366 0.716442
0 0.901366 0.716442
0 0.901366 0.716442
0 0.901381 0.716457
0 0.90161 0.716564
0 0.903075 0.716869
0 0.906264 0.712734
0 0.906722 0.690532
0.00447089 0.905653 0.65481
0.0354772 0.903838 0.612116
0.149264 0.904494 0.565576
0.423163 0.913481 0.553002
0.691279 0.920363 0.537774
0.849531 0.92137 0.480186
0.953582 0.914 0.388907
0.998871 0.903502 0.304463
1 0.895811 0.268132
1 0.885435 0.246754
1 0.874235 0.225147
1 0.862409 0.20351
1 0.849683 0.181903
1 0.836469 0.161181
1 0.822904 0.144015
1 0.808682 0.127886
1 0.794522 0.115084
1 0.784833 0.10724
0 0.901366 0.716442
0 0.901366 0.716442
0 0.901366 0.716442
0 0.901366 0.716442
0 0.901366 0.716442
0 0.901366 0.716442
0 0.901366 0.716442
0 0.901366 0.716442
0 0.901366 0.716442
0 0.901366 0.716442
0 0.901366 0.716442
0 0.901473 0.716503
0 0.902586 0.716991
0 0.905928 0.716487
0 0.908232 0.704173
0 0.908278 0.672648
0.0109865 0.907591 0.635676
0.0809033 0.907088 0.589242
0.273716 0.913191 0.561471
0.584314 0.925917 0.563699
0.766629 0.93637 0.543282
0.903319 0.9402 0.493477
0.983627 0.937636 0.41619
1 0.931762 0.356451
1 0.922408 0.323156
1 0.912383 0.299458
1 0.901793 0.278782
1 0.889708 0.254856
1 0.87657 0.229236
1 0.862654 0.203769
1 0.848112 0.179278
1 0.833524 0.157137
1 0.823758 0.144686
0 0.901366 0.716442
0 0.901366 0.716442
0 0.901366 0.716442
0 0.901366 0.716442
0 0.901366 0.716442
0 0.901366 0.716442
0 0.901366 0.716442
0 0.901366 0.716442
0 0.901366 0.716442
0 0.901366 0.716442
0 0.901366 0.716442
0 0.901411 0.716472
0 0.902022 0.716808
0 0.904433 0.717464
0 0.907668 0.711467
0 0.908385 0.686152
0.00598154 0.908095 0.652766
0.0396277 0.906767 0.608606
0.159731 0.908934 0.566278
0.449058 0.920409 0.563134
0.687327 0.93312 0.560601
0.840497 0.941817 0.531441
0.944732 0.942336 0.466438
0.997848 0.941131 0.403128
1 0.939681 0.36759
1 0.938277 0.362585
1 0.9337 0.3514
1 0.92282 0.324041
1 0.911238 0.297215
1 0.898466 0.271962
1 0.884596 0.244694
1 0.870176 0.217288
1 0.860517 0.199786
0 0.901366 0.716442
0 0.901366 0.716442
0 0.901366 0.716442
0 0.901366 0.716442
0 0.901366 0.716442
0 0.901366 0.716442
0 0.901366 0.716442
0 0.901366 0.716442
0 0.901366 0.716442
0 0.901366 0.716442
0 0.901366 0.716442
0 0.901381 0.716442
0 0.901595 0.716564
0 0.90309 0.717235
0 0.906676 0.715587
0 0.90837 0.69929
0.000732433 0.908263 0.667491
0.014847 0.907362 0.630014
0.0897536 0.907179 0.584894
0.290745 0.913954 0.561929
0.583658 0.926848 0.565225
0.760189 0.937819 0.549371
0.893019 0.942855 0.507164
0.97319 0.942168 0.437919
0.999435 0.94136 0.387488
1 0.941375 0.370779
1 0.940932 0.369284
1 0.939651 0.365972
1 0.936538 0.35816
1 0.927916 0.336645
1 0.915496 0.306996
1 0.902556 0.279973
1 0.893828 0.262577
0 0.901366 0.716442
0 0.901366 0.716442
0 0.901366 0.716442
0 0.901366 0.716442
0 0.901366 0.716442
0 0.901366 0.716442
0 0.901366 0.716442
0 0.901366 0.716442
0 0.901366 0.716442
0 0.901366 0.716442
0 0.901366 0.716442
0 0.901366 0.716442
0 0.901442 0.716487
0 0.902358 0.716976
0 0.905394 0.717525
0 0.908019 0.709178
0 0.90837 0.68191
0.00694286 0.908049 0.649653
0.0428779 0.906676 0.605966
0.162402 0.909056 0.566262
0.438163 0.919905 0.563317
0.67248 0.932113 0.562203
0.820874 0.940948 0.536583
0.92903 0.94258 0.480232
0.990753 0.941985 0.416464
1 0.941421 0.376287
1 0.941421 0.370565
1 0.941405 0.37055
1 0.941176 0.369955
1 0.9402 0.367391
1 0.937163 0.359701
1 0.929473 0.340322
1 0.921996 0.321355
0 0.901366 0.716442
0 0.901366 0.716442
0 0.901366 0.716442
0 0.901366 0.716442
0 0.901366 0.716442
0 0.901366 0.716442
0 0.901366 0.716442
0 0.901366 0.716442
0 0.901366 0.716442
