LUT预设1/LUT全系打包/人像lut/人像系列lut/人像绿调（高对比）.cube
TITLE "Generated by Resolve"
LUT_3D_SIZE 9
0.0144198 0.0668345 0.075227
0.0242924 0.066331 0.0736095
0.0829633 0.0625772 0.0689097
0.413611 0.0239872 0.0394293
0.710445 0.0153658 0.0353399
0.985046 0.0713817 0.0992294
1 0.12488 0.156313
1 0.12488 0.156313
1 0.12488 0.156313
0.0145113 0.069749 0.0768139
0.0187533 0.0684825 0.0755474
0.077348 0.0632944 0.0691386
0.403708 0.0248112 0.0401312
0.711376 0.0157015 0.0357519
0.988418 0.0728008 0.100801
1 0.124727 0.156161
1 0.12488 0.156313
1 0.12488 0.156313
0.00851453 0.0983902 0.08925
0.00851453 0.0985275 0.0892958
0.057435 0.0981765 0.088365
0.540475 0.0538643 0.0518044
0.814343 0.0679637 0.0716106
0.996963 0.102296 0.113863
1 0.137636 0.162066
1 0.127611 0.157778
1 0.126635 0.157259
0.000274662 0.309682 0.121004
0.000274662 0.313588 0.12134
0.00125124 0.314733 0.123079
0.269368 0.278538 0.0947127
0.730938 0.247807 0.0875715
1 0.207218 0.160723
1 0.218906 0.174426
1 0.236057 0.173297
1 0.234653 0.173526
0.000793469 0.605097 0.176394
0.000793469 0.608927 0.1776
0.000793469 0.608347 0.17702
0.0853742 0.582666 0.124605
0.615335 0.563378 0.0934462
0.966018 0.515663 0.166918
1 0.434211 0.167041
1 0.377203 0.167147
1 0.388128 0.166751
0.00108339 0.825788 0.238712
0.00108339 0.828656 0.239445
0.00108339 0.830777 0.240024
0.0277867 0.817243 0.213733
0.471748 0.788388 0.0884108
0.841718 0.762509 0.110491
1 0.720043 0.173739
1 0.654582 0.221347
1 0.599023 0.222873
0.0353552 0.987945 0.311955
0.0367285 0.988952 0.313512
0.0385595 0.990417 0.315602
0.0472419 0.986633 0.304524
0.294072 0.973465 0.146517
0.746334 0.969543 0.112551
0.999329 0.950973 0.158007
1 0.939651 0.202121
1 0.929427 0.200473
0.110369 1 0.39408
0.111177 1 0.394995
0.111192 1 0.39501
0.111223 1 0.394095
0.230442 0.999786 0.300694
0.671687 0.999252 0.170169
0.982757 0.999069 0.194675
1 0.999084 0.225162
1 0.999084 0.228473
0.111269 1 0.395102
0.111269 1 0.395102
0.111269 1 0.395102
0.11136 1 0.395056
0.179446 0.999893 0.340322
0.604105 0.999298 0.175952
0.94696 0.999084 0.191089
1 0.999084 0.224994
1 0.9991 0.234943
0.0120394 0.0678264 0.0790265
0.0207828 0.0673838 0.0772869
0.0804303 0.0628672 0.0697032
0.412207 0.0241398 0.0396124
0.712245 0.0155337 0.0355688
0.985748 0.0721752 0.100099
1 0.12488 0.156313
1 0.12488 0.156313
1 0.12488 0.156313
0.0136568 0.0697948 0.078294
0.0170443 0.0686046 0.0767987
0.0728771 0.0640116 0.0697795
0.402564 0.0249027 0.0402838
0.710613 0.015671 0.0357214
0.988754 0.0725872 0.100587
1 0.124681 0.1561
1 0.12488 0.156313
1 0.12488 0.156313
0.00849927 0.0984665 0.0893111
0.00849927 0.098558 0.0893568
0.0573892 0.0982223 0.0884108
0.500404 0.0615091 0.055436
0.76527 0.0756847 0.0694133
0.997711 0.10309 0.113939
1 0.138064 0.16228
1 0.127855 0.157885
1 0.126772 0.157321
0.000259403 0.311162 0.121126
0.000274662 0.315373 0.121477
0.00105287 0.316396 0.123217
0.270314 0.280339 0.0941329
0.778058 0.232197 0.0900587
0.999924 0.213947 0.147601
1 0.264759 0.169589
1 0.242679 0.172656
1 0.23595 0.173419
0.000793469 0.606577 0.176837
0.000793469 0.610346 0.178027
0.000793469 0.609964 0.177523
0.0854353 0.584115 0.124743
0.616266 0.565133 0.093492
0.972534 0.514321 0.162036
1 0.428077 0.165911
1 0.403571 0.166033
1 0.435035 0.164614
0.00109865 0.827146 0.239063
0.00108339 0.830152 0.239811
0.00109865 0.832181 0.240345
0.0275578 0.818708 0.214069
0.473457 0.789609 0.0883345
0.842771 0.763943 0.110552
1 0.721782 0.173266
1 0.638987 0.22443
1 0.595071 0.223087
0.0360723 0.988617 0.312734
0.0373846 0.989456 0.314244
0.0391699 0.990768 0.316289
0.0480507 0.987289 0.305257
0.296651 0.974563 0.146654
0.74789 0.970916 0.1131
0.999222 0.952377 0.158556
1 0.941131 0.202335
1 0.929091 0.200458
0.110658 1 0.3944
0.111192 1 0.39501
0.111177 1 0.39501
0.111177 1 0.39408
0.232166 0.999771 0.299657
0.673365 0.999252 0.170092
0.98349 0.999069 0.194873
1 0.999084 0.225422
1 0.999084 0.228656
0.111269 1 0.395102
0.111269 1 0.395102
0.111269 1 0.395102
0.11136 1 0.395056
0.181903 0.999893 0.33843
0.607797 0.999298 0.175448
0.949126 0.999084 0.191272
1 0.999084 0.225299
1 0.9991 0.234943
0 0.0782025 0.153353
1.5259e-05 0.0776226 0.148425
0.0569772 0.066804 0.119387
0.394186 0.0259251 0.0890516
0.709941 0.0169833 0.069749
0.987442 0.0719615 0.122713
1 0.125246 0.165652
1 0.124987 0.158816
1 0.124956 0.158145
1.5259e-05 0.0769665 0.130358
7.62951e-05 0.0762341 0.126879
0.053193 0.0677348 0.112245
0.390555 0.0260929 0.0872358
0.712642 0.0173953 0.0707713
0.991745 0.0733501 0.125628
1 0.124987 0.166781
1 0.125017 0.159487
1 0.124971 0.158389
0.00445563 0.101106 0.112215
0.00445563 0.101289 0.112673
0.0521401 0.101228 0.108995
0.398871 0.0793622 0.0947127
0.764584 0.0759594 0.0973678
0.998184 0.101915 0.128801
1 0.137881 0.16733
1 0.127825 0.159518
1 0.126772 0.158724
0.000198367 0.309758 0.134691
0.000213626 0.313878 0.135622
0.00109865 0.31548 0.136522
0.266712 0.279835 0.102388
0.773739 0.226352 0.116411
0.971145 0.258289 0.112306
1 0.277241 0.165774
1 0.24329 0.17258
1 0.236469 0.173312
0.000793469 0.606546 0.177859
0.000793469 0.610086 0.179232
0.000793469 0.610086 0.178912
0.0834974 0.584649 0.125933
0.615946 0.566308 0.093492
0.992233 0.494499 0.150149
1 0.459251 0.1776
1 0.488029 0.166918
1 0.494285 0.168872
0.00108339 0.827878 0.239246
0.00109865 0.830976 0.240009
0.00109865 0.833143 0.240604
0.0277256 0.819806 0.21413
0.474525 0.79115 0.0881056
0.843626 0.765499 0.110597
1 0.719966 0.176501
1 0.615747 0.230228
1 0.601297 0.242451
0.0366369 0.989349 0.313375
0.0379492 0.989853 0.31487
0.0398413 0.991394 0.317021
0.0489357 0.988205 0.30605
0.29929 0.975753 0.1467
0.749508 0.972717 0.113787
0.999146 0.954498 0.159289
1 0.942931 0.202594
1 0.918593 0.199023
0.110887 1 0.394644
0.111254 1 0.395071
0.111147 1 0.394965
0.111238 1 0.394156
0.233677 0.999771 0.298817
0.675593 0.999237 0.170184
0.984314 0.999069 0.195071
1 0.999084 0.225711
1 0.999084 0.228702
0.111269 1 0.395102
0.111269 1 0.395102
0.111269 1 0.395102
0.11136 1 0.395056
0.183642 0.999878 0.336873
0.609934 0.999283 0.175143
0.950622 0.999084 0.191394
1 0.999084 0.225467
1 0.9991 0.234943
0 0.0979934 0.412009
0 0.0973831 0.403922
0.000106813 0.0865492 0.373449
0.342458 0.0193179 0.36878
0.694606 0.00949111 0.355367
0.991516 0.0586099 0.412833
0.999969 0.115816 0.415671
1 0.119158 0.343694
1 0.120012 0.326452
0 0.0964218 0.38024
0 0.0962387 0.377111
1.5259e-05 0.0869764 0.361776
0.343755 0.0188144 0.36202
0.70132 0.0105135 0.35935
0.995773 0.0599527 0.419104
0.999969 0.115038 0.422171
1 0.118654 0.354055
1 0.11928 0.341283
0 0.125383 0.308156
0 0.125811 0.309728
0.000228885 0.12639 0.323857
0.369863 0.0702983 0.377905
0.749004 0.0628214 0.393683
0.998703 0.0845808 0.39617
1 0.126207 0.398245
1 0.121431 0.33167
1 0.121111 0.322103
0 0.29659 0.304631
0 0.299992 0.310033
0.00976577 0.299947 0.310765
0.238911 0.26424 0.253101
0.668193 0.248005 0.236851
0.970169 0.242267 0.2365
1 0.263172 0.260212
1 0.235569 0.244083
1 0.229557 0.240085
0.000198367 0.5879 0.294697
0.000183108 0.590982 0.299687
0.000167849 0.591257 0.301472
0.0819104 0.570428 0.231632
0.598215 0.556878 0.156939
0.968627 0.489952 0.241611
1 0.518334 0.192676
1 0.500633 0.188739
1 0.493004 0.185687
0.000900282 0.820981 0.280324
0.000885023 0.824018 0.282078
0.000885023 0.826352 0.284703
0.0278325 0.814847 0.253986
0.459022 0.78706 0.110674
0.83827 0.763134 0.125612
1 0.686107 0.230442
1 0.625772 0.315435
1 0.653254 0.255055
0.0359045 0.987381 0.31899
0.0372931 0.988159 0.321187
0.0393378 0.989822 0.324987
0.047425 0.986862 0.312871
0.291554 0.974517 0.15111
0.745296 0.971756 0.113497
0.998734 0.953384 0.158434
1 0.936492 0.201785
1 0.885283 0.211841
0.110933 1 0.39472
0.111269 1 0.395102
0.111055 1 0.394842
0.111009 1 0.394095
0.230396 0.999771 0.300542
0.672709 0.999237 0.170001
0.983963 0.999069 0.194903
1 0.999084 0.225574
1 0.999084 0.228656
0.111269 1 0.395102
0.111269 1 0.395102
0.111269 1 0.395102
0.11133 1 0.395071
0.18201 0.999893 0.338003
0.607645 0.999283 0.175128
0.949935 0.999084 0.191287
1 0.999084 0.225345
1 0.9991 0.234943
0 0.113115 0.604135
0 0.112505 0.597604
0 0.10901 0.598688
0.219638 0.0477913 0.680613
0.689219 0.0198672 0.726406
0.982101 0.057023 0.749859
0.998093 0.109895 0.754009
0.998367 0.109483 0.71371
0.998459 0.109361 0.703227
0 0.111757 0.587045
0 0.111681 0.585779
0 0.108736 0.592462
0.222507 0.0468452 0.680552
0.694301 0.0202792 0.727825
0.987716 0.0588388 0.755062
0.998047 0.109407 0.758709
0.998337 0.109575 0.720562
0.998367 0.109422 0.713207
0 0.148821 0.564111
0 0.14931 0.565332
0 0.152483 0.587427
0.268635 0.0986496 0.71928
0.718761 0.0613565 0.746532
0.991012 0.0749981 0.743526
0.998169 0.115618 0.74493
0.998413 0.110445 0.707835
0.998459 0.109743 0.701457
0 0.331502 0.533165
0 0.335576 0.535805
0 0.336507 0.53991
0.119753 0.296513 0.567132
0.629252 0.217945 0.636057
0.950484 0.207691 0.638788
0.999298 0.224918 0.652369
0.999298 0.20209 0.641062
0.999283 0.196796 0.638727
0.0202335 0.570581 0.610574
0.0210117 0.574578 0.615198
0.0225986 0.575433 0.616342
0.122606 0.548333 0.571603
0.50782 0.509194 0.486549
0.848295 0.505058 0.483192
1 0.494667 0.473823
1 0.47097 0.448188
1 0.462501 0.439155
0.0464485 0.781018 0.615137
0.0473335 0.78381 0.620462
0.0488289 0.786068 0.628199
0.0836042 0.775158 0.594995
0.378149 0.743709 0.414054
0.790845 0.743175 0.360891
1 0.679072 0.494682
1 0.680568 0.37203
1 0.673426 0.360494
0.0573587 0.96762 0.549249
0.0598764 0.969696 0.555993
0.0644236 0.972274 0.570336
0.0673075 0.968841 0.549035
0.242679 0.956649 0.356924
0.694728 0.958724 0.23212
0.995712 0.944961 0.242084
1 0.895384 0.343603
1 0.844495 0.522805
0.116701 1 0.487892
0.117723 1 0.493996
0.118242 1 0.502998
0.117266 1 0.496361
0.212009 0.999908 0.38645
0.637156 0.999313 0.210605
0.974563 0.9991 0.221683
1 0.999115 0.245731
1 0.999115 0.246983
0.113832 1 0.441093
0.114168 1 0.446036
0.114443 1 0.451804
0.114397 1 0.450919
0.174029 0.999954 0.388525
0.583886 0.999329 0.199451
0.940291 0.9991 0.204776
1 0.9991 0.233921
1 0.9991 0.242084
0 0.128679 0.72459
0 0.128008 0.72079
0 0.128847 0.735439
0.116503 0.0882429 0.861112
0.642756 0.0543069 0.974517
0.955139 0.0790265 0.977066
0.996521 0.124315 0.987625
0.996658 0.121675 0.968048
0.996704 0.120897 0.960739
0 0.127275 0.71667
0 0.127199 0.716304
0 0.128389 0.733196
0.119371 0.087541 0.863554
0.649866 0.0550393 0.976806
0.96202 0.0809033 0.98117
0.996506 0.124041 0.991913
0.996643 0.12224 0.971649
0.996674 0.121675 0.966476
0 0.16701 0.722087
0 0.167727 0.72369
0 0.173892 0.747539
0.173083 0.138903 0.909987
0.657725 0.0857557 0.988251
0.962646 0.0914473 0.978378
0.996551 0.126207 0.985092
0.996689 0.12192 0.964691
0.996704 0.121065 0.960403
0 0.355749 0.719707
0 0.359762 0.721859
0 0.360052 0.728099
0.0488746 0.322423 0.79147
0.551034 0.237903 0.931945
0.919646 0.203738 0.934813
0.997223 0.214237 0.940169
0.997208 0.195377 0.931426
0.997192 0.190448 0.928756
0.00158694 0.597238 0.760052
0.00189212 0.601099 0.764126
0.00164797 0.60209 0.765652
0.0568093 0.5794 0.74464
0.422889 0.532906 0.765652
0.800992 0.468727 0.808179
0.9991 0.453407 0.809491
0.9991 0.432288 0.798154
0.9991 0.423651 0.793957
0.078294 0.775814 0.835966
0.0792554 0.778714 0.83949
0.0801251 0.781628 0.843656
0.110063 0.771176 0.83006
0.40441 0.724285 0.75285
0.68777 0.685649 0.685115
0.987808 0.684092 0.691981
1 0.679622 0.684794
1 0.672297 0.672404
0.128084 0.943465 0.866682
0.13048 0.946151 0.871229
0.1346 0.950439 0.879652
0.136843 0.945571 0.869856
0.290059 0.920714 0.778408
0.592248 0.898909 0.632883
0.964034 0.917586 0.605447
1 0.865919 0.718669
1 0.891127 0.634791
0.182147 1 0.869047
0.183505 1 0.87361
0.185153 1 0.882078
0.183764 1 0.878508
0.239994 1 0.793667
0.523415 0.999878 0.580545
0.899229 0.999481 0.49868
1 0.99939 0.481041
1 0.999374 0.473106
0.168566 1 0.811444
0.170291 1 0.819348
0.172976 1 0.831266
0.172259 1 0.82884
0.203159 1 0.763928
0.474693 0.999863 0.52987
0.850278 0.99942 0.428305
1 0.999313 0.414511
1 0.999298 0.407782
0 0.140673 0.795895
0 0.140658 0.795865
0 0.144671 0.813245
0.0814069 0.121141 0.946029
0.581521 0.0972915 1
0.926925 0.107393 1
0.996506 0.146639 1
0.996506 0.145327 1
0.996506 0.144533 1
0 0.140627 0.795499
0 0.140612 0.795377
0 0.14435 0.812207
0.0860151 0.119921 0.949859
0.591501 0.0971084 1
0.934676 0.108873 1
0.996506 0.146563 1
0.996506 0.145815 1
0.996506 0.145235 1
0 0.184527 0.823835
0 0.185809 0.825696
0 0.192782 0.847745
0.131014 0.170947 0.985519
0.585245 0.123156 1
0.931014 0.116594 1
0.996506 0.146715 1
0.996506 0.14519 1
0.99649 0.144457 1
0 0.373831 0.836789
0 0.378042 0.838773
0 0.37792 0.843702
0.0242313 0.343221 0.916838
0.468238 0.271351 0.999695
0.877516 0.221653 1
0.996841 0.226535 1
0.996765 0.209674 1
0.99675 0.204685 1
6.10361e-05 0.616434 0.869566
7.62951e-05 0.619989 0.872557
7.62951e-05 0.621424 0.873899
0.0217594 0.601205 0.878218
0.354421 0.555535 0.960723
0.733867 0.482704 0.999924
0.996979 0.438056 0.999908
0.997604 0.413108 0.999634
0.997574 0.404517 0.999573
0.0656291 0.789868 0.940139
0.0667887 0.792721 0.942718
0.0679789 0.795865 0.945876
0.0883497 0.787839 0.939681
0.325216 0.752987 0.908736
0.611414 0.708675 0.924361
0.960388 0.644785 0.96054
0.998779 0.630594 0.960037
0.998795 0.622797 0.95375
0.15317 0.946532 0.994034
0.1552 0.949325 0.994232
0.158495 0.954055 0.994751
0.160555 0.948974 0.994476
0.300343 0.92369 0.977325
0.621164 0.88896 0.911559
0.871199 0.863142 0.86183
1 0.866728 0.87155
1 0.860044 0.864637
0.234546 1 0.995544
0.234928 1 0.995529
0.235004 1 0.99556
0.23386 1 0.995544
0.291615 1 0.994751
0.568368 1 0.936873
0.796704 0.999756 0.822293
1 0.999664 0.793866
1 0.985885 0.841749
0.228656 1 0.994827
0.229419 1 0.994934
0.230625 1 0.995315
0.23035 1 0.995377
0.263752 1 0.993561
0.515526 1 0.912734
0.740841 0.999939 0.779126
1 0.999695 0.750652
1 0.999695 0.748196
0 0.140673 0.795911
0 0.140673 0.795911
0 0.144686 0.810651
0.0486152 0.125414 0.930282
0.549889 0.100649 1
0.90721 0.110796 1
0.996536 0.150271 1
0.996536 0.153414 1
0.996536 0.153414 1
0 0.140673 0.795911
0 0.140673 0.795911
0 0.144579 0.810742
0.0553597 0.124468 0.93547
0.56112 0.100557 1
0.916365 0.111803 1
0.996521 0.150378 1
0.996536 0.153414 1
0.996536 0.153414 1
0 0.176181 0.822965
0 0.177234 0.823758
0 0.183185 0.842023
0.0898604 0.167742 0.9738
0.549889 0.122499 1
0.90927 0.118105 1
0.996536 0.150942 1
0.996536 0.153536 1
0.996536 0.153429 1
0 0.36231 0.858167
0 0.365957 0.858549
0 0.365881 0.862821
0.0108492 0.336446 0.935042
0.4327 0.272999 0.999557
0.844343 0.22565 1
0.996841 0.229999 1
0.996811 0.218204 1
0.996796 0.213855 1
1.5259e-05 0.617914 0.916854
1.5259e-05 0.621302 0.918273
1.5259e-05 0.622675 0.918853
0.0104067 0.604562 0.930419
0.318318 0.56112 0.997543
0.674266 0.496376 0.999908
0.99353 0.438422 1
0.997604 0.414832 1
0.997574 0.406561 1
0.0520333 0.800183 0.9935
0.0532998 0.80267 0.994217
0.0548257 0.805631 0.994629
0.0727703 0.798611 0.994919
0.278721 0.766857 0.996445
0.562829 0.725078 0.998413
0.925338 0.652583 1
0.998459 0.625986 1
0.998444 0.617151 1
0.150057 0.961135 0.995193
0.152224 0.963729 0.995193
0.155215 0.968048 0.995193
0.156344 0.963302 0.995224
0.276493 0.940887 0.995987
0.566888 0.917922 0.997726
0.819974 0.880796 0.998962
0.999329 0.837537 1
0.999298 0.828702 1
0.248096 1 0.995636
0.247913 1 0.995636
0.246845 1 0.995621
0.245838 1 0.995621
0.303746 1 0.995956
0.570993 1 0.997513
0.806867 0.99884 0.998825
0.994354 0.985275 0.990829
0.999969 0.980285 0.989227
0.249302 1 0.995636
0.249317 1 0.995636
0.24921 1 0.995636
0.249088 1 0.995636
0.28481 1 0.99585
0.529412 1 0.997269
0.772503 1 0.998611
0.9879 0.999985 0.983017
1 0.999985 0.977432
0 0.140673 0.795911
0 0.140673 0.795911
0 0.144533 0.809171
0.0361944 0.127337 0.920363
0.532662 0.100877 1
0.896712 0.109392 1
0.996521 0.149065 1
0.996536 0.153414 1
0.996536 0.153414 1
0 0.140673 0.795911
0 0.140673 0.795911
0 0.144442 0.80943
0.0427863 0.126223 0.926467
0.546136 0.10074 1
0.907317 0.11046 1
0.996521 0.149493 1
0.996536 0.153414 1
0.996536 0.153414 1
0 0.171923 0.819806
0 0.173053 0.820569
0 0.177356 0.835004
0.0675975 0.164462 0.961868
0.532876 0.119478 1
0.898482 0.114672 1
0.996521 0.149599 1
0.996536 0.153445 1
0.996536 0.153414 1
0 0.350576 0.856779
0 0.354604 0.857206
0 0.354101 0.860548
0.00694286 0.326741 0.928908
0.420981 0.264759 0.999512
0.835615 0.218814 1
0.996811 0.224018 1
0.996796 0.214298 1
0.996765 0.210071 1
0 0.609125 0.913451
0 0.612848 0.914961
0 0.614679 0.915648
0.00482185 0.597681 0.927123
0.306325 0.55436 0.997452
0.665599 0.489555 0.999893
0.992386 0.431571 1
0.997574 0.408911 1
0.997543 0.400595 1
0.0491035 0.794522 0.992584
0.0505226 0.797284 0.993515
0.0522316 0.80058 0.994461
0.0683146 0.794064 0.994827
0.266987 0.76289 0.996521
0.553643 0.720668 0.998383
0.914488 0.649256 1
0.998444 0.621897 1
0.998413 0.613184 1
0.145464 0.958511 0.995163
0.147784 0.961364 0.995163
0.151125 0.965698 0.995178
0.151431 0.961196 0.995209
0.265156 0.939864 0.995926
0.550591 0.918914 0.99765
0.801297 0.884794 0.999252
0.999252 0.835157 1
0.999283 0.82591 1
0.239612 1 0.99559
0.239643 1 0.995575
0.239063 1 0.995575
0.238178 1 0.995575
0.299168 1 0.995926
0.549844 1 0.997375
0.774884 1 0.998688
0.978973 0.987839 0.999908
0.999908 0.978637 1
0.241398 1 0.99559
0.241535 1 0.99559
0.24155 1 0.99559
0.241688 1 0.99559
0.283177 1 0.99585
0.51104 1 0.997162
0.751797 1 0.998566
0.977157 1 0.999878
1 1 1
