LUT预设1/LUT全系打包/人像lut/人像系列lut/人像冷白.cube
TITLE "Generated by Resolve"
LUT_3D_SIZE 5
0.00357061 0.00357061 0.00357061
0.273884 0.0178683 0.00604257
0.874403 0.0933394 0.0203555
0.958938 0.102663 0.0204318
0.957992 0.103182 0.0180514
0.13228 0.0811627 0.111269
0.054612 0.123476 0.0187381
0.858091 0.168902 0.0233158
0.958312 0.178164 0.0239719
0.957961 0.14081 0.0229801
0.445777 0.64332 0.397223
0.232395 0.710964 0.585336
0.568887 0.647288 0.135958
0.954925 0.642893 0.0451057
0.954467 0.625757 0.0239567
0.620829 0.847898 0.576059
0.480629 0.870817 0.755032
0.109987 0.995834 0.741863
0.808331 0.895338 0.215442
0.936538 0.856657 0.221134
0.723308 0.810681 0.642847
0.58677 0.836973 0.777707
0.321935 0.927932 0.905165
0.443351 0.997726 0.538933
0.791272 0.900832 0.211353
0.0425879 0.0830091 0.253468
0.214145 0.0056611 0.24741
0.871092 0.0352483 0.134936
0.964706 0.0471656 0.128801
0.964279 0.0574655 0.111711
0.0670329 0.104356 0.11162
0.0708934 0.0803388 0.0885634
0.707332 0.131365 0.0542916
0.959915 0.169696 0.0508736
0.959457 0.168841 0.0460059
0.309773 0.649653 0.370825
0.323949 0.60502 0.280812
0.551919 0.559747 0.12108
0.958618 0.618509 0.129183
0.955764 0.626886 0.0340887
0.396506 0.879377 0.715404
0.46772 0.886946 0.59147
0.372305 0.933089 0.657877
0.853178 0.881407 0.219654
0.954528 0.921782 0.66569
0.404379 0.858091 0.857771
0.425544 0.875624 0.86862
0.494072 0.895521 0.73312
0.6318 0.923919 0.456825
0.849165 0.88336 0.213901
0.15845 0.356893 0.872114
0.238025 0.256489 0.850492
0.851652 0 0.900572
0.965866 0 0.887022
0.965484 0 0.862684
0.110109 0.364752 0.679805
0.180133 0.355322 0.738323
0.711162 0.0476081 0.760113
0.963653 0.0451667 0.7664
0.963897 0.0504921 0.781415
0.116182 0.65771 0.693294
0.131518 0.610452 0.643137
0.513176 0.553124 0.578561
0.962692 0.569345 0.546746
0.962448 0.619532 0.599405
0.221637 0.89926 0.915755
0.411261 0.915145 0.959792
0.595575 0.926207 0.827619
0.888762 0.917662 0.533578
0.957137 0.935592 0.756725
0.239506 0.892531 0.984115
0.61796 0.921736 0.971603
0.845914 0.91722 1
0.835065 0.937942 0.877379
0.893446 0.925978 0.563119
0.164553 0.365698 0.913314
0.239185 0.273594 0.899092
0.833127 0 0.964614
0.965331 0 0.963546
0.964981 0 0.963119
0.157519 0.470649 0.92781
0.216739 0.438453 0.917464
0.713008 0.0574502 0.964858
0.964508 0.0387884 0.96376
0.964248 0.0380255 0.963394
0.109163 0.727352 0.94374
0.151431 0.720897 0.95465
0.587716 0.704051 0.935927
0.963363 0.536629 0.964248
0.963241 0.573999 0.963943
0.152667 0.923079 0.931197
0.25272 0.937041 0.942489
0.63267 0.94995 0.954421
0.899245 0.932052 0.958144
0.963989 0.95552 0.962524
0.213458 0.903426 0.946792
0.611215 0.938521 0.943175
0.960113 0.951705 0.954711
1 0.941894 0.994705
0.93402 0.9738 0.951415
0.165774 0.365255 0.914229
0.231739 0.284092 0.899672
0.809827 0 0.965255
0.966201 0 0.963973
0.965789 0 0.963409
0.160891 0.449195 0.926497
0.215488 0.441001 0.918944
0.717357 0.0689555 0.965545
0.965301 0.0449836 0.964141
0.96492 0.0372168 0.963623
0.0988632 0.714122 0.958831
0.137118 0.733043 0.958526
0.629236 0.736049 0.94052
0.964279 0.586664 0.964736
0.963882 0.586282 0.964157
0.0643626 0.948943 0.934798
0.0938888 0.955566 0.945418
0.562661 0.962951 0.963073
0.938079 0.958328 0.965682
0.965133 0.950973 0.964553
0.199252 0.910307 0.920516
0.442741 0.93402 0.939025
0.872633 0.948074 0.951568
0.994553 0.95642 0.958465
0.964691 0.964691 0.964691
