LUT预设1/LUT全系打包/人像lut/人像系列lut/人像冷白.cube
TITLE "Generated by Resolve"
LUT_3D_SIZE 9
0.00357061 0.00357061 0.00357061
0.0124971 0.000564584 0
0.273884 0.0178683 0.00604257
0.590143 0.0560464 0.0150301
0.874403 0.0933394 0.0203555
0.959426 0.102403 0.0215152
0.958938 0.102663 0.0204318
0.95819 0.10309 0.0184939
0.957992 0.103182 0.0180514
0.0489967 0 0.0420081
0.000534066 0.00746166 0.00616464
0.252506 0.0159457 0.00669871
0.525063 0.0474098 0.0156558
0.810758 0.0849317 0.0209049
0.959472 0.102144 0.0239719
0.959045 0.102373 0.0230411
0.958618 0.102586 0.0221561
0.957336 0.103105 0.0224765
0.13228 0.0811627 0.111269
0.0310369 0.125154 0.207355
0.054612 0.123476 0.0187381
0.65005 0.135424 0.0172885
0.858091 0.168902 0.0233158
0.958679 0.18265 0.0250248
0.958312 0.178164 0.0239719
0.9579 0.169299 0.023209
0.957961 0.14081 0.0229801
0.297261 0.375708 0.262364
0.230182 0.40325 0.367376
0.0349737 0.46215 0.363821
0.313588 0.379583 0.0673686
0.926085 0.336996 0.0116579
0.958618 0.361349 0.00784314
0.957702 0.351827 0.00895705
0.956939 0.34728 0.00917067
0.956878 0.320104 0.0123903
0.445777 0.64332 0.397223
0.389441 0.65713 0.492317
0.232395 0.710964 0.585336
0.0835584 0.768307 0.448142
0.568887 0.647288 0.135958
0.935149 0.653895 0.0552377
0.954925 0.642893 0.0451057
0.956176 0.643473 0.0724804
0.954467 0.625757 0.0239567
0.570306 0.842588 0.515785
0.52134 0.851301 0.598642
0.401984 0.883909 0.715145
0.248356 0.950591 0.719203
0.253895 0.998611 0.420111
0.77026 0.886763 0.223758
0.935134 0.805661 0.21059
0.944701 0.760739 0.184756
0.947585 0.811917 0.341222
0.620829 0.847898 0.576059
0.579751 0.853101 0.638758
0.480629 0.870817 0.755032
0.329656 0.918441 0.828763
0.109987 0.995834 0.741863
0.486519 0.999115 0.400061
0.808331 0.895338 0.215442
0.92372 0.860914 0.216678
0.936538 0.856657 0.221134
0.672236 0.828565 0.618402
0.63357 0.833219 0.677134
0.54963 0.846845 0.789395
0.41178 0.882597 0.888167
0.255009 0.952255 0.884642
0.368978 1 0.58436
0.543862 0.956344 0.371939
0.787274 0.901747 0.213901
0.895506 0.869886 0.210819
0.723308 0.810681 0.642847
0.671717 0.820371 0.692042
0.58677 0.836973 0.777707
0.44947 0.868696 0.873686
0.321935 0.927932 0.905165
0.249989 0.996902 0.740887
0.443351 0.997726 0.538933
0.615717 0.94519 0.288472
0.791272 0.900832 0.211353
0.00144961 0.000991836 0.00666819
0.0102541 0.000457771 0.00254826
0.264576 0.0161288 0.00903334
0.586206 0.0535897 0.0197452
0.87425 0.0912947 0.0261845
0.96202 0.10071 0.0276036
0.961929 0.100816 0.0273747
0.961837 0.100954 0.0270848
0.961791 0.101152 0.0266728
0.0254063 0 0.000381476
3.0518e-05 3.0518e-05 3.0518e-05
0.173968 0.00924697 0.00366217
0.510765 0.0452125 0.0147402
0.796338 0.0829175 0.0202487
0.960281 0.101946 0.023621
0.959762 0.10222 0.0224308
0.959243 0.10248 0.0212863
0.958892 0.102678 0.0204623
0.102495 0.0779889 0.0439002
0.0715648 0.0760204 0.0648966
0.0590677 0.0958572 0.0182803
0.487053 0.113924 0.0128634
0.720455 0.146715 0.0190127
0.959319 0.173556 0.0251164
0.959258 0.170581 0.0240024
0.958862 0.166125 0.023209
0.958785 0.160388 0.0230716
0.254551 0.366186 0.190524
0.22678 0.349889 0.211215
0.138598 0.387839 0.298863
0.294514 0.337179 0.062623
0.881834 0.339422 0.0264286
0.958709 0.352819 0.0101472
0.95819 0.351965 0.00936904
0.957717 0.348638 0.00906386
0.957671 0.348058 0.00900282
0.397192 0.648859 0.333471
0.379126 0.637278 0.374105
0.316716 0.647623 0.4486
0.185367 0.706569 0.440482
0.567361 0.612848 0.129564
0.956359 0.604715 0.0207523
0.95848 0.659541 0.205921
0.95494 0.63621 0.0361181
0.954482 0.62501 0.0236515
0.505364 0.857038 0.422126
0.501076 0.857832 0.507256
0.461234 0.861936 0.563806
0.368688 0.905547 0.649958
0.285466 0.962982 0.451362
0.779248 0.864805 0.219562
0.942336 0.791882 0.206973
0.948547 0.835599 0.403433
0.949813 0.842542 0.454887
0.531716 0.863584 0.465492
0.541024 0.867094 0.531044
0.521172 0.873213 0.624384
0.447684 0.897459 0.715908
0.233661 0.964858 0.711421
0.525734 0.999329 0.416953
0.830945 0.888411 0.217411
0.934539 0.857343 0.220233
0.945693 0.869902 0.309133
0.554971 0.844587 0.594171
0.562722 0.847669 0.54963
0.567285 0.853101 0.67744
0.517479 0.871031 0.754559
0.380591 0.920272 0.815869
0.473945 0.99649 0.574472
0.594079 0.941497 0.378042
0.814984 0.893492 0.214267
0.835904 0.887572 0.211231
0.606043 0.833143 0.539284
0.565042 0.844663 0.551171
0.560357 0.853544 0.61622
0.544793 0.869581 0.729915
0.43946 0.907713 0.789502
0.47863 0.97969 0.597192
0.568154 0.946075 0.434256
0.772534 0.905165 0.223575
0.822095 0.891691 0.211017
0.0425879 0.0830091 0.253468
0.0437171 0.0754253 0.24181
0.214145 0.0056611 0.24741
0.591302 0.0200809 0.176303
0.871092 0.0352483 0.134936
0.964813 0.0435035 0.132753
0.964706 0.0471656 0.128801
0.964599 0.05066 0.125322
0.964279 0.0574655 0.111711
0.0202029 0.0338598 0.132326
0.0255283 0.0485084 0.170291
0.129366 0.0128328 0.166445
0.508354 0.0179294 0.113924
0.80293 0.038407 0.104723
0.964492 0.0622416 0.108751
0.964294 0.0618448 0.106661
0.963928 0.0634928 0.103685
0.963928 0.0646372 0.102052
0.0670329 0.104356 0.11162
0.0392767 0.0911269 0.0992142
0.0708934 0.0803388 0.0885634
0.408515 0.0942702 0.0557412
0.707332 0.131365 0.0542916
0.95996 0.166995 0.0554665
0.959915 0.169696 0.0508736
0.959518 0.165911 0.0465705
0.959457 0.168841 0.0460059
0.199573 0.372442 0.198474
0.156268 0.336797 0.198169
0.168887 0.315129 0.186191
0.2766 0.301488 0.0780957
0.68397 0.30457 0.0675364
0.927993 0.330724 0.0283818
0.959197 0.339544 0.0259251
0.958785 0.340017 0.0274052
0.958709 0.346319 0.0290684
0.309773 0.649653 0.370825
0.28452 0.629587 0.358999
0.323949 0.60502 0.280812
0.294377 0.634745 0.394446
0.551919 0.559747 0.12108
0.959976 0.604273 0.239826
0.958618 0.618509 0.129183
0.956008 0.615976 0.0265049
0.955764 0.626886 0.0340887
0.391836 0.870665 0.556329
0.385611 0.874067 0.550179
0.443915 0.85391 0.407904
0.452796 0.861769 0.552575
0.331609 0.906111 0.457252
0.771145 0.821302 0.206455
0.947768 0.779889 0.265492
0.953582 0.874464 0.600717
0.947967 0.812131 0.351736
0.396506 0.879377 0.715404
0.399603 0.88397 0.7093
0.46772 0.886946 0.59147
0.520485 0.894224 0.604425
0.372305 0.933089 0.657877
0.571954 0.999542 0.411521
0.853178 0.881407 0.219654
0.942275 0.854795 0.22327
0.954528 0.921782 0.66569
0.399252 0.860578 0.854261
0.40499 0.866804 0.850233
0.475792 0.869047 0.775967
0.558236 0.872679 0.596887
0.489616 0.897887 0.757259
0.581231 0.964736 0.537789
0.633295 0.926055 0.413535
0.83537 0.887205 0.216403
0.849439 0.883284 0.213886
0.404379 0.858091 0.857771
0.353735 0.872435 0.914427
0.425544 0.875624 0.86862
0.517968 0.877241 0.718624
0.494072 0.895521 0.73312
0.606439 0.945693 0.569406
0.6318 0.923919 0.456825
0.817182 0.892241 0.22005
0.849165 0.88336 0.213901
0.10573 0.22916 0.589166
0.107851 0.223636 0.581506
0.180636 0.0957351 0.581155
0.580743 0 0.603952
0.861891 0.0109407 0.579004
0.963394 0.0178073 0.550759
0.963256 0.0187533 0.539132
0.963241 0.0194247 0.526528
0.963241 0.0212863 0.497887
0.079881 0.166461 0.445518
0.0923781 0.19707 0.51339
0.147448 0.118029 0.50425
0.497398 0.000106813 0.530755
0.795621 0.0128634 0.502495
0.963577 0.0233158 0.458656
0.96347 0.023682 0.454582
0.963363 0.0241245 0.44773
0.963333 0.0238193 0.453178
0.0734417 0.225757 0.386023
0.0623789 0.215717 0.385
0.11783 0.205737 0.418265
0.383444 0.0567025 0.432746
0.718517 0.0552834 0.390707
0.960327 0.0620737 0.329046
0.963348 0.0609751 0.34197
0.963424 0.0617533 0.348104
0.963287 0.0649119 0.364233
0.095079 0.386633 0.411124
0.0766155 0.361196 0.382254
0.0999619 0.327382 0.348287
0.255238 0.304036 0.32723
0.618585 0.29752 0.266499
0.910262 0.341451 0.260304
0.961227 0.360662 0.272496
0.960983 0.365606 0.277134
0.960678 0.381445 0.289754
0.208637 0.654978 0.531289
0.185336 0.633341 0.518761
0.21149 0.594644 0.492393
0.272312 0.566781 0.426642
0.5337 0.555962 0.280446
0.896773 0.549126 0.291859
0.959991 0.566735 0.210529
0.959609 0.583474 0.227985
0.959625 0.605097 0.250629
0.314397 0.881788 0.675837
0.301366 0.883452 0.700313
0.329747 0.855817 0.680003
0.368093 0.816449 0.564691
0.334844 0.840803 0.515465
0.752209 0.791272 0.309285
0.956847 0.835843 0.599588
0.953246 0.829175 0.502052
0.948623 0.800671 0.351202
0.302037 0.890181 0.824826
0.299855 0.897826 0.861036
0.357961 0.903334 0.855207
0.395056 0.906874 0.748516
0.437842 0.91725 0.561257
0.607889 0.978164 0.446906
0.873243 0.892409 0.319875
0.95079 0.901518 0.522759
0.959579 0.949203 0.846464
0.283925 0.874388 0.978424
0.316945 0.884138 0.994598
0.471778 0.889326 0.993194
0.531533 0.88922 0.926802
0.443931 0.894774 0.701717
0.63151 0.92549 0.625696
0.693507 0.922515 0.540459
0.853147 0.898283 0.30956
0.875013 0.900236 0.356497
0.272282 0.87895 0.998138
0.34313 0.896178 0.999832
0.532372 0.899794 1
0.64329 0.897292 0.997436
0.60473 0.89778 0.879301
0.675151 0.913451 0.611109
0.719844 0.927291 0.632837
0.831815 0.906844 0.33022
0.870665 0.897124 0.328313
0.15845 0.356893 0.872114
0.161151 0.353277 0.867918
0.238025 0.256489 0.850492
0.556161 0.00677501 0.904234
0.851652 0 0.900572
0.96585 0 0.895369
0.965866 0 0.887022
0.965698 0 0.878553
0.965484 0 0.862684
0.135882 0.305333 0.757885
0.147387 0.334203 0.816449
0.208011 0.255146 0.796689
0.456184 0.0196231 0.839857
0.787915 0 0.8392
0.965209 0.000183108 0.836622
0.965301 0 0.832502
0.965133 1.5259e-05 0.828
0.965118 1.5259e-05 0.83331
0.110109 0.364752 0.679805
0.11281 0.363592 0.694087
0.180133 0.355322 0.738323
0.319265 0.124376 0.742885
0.711162 0.0476081 0.760113
0.956939 0.0465248 0.759991
0.963653 0.0451667 0.7664
0.963638 0.0448005 0.76965
0.963897 0.0504921 0.781415
0.0997635 0.486946 0.66067
0.0829175 0.472023 0.653376
0.121431 0.456062 0.642954
0.302571 0.443 0.65774
0.621515 0.274876 0.672709
0.905104 0.27364 0.656123
0.962676 0.284215 0.665812
0.962585 0.296818 0.685679
0.962661 0.317006 0.709926
0.116182 0.65771 0.693294
0.0927749 0.64448 0.679164
0.131518 0.610452 0.643137
0.304204 0.57763 0.607034
0.513176 0.553124 0.578561
0.812238 0.542336 0.54284
0.962692 0.569345 0.546746
0.962448 0.588067 0.567147
0.962448 0.619532 0.599405
0.215228 0.886641 0.787533
0.206317 0.890837 0.800122
0.263722 0.862119 0.777996
0.413336 0.809308 0.741634
0.531136 0.769665 0.682353
0.728847 0.769787 0.536019
0.961532 0.774838 0.597772
0.959289 0.793591 0.536782
0.957702 0.823438 0.588678
0.221637 0.89926 0.915755
0.236652 0.907057 0.947051
0.411261 0.915145 0.959792
0.570565 0.922271 0.936965
0.595575 0.926207 0.827619
0.617487 0.940505 0.550607
0.888762 0.917662 0.533578
0.960128 0.951507 0.861036
0.957137 0.935592 0.756725
0.258534 0.884413 0.999939
0.325078 0.896315 0.999039
0.549264 0.90576 0.998108
0.724697 0.909331 1
0.751598 0.906905 0.99733
0.656199 0.917052 0.795148
0.77612 0.946151 0.751293
0.882277 0.921584 0.516793
0.907515 0.941939 0.695888
0.239506 0.892531 0.984115
0.374929 0.912612 0.96939
0.61796 0.921736 0.971603
0.775845 0.924147 0.98587
0.845914 0.91722 1
0.809659 0.916365 0.984573
0.835065 0.937942 0.877379
0.829496 0.940887 0.576272
0.893446 0.925978 0.563119
0.163638 0.366049 0.912612
0.166003 0.36408 0.910765
0.241428 0.270848 0.898695
0.531365 0.0138094 0.95906
0.842527 0 0.964202
0.964935 0 0.963653
0.964706 0 0.963317
0.964508 0 0.963043
0.964431 0 0.962966
0.163317 0.366217 0.913191
0.162768 0.36643 0.911955
0.223301 0.291508 0.898131
0.400671 0.0530556 0.943893
0.782406 0 0.964355
0.963928 0 0.963745
0.964294 0 0.963424
0.964126 0 0.963149
0.964096 0 0.963119
0.15613 0.469993 0.919554
0.156664 0.46421 0.923339
0.215152 0.43357 0.915801
0.28748 0.2374 0.907713
0.71017 0.0526589 0.964324
0.955062 0.0441291 0.963867
0.963897 0.0394446 0.963531
0.963714 0.0379492 0.963302
0.963714 0.0433661 0.963272
0.141833 0.597833 0.908248
0.13521 0.592584 0.91368
0.190356 0.583978 0.915923
0.364981 0.563241 0.918929
0.56701 0.306096 0.937316
0.900099 0.270817 0.953689
0.963516 0.271595 0.955642
0.963241 0.281758 0.95642
0.963211 0.304402 0.959884
0.133715 0.719097 0.901976
0.114717 0.715343 0.903044
0.157092 0.696849 0.886564
0.327337 0.680583 0.866331
0.560418 0.673838 0.876356
0.809598 0.531548 0.890578
0.964187 0.535027 0.899107
0.963912 0.552651 0.917479
0.963439 0.587076 0.938476
0.132204 0.883757 0.919982
0.112459 0.886381 0.923339
0.192279 0.867689 0.913725
0.375647 0.827054 0.875822
0.566873 0.784237 0.8271
0.71548 0.754223 0.785824
0.957351 0.751598 0.78436
0.962142 0.771695 0.803128
0.961654 0.812726 0.851453
0.189044 0.90985 0.953552
0.194629 0.917342 0.960449
0.366247 0.92462 0.967849
0.565393 0.931975 0.970962
0.690394 0.939361 0.958099
0.756466 0.935897 0.910536
0.898283 0.937896 0.757336
0.960067 0.942809 0.854246
0.95848 0.942016 0.803998
0.237018 0.893385 0.976959
0.294652 0.905501 0.976211
0.542535 0.915831 0.977951
0.743328 0.922728 0.984649
0.844419 0.922103 0.998718
0.850523 0.926116 0.999908
0.8421 0.944625 0.906188
0.907622 0.944991 0.724895
0.959228 0.966354 0.962829
0.220371 0.899947 0.96376
0.3738 0.921309 0.950027
0.637858 0.933227 0.94963
0.811551 0.942748 0.952392
0.93463 0.945022 0.960662
0.972717 0.932113 0.998016
0.935302 0.933501 0.999969
0.82562 0.969177 0.8533
0.914656 0.952316 0.775998
0.164553 0.365698 0.913314
0.166186 0.364401 0.911681
0.239185 0.273594 0.899092
0.512154 0.0183261 0.95787
0.833127 0 0.964614
0.965637 0 0.963973
0.965331 0 0.963546
0.965087 0 0.963226
0.964981 0 0.963119
0.164263 0.36585 0.913985
0.163684 0.366079 0.912673
0.222446 0.294148 0.898833
0.390799 0.059205 0.942061
0.776852 0 0.964813
0.963973 0 0.964065
0.964935 0 0.963638
0.964706 0 0.963317
0.964675 0 0.963272
0.157519 0.470649 0.92781
0.157595 0.464775 0.925841
0.216739 0.438453 0.917464
0.298985 0.241978 0.910155
0.713008 0.0574502 0.964858
0.952224 0.0458381 0.964202
0.964508 0.0387884 0.96376
0.964279 0.0342565 0.963439
0.964248 0.0380255 0.963394
0.138827 0.604379 0.945068
0.137636 0.601877 0.944808
0.190921 0.595636 0.94023
0.379614 0.575158 0.926406
0.580331 0.327901 0.946563
0.905852 0.283986 0.964508
0.964004 0.275715 0.964004
0.96379 0.276905 0.963684
0.963745 0.294957 0.963653
0.109163 0.727352 0.94374
0.0973373 0.726238 0.950942
0.151431 0.720897 0.95465
0.34873 0.716716 0.949386
0.587716 0.704051 0.935927
0.814862 0.546456 0.962966
0.963363 0.536629 0.964248
0.963287 0.542916 0.963958
0.963241 0.573999 0.963943
0.0879377 0.883696 0.93254
0.0665446 0.884596 0.939712
0.113359 0.872633 0.947158
0.30547 0.849302 0.954589
0.543481 0.831083 0.957565
0.74168 0.811215 0.948043
0.955169 0.737804 0.964462
0.962814 0.745769 0.964218
0.962768 0.781964 0.964187
0.152667 0.923079 0.931197
0.137209 0.930068 0.936721
0.25272 0.937041 0.942489
0.468208 0.943908 0.948043
0.63267 0.94995 0.954421
0.761227 0.944839 0.959564
0.899245 0.932052 0.958144
0.963714 0.938231 0.959121
0.963989 0.95552 0.962524
0.215915 0.902495 0.948882
0.233814 0.913405 0.950484
0.46595 0.923247 0.953765
0.701885 0.931044 0.960037
0.83238 0.931838 0.976287
0.897917 0.939834 0.98201
0.949599 0.94583 0.996597
0.937316 0.970291 0.94345
0.963836 0.964996 0.964157
0.213458 0.903426 0.946792
0.31603 0.928954 0.937346
0.611215 0.938521 0.943175
0.815396 0.945815 0.949584
0.960113 0.951705 0.954711
0.994492 0.954543 0.957351
1 0.941894 0.994705
0.929274 0.962905 1
0.93402 0.9738 0.951415
0.165438 0.365377 0.913985
0.166369 0.364584 0.91252
0.237186 0.276463 0.899565
0.495338 0.0227207 0.956588
0.82565 0 0.965103
0.966354 0 0.964355
0.966018 0 0.963867
0.965713 0 0.96347
0.96556 0 0.963333
0.165164 0.365484 0.914672
0.164599 0.365728 0.91339
0.221698 0.29662 0.899672
0.382498 0.0644388 0.940795
0.773022 0 0.965331
0.964096 0 0.964492
0.965621 0 0.963958
0.965316 0 0.963561
0.96527 0 0.963485
0.15874 0.467262 0.928145
0.158633 0.462623 0.92636
0.216175 0.439307 0.918441
0.302235 0.245853 0.911528
0.715831 0.0637064 0.965423
0.951492 0.0509499 0.96466
0.965209 0.0413367 0.96408
0.964904 0.0343023 0.963653
0.964858 0.0366674 0.963592
0.13843 0.603387 0.947204
0.13843 0.602487 0.94551
0.187503 0.59913 0.941604
0.390402 0.583947 0.928206
0.601511 0.350118 0.948669
0.914199 0.306065 0.965042
0.964706 0.290791 0.964355
0.964401 0.28333 0.963912
0.964355 0.29482 0.963867
0.0965591 0.728267 0.953628
0.0901198 0.728832 0.95819
0.144335 0.727413 0.957458
0.3505 0.728832 0.951782
0.605951 0.717876 0.938247
0.836072 0.575967 0.963287
0.964157 0.556481 0.96463
0.963882 0.552621 0.964172
0.963821 0.57496 0.964111
0.0564126 0.881956 0.941649
0.0394903 0.88632 0.950256
0.0764172 0.880323 0.957961
0.282658 0.866835 0.963378
0.551385 0.851438 0.961059
0.765011 0.831586 0.951553
0.958419 0.756771 0.96492
0.963394 0.750561 0.964385
0.963302 0.776944 0.964294
0.10341 0.93814 0.92697
0.0804761 0.944717 0.933272
0.141588 0.951064 0.940642
0.35494 0.956695 0.949126
0.560937 0.961395 0.958083
0.727306 0.957336 0.964904
0.912825 0.942626 0.964858
0.964508 0.93193 0.964584
0.964752 0.946456 0.964431
0.177996 0.916045 0.926375
0.17203 0.923262 0.931212
0.338704 0.931014 0.936767
0.595087 0.937865 0.942916
0.749752 0.943786 0.949615
0.843107 0.950668 0.955016
0.942031 0.957534 0.960967
0.964691 0.964691 0.964691
0.96434 0.964874 0.963973
0.209552 0.906035 0.932448
0.233158 0.927977 0.933532
0.548135 0.936751 0.941543
0.775708 0.944259 0.948241
0.942504 0.950957 0.954055
0.994659 0.955016 0.957382
0.990921 0.957427 0.959258
0.995514 0.952224 0.987213
0.948989 0.969528 0.963027
0.165774 0.365255 0.914229
0.165194 0.365499 0.913054
0.231739 0.284092 0.899672
0.465782 0.0301366 0.953979
0.809827 0 0.965255
0.966018 0 0.964462
0.966201 0 0.963973
0.965896 0 0.963577
0.965789 0 0.963409
0.165682 0.365225 0.914992
0.16492 0.365591 0.913649
0.219394 0.300618 0.900267
0.373663 0.0694285 0.939178
0.769833 0 0.965438
0.96379 0 0.964569
0.965728 0 0.964019
0.965423 0 0.963607
0.965408 0 0.9635
0.160891 0.449195 0.926497
0.159457 0.458289 0.926238
0.215488 0.441001 0.918944
0.30367 0.250141 0.911727
0.717357 0.0689555 0.965545
0.951507 0.05626 0.964752
0.965301 0.0449836 0.964141
0.964965 0.0366064 0.963699
0.96492 0.0372168 0.963623
0.142565 0.589014 0.946075
0.138994 0.602762 0.94612
0.18558 0.601953 0.942397
0.398779 0.591272 0.929183
0.611948 0.364736 0.949447
0.920668 0.325978 0.965133
0.964797 0.307851 0.964416
0.964446 0.294728 0.963958
0.964401 0.300404 0.963897
0.0988632 0.714122 0.958831
0.088426 0.730907 0.960555
0.137118 0.733043 0.958526
0.351629 0.738399 0.953201
0.629236 0.736049 0.94052
0.861662 0.607721 0.964401
0.964279 0.586664 0.964736
0.963958 0.575265 0.964233
0.963882 0.586282 0.964157
0.0522469 0.851667 0.953002
0.0276493 0.889647 0.958526
0.0613413 0.889845 0.963409
0.284169 0.885817 0.965209
0.56553 0.876448 0.963302
0.799542 0.86157 0.955673
0.962539 0.796414 0.965118
0.963592 0.779812 0.964508
0.96347 0.793851 0.96437
0.0643626 0.948943 0.934798
0.0563821 0.950988 0.938277
0.0938888 0.955566 0.945418
0.31284 0.959884 0.954314
0.562661 0.962951 0.963073
0.753399 0.963958 0.966415
0.938079 0.958328 0.965682
0.965438 0.95021 0.964797
0.965133 0.950973 0.964553
0.128237 0.931395 0.920653
0.139391 0.92781 0.926711
0.24976 0.931395 0.934066
0.499489 0.937972 0.940383
0.688136 0.946609 0.945815
0.799725 0.956985 0.953292
0.920623 0.963409 0.963775
0.965362 0.964431 0.96524
0.964981 0.964614 0.964614
0.199252 0.910307 0.920516
0.168032 0.923445 0.929778
0.442741 0.93402 0.939025
0.698039 0.941375 0.945708
0.872633 0.948074 0.951568
0.980575 0.953048 0.955825
0.994553 0.95642 0.958465
0.981735 0.959976 0.961151
0.964691 0.964691 0.964691
