LUT预设1/LUT全系打包/人像lut/人像系列lut/人像冷白.cube
TITLE "Generated by Resolve"
LUT_3D_SIZE 33
0.00357061 0.00357061 0.00357061
0.000549325 0.0037995 0.00340276
0 0.00262455 0.00184634
0.000991836 0.00108339 9.15541e-05
0.0124971 0.000564584 0
0.047425 0.000717174 0
0.106706 0.00395209 0.000869764
0.18793 0.0107729 0.00321965
0.273884 0.0178683 0.00604257
0.359106 0.0249943 0.00891127
0.442512 0.0358282 0.0118257
0.519127 0.0466926 0.0137026
0.590143 0.0560464 0.0150301
0.657801 0.0650339 0.0163272
0.725765 0.0746777 0.0168917
0.798825 0.0836652 0.0186313
0.874403 0.0933394 0.0203555
0.933593 0.100984 0.0220645
0.958221 0.102281 0.0220493
0.959548 0.102342 0.0217746
0.959426 0.102403 0.0215152
0.959304 0.102464 0.0212406
0.959182 0.102525 0.0209812
0.95906 0.102602 0.0207065
0.958938 0.102663 0.0204318
0.958801 0.102739 0.0201114
0.958633 0.102831 0.0196994
0.958434 0.102937 0.0191806
0.95819 0.10309 0.0184939
0.958038 0.103151 0.0181582
0.957992 0.103182 0.0180514
0.957992 0.103182 0.0180514
0.957992 0.103182 0.0180514
0.00926223 0.000137331 0.0124208
4.57771e-05 0.00135805 0.000808728
1.5259e-05 0.000320439 0.000137331
0.000122072 0.000167849 0
0.00680552 0.000244144 0
0.0375982 0.000396735 0.000122072
0.0916304 0.0028687 0.00114443
0.170031 0.00936904 0.00364691
0.256519 0.0162356 0.00653086
0.341756 0.0229801 0.00958267
0.426291 0.0331731 0.0125277
0.504723 0.0443885 0.0146029
0.576471 0.0542306 0.0163424
0.64506 0.0629435 0.0176547
0.712871 0.0728618 0.0181888
0.785641 0.0819104 0.0199741
0.861723 0.0913252 0.0218051
0.927825 0.100343 0.0235752
0.958251 0.101991 0.0236362
0.959976 0.102068 0.0234073
0.959869 0.102113 0.0231632
0.959762 0.102159 0.0229343
0.959655 0.10222 0.0226902
0.959533 0.102281 0.0224765
0.959426 0.102327 0.0222324
0.959319 0.102388 0.0219883
0.959228 0.102449 0.0217441
0.959121 0.102495 0.0215
0.95906 0.102541 0.0212711
0.958984 0.102586 0.0210269
0.958801 0.102708 0.0204623
0.958648 0.1028 0.0199741
0.958465 0.102907 0.0194858
0.0224308 1.5259e-05 0.0213474
0.00582895 0.000198367 0.0396887
0 0.00296025 0.0021973
0.00280766 0.000183108 0
0.0131533 0.000259403 1.5259e-05
0.0282902 0.000335698 3.0518e-05
0.0747692 0.00189212 0.000686656
0.147921 0.00746166 0.00296025
0.233722 0.0143587 0.00587472
0.320256 0.0212863 0.00894179
0.405768 0.0304875 0.011902
0.486229 0.041886 0.0143282
0.559396 0.0520638 0.0161898
0.629374 0.0608225 0.0174716
0.697597 0.0707561 0.0182193
0.768887 0.0798199 0.0197299
0.845304 0.0891737 0.021561
0.91664 0.0989853 0.0233616
0.954482 0.101946 0.0239414
0.959854 0.102068 0.0236973
0.959747 0.102113 0.0234836
0.95964 0.102174 0.0232547
0.959533 0.102235 0.0230259
0.959426 0.102281 0.022797
0.959335 0.102327 0.0225681
0.959213 0.102388 0.0223392
0.959121 0.102449 0.0220951
0.95903 0.102495 0.0218814
0.958953 0.102541 0.0216526
0.958801 0.102617 0.0214847
0.958892 0.102586 0.0213474
0.958907 0.102586 0.0212863
0.958923 0.102602 0.0212253
0.0368505 0 0.0312505
0.0183413 4.57771e-05 0.0538338
0.000579843 0.00483711 0.0516518
3.0518e-05 0.00497444 0.00416571
0.0145418 0.000381476 0
0.059678 0.00115969 0.00030518
0.0976883 0.00355535 0.00135805
0.136736 0.00631724 0.00259403
0.211505 0.0124666 0.00512703
0.297856 0.0196994 0.00814832
0.384222 0.0279088 0.0111238
0.46688 0.0392615 0.0140078
0.542306 0.0497444 0.0158999
0.613611 0.0587778 0.0170901
0.682109 0.0684825 0.0181888
0.752438 0.0776379 0.0193179
0.828031 0.0869764 0.0210574
0.902785 0.0970169 0.0228122
0.948745 0.101915 0.0242008
0.959716 0.102083 0.0239414
0.959594 0.102129 0.0237278
0.959503 0.10219 0.0234989
0.959396 0.102251 0.02327
0.959289 0.102296 0.0230411
0.959182 0.102342 0.0228122
0.959075 0.102419 0.0225834
0.958968 0.102464 0.0223545
0.958877 0.10251 0.0221103
0.958755 0.102571 0.0218967
0.957961 0.102876 0.0220951
0.958022 0.102861 0.0219883
0.95819 0.102815 0.0218509
0.958343 0.10277 0.0217441
0.0489967 0 0.0420081
0.0357366 0 0.0646982
0.00901808 0.000747692 0.090013
0 0.0108492 0.0601663
0.000534066 0.00746166 0.00616464
0.0192111 0.00131228 0.000335698
0.134676 0.00604257 0.00268559
0.213993 0.0126192 0.00534066
0.252506 0.0159457 0.00669871
0.300801 0.0201114 0.00842298
0.366827 0.0258946 0.0107271
0.447364 0.0364996 0.0136721
0.525063 0.0474098 0.0156558
0.597498 0.0568246 0.0169985
0.66627 0.0661936 0.018265
0.735775 0.0756695 0.0191501
0.810758 0.0849317 0.0209049
0.887709 0.0949569 0.0227207
0.942824 0.1019 0.0244907
0.959579 0.102098 0.0241855
0.959472 0.102144 0.0239719
0.959365 0.102205 0.023743
0.959258 0.102266 0.0235142
0.959152 0.102312 0.0232853
0.959045 0.102373 0.0230411
0.958938 0.102434 0.0228275
0.958831 0.10248 0.0225986
0.958724 0.102541 0.0223545
0.958618 0.102586 0.0221561
0.957992 0.102831 0.0222324
0.957671 0.102953 0.022385
0.957336 0.10309 0.0225223
0.957336 0.103105 0.0224765
0.0620432 0 0.0520485
0.0504311 0 0.0737316
0.0245365 0.000274662 0.104936
0.00128176 0.00712596 0.11339
3.0518e-05 0.0194858 0.060029
0.0027924 0.0116426 0.00604257
0.0331121 0.00421149 0.000549325
0.224338 0.0137636 0.0059968
0.317327 0.0222629 0.00918593
0.391028 0.0304112 0.011841
0.420249 0.0344854 0.0129397
0.463081 0.0404974 0.0142214
0.516381 0.0484474 0.0155947
0.581704 0.0572366 0.0170901
0.650126 0.0659342 0.0183261
0.719722 0.0753643 0.0192111
0.793698 0.0840162 0.0209964
0.871183 0.0932937 0.0228428
0.93611 0.101686 0.0247044
0.958938 0.102113 0.024445
0.959335 0.102159 0.0242161
0.959228 0.10222 0.0239872
0.959121 0.102281 0.0237583
0.959014 0.102327 0.0235294
0.958907 0.102388 0.0233005
0.958801 0.102449 0.0230716
0.958694 0.102495 0.0228428
0.958602 0.102556 0.0226139
0.958495 0.102602 0.022385
0.958404 0.102647 0.0221714
0.958419 0.102647 0.0221256
0.95845 0.102647 0.0220798
0.958465 0.102647 0.0220188
0.078233 0.00114443 0.0639658
0.0672465 0.0043183 0.0858625
0.0450141 0.00999466 0.115434
0.0113375 0.0201419 0.137331
0 0.0343023 0.114748
0.000167849 0.0417945 0.0508583
0.00906386 0.0294499 0.00698863
0.0650645 0.022858 0.00154116
0.284672 0.0276799 0.00828565
0.410239 0.0417792 0.0124819
0.496895 0.0535286 0.0149081
0.551278 0.0619669 0.0162966
0.570459 0.0668956 0.0167086
0.603723 0.0716106 0.0174258
0.649073 0.0785382 0.0182193
0.706859 0.086717 0.0193332
0.776425 0.0945449 0.0209506
0.853712 0.102831 0.0230259
0.925582 0.111192 0.0249332
0.955978 0.112032 0.0247807
0.959182 0.111666 0.0245365
0.959075 0.111574 0.0243076
0.958968 0.11136 0.0240635
0.958862 0.110933 0.0238346
0.958755 0.110445 0.0235904
0.958648 0.10985 0.0233616
0.958541 0.109071 0.0231174
0.95845 0.107851 0.0228885
0.958343 0.106264 0.0226444
0.958267 0.105165 0.022446
0.958282 0.10457 0.022385
0.958312 0.103838 0.0223239
0.958358 0.103105 0.0222629
0.101045 0.0284123 0.0844587
0.0922408 0.0345464 0.105745
0.073106 0.045594 0.135256
0.0383612 0.0591135 0.161654
0.00358587 0.0746014 0.162966
0 0.0865492 0.124971
0.000885023 0.0879377 0.0548714
0.0285191 0.0719768 0.012253
0.112459 0.0657511 0.00459297
0.294347 0.0697795 0.00805676
0.497642 0.0755932 0.0144961
0.579049 0.0889448 0.0165103
0.650126 0.0982528 0.018143
0.692821 0.106554 0.019028
0.706752 0.112474 0.0193332
0.737057 0.117235 0.0200504
0.78497 0.124437 0.0213779
0.843961 0.134142 0.0234989
0.913314 0.143648 0.0255436
0.950591 0.145815 0.0252537
0.958968 0.144961 0.0249638
0.958862 0.143893 0.0247196
0.958755 0.14229 0.0244755
0.958648 0.140826 0.0242466
0.958556 0.139284 0.0240024
0.958434 0.137499 0.0237583
0.958343 0.135714 0.0235142
0.958236 0.13344 0.02327
0.958144 0.13077 0.0230259
0.958068 0.127367 0.0228122
0.958083 0.122423 0.0227359
0.958129 0.11722 0.0226444
0.95819 0.11165 0.0225681
0.13228 0.0811627 0.111269
0.122255 0.0867018 0.132601
0.106798 0.0968185 0.161364
0.0775921 0.11014 0.192142
0.0310369 0.125154 0.207355
0.000427253 0.139742 0.191546
6.10361e-05 0.149737 0.141329
0.00369268 0.144411 0.0641489
0.054612 0.123476 0.0187381
0.16144 0.11487 0.00932326
0.310719 0.118471 0.00828565
0.578378 0.117647 0.0158389
0.65005 0.135424 0.0172885
0.737789 0.146471 0.0196078
0.808316 0.156939 0.0218204
0.847639 0.164385 0.0230106
0.858091 0.168902 0.0233158
0.885008 0.172412 0.0241703
0.921889 0.176211 0.0250706
0.948852 0.180926 0.0253605
0.958679 0.18265 0.0250248
0.958633 0.18265 0.0247196
0.958526 0.181476 0.024445
0.958419 0.179889 0.0242008
0.958312 0.178164 0.0239719
0.958206 0.176257 0.0237583
0.958099 0.174258 0.0235752
0.957992 0.171939 0.0233921
0.9579 0.169299 0.023209
0.957824 0.166201 0.0230869
0.957855 0.160006 0.0231327
0.957885 0.150896 0.0230869
0.957961 0.14081 0.0229801
0.167132 0.143023 0.143359
0.157839 0.147387 0.163714
0.143862 0.156054 0.191272
0.11873 0.169543 0.222965
0.0786755 0.184314 0.248066
0.0245212 0.2 0.250629
0 0.212985 0.221515
0.000381476 0.22031 0.157778
0.0142061 0.207904 0.0737469
0.0977646 0.1794 0.0292058
0.215625 0.165698 0.0176089
0.351156 0.170397 0.0102846
0.613794 0.166049 0.0146487
0.725978 0.182559 0.0178073
0.827131 0.198734 0.0206455
0.911498 0.210315 0.02327
0.944732 0.214694 0.0235904
0.954849 0.216861 0.0235294
0.95491 0.218311 0.0234836
0.957656 0.217685 0.0234836
0.95845 0.216693 0.0234226
0.958465 0.218235 0.0231937
0.958312 0.220172 0.0229496
0.95819 0.220356 0.0227207
0.958068 0.219394 0.0225223
0.957961 0.217762 0.0223697
0.957855 0.215656 0.0222477
0.957748 0.213336 0.0221408
0.957641 0.210956 0.022034
0.95758 0.208026 0.022034
0.95758 0.202182 0.0223392
0.957641 0.192569 0.022797
0.957702 0.181292 0.0229496
0.206867 0.214176 0.179553
0.197269 0.21735 0.199466
0.18439 0.224796 0.225772
0.16321 0.237507 0.257893
0.129183 0.252506 0.287739
0.0806287 0.267826 0.305898
0.022385 0.282948 0.297856
1.5259e-05 0.294026 0.253208
0.00183108 0.297612 0.174487
0.041413 0.277867 0.0877394
0.157076 0.238758 0.0425422
0.283146 0.222583 0.027863
0.409155 0.230564 0.0155489
0.617105 0.223636 0.00985733
0.828855 0.228092 0.0187839
0.909697 0.253376 0.0202945
0.953704 0.258396 0.0205844
0.959182 0.259586 0.0201419
0.959197 0.259709 0.0199283
0.958938 0.259098 0.0200046
0.958618 0.259312 0.0201114
0.958389 0.257832 0.0202335
0.95819 0.256489 0.0202335
0.958022 0.257023 0.0199893
0.95787 0.258686 0.0196078
0.957732 0.259342 0.0192569
0.95761 0.25832 0.0190433
0.957488 0.256748 0.0188907
0.957382 0.254536 0.0188296
0.957321 0.251789 0.0189212
0.957336 0.246006 0.0194553
0.957382 0.236408 0.0203098
0.957443 0.224338 0.0211795
0.250828 0.29279 0.220081
0.241459 0.29427 0.239002
0.22858 0.300587 0.264698
0.209476 0.31194 0.295888
0.18027 0.326619 0.327733
0.137026 0.342382 0.350698
0.0784161 0.358175 0.353643
0.0207065 0.372427 0.330434
0.00369268 0.381659 0.277668
0.016968 0.380743 0.192279
0.0989853 0.355459 0.10312
0.232059 0.307271 0.0551156
0.357061 0.287388 0.0407263
0.470222 0.296513 0.0271763
0.626963 0.297368 0.00680552
0.899657 0.277501 0.0173342
0.949966 0.301915 0.0162203
0.958831 0.307637 0.0150759
0.959045 0.308034 0.0155032
0.958953 0.30692 0.0152132
0.95877 0.30518 0.0146944
0.95848 0.304067 0.0148775
0.95816 0.303716 0.0150454
0.957931 0.301472 0.0152438
0.957732 0.299443 0.0153658
0.957565 0.298848 0.0152743
0.957397 0.30013 0.0149844
0.957259 0.301076 0.0147097
0.957137 0.300938 0.0145266
0.957046 0.299184 0.0145876
0.957061 0.293507 0.0151064
0.957092 0.283192 0.0160678
0.957168 0.269474 0.0173495
0.297261 0.375708 0.262364
0.286671 0.376287 0.280934
0.274342 0.380926 0.305211
0.257221 0.390097 0.335332
0.230182 0.40325 0.367376
0.192401 0.418097 0.394522
0.139193 0.434028 0.406592
0.0780499 0.449241 0.396246
0.0349737 0.46215 0.363821
0.0290379 0.470207 0.301183
0.0564889 0.465019 0.209552
0.16968 0.433402 0.114107
0.313588 0.379583 0.0673686
0.428397 0.357321 0.0552529
0.533028 0.365087 0.0419013
0.658106 0.377295 0.0163729
0.926085 0.336996 0.0116579
0.958328 0.344503 0.0108339
0.958648 0.362615 0.00823987
0.958663 0.36289 0.00799573
0.958618 0.361349 0.00784314
0.958495 0.358984 0.00813306
0.958297 0.355856 0.00817884
0.958007 0.353262 0.00869764
0.957702 0.351827 0.00895705
0.957458 0.349248 0.00924697
0.957259 0.346303 0.00952163
0.957092 0.345434 0.00950637
0.956939 0.34728 0.00917067
0.956847 0.347799 0.00906386
0.956802 0.344076 0.00950637
0.956817 0.334386 0.0106813
0.956878 0.320104 0.0123903
0.338933 0.452445 0.301091
0.328969 0.45243 0.31928
0.316548 0.455375 0.342397
0.299641 0.462745 0.370932
0.275303 0.474311 0.403021
0.241581 0.487861 0.43299
0.1953 0.503441 0.452491
0.136614 0.520012 0.454002
0.0838483 0.535363 0.434775
0.0586404 0.54818 0.394049
0.0550088 0.554284 0.320882
0.0941634 0.546014 0.220386
0.245624 0.511543 0.115023
0.390066 0.455283 0.0819715
0.494789 0.425376 0.0717174
0.592615 0.431266 0.0594034
0.700145 0.451652 0.0337835
0.917205 0.417823 0.0034638
0.958251 0.389914 0.00518807
0.958206 0.42446 0.00135805
0.958221 0.428916 0.00103761
0.958236 0.426505 0.00582895
0.95819 0.424826 0.00769055
0.958038 0.423407 0.00360113
0.957809 0.421683 0.000335698
0.957519 0.419059 0
0.957214 0.416571 0.000198367
0.95697 0.413245 0.000579843
0.956817 0.409537 0.00106813
0.95671 0.404791 0.00175479
0.956619 0.399207 0.00257877
0.956588 0.389899 0.00383001
0.956588 0.375143 0.00572213
0.377798 0.522057 0.336156
0.367681 0.52224 0.354391
0.355581 0.524254 0.376669
0.339483 0.530022 0.404135
0.316442 0.539422 0.435187
0.285344 0.552041 0.466163
0.244358 0.566323 0.490822
0.190738 0.583108 0.501717
0.13489 0.599954 0.49424
0.0988174 0.615213 0.467796
0.0812085 0.627024 0.416541
0.0669261 0.632593 0.336583
0.149676 0.618891 0.217044
0.334432 0.582345 0.117968
0.457557 0.522713 0.097673
0.554238 0.48925 0.0889143
0.648585 0.494759 0.0779126
0.74699 0.519554 0.0535897
0.917403 0.512718 0.00321965
0.957702 0.455741 0
0.957809 0.484184 0
0.957702 0.502495 0.000549325
0.957687 0.502983 0.00665293
0.957748 0.505089 0.0131228
0.957763 0.505501 0.0140536
0.95761 0.504204 0.00755322
0.957382 0.501595 0.000579843
0.957183 0.497978 0.000198367
0.956924 0.494438 0
0.956695 0.485847 0
0.956542 0.472419 7.62951e-05
0.956451 0.456321 0.000198367
0.956405 0.442145 0.000274662
0.412436 0.584543 0.367697
0.402869 0.584619 0.385626
0.390555 0.586435 0.407614
0.375189 0.59118 0.43415
0.354208 0.599145 0.464469
0.325475 0.610391 0.495964
0.28835 0.623713 0.523751
0.240223 0.63946 0.541497
0.184863 0.656718 0.543633
0.141131 0.673075 0.528389
0.114977 0.688151 0.494148
0.0930037 0.69984 0.434226
0.0757 0.70248 0.342962
0.217548 0.686809 0.20145
0.406577 0.6495 0.134524
0.517525 0.585229 0.11667
0.607843 0.549279 0.106065
0.700725 0.554986 0.0965438
0.793759 0.580728 0.0733043
0.928985 0.59559 0.0145876
0.956909 0.538109 0.00254826
0.957153 0.537255 0.00120546
0.956451 0.573312 0.00552377
0.956603 0.581033 0.0160983
0.957046 0.582483 0.0344244
0.957275 0.582788 0.0444648
0.957198 0.581674 0.0399634
0.956725 0.579873 0.0179599
0.956283 0.577005 0.00695811
0.956054 0.573892 0.00494392
0.955978 0.567895 0.00364691
0.956237 0.55317 0.00151064
0.95639 0.534508 0
0.445777 0.64332 0.397223
0.435752 0.644129 0.415534
0.424292 0.645655 0.436927
0.409888 0.649744 0.462638
0.389441 0.65713 0.492317
0.362936 0.667597 0.523934
0.329091 0.679911 0.553536
0.285451 0.69427 0.575845
0.232395 0.710964 0.585336
0.183902 0.728267 0.579171
0.151888 0.74432 0.556039
0.127749 0.758404 0.514305
0.0835584 0.768307 0.448142
0.125109 0.76257 0.335363
0.314656 0.745876 0.191653
0.467079 0.710552 0.151217
0.568887 0.647288 0.135958
0.657847 0.610864 0.124315
0.750423 0.616037 0.112886
0.840665 0.637293 0.0905318
0.935149 0.653895 0.0552377
0.954742 0.619348 0.0234379
0.95552 0.593973 0.0114595
0.954925 0.629114 0.0271305
0.954925 0.642893 0.0451057
0.955657 0.646555 0.0659953
0.956176 0.646769 0.0797284
0.956374 0.645701 0.0852064
0.956176 0.643473 0.0724804
0.955489 0.640085 0.0517586
0.954803 0.637263 0.0354314
0.954604 0.63386 0.0303502
0.954467 0.625757 0.0239567
0.476814 0.700252 0.426627
0.467765 0.701198 0.443122
0.456382 0.703105 0.4645
0.442039 0.706813 0.489616
0.423575 0.713375 0.518578
0.398978 0.723278 0.550195
0.367361 0.735302 0.581201
0.328237 0.748974 0.607202
0.279042 0.764706 0.623484
0.228107 0.782376 0.625406
0.192248 0.799664 0.611978
0.165576 0.815412 0.582956
0.130739 0.828077 0.534005
0.0844129 0.833524 0.454047
0.201312 0.822873 0.317006
0.38378 0.807111 0.197574
0.521569 0.770901 0.170077
0.622751 0.711604 0.156756
0.709422 0.675731 0.143008
0.801007 0.674723 0.130266
0.883574 0.688823 0.112764
0.941878 0.695033 0.102007
0.952255 0.678752 0.078233
0.953826 0.649882 0.0457923
0.953658 0.666941 0.0623026
0.95256 0.685756 0.0896925
0.953216 0.692119 0.108812
0.953964 0.695613 0.12842
0.954406 0.697124 0.139498
0.954513 0.696132 0.138979
0.954223 0.692302 0.12401
0.953521 0.686305 0.0987411
0.952819 0.680232 0.0808728
0.510185 0.757794 0.456016
0.500603 0.75877 0.473594
0.489662 0.760525 0.494224
0.475868 0.764187 0.519112
0.45861 0.770703 0.547555
0.435706 0.780087 0.578759
0.406424 0.791836 0.610727
0.370565 0.804837 0.639017
0.325628 0.820264 0.660044
0.275685 0.837263 0.669306
0.235386 0.854292 0.663691
0.205646 0.871244 0.643503
0.174716 0.885969 0.607675
0.118181 0.897322 0.552041
0.106203 0.898405 0.45359
0.281498 0.885451 0.298878
0.442573 0.871336 0.200336
0.576761 0.83473 0.192309
0.675029 0.775326 0.179522
0.76109 0.736492 0.164172
0.848051 0.728832 0.152499
0.913222 0.72987 0.146166
0.942519 0.726436 0.147234
0.947906 0.717464 0.135607
0.95053 0.694057 0.0989853
0.951171 0.695308 0.100771
0.949813 0.713878 0.13106
0.949996 0.724254 0.156634
0.950622 0.732143 0.182773
0.951217 0.736477 0.200992
0.951644 0.737835 0.209842
0.951644 0.735973 0.204166
0.951171 0.730571 0.182971
0.542672 0.811154 0.489448
0.53434 0.812604 0.503471
0.522942 0.814099 0.524102
0.51017 0.817227 0.548547
0.493889 0.82208 0.57641
0.471931 0.829313 0.606928
0.444404 0.838727 0.638895
0.410758 0.849882 0.668956
0.369848 0.863035 0.693584
0.321981 0.878981 0.708217
0.27892 0.896712 0.710277
0.246296 0.914809 0.697765
0.216846 0.931975 0.671687
0.172305 0.948089 0.631266
0.098146 0.960464 0.566155
0.173266 0.957122 0.442145
0.351263 0.948608 0.28867
0.49543 0.935943 0.209644
0.629877 0.899001 0.214191
0.727108 0.8383 0.203616
0.808057 0.793729 0.187961
0.880323 0.775341 0.181537
0.921736 0.767239 0.181888
0.938552 0.761364 0.184894
0.943862 0.754253 0.180484
0.946639 0.731731 0.152972
0.948241 0.722591 0.142107
0.947372 0.734386 0.159335
0.947387 0.751934 0.201755
0.947753 0.764202 0.237705
0.948379 0.771008 0.263172
0.948806 0.774578 0.278019
0.948989 0.775128 0.281865
0.570306 0.842588 0.515785
0.561227 0.843778 0.530602
0.550881 0.845121 0.548379
0.538003 0.847456 0.571878
0.52134 0.851301 0.598642
0.50016 0.856672 0.628016
0.473213 0.863859 0.658747
0.440574 0.872999 0.68893
0.401984 0.883909 0.715145
0.356481 0.897414 0.734188
0.311345 0.913512 0.742046
0.277043 0.931624 0.737133
0.248356 0.950591 0.719203
0.21178 0.969192 0.689754
0.140612 0.987121 0.644862
0.0892958 0.99855 0.56289
0.253895 0.998611 0.420111
0.409354 0.998322 0.264118
0.548486 0.992111 0.222553
0.679789 0.953063 0.242557
0.77026 0.886763 0.223758
0.841733 0.839658 0.208179
0.895384 0.820706 0.205142
0.921782 0.811368 0.206439
0.935134 0.805661 0.21059
0.941512 0.798566 0.211017
0.942702 0.777752 0.196368
0.944457 0.756085 0.180652
0.944701 0.760739 0.184756
0.945769 0.7794 0.232792
0.946487 0.796002 0.284962
0.947127 0.806119 0.319478
0.947585 0.811917 0.341222
0.585458 0.856779 0.533761
0.577768 0.857771 0.544823
0.567468 0.859098 0.562936
0.554589 0.861082 0.584939
0.538689 0.863981 0.610758
0.518105 0.868269 0.639078
0.491844 0.87425 0.668864
0.460365 0.881941 0.699107
0.423865 0.890349 0.726619
0.380194 0.901366 0.748363
0.334356 0.915801 0.761364
0.298314 0.933089 0.763073
0.268482 0.952316 0.75201
0.235447 0.971878 0.729152
0.174929 0.991028 0.696025
0.0793774 0.999695 0.637613
0.177234 0.999985 0.51838
0.345464 1 0.360464
0.463172 0.999741 0.262592
0.597971 0.994583 0.270832
0.707958 0.957183 0.252003
0.793103 0.897337 0.22388
0.859052 0.868238 0.212787
0.897536 0.857008 0.212665
0.919203 0.849271 0.215213
0.933028 0.843793 0.219486
0.941451 0.837491 0.222217
0.942535 0.827237 0.219837
0.942565 0.798962 0.208911
0.94316 0.800061 0.209003
0.944671 0.809262 0.235859
0.945891 0.82649 0.304753
0.947234 0.838682 0.356146
0.598276 0.857466 0.546715
0.590173 0.858412 0.557687
0.580621 0.859464 0.572564
0.567956 0.860975 0.594797
0.552422 0.863066 0.620081
0.532998 0.866026 0.647868
0.508309 0.87039 0.677516
0.478233 0.876295 0.707866
0.443244 0.883787 0.736614
0.402731 0.893431 0.761059
0.35816 0.90634 0.778286
0.319707 0.922454 0.785367
0.288975 0.940871 0.780896
0.257908 0.960571 0.764309
0.208331 0.980789 0.738827
0.109377 0.997375 0.696635
0.117372 1 0.605859
0.29073 1 0.462074
0.397742 1 0.329656
0.513893 0.999268 0.307012
0.629038 0.986664 0.288182
0.724163 0.935134 0.244404
0.807172 0.89453 0.218189
0.860594 0.879576 0.211872
0.89279 0.86978 0.212253
0.914824 0.862318 0.214786
0.929747 0.856901 0.218647
0.940002 0.852735 0.222583
0.942748 0.850217 0.223529
0.943114 0.837308 0.221881
0.943572 0.837659 0.221653
0.944289 0.838071 0.228199
0.945373 0.850294 0.290059
0.609674 0.852735 0.561425
0.602777 0.853605 0.57084
0.593133 0.854704 0.584985
0.581186 0.856138 0.604379
0.566613 0.857954 0.629358
0.547402 0.860868 0.656901
0.524147 0.864836 0.686091
0.49572 0.870253 0.716289
0.462257 0.87718 0.74612
0.423972 0.885954 0.772381
0.381338 0.89749 0.792889
0.341619 0.912047 0.805035
0.309392 0.929442 0.806287
0.279179 0.948516 0.796124
0.237537 0.968734 0.776104
0.15491 0.988983 0.745312
0.100343 0.999573 0.68072
0.237949 1 0.558007
0.350851 1 0.410254
0.444221 0.999908 0.349126
0.552193 0.996582 0.340185
0.646632 0.965484 0.283238
0.737926 0.915679 0.235996
0.811399 0.893751 0.216236
0.855909 0.881605 0.211276
0.887556 0.87216 0.211582
0.910719 0.864988 0.214008
0.926558 0.859937 0.217639
0.937881 0.856184 0.22179
0.9411 0.854856 0.223117
0.942412 0.853452 0.223453
0.942931 0.853681 0.223423
0.94406 0.852506 0.223957
0.620829 0.847898 0.576059
0.614054 0.848798 0.585061
0.605447 0.849867 0.597559
0.594354 0.851179 0.615091
0.579751 0.853101 0.638758
0.561929 0.85565 0.665827
0.539971 0.859251 0.694911
0.512459 0.864393 0.724895
0.480629 0.870817 0.755032
0.444495 0.878782 0.782849
0.403616 0.889082 0.806241
0.362646 0.902403 0.822141
0.329656 0.918441 0.828763
0.300099 0.93666 0.824414
0.26424 0.956481 0.809491
0.197803 0.977188 0.786236
0.109987 0.995834 0.741863
0.180056 1 0.644831
0.316472 1 0.501625
0.392432 1 0.405035
0.486519 0.999115 0.400061
0.573083 0.985733 0.339773
0.660533 0.940429 0.271733
0.746639 0.911055 0.23183
0.808331 0.895338 0.215442
0.850233 0.883345 0.210803
0.882765 0.873671 0.210895
0.906737 0.866316 0.213153
0.92372 0.860914 0.216678
0.934142 0.85745 0.22034
0.936095 0.856794 0.221073
0.936812 0.856565 0.221271
0.936538 0.856657 0.221134
0.632944 0.843061 0.588785
0.625925 0.843992 0.598627
0.617929 0.844984 0.6094
0.607004 0.846342 0.626276
0.593408 0.848066 0.648295
0.576059 0.850538 0.674937
0.554971 0.85391 0.703487
0.52903 0.85861 0.733471
0.498451 0.864637 0.763806
0.46363 0.872084 0.792645
0.424613 0.881346 0.817761
0.383581 0.893324 0.837369
0.349386 0.908156 0.848524
0.320348 0.925414 0.849424
0.288609 0.94432 0.839887
0.235386 0.964767 0.821912
0.137835 0.985733 0.791226
0.12958 0.998688 0.718242
0.284825 1 0.594537
0.356786 1 0.474479
0.43331 0.999863 0.453529
0.510674 0.995895 0.40911
0.58648 0.966628 0.326986
0.672374 0.930068 0.264149
0.746441 0.912093 0.230243
0.802838 0.897017 0.215
0.844831 0.885023 0.210224
0.878004 0.875166 0.210132
0.90312 0.867491 0.212177
0.920272 0.862089 0.21529
0.926726 0.859953 0.217472
0.929915 0.858885 0.218708
0.925322 0.86041 0.216922
0.645502 0.838254 0.600427
0.639277 0.839094 0.610437
0.630671 0.840146 0.621714
0.620478 0.841413 0.634882
0.606683 0.843153 0.658061
0.59028 0.84538 0.684077
0.570001 0.848554 0.712398
0.545266 0.852918 0.742016
0.515816 0.85861 0.772351
0.482399 0.865553 0.80209
0.445151 0.873991 0.828901
0.405234 0.88484 0.850904
0.369985 0.898466 0.865934
0.3411 0.914519 0.871763
0.31104 0.932601 0.867353
0.267994 0.952239 0.854536
