LUT预设1/LUT全系打包/人像lut/人像系列lut/人像橙调.cube
TITLE "Generated by Resolve"
LUT_3D_SIZE 9
0.0304112 0.0299687 0.0310063
0.0578012 0.0329137 0.0309148
0.200656 0.0306859 0.00712596
0.419089 0 0
0.5776 0 0
0.641062 0 0
0.646708 0 0
0.646708 0 0
0.646708 0 0
0.0286717 0.0491951 0.0368505
0.0406958 0.0466011 0.038117
0.211734 0.0571603 0.00898756
0.39733 0.0264744 0
0.575113 0 0
0.647547 0 0
0.651591 0 0
0.646998 0 0
0.647288 0 0
0.000610361 0.105211 0.0430762
0.00395209 0.0944991 0.0444495
0.110735 0.104524 0.0363012
0.439994 0.128237 0
0.67071 0.0665904 0
0.701274 0.0457923 0
0.702571 0.0124056 0
0.689448 0.00131228 0
0.68423 0.00062562 0
0 0.199084 0.0273136
0 0.188525 0.0324712
0.0235142 0.18735 0.0230716
0.292302 0.228779 0
0.605844 0.254871 0
0.812284 0.287068 0
0.790661 0.235966 0
0.782757 0.221393 0
0.777722 0.210513 0
0 0.32549 0
0 0.322484 0
0 0.309651 0
0.143618 0.359716 0
0.539254 0.420188 0
0.791562 0.429496 0
0.893309 0.476493 0
0.900481 0.490013 0
0.897719 0.479896 0
0 0.417777 0
0 0.417426 0
0 0.413367 0
0.00256352 0.454673 0
0.426841 0.567041 0
0.781689 0.621271 0
0.939757 0.635355 0
0.972686 0.6551 0
0.993164 0.708186 0
0 0.455665 0
0 0.455451 0
0 0.454948 0
0 0.482506 0
0.223789 0.600534 0
0.696315 0.720806 0
0.956191 0.76759 0
0.997543 0.772305 0
0.997543 0.772213 0
0 0.487388 0
0 0.487617 0
0 0.487663 0
0 0.507393 0
0.102037 0.604105 0
0.581125 0.732982 0
0.918151 0.814984 0
0.997436 0.824414 0
0.997436 0.821149 0
0 0.487907 0
0 0.487907 0
0 0.487907 0
0 0.490227 0
0.00721752 0.561959 0
0.422675 0.68983 0
0.815824 0.799496 0
0.997406 0.837674 0
0.997406 0.835401 0
0.0257572 0.0226596 0.0601663
0.0560769 0.0329595 0.0550698
0.211231 0.0215457 0.0323949
0.443107 0 0.00233463
0.604135 0 7.62951e-05
0.663539 0 0
0.662409 0 3.0518e-05
0.656626 0 0
0.655299 0 0
0.0259403 0.05066 0.0457313
0.0357366 0.0484016 0.0432288
0.164279 0.0580758 0.0313115
0.399359 0.0174868 0
0.587686 0 0
0.658839 0 0
0.657572 0 0
0.648981 0 0
0.649256 0 0
0.000350958 0.107179 0.0465095
0.00289921 0.0954604 0.04477
0.111147 0.104631 0.0361791
0.44445 0.118883 1.5259e-05
0.598474 0.0746166 0
0.685771 0.0211032 0
0.695552 0.00141909 0
0.684474 0 0
0.680934 7.62951e-05 0
0 0.199252 0.0249943
0 0.188663 0.031632
0.0205539 0.186114 0.022858
0.287114 0.226566 0
0.680415 0.270558 0
0.832883 0.279316 0
0.79675 0.248081 0
0.774838 0.204746 0
0.760708 0.176593 0
0 0.323568 0
0 0.320729 0
0 0.30779 0
0.133547 0.355642 0
0.533257 0.416968 0
0.799161 0.437613 0
0.940337 0.538384 0
0.924407 0.490532 0
0.883406 0.451118 0
0 0.416953 0
0 0.416617 0
0 0.412039 0
0.00358587 0.451377 0
0.41976 0.563516 0
0.777768 0.61941 0
0.94049 0.638025 0
0.987991 0.693843 0
0.997589 0.756741 0
0 0.455314 0
0 0.454963 0
0 0.454536 0
0 0.480308 0
0.211017 0.596933 0
0.68864 0.717998 0
0.953277 0.766003 0
0.997559 0.772 0
0.997543 0.780011 0
0 0.487282 0
0 0.487694 0
0 0.486885 0
0 0.505806 0
0.0951095 0.602243 0
0.570596 0.729076 0
0.910887 0.812696 0
0.997436 0.823835 0
0.997436 0.82092 0
0 0.487907 0
0 0.487907 0
0 0.487907 0
0 0.489387 0
0.00546273 0.559045 0
0.409506 0.686 0
0.806683 0.797421 0
0.997009 0.837873 0
0.997406 0.835386 0
0.00474556 0.000350958 0.210101
0.0452735 0.00195315 0.199207
0.217166 0.00140383 0.191226
0.46041 0 0.171542
0.632502 0 0.154299
0.6916 0 0.146609
0.694697 0 0.110307
0.691493 0 0.0757458
0.690227 0 0.0572671
0.000244144 0.0403143 0.170657
0.0122225 0.0387121 0.152605
0.165164 0.0463417 0.14725
0.417136 0.00270085 0.1196
0.62005 0 0.094728
0.690822 0 0.0835279
0.693736 0 0.0648661
0.688167 0 0.0372778
0.686229 0 0.0313725
0 0.118654 0.147524
4.57771e-05 0.104631 0.12372
0.108049 0.112535 0.1122
0.365255 0.107881 0.0611429
0.610407 0.0319982 0.0170596
0.717418 0.00422675 0.00518807
0.730877 3.0518e-05 0.00373846
0.715587 0 1.5259e-05
0.709957 6.10361e-05 0
0 0.224521 0.0979629
0 0.211795 0.0915389
0.0120394 0.205005 0.073228
0.302342 0.238773 0.00624094
0.692103 0.243153 0.0223697
0.790021 0.238788 3.0518e-05
0.803876 0.204852 1.5259e-05
0.777279 0.160479 0
0.765866 0.143496 0
0 0.347234 0.00561532
0 0.344656 0.00634775
0 0.329915 0.00538643
0.129992 0.377981 0
0.551476 0.436576 0
0.897322 0.506539 0
0.932906 0.519265 0.0442359
0.909972 0.462226 0
0.872969 0.407218 0
0 0.425666 0
0 0.426047 0
0 0.420005 0
0.00300603 0.454673 0
0.412833 0.565438 0
0.774319 0.618814 0
0.951156 0.650996 0
0.997284 0.771191 0.0246433
0.996368 0.770993 0.112062
0 0.454841 0
0 0.454795 0
0 0.453941 0
0 0.47776 0
0.195758 0.592401 0
0.680278 0.715007 0
0.950561 0.76408 0
0.997543 0.773175 0
0.997482 0.801404 0
0 0.487266 0
0 0.487633 0
0 0.486397 0
0 0.505226 0
0.0867018 0.600977 0
0.563272 0.726299 0
0.906416 0.811521 0
0.997436 0.823575 0
0.997436 0.821454 0
0 0.487907 0
0 0.487907 0
0 0.487907 0
0 0.489281 0
0.00392157 0.557168 0
0.401633 0.683711 0
0.801526 0.796338 0
0.996506 0.837949 0
0.997406 0.835386 0
0 0 0.386969
0.0084535 0 0.383169
0.214191 0 0.395224
0.469657 0 0.398291
0.649119 0 0.390509
0.711452 0 0.390906
0.715892 0 0.364065
0.713268 0 0.336049
0.712428 0 0.325551
0 0 0.376074
0.00262455 1.5259e-05 0.357504
0.158328 0.000503548 0.361379
0.424949 0 0.356756
0.63418 0 0.346166
0.70811 0 0.348531
0.714824 0 0.330755
0.710796 0 0.300755
0.709804 0 0.291127
0 0.0781262 0.358618
0 0.0690166 0.332586
0.0644236 0.0973678 0.328008
0.362036 0.0828565 0.316381
0.6206 0.00772107 0.286564
0.733867 0 0.27657
0.748852 0 0.269444
0.738125 0 0.233768
0.734295 0 0.223163
0 0.240299 0.32015
0 0.229923 0.307668
0.000183108 0.221302 0.287495
0.282368 0.260822 0.275898
0.604044 0.234882 0.218143
0.763394 0.160159 0.158145
0.794598 0.126772 0.153811
0.78323 0.0787366 0.115267
0.775219 0.0469825 0.0905165
0 0.409934 0.273625
0 0.405737 0.271595
0 0.385977 0.246204
0.0547494 0.420264 0.201801
0.551888 0.455772 0.106035
0.862058 0.474586 0.246235
0.897444 0.442634 0.0457008
0.88333 0.382376 0.0213474
0.87219 0.347799 0.00944533
0 0.481209 0.185855
0 0.482261 0.188602
0 0.474907 0.170718
0.000183108 0.504204 0.10338
0.408392 0.616754 0.0184634
0.827527 0.680003 0.000137331
0.993408 0.737163 0.059144
0.988327 0.783795 0.419608
0.994232 0.718074 0.0199588
0 0.489494 0.107881
0 0.490211 0.10605
0 0.48838 0.103807
0 0.505165 0.0560464
0.142046 0.620539 0.00323491
0.706355 0.749874 0
0.979873 0.794903 0
0.997497 0.798764 0
0.997375 0.872206 0.48397
0 0.500603 0.104433
0 0.500984 0.105638
0 0.501244 0.100191
0 0.515831 0.0829328
0.0362554 0.596735 0.0166781
0.546181 0.723598 0
0.900236 0.8112 0
0.997421 0.824048 0
0.997436 0.822843 0
0 0.488289 0.0110781
0 0.488197 0.00852979
0 0.48806 0.00422675
0 0.489876 0.0081178
0.00195315 0.553643 0.00108339
0.386511 0.679408 0
0.790722 0.793591 0
0.995865 0.838071 0
0.997406 0.835386 0
0 0 0.465141
0 0 0.472526
0.182925 0 0.501488
0.461173 0 0.531868
0.661555 0 0.551415
0.734737 0 0.562173
0.742702 0 0.555093
0.740353 0 0.541268
0.739208 0 0.533791
0 0 0.491341
0 0 0.484779
0.115892 0 0.501854
0.416693 0 0.526741
0.643778 0 0.538857
0.729412 0 0.545037
0.740688 0 0.537774
0.736507 0 0.519127
0.735683 0 0.513268
0 0.00296025 0.521492
0 0.000717174 0.509133
0.0299992 0.0220188 0.5122
0.348791 0.0239414 0.533135
0.625635 0.000488289 0.531914
0.751827 0 0.531579
0.769162 0 0.527321
0.758343 0 0.495964
0.753933 0 0.484108
0 0.215717 0.524834
0 0.204349 0.518349
0 0.19118 0.509697
0.20412 0.248585 0.527321
0.586221 0.233967 0.523308
0.762829 0.144579 0.493904
0.797391 0.103441 0.492668
0.787259 0.052491 0.459022
0.78175 0.024979 0.441978
0 0.403479 0.510781
0 0.401022 0.509957
0 0.381552 0.491737
0.0041352 0.417777 0.48719
0.511849 0.496193 0.504326
0.795605 0.4533 0.453727
0.868055 0.417685 0.43444
0.864652 0.379309 0.402289
0.855726 0.346258 0.370214
0 0.529442 0.491188
0 0.529961 0.493446
0 0.525933 0.482673
0 0.5617 0.473213
0.270039 0.668269 0.440192
0.781704 0.705104 0.371664
0.965362 0.763928 0.577279
0.972351 0.710964 0.382818
0.958358 0.643503 0.288212
0 0.554376 0.440925
0 0.554879 0.442954
0 0.555383 0.438972
0 0.574014 0.423545
0.0404974 0.670604 0.384085
0.648188 0.769604 0.276814
0.954391 0.806195 0.151843
0.99733 0.862394 0.480049
0.998703 0.923125 0.76321
0 0.569497 0.418357
0 0.568215 0.415595
0 0.568612 0.417304
0 0.583291 0.414618
0.000534066 0.655558 0.386572
0.474952 0.750912 0.299809
0.871397 0.816709 0.134646
0.996918 0.832822 0.0657816
0.997375 0.834363 0.134997
0 0.554391 0.326894
0 0.553735 0.322408
0 0.554055 0.324514
0 0.552956 0.315755
0 0.6047 0.295216
0.261784 0.699168 0.208057
0.753933 0.791241 0.045304
0.988525 0.839689 0.0148013
0.997406 0.834424 0.0196841
0 0 0.481865
0 0 0.490471
0.148287 0 0.522744
0.437247 0 0.564599
0.657801 0 0.598764
0.74342 0 0.61593
0.755917 0 0.619394
0.755581 0 0.616938
0.754726 0 0.614511
0 0 0.518395
0 0 0.516716
0.0742809 0 0.536767
0.389792 0 0.572641
0.635676 0 0.598764
0.73756 0 0.612497
0.755398 0 0.6159
0.754192 0 0.611811
0.753826 0 0.610666
0 0.00062562 0.563821
0 0.000137331 0.558358
0.0123903 0.00392157 0.570397
0.320699 0.0101015 0.605661
0.616144 6.10361e-05 0.629709
0.761486 0 0.641108
0.785657 0 0.642069
0.777386 0 0.62681
0.773831 0 0.62092
0 0.194095 0.6
0 0.181964 0.597528
0 0.160967 0.600244
0.135485 0.221469 0.626276
0.559243 0.213031 0.665888
0.762188 0.106935 0.664317
0.806836 0.0585336 0.666484
0.803326 0.00595102 0.653132
0.801953 0.00421149 0.643732
0 0.392386 0.632883
0 0.389578 0.632425
0 0.369314 0.627588
0.000228885 0.392157 0.638651
0.424887 0.473045 0.684489
0.779355 0.466331 0.707683
0.867674 0.427909 0.70074
0.866407 0.390509 0.684504
0.85687 0.353521 0.665537
0 0.512459 0.647532
0 0.512001 0.64715
0 0.508034 0.643397
0 0.534203 0.652338
0.0892348 0.644556 0.665278
0.741741 0.754177 0.723949
0.932662 0.733577 0.704646
0.951827 0.707698 0.691447
0.942336 0.668772 0.659175
0 0.541665 0.631922
0 0.541756 0.633371
0 0.540978 0.632303
0 0.558831 0.632288
0.000335698 0.674647 0.65507
0.567452 0.823941 0.676661
0.921294 0.870115 0.654368
0.99588 0.914046 0.80238
0.995895 0.884535 0.678996
0 0.560937 0.612421
0 0.560723 0.611505
0 0.56109 0.61387
0 0.573129 0.614527
0 0.659007 0.633005
0.334615 0.793667 0.635813
0.828199 0.871122 0.607538
0.988876 0.890669 0.575738
0.998779 0.927764 0.752758
0 0.569406 0.563622
0 0.570001 0.560037
0 0.569802 0.560922
0 0.571054 0.556329
0 0.631846 0.569146
0.0832685 0.745022 0.564126
0.696864 0.837415 0.533379
0.957778 0.876951 0.50103
0.997345 0.881865 0.498009
0 0 0.481071
0 0 0.488075
0.113268 0 0.518196
0.410544 0 0.562799
0.644175 0 0.600076
0.743206 0 0.620722
0.759655 0 0.62855
0.759655 0 0.62855
0.759655 0 0.62855
0 0 0.515084
0 0 0.512261
0.0448463 0 0.530739
0.360052 0 0.568902
0.618082 0 0.601022
0.735744 0 0.619745
0.759579 0 0.62855
0.759655 0 0.628534
0.759655 0 0.62855
0 0.000488289 0.565225
0 0.000274662 0.561166
0.00364691 0.00140383 0.572641
0.290913 0.00677501 0.609964
0.594522 1.5259e-05 0.640528
0.758511 0 0.658946
0.790356 0 0.664088
0.782956 0 0.654765
0.779385 0 0.650553
0 0.182223 0.606256
0 0.173617 0.605051
0 0.142809 0.608087
0.0920424 0.207187 0.635904
0.529137 0.207752 0.688441
0.754635 0.0979477 0.699596
0.807736 0.0380865 0.703166
0.809186 0.00952163 0.697749
0.80885 0.00674449 0.693767
0 0.379095 0.648936
0 0.378027 0.648844
0 0.357519 0.647898
0 0.373892 0.664027
0.354559 0.444282 0.706828
0.757015 0.45832 0.766674
0.8636 0.417975 0.766903
0.866194 0.38526 0.759121
0.856657 0.345388 0.747524
0 0.507897 0.679301
0 0.506355 0.678828
0 0.502403 0.678447
0 0.519112 0.693339
0.0112306 0.614145 0.712642
0.685161 0.739666 0.806165
0.923415 0.740703 0.831937
0.949905 0.716716 0.828351
0.941054 0.679072 0.816693
0 0.537331 0.68661
0 0.537606 0.68716
0 0.53698 0.686534
0 0.54757 0.693858
0 0.645136 0.726299
0.460029 0.80296 0.781857
0.903395 0.901579 0.843809
0.987961 0.903731 0.845029
0.989929 0.890547 0.835981
0 0.549905 0.689555
0 0.549859 0.689403
0 0.550118 0.690257
0 0.556329 0.692912
0 0.629313 0.71957
0.168017 0.760983 0.747097
0.791089 0.904356 0.822858
0.980728 0.936568 0.830121
0.999252 0.949889 0.874525
0 0.55433 0.680507
0 0.554467 0.678462
0 0.554376 0.67895
0 0.554635 0.677958
0 0.603937 0.696925
0.00169375 0.720211 0.722179
0.635721 0.87039 0.78291
0.939864 0.927443 0.792065
0.998489 0.937133 0.793515
0 0 0.48069
0 0 0.486656
0.089189 0 0.515236
0.391806 0 0.560113
0.632883 0 0.597955
0.740856 0 0.620066
0.759609 0 0.628534
0.759655 0 0.62855
0.759655 0 0.62855
0 0 0.511498
0 0 0.507973
0.0231327 0 0.524407
0.337819 0 0.562646
0.601633 0 0.596475
0.731136 0 0.618189
0.759411 0 0.628443
0.759655 0 0.62855
0.759655 0 0.62855
0 0.000183108 0.562005
0 9.15541e-05 0.557656
0.000808728 0.000335698 0.566873
0.26717 0.00213626 0.602304
0.573785 1.5259e-05 0.633936
0.74905 0 0.653773
0.78648 0 0.659983
0.779843 0 0.651514
0.776242 0 0.647379
0 0.162524 0.602487
0 0.156252 0.601419
0 0.116991 0.602792
0.0746624 0.186069 0.62945
0.501366 0.183856 0.68127
0.741176 0.0673838 0.69453
0.804471 0.0114595 0.699687
0.809705 0.00833143 0.698344
0.808667 0.00540169 0.694728
0 0.364004 0.646265
0 0.362219 0.645838
0 0.341695 0.644068
0 0.351125 0.659541
0.310445 0.417594 0.69723
0.734585 0.437781 0.763485
0.855726 0.397452 0.7664
0.862303 0.368872 0.76112
0.853254 0.330449 0.7514
0 0.501656 0.679973
0 0.500633 0.679667
0 0.497093 0.679286
0 0.506096 0.692195
0.0024567 0.59527 0.714168
0.633326 0.711055 0.797879
0.910918 0.727398 0.842252
0.946242 0.705318 0.841581
0.937652 0.667765 0.833555
0 0.537224 0.691676
0 0.537163 0.691646
0 0.536797 0.691539
0 0.543328 0.697749
0 0.629435 0.730266
0.37969 0.776043 0.775509
0.88275 0.899916 0.867277
0.984741 0.904402 0.87541
0.98854 0.892836 0.873793
0 0.547356 0.696559
0 0.547127 0.696361
0 0.547219 0.696483
0 0.550454 0.69839
0 0.615137 0.72665
0.0913405 0.740795 0.755352
0.755032 0.901991 0.854566
0.975372 0.944183 0.877745
0.998413 0.946334 0.879088
0 0.550866 0.698085
0 0.550881 0.697993
0 0.550881 0.698039
0 0.550927 0.698024
0 0.592981 0.718517
0.00141909 0.702266 0.747845
0.566049 0.852201 0.818082
0.925002 0.939574 0.870237
0.997482 0.952483 0.877104
0 0 0.480674
0 0 0.485771
0.0758373 0 0.513451
0.379919 0 0.558343
0.626093 0 0.596658
0.739025 0 0.619577
0.759564 0 0.628504
0.759655 0 0.62855
0.759655 0 0.62855
0 0 0.509987
0 0 0.506203
0.0171969 0 0.521691
0.326192 0 0.559762
0.592706 0 0.594491
0.728679 0 0.617487
0.75935 0 0.628428
0.759655 0 0.62855
0.759655 0 0.62855
0 4.57771e-05 0.560479
0 0.000137331 0.556191
0.000411994 0.000137331 0.564706
0.255604 0.000747692 0.599191
0.563485 3.0518e-05 0.631189
0.744686 0 0.651789
0.784909 0 0.658503
0.778744 0 0.650309
0.775036 0 0.645991
0 0.155535 0.601129
0 0.149081 0.600046
0 0.1093 0.601083
0.0744488 0.177447 0.627771
0.489113 0.174487 0.678294
0.735454 0.0543069 0.692363
0.803021 0.00515755 0.698314
0.809613 0.0105287 0.697444
0.808255 0.002533 0.693507
0 0.357595 0.644846
0 0.355917 0.644358
0 0.33547 0.642618
0 0.341253 0.657069
0.288701 0.405112 0.692103
0.722698 0.427466 0.759915
0.851148 0.385 0.762997
0.859541 0.357244 0.758175
0.850355 0.317983 0.748302
0 0.498085 0.679103
0 0.497459 0.678889
0 0.494194 0.678553
0 0.49926 0.689937
7.62951e-05 0.584421 0.71252
0.606973 0.693477 0.789441
0.902235 0.714443 0.839078
0.942824 0.692515 0.838911
0.933761 0.652598 0.830259
0 0.536812 0.691524
0 0.536568 0.691463
0 0.536309 0.691371
0 0.541451 0.696864
0 0.620462 0.727901
0.338704 0.76228 0.76672
0.868757 0.893538 0.8654
0.982147 0.899138 0.875013
0.987472 0.887327 0.874189
0 0.546563 0.696315
0 0.546197 0.695994
0 0.546166 0.696025
0 0.547311 0.696742
0 0.606546 0.724269
0.0609293 0.731212 0.75375
0.727565 0.895232 0.851911
0.969558 0.942931 0.879454
0.998215 0.946227 0.882628
0 0.550744 0.699062
0 0.550744 0.699062
0 0.550744 0.699062
0 0.550744 0.699062
0 0.587335 0.717525
0.00129702 0.693202 0.747631
0.514763 0.836927 0.810269
0.911101 0.938308 0.875319
0.996857 0.953902 0.884169
