LUT预设1/LUT全系打包/人像lut/人像系列lut/人像质感.cube
TITLE "Generated by Resolve"
LUT_3D_SIZE 9
0.00888075 0.00807202 0.00907912
0.0381018 0.00933852 0.00932326
0.127932 0.0129091 0.00854505
0.386892 0.0234989 0.0105745
0.621393 0.0451362 0.0153201
0.764096 0.056611 0.0187991
0.802152 0.0577707 0.0201572
0.830335 0.0589456 0.0214847
0.857649 0.0601511 0.0226291
0.0203098 0.0420691 0.0231022
0.0419013 0.0441901 0.0164034
0.181476 0.0528572 0.0115663
0.444984 0.0749065 0.0204318
0.682582 0.0866102 0.0264591
0.782162 0.0913252 0.0274052
0.815625 0.09131 0.0272679
0.840833 0.0917372 0.0276341
0.866316 0.0924849 0.028275
0.0362402 0.0859541 0.0361028
0.0497139 0.093431 0.0467994
0.0999466 0.101152 0.016495
0.545617 0.150149 0.0165866
0.791547 0.19176 0.0320439
0.827543 0.204913 0.0383154
0.85539 0.200153 0.0416114
0.877531 0.178622 0.0431067
0.900725 0.164019 0.0433051
0.0844434 0.207202 0.0766308
0.101137 0.223941 0.0917372
0.120546 0.24831 0.117418
0.306798 0.265049 0.0167849
0.771511 0.322164 0.0144503
0.864637 0.431403 0.0225223
0.899413 0.451514 0.0323796
0.923369 0.453208 0.038407
0.942519 0.467964 0.0425879
0.171267 0.420447 0.154406
0.189883 0.436179 0.171572
0.209857 0.470146 0.191577
0.216709 0.497887 0.234714
0.60914 0.51989 0.0460517
0.844327 0.557412 0.0265812
0.91165 0.660914 0.134432
0.960601 0.752438 0.239139
0.973297 0.780194 0.264561
0.236027 0.590341 0.215213
0.25359 0.599512 0.230533
0.267338 0.624079 0.245792
0.286076 0.644572 0.26717
0.308431 0.751827 0.318456
0.807416 0.733776 0.104982
0.904952 0.733211 0.109087
0.953384 0.776349 0.137621
0.969299 0.800549 0.147356
0.280262 0.704936 0.260151
0.298161 0.711055 0.274159
0.309377 0.726635 0.289525
0.32459 0.740169 0.299977
0.340002 0.759014 0.332128
0.50074 0.863767 0.222416
0.881758 0.820279 0.106661
0.938247 0.819852 0.112337
0.956786 0.831342 0.120516
0.30518 0.768643 0.289509
0.323522 0.771862 0.301045
0.332021 0.7785 0.314443
0.340688 0.784939 0.32314
0.35642 0.789502 0.332845
0.367895 0.826276 0.39443
0.737362 0.89247 0.137682
0.913237 0.868193 0.105241
0.946777 0.867918 0.108583
0.31548 0.792538 0.303014
0.334676 0.794965 0.314488
0.34432 0.800183 0.327626
0.348684 0.80383 0.336339
0.362585 0.80383 0.339818
0.375921 0.815122 0.36701
0.494072 0.928512 0.312398
0.871565 0.907439 0.10602
0.929992 0.898955 0.10457
0.00674449 0.00572213 0.0468757
0.0449073 0.00817884 0.0457313
0.175204 0.0121767 0.0417334
0.431983 0.0260777 0.0403754
0.661921 0.0482795 0.0436866
0.774273 0.0563211 0.0463722
0.810483 0.0575418 0.047837
0.837324 0.0587625 0.0491188
0.86392 0.0599527 0.0504463
0.0142214 0.0438849 0.0439002
0.0411994 0.0434882 0.0433661
0.119951 0.0480507 0.0430762
0.384985 0.0614176 0.0416266
0.644129 0.0773785 0.046479
0.778546 0.0870069 0.0497139
0.816052 0.0882734 0.0510719
0.842161 0.0894942 0.0524758
0.867567 0.0907301 0.0537575
0.0298772 0.0885786 0.0517433
0.052842 0.0860761 0.0572824
0.102342 0.0972152 0.048249
0.490639 0.145022 0.0488289
0.743526 0.179721 0.0612955
0.816739 0.167468 0.0640269
0.84387 0.149569 0.0622568
0.864744 0.135714 0.0610971
0.887434 0.130007 0.0608377
0.0790417 0.211704 0.0865949
0.0979019 0.203571 0.0938125
0.117968 0.2271 0.110765
0.303166 0.257389 0.0495003
0.794476 0.351919 0.0482185
0.871962 0.456474 0.0661326
0.901305 0.466819 0.064332
0.922652 0.442817 0.0681468
0.94168 0.42237 0.0698711
0.164981 0.422965 0.164477
0.185061 0.418036 0.173007
0.203586 0.437598 0.189639
0.227451 0.475731 0.221317
0.604013 0.511849 0.0757153
0.851667 0.591318 0.108217
0.927642 0.744274 0.263325
0.962951 0.786007 0.38201
0.974975 0.803861 0.424292
0.227695 0.59353 0.232044
0.250935 0.594034 0.241093
0.267781 0.602304 0.253803
0.285283 0.630076 0.269718
0.32311 0.725994 0.331136
0.808316 0.731029 0.136522
0.908324 0.745724 0.152819
0.957046 0.799329 0.183612
0.964813 0.820966 0.204715
0.269429 0.708705 0.277058
0.294102 0.710613 0.288914
0.312779 0.717021 0.301839
0.3234 0.734569 0.31693
0.348165 0.757565 0.330434
0.47361 0.859739 0.287816
0.883955 0.819089 0.138811
0.935454 0.822766 0.144244
0.94876 0.83946 0.155566
0.291829 0.772931 0.299199
0.317388 0.774746 0.315465
0.336507 0.777722 0.328435
0.342367 0.78529 0.3393
0.358877 0.793133 0.349691
0.386526 0.819165 0.385595
0.724269 0.893462 0.182803
0.900267 0.87216 0.136507
0.930114 0.873884 0.140291
0.299336 0.796338 0.301808
0.32578 0.797864 0.32282
0.34667 0.80058 0.339117
0.352911 0.80647 0.348058
0.362234 0.808698 0.356085
0.385855 0.819196 0.371817
0.4822 0.919554 0.378653
0.873137 0.906767 0.136492
0.910521 0.904646 0.136446
0.0182803 0.0332647 0.223636
0.0564584 0.0301671 0.212696
0.200855 0.00595102 0.204532
0.531609 0.0157473 0.154528
0.732326 0.0403296 0.13286
0.790967 0.0453498 0.125002
0.822477 0.0478523 0.122683
0.848356 0.0518196 0.112718
0.874556 0.0552529 0.104982
0.00627146 0.0512093 0.151873
0.0403906 0.0525368 0.151415
0.14464 0.0496681 0.146456
0.452842 0.0514382 0.116533
0.690486 0.0750134 0.109285
0.790249 0.0827955 0.10692
0.825528 0.0832227 0.110918
0.851453 0.0848707 0.108385
0.877379 0.0866865 0.105486
0.0184939 0.0991379 0.115496
0.0422522 0.0928511 0.10341
0.0982223 0.0960555 0.101808
0.359319 0.11339 0.0976577
0.656367 0.123125 0.0927749
0.798337 0.12192 0.0915084
0.837308 0.119463 0.0957656
0.864698 0.119234 0.0933089
0.890074 0.120775 0.0912184
0.0727092 0.244892 0.137346
0.0907759 0.228122 0.134295
0.118853 0.223392 0.136645
0.311635 0.258167 0.0883955
0.76878 0.328817 0.101381
0.852491 0.381643 0.100069
0.885206 0.37818 0.101717
0.903471 0.329717 0.0965438
0.923415 0.300923 0.0946517
0.159136 0.456611 0.194018
0.181018 0.446921 0.199207
0.204532 0.438346 0.205417
0.237232 0.487327 0.233829
0.609888 0.519631 0.110185
0.876341 0.670909 0.259815
0.929488 0.784802 0.518837
0.960922 0.780301 0.434333
0.972778 0.781598 0.420676
0.214694 0.612192 0.240543
0.241871 0.612177 0.254093
0.267872 0.609659 0.269291
0.292729 0.645304 0.293187
0.339361 0.709819 0.335561
0.807874 0.728542 0.168399
0.916884 0.774456 0.217655
0.967971 0.865431 0.576547
0.976944 0.891035 0.695201
0.249485 0.715557 0.269612
0.277668 0.717739 0.286244
0.306554 0.71902 0.309255
0.330632 0.739406 0.330556
0.349783 0.763958 0.346395
0.461051 0.849287 0.34667
0.886687 0.81767 0.171832
0.936843 0.825895 0.178805
0.942641 0.849851 0.194385
0.264714 0.777554 0.291173
0.293721 0.778943 0.300328
0.325734 0.78027 0.323919
0.349508 0.790097 0.345174
0.354574 0.801556 0.353628
0.403159 0.821546 0.396445
0.705928 0.895323 0.237613
0.89514 0.873671 0.169574
0.919081 0.878508 0.174929
0.268818 0.80061 0.319539
0.298955 0.801816 0.311254
0.331975 0.803357 0.326818
0.357458 0.808789 0.35082
0.363485 0.817929 0.352163
0.391684 0.827726 0.379187
0.487724 0.905745 0.418875
0.878645 0.904372 0.169421
0.911879 0.904112 0.169757
0.055375 0.120943 0.502739
0.0869001 0.120546 0.500862
0.201785 0.0779126 0.505669
0.554696 0.000320439 0.52604
0.764935 0.0069276 0.495003
0.809522 0.00994888 0.465171
0.837217 0.013962 0.424445
0.861631 0.0179141 0.377234
0.886854 0.0204623 0.35906
0.0495155 0.13756 0.467506
0.0807965 0.138552 0.465339
0.170047 0.115877 0.464363
0.505226 0.0318303 0.477791
0.751919 0.0425269 0.424063
0.806394 0.0458534 0.392325
0.836408 0.0485389 0.377249
0.86096 0.0514839 0.349172
0.886656 0.0536202 0.333898
0.0370336 0.162478 0.394965
0.0665599 0.156939 0.386343
0.116823 0.170489 0.398474
0.408331 0.0860761 0.404395
0.711818 0.0834058 0.32253
0.808377 0.0823987 0.29958
0.844175 0.0827039 0.312337
0.871214 0.0847181 0.306661
0.897032 0.0873579 0.29662
0.0425269 0.29131 0.347906
0.0667277 0.280522 0.337316
0.092195 0.265949 0.31754
0.262699 0.269535 0.301259
0.62385 0.269123 0.252995
0.815366 0.255222 0.229435
0.857298 0.240726 0.238163
0.885817 0.229099 0.241062
0.911116 0.213611 0.226215
0.109575 0.519417 0.377295
0.130846 0.511299 0.376806
0.156115 0.486183 0.356207
0.231907 0.505486 0.350134
0.591638 0.523812 0.204807
0.866728 0.630594 0.367803
0.915984 0.705318 0.447486
0.941741 0.689784 0.414984
0.957153 0.626734 0.315724
0.160937 0.661433 0.406592
0.180621 0.661418 0.424414
0.211887 0.651942 0.421698
0.270726 0.683513 0.412787
0.358465 0.738018 0.418799
0.819547 0.756664 0.207141
0.926238 0.828367 0.477714
0.976028 0.899519 0.796551
0.980255 0.907195 0.813519
0.193301 0.748806 0.427832
0.213611 0.75314 0.455009
0.248966 0.753826 0.465583
0.300282 0.769635 0.447013
0.329122 0.798383 0.5028
0.467277 0.843503 0.398672
0.892561 0.824353 0.204685
0.936156 0.840955 0.235279
0.945937 0.881987 0.404501
0.192493 0.793988 0.491051
0.213458 0.798093 0.520165
0.25066 0.801129 0.534615
0.29575 0.810513 0.533471
0.32607 0.828885 0.578393
0.391608 0.840742 0.531273
0.680247 0.895689 0.296956
0.899306 0.872511 0.202655
0.921645 0.880186 0.210605
0.211536 0.810666 0.47599
0.232258 0.81442 0.503838
0.269001 0.817288 0.515831
0.315389 0.822416 0.501503
0.345464 0.839796 0.53077
0.369512 0.854994 0.611933
0.515084 0.895842 0.443626
0.880079 0.902632 0.20293
0.918166 0.902129 0.202899
0.0767834 0.173342 0.668803
0.107424 0.174868 0.67451
0.209583 0.146624 0.685039
0.535531 0.00129702 0.731548
0.770077 9.15541e-05 0.741619
0.822538 3.0518e-05 0.744976
0.853117 0.000793469 0.732799
0.878706 0.00267033 0.710704
0.903349 0.00483711 0.694606
0.0756542 0.201678 0.669352
0.106615 0.203647 0.672694
0.179004 0.194476 0.681971
0.47602 0.0384985 0.72015
0.76054 0.0311589 0.729717
0.821454 0.0315862 0.729839
0.851972 0.0331426 0.713924
0.87599 0.0354009 0.687114
0.900481 0.0376745 0.673121
0.0720226 0.226764 0.659373
0.104738 0.232166 0.66981
0.145815 0.239658 0.67953
0.364202 0.110369 0.702052
0.743435 0.0634623 0.717723
0.826383 0.0639658 0.709728
0.857206 0.0660868 0.694026
0.881193 0.068452 0.670451
0.905898 0.0705577 0.657542
0.0551766 0.367666 0.61976
0.0845197 0.361425 0.619577
0.116823 0.351064 0.617548
0.240787 0.374914 0.641398
0.661097 0.228016 0.662928
0.824857 0.191836 0.637598
0.861982 0.186847 0.638651
0.889097 0.178912 0.638804
0.914214 0.161273 0.631189
0.0551003 0.533608 0.611597
0.0798657 0.531655 0.612131
0.10544 0.51339 0.596277
0.14313 0.527794 0.590906
0.52256 0.544472 0.576471
0.814206 0.530159 0.547539
0.880064 0.524819 0.556451
0.910735 0.523537 0.57084
0.936294 0.512032 0.5682
0.086305 0.698543 0.633219
0.109422 0.700069 0.639185
0.140871 0.694255 0.634012
0.196399 0.718318 0.642176
0.437507 0.764508 0.642481
0.777874 0.776913 0.488533
0.925139 0.859632 0.764736
0.966415 0.882383 0.78883
0.977813 0.884611 0.789807
0.117693 0.78175 0.645136
0.139925 0.783551 0.657618
0.178332 0.784558 0.665949
0.232136 0.796475 0.684215
0.390982 0.82681 0.710781
0.567819 0.849912 0.669139
0.889113 0.834669 0.338399
0.962448 0.910338 0.752987
0.974243 0.941375 0.833799
0.121935 0.814618 0.676646
0.148058 0.816846 0.693355
0.1944 0.819165 0.70988
0.272862 0.828946 0.731502
0.388052 0.850889 0.749355
0.579675 0.873838 0.768292
0.693446 0.896941 0.54197
0.907729 0.876371 0.293782
0.943069 0.908766 0.484337
0.13286 0.834272 0.681132
0.163104 0.836973 0.701503
0.21648 0.839872 0.719814
0.298528 0.845685 0.733577
0.40473 0.865202 0.743984
0.571023 0.888838 0.757214
0.642344 0.900053 0.697795
0.870695 0.903929 0.269444
0.925765 0.90135 0.25948
0.0814069 0.183001 0.735927
0.111055 0.183032 0.737926
0.194919 0.161746 0.741176
0.504005 0.00392157 0.782284
0.766232 0.00015259 0.792538
0.825681 0.000106813 0.797101
0.860227 4.57771e-05 0.797452
0.889464 0.00030518 0.795041
0.916625 0.0018616 0.792035
0.0814221 0.214008 0.74522
0.111345 0.214191 0.745129
0.165331 0.208789 0.748577
0.433433 0.0493477 0.779812
0.75346 0.0311894 0.793286
0.824857 0.0310826 0.797024
0.860243 0.031342 0.79704
0.88864 0.0324865 0.794141
0.91487 0.0343481 0.79118
0.0813611 0.246525 0.756939
0.111406 0.246433 0.756573
0.146288 0.24712 0.759487
0.326055 0.136004 0.772869
0.73109 0.0633249 0.80177
0.830976 0.0631418 0.804898
0.867567 0.0635843 0.804013
0.893767 0.0651408 0.79881
0.918761 0.0672923 0.795575
0.0748455 0.400916 0.765682
0.105165 0.395636 0.766308
0.138262 0.382147 0.76994
0.228595 0.403143 0.780682
0.635752 0.22089 0.810742
0.831449 0.147082 0.811994
0.872328 0.129671 0.810773
0.898054 0.128161 0.806195
0.922515 0.122118 0.80296
0.0664073 0.565103 0.775662
0.0928511 0.564462 0.778012
0.122316 0.553826 0.777951
0.156512 0.562814 0.783764
0.46659 0.588754 0.79498
0.826154 0.51107 0.822278
0.886 0.503868 0.818814
0.914061 0.509743 0.818402
0.938994 0.501701 0.816129
0.0632334 0.693492 0.783185
0.0876173 0.694316 0.785306
0.115068 0.691524 0.785504
0.153262 0.704417 0.790341
0.273106 0.766644 0.79852
0.753872 0.791714 0.802915
0.898024 0.794034 0.804395
0.934615 0.798291 0.812833
0.961654 0.796643 0.816571
0.0695201 0.781521 0.784466
0.0938125 0.783475 0.786923
0.123827 0.784497 0.788403
0.174197 0.792569 0.792157
0.293263 0.827771 0.807691
0.715816 0.872145 0.831693
0.882673 0.889128 0.762448
0.965362 0.92311 0.873167
0.979812 0.94107 0.89659
0.0899062 0.820172 0.787884
0.115404 0.822049 0.790555
0.154681 0.82388 0.793881
0.222782 0.829587 0.799558
0.341619 0.853681 0.814267
0.68159 0.892531 0.835676
0.815991 0.913451 0.849058
0.935073 0.922698 0.704143
0.968826 0.95848 0.844358
0.105486 0.842863 0.787259
0.134218 0.844495 0.790631
0.182986 0.846036 0.79498
0.263218 0.849119 0.800015
0.386786 0.870909 0.814511
0.645609 0.907683 0.824887
0.818708 0.929412 0.851164
0.864973 0.949157 0.729259
0.952865 0.946242 0.662913
0.0816663 0.183001 0.769177
0.110994 0.183047 0.77055
0.178943 0.170367 0.774334
0.466239 0.00978103 0.8121
0.758572 0.000213626 0.825162
0.825071 0.000167849 0.830472
0.86157 0.000122072 0.832441
0.893294 7.62951e-05 0.831983
0.92105 3.0518e-05 0.830564
0.0816663 0.213977 0.777813
0.11133 0.214145 0.77705
0.154665 0.211704 0.780438
0.387762 0.0655833 0.805554
0.739528 0.03122 0.825681
0.823865 0.0311284 0.830671
0.862013 0.0309758 0.832868
0.89366 0.0311437 0.832319
0.920958 0.0320592 0.830777
0.081651 0.246372 0.790722
0.111406 0.246357 0.789883
0.14403 0.246509 0.792248
0.306661 0.156481 0.801953
0.710948 0.0633249 0.835828
0.829618 0.0632029 0.840421
0.869627 0.0631113 0.841581
0.899321 0.0633707 0.838849
0.926345 0.0645304 0.836744
0.0765698 0.395941 0.810498
0.106493 0.392325 0.810071
0.139361 0.373785 0.809232
0.211063 0.398367 0.816144
0.607248 0.222202 0.846387
0.828855 0.141299 0.851148
0.874556 0.116411 0.851987
0.905867 0.106523 0.850126
0.933471 0.107225 0.847715
0.0627909 0.562081 0.826749
0.0900893 0.562188 0.828763
0.121477 0.552224 0.829999
0.155871 0.557641 0.834943
0.421988 0.584146 0.840482
0.815717 0.509789 0.869047
0.889036 0.479286 0.86949
0.920256 0.464851 0.866865
0.945434 0.466926 0.863966
0.0514534 0.692042 0.830274
0.0762646 0.692424 0.832441
0.103624 0.690318 0.83473
0.137041 0.698024 0.840482
0.205966 0.753414 0.846586
0.711788 0.791058 0.875364
0.903517 0.779477 0.886336
0.939361 0.78291 0.884688
0.964614 0.787625 0.88368
0.0519875 0.782391 0.829862
0.0759289 0.784009 0.831739
0.102678 0.784848 0.83357
0.141451 0.789288 0.837003
0.221103 0.823682 0.846098
0.612573 0.867216 0.867658
0.895155 0.900557 0.892241
0.94641 0.904707 0.891875
0.975753 0.905135 0.893248
0.0720073 0.824033 0.830716
0.0961929 0.825925 0.832395
0.125277 0.827878 0.834302
0.174319 0.830839 0.836637
0.270085 0.849668 0.846693
0.549798 0.884123 0.863996
0.888151 0.927108 0.900114
0.940963 0.943496 0.890913
0.975708 0.962905 0.915618
0.0879377 0.846052 0.832151
0.113054 0.84773 0.833799
0.148104 0.849515 0.835813
0.207553 0.851469 0.837903
0.315053 0.867323 0.848142
0.530999 0.900847 0.861662
0.876188 0.944289 0.898253
0.92369 0.959747 0.911284
0.967773 0.971817 0.879683
0.0818952 0.182986 0.80206
0.110948 0.183032 0.803189
0.169818 0.174685 0.807584
0.439689 0.0158389 0.842206
0.751766 0.000274662 0.857511
0.824338 0.000228885 0.863127
0.861463 0.000198367 0.865278
0.893874 0.00015259 0.865339
0.920943 0.000106813 0.864927
0.0819104 0.213916 0.809995
0.111269 0.214084 0.809155
0.149386 0.212818 0.812467
0.358602 0.0787518 0.833021
0.726452 0.0312505 0.857664
0.822675 0.0311589 0.863157
0.861875 0.0310216 0.865705
0.894362 0.0308843 0.865827
0.920851 0.0310216 0.865324
0.0819104 0.246036 0.82298
0.111391 0.246235 0.822126
0.143526 0.246235 0.824033
0.293614 0.169986 0.830976
0.693416 0.0633707 0.867323
0.827405 0.0632334 0.87216
0.868727 0.0631418 0.873594
0.899443 0.0630198 0.871534
0.925063 0.0632334 0.870222
0.0772259 0.386877 0.842069
0.106859 0.384283 0.841764
0.139879 0.362142 0.840223
0.204227 0.388968 0.847318
0.585992 0.213062 0.876905
0.825315 0.128374 0.882826
0.873732 0.107851 0.884047
0.907164 0.10132 0.883482
0.933089 0.0994888 0.882185
0.0606088 0.555917 0.861387
0.0885634 0.5561 0.862928
0.121065 0.546654 0.863127
0.156054 0.548592 0.866987
0.394965 0.575692 0.871473
0.806271 0.501259 0.900572
0.886961 0.466957 0.901595
0.920653 0.440635 0.900053
0.945159 0.424704 0.897505
0.0437018 0.689784 0.865904
0.068986 0.690394 0.868208
0.0970169 0.689006 0.870604
0.129702 0.692607 0.875853
0.184756 0.743786 0.882109
0.682124 0.78407 0.906218
0.900252 0.773693 0.920501
0.941802 0.760983 0.920439
0.96672 0.755047 0.918212
0.0400854 0.783719 0.864363
0.0642557 0.785 0.866423
0.0907301 0.785702 0.868635
0.125444 0.788434 0.872038
0.190448 0.822309 0.880323
0.53698 0.864332 0.896727
0.886885 0.899992 0.925689
0.951461 0.902007 0.928252
0.978805 0.902861 0.926863
0.0582589 0.828 0.863218
0.0819257 0.829816 0.864942
0.108675 0.831769 0.866789
0.148867 0.833921 0.868864
0.225574 0.850172 0.87718
0.42269 0.879713 0.887587
0.856107 0.926787 0.922194
0.947158 0.94313 0.931228
0.980148 0.945388 0.930846
0.0742351 0.850034 0.86331
0.0978714 0.851728 0.864973
0.127047 0.853574 0.866697
0.173999 0.855421 0.868467
0.258915 0.86685 0.875502
0.411749 0.894011 0.885893
0.834501 0.941299 0.917388
0.945678 0.965423 0.943603
0.974823 0.971954 0.929763
0.0820783 0.182956 0.826902
0.110887 0.183001 0.827604
0.165087 0.176822 0.832135
0.422324 0.0207065 0.864393
0.746777 0.000335698 0.881254
0.823743 0.000274662 0.8869
0.861357 0.000244144 0.888991
0.893767 0.000198367 0.888899
0.920882 0.00015259 0.888838
0.0820783 0.213825 0.834409
0.111208 0.213993 0.833204
0.147738 0.213123 0.836194
0.343786 0.0865187 0.854047
0.7187 0.031281 0.880949
0.821973 0.0311742 0.886519
0.861753 0.0310369 0.888991
0.89427 0.0309148 0.888945
0.92079 0.0307927 0.888853
0.0820783 0.245899 0.847471
0.111345 0.246159 0.846281
0.143374 0.246128 0.84773
0.287266 0.176837 0.853147
0.684581 0.0634012 0.890471
0.826337 0.0632639 0.895262
0.86836 0.0631571 0.89659
0.899168 0.0630503 0.894347
0.924651 0.0629587 0.893385
0.0775464 0.383734 0.866499
0.106996 0.381048 0.865827
0.140002 0.358648 0.863844
0.202289 0.385214 0.870665
0.576822 0.212375 0.899596
0.823789 0.125933 0.905913
0.873426 0.106584 0.907103
0.907042 0.101534 0.906401
0.932891 0.0976883 0.905516
0.0596323 0.553857 0.887434
0.0878614 0.554238 0.888136
0.120882 0.545037 0.887556
0.155764 0.545785 0.890623
0.384802 0.57406 0.894881
0.803357 0.502937 0.923583
0.886107 0.465324 0.924392
0.92018 0.438727 0.922728
0.944335 0.414801 0.920562
0.039292 0.688869 0.893126
0.0649577 0.689906 0.894972
0.0936751 0.688731 0.896941
0.126299 0.691112 0.901457
0.177127 0.741024 0.907637
0.671595 0.78349 0.92871
0.898741 0.77467 0.943496
0.941283 0.759991 0.943282
0.965545 0.744564 0.941573
0.0324254 0.784085 0.891188
0.057023 0.785595 0.892958
0.0838483 0.786297 0.895003
0.117296 0.788708 0.89807
0.176577 0.821576 0.905821
0.501213 0.863569 0.920195
0.882307 0.899077 0.949142
0.950957 0.90135 0.951522
0.978363 0.899458 0.951385
0.0487221 0.830716 0.888762
0.0726329 0.832425 0.890211
0.0988327 0.834165 0.89189
0.135622 0.836118 0.893858
0.204471 0.851377 0.901289
0.378851 0.880674 0.909606
0.835798 0.927489 0.942412
0.947906 0.942672 0.952468
0.980087 0.943816 0.953033
0.0639811 0.853208 0.887678
0.0874037 0.854795 0.888914
0.114687 0.85655 0.89041
0.156573 0.858305 0.891966
0.231296 0.868437 0.898009
0.369482 0.893889 0.906813
0.792996 0.937743 0.932982
0.944686 0.964935 0.955215
0.977798 0.971222 0.954055
