LUT预设1/LUT全系打包/人像lut/人像系列lut/人像质感.cube
TITLE "Generated by Resolve"
LUT_3D_SIZE 5
0.00888075 0.00807202 0.00907912
0.127932 0.0129091 0.00854505
0.621393 0.0451362 0.0153201
0.802152 0.0577707 0.0201572
0.857649 0.0601511 0.0226291
0.0362402 0.0859541 0.0361028
0.0999466 0.101152 0.016495
0.791547 0.19176 0.0320439
0.85539 0.200153 0.0416114
0.900725 0.164019 0.0433051
0.171267 0.420447 0.154406
0.209857 0.470146 0.191577
0.60914 0.51989 0.0460517
0.91165 0.660914 0.134432
0.973297 0.780194 0.264561
0.280262 0.704936 0.260151
0.309377 0.726635 0.289525
0.340002 0.759014 0.332128
0.881758 0.820279 0.106661
0.956786 0.831342 0.120516
0.31548 0.792538 0.303014
0.34432 0.800183 0.327626
0.362585 0.80383 0.339818
0.494072 0.928512 0.312398
0.929992 0.898955 0.10457
0.0182803 0.0332647 0.223636
0.200855 0.00595102 0.204532
0.732326 0.0403296 0.13286
0.822477 0.0478523 0.122683
0.874556 0.0552529 0.104982
0.0184939 0.0991379 0.115496
0.0982223 0.0960555 0.101808
0.656367 0.123125 0.0927749
0.837308 0.119463 0.0957656
0.890074 0.120775 0.0912184
0.159136 0.456611 0.194018
0.204532 0.438346 0.205417
0.609888 0.519631 0.110185
0.929488 0.784802 0.518837
0.972778 0.781598 0.420676
0.249485 0.715557 0.269612
0.306554 0.71902 0.309255
0.349783 0.763958 0.346395
0.886687 0.81767 0.171832
0.942641 0.849851 0.194385
0.268818 0.80061 0.319539
0.331975 0.803357 0.326818
0.363485 0.817929 0.352163
0.487724 0.905745 0.418875
0.911879 0.904112 0.169757
0.0767834 0.173342 0.668803
0.209583 0.146624 0.685039
0.770077 9.15541e-05 0.741619
0.853117 0.000793469 0.732799
0.903349 0.00483711 0.694606
0.0720226 0.226764 0.659373
0.145815 0.239658 0.67953
0.743435 0.0634623 0.717723
0.857206 0.0660868 0.694026
0.905898 0.0705577 0.657542
0.0551003 0.533608 0.611597
0.10544 0.51339 0.596277
0.52256 0.544472 0.576471
0.880064 0.524819 0.556451
0.936294 0.512032 0.5682
0.117693 0.78175 0.645136
0.178332 0.784558 0.665949
0.390982 0.82681 0.710781
0.889113 0.834669 0.338399
0.974243 0.941375 0.833799
0.13286 0.834272 0.681132
0.21648 0.839872 0.719814
0.40473 0.865202 0.743984
0.642344 0.900053 0.697795
0.925765 0.90135 0.25948
0.0816663 0.183001 0.769177
0.178943 0.170367 0.774334
0.758572 0.000213626 0.825162
0.86157 0.000122072 0.832441
0.92105 3.0518e-05 0.830564
0.081651 0.246372 0.790722
0.14403 0.246509 0.792248
0.710948 0.0633249 0.835828
0.869627 0.0631113 0.841581
0.926345 0.0645304 0.836744
0.0627909 0.562081 0.826749
0.121477 0.552224 0.829999
0.421988 0.584146 0.840482
0.889036 0.479286 0.86949
0.945434 0.466926 0.863966
0.0519875 0.782391 0.829862
0.102678 0.784848 0.83357
0.221103 0.823682 0.846098
0.895155 0.900557 0.892241
0.975753 0.905135 0.893248
0.0879377 0.846052 0.832151
0.148104 0.849515 0.835813
0.315053 0.867323 0.848142
0.876188 0.944289 0.898253
0.967773 0.971817 0.879683
0.0820783 0.182956 0.826902
0.165087 0.176822 0.832135
0.746777 0.000335698 0.881254
0.861357 0.000244144 0.888991
0.920882 0.00015259 0.888838
0.0820783 0.245899 0.847471
0.143374 0.246128 0.84773
0.684581 0.0634012 0.890471
0.86836 0.0631571 0.89659
0.924651 0.0629587 0.893385
0.0596323 0.553857 0.887434
0.120882 0.545037 0.887556
0.384802 0.57406 0.894881
0.886107 0.465324 0.924392
0.944335 0.414801 0.920562
0.0324254 0.784085 0.891188
0.0838483 0.786297 0.895003
0.176577 0.821576 0.905821
0.882307 0.899077 0.949142
0.978363 0.899458 0.951385
0.0639811 0.853208 0.887678
0.114687 0.85655 0.89041
0.231296 0.868437 0.898009
0.792996 0.937743 0.932982
0.977798 0.971222 0.954055
