LUT预设1/LUT全系打包/人像lut/人像系列lut/人像橙调.cube
TITLE "Generated by Resolve"
LUT_3D_SIZE 5
0.0304112 0.0299687 0.0310063
0.200656 0.0306859 0.00712596
0.5776 0 0
0.646708 0 0
0.646708 0 0
0.000610361 0.105211 0.0430762
0.110735 0.104524 0.0363012
0.67071 0.0665904 0
0.702571 0.0124056 0
0.68423 0.00062562 0
0 0.32549 0
0 0.309651 0
0.539254 0.420188 0
0.893309 0.476493 0
0.897719 0.479896 0
0 0.455665 0
0 0.454948 0
0.223789 0.600534 0
0.956191 0.76759 0
0.997543 0.772213 0
0 0.487907 0
0 0.487907 0
0.00721752 0.561959 0
0.815824 0.799496 0
0.997406 0.835401 0
0.00474556 0.000350958 0.210101
0.217166 0.00140383 0.191226
0.632502 0 0.154299
0.694697 0 0.110307
0.690227 0 0.0572671
0 0.118654 0.147524
0.108049 0.112535 0.1122
0.610407 0.0319982 0.0170596
0.730877 3.0518e-05 0.00373846
0.709957 6.10361e-05 0
0 0.347234 0.00561532
0 0.329915 0.00538643
0.551476 0.436576 0
0.932906 0.519265 0.0442359
0.872969 0.407218 0
0 0.454841 0
0 0.453941 0
0.195758 0.592401 0
0.950561 0.76408 0
0.997482 0.801404 0
0 0.487907 0
0 0.487907 0
0.00392157 0.557168 0
0.801526 0.796338 0
0.997406 0.835386 0
0 0 0.465141
0.182925 0 0.501488
0.661555 0 0.551415
0.742702 0 0.555093
0.739208 0 0.533791
0 0.00296025 0.521492
0.0299992 0.0220188 0.5122
0.625635 0.000488289 0.531914
0.769162 0 0.527321
0.753933 0 0.484108
0 0.403479 0.510781
0 0.381552 0.491737
0.511849 0.496193 0.504326
0.868055 0.417685 0.43444
0.855726 0.346258 0.370214
0 0.554376 0.440925
0 0.555383 0.438972
0.0404974 0.670604 0.384085
0.954391 0.806195 0.151843
0.998703 0.923125 0.76321
0 0.554391 0.326894
0 0.554055 0.324514
0 0.6047 0.295216
0.753933 0.791241 0.045304
0.997406 0.834424 0.0196841
0 0 0.481071
0.113268 0 0.518196
0.644175 0 0.600076
0.759655 0 0.62855
0.759655 0 0.62855
0 0.000488289 0.565225
0.00364691 0.00140383 0.572641
0.594522 1.5259e-05 0.640528
0.790356 0 0.664088
0.779385 0 0.650553
0 0.379095 0.648936
0 0.357519 0.647898
0.354559 0.444282 0.706828
0.8636 0.417975 0.766903
0.856657 0.345388 0.747524
0 0.537331 0.68661
0 0.53698 0.686534
0 0.645136 0.726299
0.903395 0.901579 0.843809
0.989929 0.890547 0.835981
0 0.55433 0.680507
0 0.554376 0.67895
0 0.603937 0.696925
0.635721 0.87039 0.78291
0.998489 0.937133 0.793515
0 0 0.480674
0.0758373 0 0.513451
0.626093 0 0.596658
0.759564 0 0.628504
0.759655 0 0.62855
0 4.57771e-05 0.560479
0.000411994 0.000137331 0.564706
0.563485 3.0518e-05 0.631189
0.784909 0 0.658503
0.775036 0 0.645991
0 0.357595 0.644846
0 0.33547 0.642618
0.288701 0.405112 0.692103
0.851148 0.385 0.762997
0.850355 0.317983 0.748302
0 0.536812 0.691524
0 0.536309 0.691371
0 0.620462 0.727901
0.868757 0.893538 0.8654
0.987472 0.887327 0.874189
0 0.550744 0.699062
0 0.550744 0.699062
0 0.587335 0.717525
0.514763 0.836927 0.810269
0.996857 0.953902 0.884169
