LUT预设1/LUT全系打包/人像lut/人像系列lut/人像电影绿调.cube
TITLE "Generated by Resolve"
LUT_3D_SIZE 5
0.0144198 0.0668345 0.075227
0.156008 0.0535439 0.0636454
0.768795 0.0196384 0.0409705
1 0.12488 0.156313
1 0.12488 0.156313
1.5259e-05 0.131029 0.0968643
0.0936904 0.135302 0.0980697
0.954574 0.103044 0.0994736
1 0.173358 0.16878
1 0.154818 0.170932
0.000854505 0.651408 0.190738
0.000854505 0.64387 0.185367
0.654963 0.597879 0.0958572
1 0.513603 0.174487
1 0.41442 0.165469
0.0305638 0.983978 0.306737
0.0282902 0.981704 0.304707
0.381888 0.955444 0.106676
1 0.931121 0.147768
1 0.905562 0.196872
0.111269 1 0.395102
0.111269 1 0.395102
0.22623 0.999802 0.304906
0.918883 0.9991 0.188434
1 0.9991 0.234943
0 0.0855116 0.234867
0.113436 0.0556191 0.182101
0.77084 0.0211948 0.145129
1 0.12517 0.214176
1 0.125597 0.188708
0.000366217 0.134325 0.143908
0.0936294 0.137346 0.13994
0.798886 0.116411 0.136461
1 0.170687 0.197131
1 0.153979 0.179675
0.00077821 0.647822 0.201251
0.000793469 0.641215 0.194766
0.650599 0.596445 0.0964828
1 0.494697 0.20029
1 0.524483 0.181445
0.0300908 0.983642 0.306294
0.0278325 0.981216 0.304311
0.378256 0.955154 0.10721
0.999512 0.931044 0.147295
1 0.867582 0.191821
0.111269 1 0.395102
0.111269 1 0.395102
0.223148 0.999802 0.306661
0.916808 0.9991 0.188266
1 0.9991 0.234943
0 0.115251 0.626337
0 0.102876 0.642298
0.761517 0.0315709 0.798962
0.997635 0.111635 0.820356
0.997925 0.11078 0.778149
0 0.193744 0.58024
0 0.193637 0.621927
0.751995 0.0975204 0.776333
0.998032 0.140719 0.779995
0.998276 0.127886 0.73875
0.0329137 0.611872 0.660151
0.0427558 0.605417 0.651637
0.535851 0.53489 0.514336
1 0.524636 0.500465
1 0.495369 0.465705
0.0667277 0.947784 0.629877
0.0655985 0.944793 0.629572
0.299351 0.923079 0.385534
0.990295 0.917403 0.287602
1 0.811124 0.591302
0.117021 1 0.488594
0.116396 1 0.487297
0.201892 0.999924 0.380209
0.895949 0.99913 0.210422
1 0.999115 0.249012
0 0.140673 0.795895
0 0.14078 0.83653
0.673655 0.0953689 1
0.996506 0.146395 1
0.996506 0.144945 1
0 0.233585 0.836027
0 0.233524 0.869352
0.642802 0.148272 1
0.996582 0.162875 1
0.996521 0.14992 1
0.000320439 0.650752 0.873396
0.000244144 0.645075 0.870207
0.399207 0.576822 0.938399
0.995178 0.467506 0.999237
0.997742 0.435721 0.997299
0.144503 0.934173 0.992721
0.143206 0.931716 0.992935
0.353704 0.893874 0.943664
0.844678 0.839612 0.835691
1 0.839353 0.841993
0.226688 1 0.994598
0.226658 1 0.995193
0.274434 1 0.986099
0.701381 0.999954 0.75169
1 0.999664 0.714824
0 0.140673 0.795911
0 0.142565 0.827573
0.63035 0.100114 1
0.996521 0.149035 1
0.996536 0.153414 1
0 0.222797 0.855894
0 0.225483 0.884962
0.587442 0.15285 1
0.996582 0.163043 1
0.996536 0.154177 1
1.5259e-05 0.648722 0.929534
0 0.643229 0.927901
0.344656 0.580194 0.997665
0.977356 0.463447 1
0.997665 0.430854 1
0.136751 0.947433 0.995148
0.135439 0.945373 0.995163
0.298268 0.91574 0.996185
0.766995 0.86537 0.999115
0.999176 0.799161 1
0.241398 1 0.99559
0.241581 1 0.99559
0.299825 1 0.995941
0.720714 1 0.998383
1 1 1
