LUT预设1/LUT全系打包/人像lut/人像系列lut/人像质感.cube
TITLE "Generated by Resolve"
LUT_3D_SIZE 33
0.00888075 0.00807202 0.00907912
0.0141299 0.00840772 0.00888075
0.0206455 0.00863661 0.00901808
0.0286717 0.00888075 0.00915541
0.0381018 0.00933852 0.00932326
0.0492103 0.0100557 0.00952163
0.063447 0.0110628 0.00981155
0.0877394 0.0118563 0.00968948
0.127932 0.0129091 0.00854505
0.183032 0.015259 0.00766003
0.247959 0.0174563 0.00767529
0.317082 0.019791 0.00880446
0.386892 0.0234989 0.0105745
0.452171 0.0289769 0.0120699
0.511666 0.0345006 0.0132906
0.567514 0.0400854 0.0141604
0.621393 0.0451362 0.0153201
0.671458 0.049836 0.016556
0.713695 0.0536812 0.0176547
0.744808 0.0559701 0.0184329
0.764096 0.056611 0.0187991
0.775372 0.0569162 0.0191196
0.785122 0.0572061 0.01944
0.794034 0.057496 0.0198062
0.802152 0.0577707 0.0201572
0.809628 0.0580301 0.0204776
0.816663 0.0583352 0.0208438
0.823484 0.0586404 0.0211795
0.830335 0.0589456 0.0214847
0.83714 0.059266 0.0217746
0.843976 0.0595407 0.0220188
0.850782 0.0598459 0.0223239
0.857649 0.0601511 0.0226291
0.0100404 0.0154726 0.0102541
0.0154879 0.0158694 0.00854505
0.0225834 0.0159609 0.00936904
0.0304265 0.0164187 0.0102083
0.039704 0.0171664 0.0106813
0.0509194 0.0180362 0.0110628
0.066041 0.019028 0.0113527
0.0891432 0.0200656 0.0112917
0.126696 0.0210727 0.0105745
0.182223 0.0238041 0.00920119
0.247517 0.026154 0.00914015
0.316976 0.028748 0.0102083
0.386496 0.0324102 0.0118105
0.452049 0.0371557 0.0133516
0.511894 0.0421607 0.0144961
0.568276 0.0476234 0.0153048
0.621439 0.0526284 0.016434
0.672007 0.0573587 0.0176089
0.714733 0.0613718 0.0186313
0.745769 0.0635386 0.0192721
0.764767 0.0642557 0.0195468
0.776226 0.0645609 0.0197757
0.786099 0.0648966 0.0199893
0.79498 0.0652171 0.0202182
0.803037 0.065507 0.0204929
0.810483 0.0658274 0.0207523
0.817456 0.0661479 0.0210269
0.824292 0.0664683 0.0212711
0.831128 0.0667735 0.021561
0.837934 0.0670329 0.0218814
0.844785 0.0673533 0.0222019
0.851652 0.0676585 0.0224918
0.858488 0.0679637 0.0228275
0.0130159 0.0239414 0.0151369
0.0161746 0.0250858 0.016556
0.0238193 0.0245975 0.0125582
0.0323033 0.0248722 0.00987259
0.0434424 0.0254368 0.0108797
0.0550851 0.0265202 0.0120089
0.0719615 0.0279545 0.0128176
0.0981155 0.0294041 0.0131228
0.137041 0.031342 0.0126192
0.190417 0.0341344 0.0114748
0.255558 0.0373846 0.0110018
0.326101 0.0401007 0.0123903
0.395468 0.0438544 0.0140536
0.459586 0.047715 0.0154269
0.519097 0.0519112 0.0164034
0.575341 0.0565957 0.0172427
0.629511 0.0615091 0.018265
0.680583 0.0661936 0.0194095
0.722576 0.0701762 0.0203555
0.75079 0.0717632 0.0208438
0.767605 0.0723278 0.0211032
0.778973 0.0726177 0.0213016
0.788647 0.0729076 0.0215305
0.797314 0.073167 0.0217746
0.80528 0.0734417 0.0220188
0.812482 0.0737316 0.0222629
0.819211 0.0740215 0.0225071
0.825864 0.0743114 0.0227359
0.832609 0.0746319 0.0230106
0.839445 0.0749065 0.0232547
0.84625 0.0751812 0.0235142
0.853056 0.0755016 0.0238041
0.859861 0.0757763 0.0240482
0.0163119 0.0328527 0.019791
0.019379 0.0338293 0.0218204
0.0235599 0.0349737 0.0205692
0.0313115 0.0343938 0.0131228
0.0432593 0.0340124 0.0107881
0.0607767 0.0354162 0.0111086
0.081529 0.0370031 0.0123293
0.110109 0.0389105 0.0130159
0.152773 0.0417945 0.0131075
0.20795 0.0457618 0.0130465
0.275074 0.050248 0.0138399
0.347509 0.0547646 0.0156405
0.418921 0.0588083 0.0177615
0.483726 0.062089 0.0192569
0.542687 0.0650492 0.0201419
0.598505 0.0687114 0.0209964
0.651652 0.0729229 0.0219425
0.698772 0.0770123 0.0227817
0.735821 0.0799725 0.0233921
0.760311 0.0810407 0.023682
0.773724 0.0812085 0.0237125
0.7841 0.0813306 0.0238193
0.793332 0.0814984 0.0239261
0.80174 0.0816968 0.0240787
0.809384 0.0818799 0.0242618
0.816342 0.0821393 0.0244602
0.822889 0.0823529 0.0246586
0.829252 0.0825818 0.0248722
0.83566 0.0828412 0.0250858
0.84213 0.0831006 0.0252995
0.848692 0.08336 0.0255283
0.855375 0.0836194 0.0257877
0.862181 0.0838941 0.0260014
0.0203098 0.0420691 0.0231022
0.024033 0.042771 0.0252384
0.0264744 0.04448 0.026566
0.0312963 0.0447547 0.0268254
0.0419013 0.0441901 0.0164034
0.0569009 0.0446021 0.0108492
0.0859541 0.0460517 0.0109407
0.127367 0.0486915 0.0111391
0.181476 0.0528572 0.0115663
0.243519 0.0580453 0.0125429
0.309026 0.0633402 0.0147707
0.375845 0.0693523 0.017792
0.444984 0.0749065 0.0204318
0.510597 0.0783398 0.0224155
0.571832 0.0810254 0.0239414
0.629679 0.0836347 0.0252995
0.682582 0.0866102 0.0264591
0.726818 0.0899062 0.0272831
0.754376 0.0912032 0.0275731
0.770565 0.091371 0.0275273
0.782162 0.0913252 0.0274052
0.791577 0.0912795 0.0273136
0.80032 0.0912642 0.0272679
0.808362 0.0912795 0.0272374
0.815625 0.09131 0.0272679
0.822217 0.091371 0.0273442
0.828443 0.0914626 0.0274052
0.834607 0.0915999 0.0274815
0.840833 0.0917372 0.0276341
0.847059 0.0918898 0.0277562
0.853254 0.0920577 0.027924
0.859724 0.092256 0.0280919
0.866316 0.0924849 0.028275
0.0243992 0.0517433 0.0261692
0.028397 0.0521859 0.0287022
0.0303807 0.0540017 0.0307927
0.0333867 0.0553597 0.0337835
0.0397955 0.054902 0.0312963
0.0538338 0.0549477 0.0178836
0.0730602 0.0552834 0.0112459
0.118059 0.0574807 0.0108034
0.202884 0.063859 0.0102693
0.285191 0.0710613 0.01149
0.35935 0.077821 0.0151064
0.427298 0.0845808 0.0187076
0.483101 0.0902571 0.0215457
0.54316 0.0950332 0.024033
0.604639 0.0978866 0.026215
0.663966 0.10042 0.0284123
0.714961 0.102556 0.0301671
0.749264 0.103349 0.0312352
0.770184 0.103258 0.031632
0.783368 0.102876 0.031632
0.793088 0.102617 0.0316014
0.801755 0.102388 0.0315251
0.809689 0.10219 0.0314031
0.817105 0.102007 0.0313115
0.823789 0.101793 0.0311589
0.829953 0.101686 0.0311284
0.835828 0.10161 0.0310369
0.841733 0.101579 0.0310063
0.847639 0.101549 0.0309758
0.853651 0.101595 0.0309911
0.859754 0.101625 0.0310369
0.866011 0.101701 0.0310826
0.87245 0.101778 0.0311742
0.0280156 0.0622873 0.0290227
0.032166 0.0625772 0.0320287
0.0341955 0.0642252 0.0341192
0.0370489 0.0660868 0.0364996
0.0402228 0.066392 0.0423896
0.0477607 0.0668803 0.0372473
0.0653391 0.0668956 0.0145418
0.0959029 0.0666056 0.0108339
0.16846 0.0713359 0.0104372
0.283696 0.0815747 0.0105745
0.383337 0.0919356 0.0139315
0.469871 0.100572 0.0180209
0.541833 0.106142 0.021561
0.596231 0.112016 0.0245212
0.649378 0.116976 0.0274205
0.701198 0.120821 0.0301366
0.741588 0.123476 0.0323033
0.768109 0.12372 0.0336614
0.783902 0.122225 0.0343328
0.794629 0.120607 0.0347601
0.803922 0.119127 0.0350652
0.812238 0.117769 0.0353094
0.819928 0.116594 0.0354162
0.826902 0.115434 0.035462
0.833249 0.114321 0.0354467
0.839048 0.113268 0.0353246
0.844739 0.112673 0.0352331
0.85037 0.112367 0.0351568
0.856092 0.112215 0.0350652
0.861784 0.112047 0.0349279
0.867765 0.112032 0.0348821
0.873838 0.11194 0.0348363
0.880064 0.111925 0.0347601
0.0313268 0.0736248 0.032105
0.0356603 0.0738384 0.0350805
0.038117 0.0753185 0.0372625
0.04065 0.0775311 0.039292
0.0444495 0.0790265 0.0429999
0.048249 0.0787976 0.0500038
0.0584878 0.0812085 0.0404669
0.0796216 0.0810864 0.016144
0.124498 0.0805982 0.00981155
0.243809 0.0898146 0.00991836
0.362234 0.103349 0.0114748
0.469337 0.117357 0.0155337
0.564446 0.128054 0.0198215
0.645258 0.134676 0.0239872
0.704417 0.142794 0.0277562
0.744457 0.148653 0.0307164
0.769863 0.152026 0.0328679
0.785168 0.154467 0.0344854
0.79617 0.15494 0.0356909
0.805982 0.153201 0.0366217
0.815259 0.151675 0.0373999
0.823621 0.150454 0.0380407
0.831174 0.148806 0.0385138
0.837781 0.145892 0.038819
0.843793 0.142184 0.0390784
0.849454 0.138552 0.0392615
0.854978 0.135164 0.0393378
0.860533 0.132464 0.0393683
0.866072 0.130251 0.0393225
0.871717 0.128252 0.0392615
0.877501 0.12694 0.0391699
0.883436 0.12604 0.0390784
0.889433 0.125322 0.038941
0.0362402 0.0859541 0.0361028
0.0406195 0.086183 0.038941
0.0434882 0.0874037 0.0412757
0.0456397 0.0903182 0.0437781
0.0497139 0.093431 0.0467994
0.0543984 0.0952926 0.0518196
0.0567483 0.0959793 0.0607309
0.0710613 0.10132 0.0420081
0.0999466 0.101152 0.016495
0.18088 0.103029 0.00836194
0.319966 0.115023 0.00906386
0.440681 0.132448 0.0121309
0.545617 0.150149 0.0165866
0.648676 0.167239 0.021622
0.731792 0.178851 0.0263828
0.773678 0.186191 0.0295262
0.791547 0.19176 0.0320439
0.803235 0.195621 0.0341955
0.811597 0.199817 0.0359045
0.819379 0.202976 0.037171
0.827543 0.204913 0.0383154
0.835416 0.205737 0.0393225
0.842695 0.205447 0.040177
0.849348 0.203647 0.0409552
0.85539 0.200153 0.0416114
0.861036 0.195499 0.0421454
0.86656 0.190295 0.0425574
0.872053 0.184436 0.0429084
0.877531 0.178622 0.0431067
0.883192 0.173877 0.0432898
0.888975 0.170199 0.0433356
0.894865 0.167147 0.0433356
0.900725 0.164019 0.0433051
0.0435645 0.103304 0.0421302
0.0480964 0.1037 0.0449073
0.0514687 0.105257 0.0476539
0.0536812 0.108827 0.0505226
0.0576333 0.113909 0.0537728
0.0627756 0.11783 0.0576638
0.0667582 0.120211 0.0648661
0.0680095 0.123735 0.0724956
0.0861677 0.130587 0.0438697
0.132158 0.1299 0.0137636
0.251331 0.135393 0.0065156
0.399771 0.149294 0.00900282
0.516426 0.168673 0.0130312
0.623285 0.190784 0.017792
0.722698 0.212558 0.0229191
0.778881 0.226551 0.0266117
0.801984 0.23711 0.0293278
0.816205 0.245762 0.0318608
0.826673 0.250416 0.0340581
0.834485 0.253941 0.0357519
0.841047 0.257038 0.0371557
0.8477 0.259007 0.0384375
0.854063 0.259373 0.0396429
0.860319 0.258762 0.0407568
0.866484 0.257267 0.0418097
0.872557 0.25478 0.042771
0.878462 0.251225 0.0436866
0.88426 0.246967 0.0444648
0.889982 0.242512 0.0451362
0.895827 0.238987 0.0457008
0.901823 0.236545 0.046128
0.907744 0.233845 0.0464332
0.913649 0.231281 0.0466926
0.0540322 0.129671 0.0509346
0.0588235 0.130373 0.0538033
0.0625162 0.132265 0.0569772
0.0651713 0.136721 0.0601358
0.0690776 0.143542 0.0637522
0.0743572 0.149554 0.0677501
0.0797436 0.153613 0.0730449
0.0816663 0.156268 0.0829786
0.0799725 0.163226 0.0862745
0.105974 0.170001 0.0447852
0.176303 0.168276 0.0108949
0.318471 0.175296 0.00680552
0.478309 0.189944 0.00993362
0.598169 0.211872 0.0140078
0.701564 0.234974 0.0185855
0.769345 0.255436 0.0221866
0.801022 0.273762 0.0248875
0.821164 0.290791 0.0272984
0.835599 0.302708 0.0294957
0.845823 0.307683 0.0316167
0.853361 0.310582 0.033463
0.859617 0.311772 0.0352178
0.865461 0.312078 0.03682
0.871122 0.311849 0.0383001
0.876783 0.311574 0.0396429
0.882719 0.310521 0.0409247
0.889052 0.309087 0.0421302
0.89543 0.307332 0.0432136
0.901808 0.305791 0.0442054
0.908186 0.304585 0.0449989
0.914458 0.303105 0.0456855
0.920623 0.301442 0.0462806
0.926238 0.299687 0.0468299
0.0677958 0.165194 0.0625925
0.0726787 0.166125 0.0655985
0.0766155 0.168353 0.0692149
0.079881 0.173693 0.0728923
0.083772 0.181399 0.0766918
0.0890364 0.188693 0.0808576
0.0948196 0.194217 0.0856184
0.0987411 0.197879 0.0933852
0.0979477 0.200824 0.104646
0.0947585 0.212314 0.0988022
0.132433 0.218494 0.0456703
0.236576 0.214511 0.0128023
0.393668 0.2206 0.00791943
0.557778 0.23682 0.0106355
0.681498 0.258259 0.0144808
0.749126 0.278264 0.0173037
0.789319 0.297551 0.0197147
0.816526 0.321553 0.0217136
0.836545 0.345022 0.0233921
0.851164 0.361379 0.0252384
0.861524 0.368353 0.0278172
0.869368 0.372122 0.0299535
0.876051 0.372152 0.0316167
0.882139 0.370825 0.0333257
0.887984 0.370047 0.0350805
0.893568 0.369726 0.0366827
0.899153 0.369512 0.0381476
0.905364 0.369909 0.0394141
0.912154 0.371527 0.0406043
0.918914 0.373281 0.0416724
0.925551 0.374517 0.0425422
0.932158 0.375235 0.0433356
0.934462 0.377691 0.0438849
0.0844434 0.207202 0.0766308
0.0894179 0.20824 0.0798657
0.093492 0.210483 0.0838178
0.0971237 0.215793 0.0877394
0.101137 0.223941 0.0917372
0.106401 0.232639 0.0962844
0.112367 0.239963 0.101289
0.117418 0.245701 0.108309
0.120546 0.24831 0.117418
0.114763 0.254047 0.129229
0.113497 0.270191 0.112917
0.172641 0.272969 0.0486458
0.306798 0.265049 0.0167849
0.474861 0.271489 0.00946059
0.639521 0.287343 0.0104067
0.731563 0.305272 0.0127413
0.771511 0.322164 0.0144503
0.803967 0.341665 0.016144
0.830274 0.37203 0.0181582
0.849668 0.40383 0.0201877
0.864637 0.431403 0.0225223
0.875639 0.443 0.0268406
0.884535 0.447242 0.0309606
0.892332 0.450782 0.0317998
0.899413 0.451514 0.0323796
0.906111 0.451148 0.0332799
0.912016 0.45034 0.0344244
0.917311 0.449943 0.0360266
0.923369 0.453208 0.038407
0.929854 0.45594 0.039826
0.936385 0.45861 0.0407111
0.94197 0.461509 0.0414435
0.942519 0.467964 0.0425879
0.103822 0.254887 0.0933394
0.108797 0.256245 0.0968948
0.113039 0.258747 0.101228
0.11725 0.264225 0.10547
0.121447 0.272282 0.109438
0.126925 0.282383 0.114458
0.133303 0.291783 0.120012
0.138857 0.299504 0.127031
0.14313 0.303914 0.135012
0.14258 0.306615 0.145983
0.135851 0.31667 0.157931
0.140902 0.335821 0.127138
0.235142 0.333501 0.0548867
0.385702 0.322545 0.0209354
0.54461 0.330282 0.00947585
0.696315 0.340475 0.00976577
0.758373 0.354116 0.00929274
0.790326 0.37113 0.0109255
0.818601 0.391897 0.0140383
0.843442 0.430182 0.0180819
0.862028 0.469886 0.0284123
0.877119 0.505013 0.0388952
0.889448 0.525383 0.0451209
0.899977 0.535531 0.0544594
0.909667 0.543496 0.0614176
0.917922 0.548669 0.0574655
0.925261 0.55169 0.0513619
0.932113 0.554574 0.0515755
0.938201 0.555581 0.060029
0.944167 0.556146 0.0647898
0.950225 0.556466 0.0649729
0.953124 0.561364 0.0671092
0.954086 0.568948 0.0717327
0.125963 0.308553 0.112886
0.130877 0.309834 0.116579
0.135485 0.312901 0.12134
0.139956 0.318074 0.125734
0.144671 0.326696 0.13019
0.14995 0.337377 0.135317
0.155962 0.347463 0.140902
0.162112 0.356497 0.147555
0.16733 0.363119 0.155047
0.169879 0.366461 0.164157
0.168429 0.37023 0.176486
0.159915 0.386267 0.185946
0.180484 0.408042 0.139376
0.309911 0.398779 0.0594339
0.465888 0.388067 0.0277867
0.61825 0.391302 0.0146639
0.733349 0.397223 0.00782788
0.780118 0.410285 0.00582895
0.808865 0.429313 0.00968948
0.833738 0.453452 0.0180362
0.856748 0.495384 0.0300908
0.87454 0.53489 0.0498665
0.889357 0.569085 0.0722515
0.902617 0.593896 0.0907149
0.914946 0.612116 0.106996
0.925902 0.62565 0.123186
0.936065 0.638788 0.141238
0.945312 0.649134 0.151308
0.952758 0.652293 0.149065
0.95964 0.654734 0.149172
0.965438 0.653956 0.147845
0.966445 0.66305 0.162478
0.967437 0.671534 0.176272
0.149294 0.365484 0.134081
0.154162 0.366857 0.137926
0.158923 0.36994 0.142733
0.1635 0.374716 0.147158
0.168338 0.383261 0.151781
0.173358 0.393881 0.156771
0.178607 0.403586 0.161929
0.184421 0.412467 0.167803
0.190066 0.41944 0.174243
0.194308 0.424063 0.181949
0.195834 0.427176 0.192355
0.193271 0.434714 0.206195
0.185153 0.459403 0.212589
0.232532 0.482353 0.145937
0.389441 0.467536 0.0638285
0.541573 0.453864 0.0363775
0.675639 0.456901 0.0192569
0.761654 0.461158 0.00717174
0.801816 0.472374 0.00544747
0.826917 0.494972 0.0131228
0.849287 0.521309 0.0299992
0.869932 0.556344 0.0512856
0.886763 0.591012 0.0769513
0.900847 0.620249 0.105028
0.914351 0.646479 0.135073
0.927382 0.668376 0.161776
0.93959 0.688853 0.186038
0.950225 0.706889 0.209186
0.959289 0.719051 0.226978
0.967269 0.724895 0.234089
0.972686 0.730907 0.241703
0.972885 0.738674 0.251148
0.973022 0.745556 0.260166
0.171267 0.420447 0.154406
0.176196 0.422034 0.158328
0.18088 0.424567 0.162905
0.185351 0.428702 0.167163
0.189883 0.436179 0.171572
0.19443 0.446052 0.176379
0.198993 0.455055 0.181048
0.204334 0.463416 0.186145
0.209857 0.470146 0.191577
0.214939 0.475395 0.198047
0.217884 0.479057 0.20676
0.219135 0.483223 0.218524
0.216709 0.497887 0.234714
0.21413 0.532189 0.231235
0.295354 0.552117 0.145846
0.467308 0.531823 0.0698253
0.60914 0.51989 0.0460517
0.722255 0.525048 0.0257115
0.791074 0.525933 0.0122835
0.821698 0.537652 0.0132296
0.844327 0.557412 0.0265812
0.86424 0.580133 0.0482032
0.882506 0.607416 0.0744793
0.898131 0.635493 0.103944
0.91165 0.660914 0.134432
0.924788 0.686976 0.166186
0.938506 0.711452 0.193149
0.95053 0.733639 0.216541
0.960601 0.752438 0.239139
0.969314 0.763928 0.253162
0.973312 0.770565 0.259815
0.973297 0.775601 0.262028
0.973297 0.780194 0.264561
0.190723 0.470176 0.172381
0.195605 0.471672 0.176242
0.20032 0.473945 0.180667
0.204746 0.477485 0.184756
0.209018 0.483711 0.188998
0.213031 0.492378 0.193591
0.217121 0.500969 0.197955
0.221836 0.508751 0.202411
0.227008 0.515373 0.207111
0.232288 0.520882 0.212512
0.236149 0.525048 0.219837
0.239231 0.528664 0.229465
0.240406 0.536873 0.243671
0.238437 0.561074 0.261494
0.248737 0.602747 0.243214
0.363516 0.617044 0.143023
0.541558 0.593194 0.0770886
0.673793 0.583612 0.0575875
0.767315 0.588602 0.0399023
0.814527 0.585657 0.0310369
0.840192 0.593118 0.0349126
0.860655 0.60679 0.0490578
0.87834 0.625818 0.0717632
0.894591 0.648234 0.0985885
0.9093 0.671763 0.126452
0.922621 0.69572 0.155642
0.936095 0.721996 0.183444
0.948959 0.744198 0.201938
0.959945 0.763165 0.216938
0.969345 0.778714 0.230457
0.972793 0.78555 0.234241
0.972641 0.788876 0.23151
0.972488 0.792004 0.22829
0.207797 0.514778 0.188312
0.212634 0.516121 0.19202
0.217288 0.517922 0.196185
0.22179 0.521202 0.200168
0.225681 0.526406 0.20444
0.229252 0.53373 0.208774
0.232944 0.541802 0.212985
0.237171 0.549203 0.217044
0.241947 0.555596 0.221103
0.24712 0.561395 0.225711
0.251667 0.566125 0.231891
0.255589 0.570047 0.239857
0.258244 0.575616 0.25124
0.260533 0.590249 0.268345
0.259937 0.625971 0.286137
0.289937 0.672114 0.246662
0.435813 0.679591 0.139635
0.614008 0.654185 0.0859388
0.731884 0.641581 0.0726787
0.800931 0.638041 0.0652323
0.83444 0.635294 0.0612345
0.857298 0.638483 0.0635843
0.875975 0.646784 0.0728466
0.892012 0.662516 0.0918593
0.906813 0.683619 0.116732
0.920668 0.70486 0.138613
0.933776 0.727153 0.160784
0.946899 0.750591 0.180179
0.958251 0.767803 0.190585
0.9682 0.781384 0.199344
0.972045 0.789029 0.198337
0.971771 0.792538 0.195605
0.971527 0.7953 0.194018
0.222736 0.554467 0.202441
0.227558 0.55581 0.206012
0.232288 0.55758 0.210025
0.236744 0.560372 0.213794
0.240391 0.564736 0.218173
0.243732 0.57113 0.222461
0.24712 0.578576 0.226551
0.250782 0.585336 0.230259
0.255207 0.591531 0.233845
0.260166 0.597345 0.237797
0.264866 0.60238 0.24303
0.269429 0.606744 0.249638
0.273121 0.61178 0.259068
0.276738 0.620996 0.272725
0.280537 0.644648 0.29337
0.283467 0.692149 0.306706
0.336278 0.736904 0.241993
0.51133 0.736858 0.135393
0.681529 0.709514 0.0981155
0.777096 0.690196 0.0918135
0.824704 0.684627 0.0910658
0.852613 0.682719 0.0895857
0.873274 0.683452 0.0897536
0.890394 0.688869 0.0948806
0.905486 0.701427 0.106737
0.91928 0.718975 0.123903
0.932006 0.73695 0.138552
0.944305 0.754864 0.150896
0.95584 0.771679 0.159915
0.966232 0.783673 0.169665
0.971283 0.790967 0.171954
0.970977 0.79443 0.170062
0.970565 0.797314 0.169436
0.236027 0.590341 0.215213
0.240864 0.591623 0.218631
0.245609 0.59324 0.222385
0.250004 0.595682 0.226047
0.25359 0.599512 0.230533
0.256855 0.605005 0.23476
0.259953 0.611627 0.238727
0.263279 0.618143 0.24242
0.267338 0.624079 0.245792
0.272053 0.629831 0.249363
0.276783 0.635019 0.253895
0.281605 0.639704 0.259419
0.286076 0.644572 0.26717
0.289937 0.651545 0.278431
0.294865 0.666331 0.29514
0.30071 0.698421 0.318883
0.308431 0.751827 0.318456
0.390738 0.789837 0.225895
0.590372 0.780301 0.131563
0.73489 0.749371 0.10869
0.807416 0.733776 0.104982
0.84477 0.730449 0.106447
0.869551 0.728588 0.106401
0.888899 0.72845 0.105943
0.904952 0.733211 0.109087
0.91899 0.742992 0.115282
0.931014 0.753231 0.123171
0.942199 0.764492 0.131685
0.953384 0.776349 0.137621
0.963684 0.786542 0.141344
0.970245 0.79411 0.148165
0.969741 0.797772 0.14902
0.969299 0.800549 0.147356
0.248127 0.622934 0.227039
0.252995 0.624277 0.23032
0.257832 0.625803 0.233814
0.262165 0.628016 0.237613
0.265843 0.631479 0.24213
0.269108 0.636378 0.246387
0.272099 0.642313 0.250355
0.275227 0.648661 0.254139
0.27895 0.654261 0.25742
0.283299 0.659709 0.260822
0.287892 0.664714 0.264714
0.292836 0.669535 0.269429
0.297673 0.674189 0.275731
0.301946 0.679866 0.285039
0.306706 0.689693 0.29836
0.31281 0.709087 0.318441
0.314992 0.746136 0.342046
0.330098 0.798047 0.314839
0.461158 0.819074 0.199695
0.658457 0.801175 0.126162
0.773205 0.775982 0.110307
0.829816 0.766934 0.107698
0.862409 0.764401 0.109346
0.88571 0.763516 0.110964
0.903899 0.764172 0.112139
0.918547 0.767987 0.114412
0.930358 0.773709 0.117418
0.940368 0.778836 0.120653
0.950347 0.785061 0.125612
0.960052 0.792447 0.129473
0.968841 0.798825 0.133043
0.967468 0.803265 0.135821
0.966003 0.807401 0.137606
0.259632 0.653284 0.23856
0.264469 0.654475 0.241611
0.269398 0.65594 0.244953
0.273732 0.658061 0.248905
0.277424 0.661067 0.253361
0.28072 0.66537 0.257603
0.28365 0.670634 0.261585
0.286625 0.676539 0.265431
0.289937 0.681697 0.268742
0.293797 0.686564 0.272023
0.298207 0.691188 0.27541
0.302998 0.695567 0.279225
0.307881 0.699733 0.284199
0.312428 0.704524 0.291768
0.316991 0.710994 0.302388
0.321736 0.722835 0.317678
0.326009 0.745174 0.340414
0.322911 0.784985 0.355459
0.368307 0.827146 0.289128
0.545937 0.833402 0.17052
0.709926 0.811643 0.123964
0.801114 0.793683 0.1084
0.848753 0.788098 0.107393
0.878523 0.786374 0.109071
0.900282 0.786618 0.111147
0.916274 0.787915 0.112963
0.92781 0.790341 0.114763
0.937636 0.793362 0.116915
0.946944 0.796506 0.119203
0.955978 0.800732 0.122103
0.964538 0.80618 0.125185
0.964523 0.810483 0.127382
0.962539 0.814939 0.130297
0.27042 0.680842 0.249638
0.275242 0.681895 0.252567
0.280186 0.683238 0.255894
0.284535 0.68513 0.259846
0.288289 0.687846 0.264164
0.291615 0.691417 0.268269
0.294469 0.695903 0.272236
0.297169 0.700969 0.276036
0.300038 0.705669 0.279484
0.303487 0.710094 0.282719
0.307607 0.714107 0.285573
0.312245 0.718029 0.28867
0.317006 0.721584 0.292485
0.321416 0.725383 0.298482
0.325811 0.72987 0.306722
0.32961 0.736919 0.318441
0.333822 0.749783 0.334813
0.334279 0.774273 0.357519
0.341833 0.815702 0.350698
0.433997 0.847761 0.253086
0.616449 0.842969 0.154818
0.75053 0.820844 0.1187
0.824842 0.808957 0.106981
0.866148 0.805158 0.107073
0.892927 0.80383 0.108568
0.911498 0.803845 0.110399
0.923751 0.8047 0.112001
0.93344 0.80621 0.113649
0.942718 0.808194 0.115557
0.951705 0.810864 0.117708
0.959548 0.814817 0.119814
0.960952 0.819043 0.122225
0.958862 0.823209 0.12491
0.280262 0.704936 0.260151
0.285069 0.705913 0.262959
0.289998 0.707073 0.266178
0.294377 0.708797 0.270069
0.298161 0.711055 0.274159
0.301503 0.713985 0.278126
0.304341 0.717815 0.282048
0.306874 0.722271 0.285939
0.309377 0.726635 0.289525
0.312123 0.730434 0.292561
0.315785 0.733959 0.294972
0.320119 0.737163 0.297139
0.32459 0.740169 0.299977
0.32874 0.743175 0.304509
0.332921 0.746639 0.31078
0.336614 0.751369 0.31986
0.340002 0.759014 0.332128
0.342351 0.772473 0.350652
0.340536 0.80032 0.371862
0.367742 0.84358 0.333867
0.50074 0.863767 0.222416
0.675212 0.85037 0.147631
0.784054 0.830839 0.112825
0.845884 0.823514 0.106233
0.881758 0.820279 0.106661
0.904097 0.818799 0.107866
0.918166 0.818311 0.109285
0.928649 0.818708 0.110735
0.938247 0.819852 0.112337
0.94757 0.821576 0.114183
0.954986 0.824506 0.115862
0.958358 0.827878 0.117983
0.956786 0.831342 0.120516
0.288945 0.725673 0.269917
0.293736 0.726543 0.272496
0.298741 0.727672 0.275502
0.30309 0.729168 0.27924
0.306859 0.73106 0.283101
0.31014 0.733471 0.286839
0.312825 0.73666 0.290593
0.315007 0.740475 0.294377
0.317006 0.744366 0.29781
0.31902 0.747677 0.300771
0.322118 0.750698 0.302998
0.326116 0.753399 0.30457
0.330465 0.755886 0.306371
0.334386 0.758251 0.309606
0.338399 0.7608 0.314199
0.342123 0.763958 0.321202
0.345556 0.769024 0.331334
0.348669 0.776898 0.345357
0.349767 0.792798 0.368383
0.347311 0.828656 0.37908
0.408988 0.868605 0.308415
0.579263 0.873869 0.197009
0.722316 0.855802 0.133089
0.812818 0.842481 0.109148
0.864469 0.836851 0.105714
0.893935 0.833738 0.106264
0.910903 0.832074 0.107103
0.923003 0.831312 0.108293
0.933394 0.831479 0.109651
0.943191 0.832334 0.111254
0.951293 0.834287 0.112749
0.956497 0.836927 0.114549
0.95494 0.839841 0.116747
0.295842 0.743145 0.277943
0.300664 0.743938 0.280354
0.305699 0.744945 0.283207
0.309972 0.746181 0.286687
0.313771 0.747829 0.290303
0.317052 0.749874 0.293812
0.319493 0.752529 0.297459
0.321386 0.755703 0.301045
