LUT预设1/LUT全系打包/人像lut/人像系列lut/人像绿调（高对比）.cube
TITLE "Generated by Resolve"
LUT_3D_SIZE 33
0.0144198 0.0668345 0.075227
0.0144198 0.0668345 0.075227
0.0145876 0.0668193 0.0751965
0.0167086 0.0666972 0.074876
0.0242924 0.066331 0.0736095
0.0338445 0.0659953 0.07187
0.0450294 0.0656443 0.0701305
0.0600595 0.064683 0.0690013
0.0829633 0.0625772 0.0689097
0.125292 0.0576028 0.0663157
0.204685 0.0471962 0.0586099
0.310338 0.0345769 0.0483101
0.413611 0.0239872 0.0394293
0.500587 0.0169223 0.0335393
0.573831 0.0132753 0.0308385
0.641947 0.0128634 0.0315709
0.710445 0.0153658 0.0353399
0.783475 0.0215457 0.0431983
0.864118 0.0344701 0.0580148
0.938872 0.0534218 0.0791333
0.985046 0.0713817 0.0992294
0.999252 0.0886091 0.118105
1 0.104784 0.135424
1 0.120317 0.151614
1 0.12488 0.156313
1 0.12488 0.156313
1 0.12488 0.156313
1 0.12488 0.156313
1 0.12488 0.156313
1 0.12488 0.156313
1 0.12488 0.156313
1 0.12488 0.156313
1 0.12488 0.156313
0.0144198 0.0668345 0.075227
0.0144198 0.0668345 0.075227
0.0145876 0.0668193 0.0751965
0.0165713 0.0667124 0.0748913
0.0240177 0.066331 0.0736553
0.0332647 0.0660105 0.0719615
0.0440986 0.0656901 0.0702678
0.058732 0.0648051 0.068986
0.0813306 0.0627298 0.0689555
0.123293 0.0578622 0.0664988
0.202853 0.0474403 0.058793
0.309545 0.0346532 0.0483864
0.413611 0.0239872 0.0394293
0.500877 0.016907 0.0335088
0.574594 0.0132448 0.030808
0.642893 0.0128634 0.0315862
0.711696 0.0154574 0.035462
0.784863 0.0217136 0.0434119
0.865888 0.0348821 0.0584726
0.940337 0.0538643 0.0796216
0.985962 0.0718853 0.0997787
0.999329 0.0890822 0.118608
1 0.105272 0.135958
1 0.120775 0.152087
1 0.12488 0.156313
1 0.12488 0.156313
1 0.12488 0.156313
1 0.12488 0.156313
1 0.12488 0.156313
1 0.12488 0.156313
1 0.12488 0.156313
1 0.12488 0.156313
1 0.12488 0.156313
0.0144198 0.066865 0.0752422
0.0144198 0.0668498 0.0752422
0.0145571 0.0668498 0.0752117
0.0163729 0.0667277 0.0749218
0.0238651 0.0663462 0.0736706
0.0328527 0.0660258 0.0720378
0.0438849 0.0656901 0.0702983
0.058793 0.0647898 0.0690471
0.0818494 0.0626688 0.0689403
0.125246 0.0575875 0.0663157
0.20737 0.0468452 0.05832
0.315236 0.0340276 0.0478523
0.419547 0.0234073 0.0389563
0.506249 0.0165103 0.0331884
0.57969 0.0130159 0.0306554
0.648096 0.0130312 0.0318456
0.717449 0.0158694 0.0360266
0.791501 0.0225834 0.044419
0.872953 0.0365148 0.0602884
0.945556 0.055436 0.0813916
0.988907 0.0734874 0.101579
0.999588 0.0905928 0.120241
1 0.106706 0.137484
1 0.121218 0.152544
1 0.12488 0.156313
1 0.12488 0.156313
1 0.12488 0.156313
1 0.12488 0.156313
1 0.12488 0.156313
1 0.12488 0.156313
1 0.12488 0.156313
1 0.12488 0.156313
1 0.12488 0.156313
0.014435 0.0673228 0.0754864
0.014435 0.0673075 0.0754711
0.0144503 0.0672923 0.0754711
0.0158389 0.0670481 0.0751507
0.0229191 0.0665904 0.0739147
0.0309758 0.0661326 0.0723888
0.0417029 0.0657664 0.070634
0.0551308 0.0649729 0.0694133
0.0764324 0.0631571 0.0690929
0.11574 0.0587778 0.0670787
0.194522 0.0484932 0.0596017
0.302556 0.0354314 0.049012
0.410422 0.0242161 0.0396277
0.50013 0.0168917 0.0334783
0.575494 0.0131685 0.0307469
0.644327 0.013077 0.0318151
0.714626 0.0158083 0.0359197
0.78883 0.0221866 0.0439612
0.871687 0.0362097 0.059968
0.944701 0.0551766 0.081117
0.988846 0.0733501 0.101442
0.999634 0.0906996 0.120378
1 0.106798 0.137575
1 0.120714 0.152026
1 0.12488 0.156313
1 0.12488 0.156313
1 0.12488 0.156313
1 0.12488 0.156313
1 0.12488 0.156313
1 0.12488 0.156313
1 0.12488 0.156313
1 0.12488 0.156313
1 0.12488 0.156313
0.0145113 0.069749 0.0768139
0.0145113 0.069749 0.0768139
0.0145266 0.0697032 0.0767834
0.0148775 0.0691234 0.0764324
0.0187533 0.0684825 0.0755474
0.0312505 0.0672618 0.0730297
0.0445106 0.0662699 0.0707866
0.0571756 0.065095 0.0696422
0.077348 0.0632944 0.0691386
0.113024 0.0593729 0.0673533
0.186572 0.0496986 0.060441
0.294102 0.0364538 0.0498207
0.403708 0.0248112 0.0401312
0.49543 0.0171817 0.0337072
0.571618 0.0133211 0.0308537
0.641032 0.0130617 0.031754
0.711376 0.0157015 0.0357519
0.785718 0.0216983 0.0433967
0.868772 0.035462 0.059144
0.942824 0.0545052 0.080354
0.988418 0.0728008 0.100801
0.999725 0.0901656 0.119783
1 0.106279 0.136995
1 0.120104 0.151385
1 0.124727 0.156161
1 0.12488 0.156313
1 0.12488 0.156313
1 0.12488 0.156313
1 0.12488 0.156313
1 0.12488 0.156313
1 0.12488 0.156313
1 0.12488 0.156313
1 0.12488 0.156313
0.0148013 0.0736553 0.079057
0.0148013 0.0736858 0.0790723
0.0148013 0.0737163 0.0790875
0.0148013 0.0733654 0.0788891
0.0163272 0.0730449 0.0784924
0.0251774 0.0722362 0.0769055
0.0403754 0.0704967 0.074464
0.0651255 0.0673533 0.0714275
0.0954299 0.0636606 0.0693523
0.135546 0.0586099 0.0661326
0.200351 0.0501106 0.0599527
0.2934 0.0384527 0.0508125
0.397879 0.0269169 0.0413825
0.490089 0.0188144 0.0346838
0.567483 0.014435 0.0315099
0.637568 0.0136568 0.0320439
0.70837 0.0159152 0.0357977
0.782513 0.0215 0.0430915
0.866667 0.035111 0.0587167
0.941863 0.0541085 0.0799115
0.988739 0.0724956 0.100481
0.999878 0.0901198 0.119768
1 0.106325 0.137026
1 0.119951 0.151247
1 0.12459 0.156008
1 0.12488 0.156313
1 0.12488 0.156313
1 0.12488 0.156313
1 0.12488 0.156313
1 0.12488 0.156313
1 0.12488 0.156313
1 0.12488 0.156313
1 0.12488 0.156313
0.0148013 0.079118 0.0820935
0.014786 0.0791638 0.0821088
0.0147707 0.0792706 0.0821698
0.0148165 0.078996 0.0820325
0.0157015 0.0787976 0.0818189
0.0216678 0.0783551 0.0809339
0.0334478 0.0774548 0.0793774
0.0518196 0.0754406 0.0770275
0.0934768 0.0697795 0.0724804
0.180285 0.0580911 0.0641794
0.280308 0.0458228 0.0547799
0.354009 0.0386664 0.0489052
0.427131 0.0321965 0.0435492
0.500587 0.0263371 0.0389715
0.570703 0.0220798 0.0363165
0.638941 0.0203708 0.0365301
0.709346 0.0213931 0.0397498
0.782666 0.0255283 0.046128
0.864302 0.0370642 0.0599222
0.938613 0.0544137 0.0795453
0.987854 0.0721447 0.0996719
1 0.0893873 0.118746
1 0.105318 0.135851
1 0.11902 0.150286
1 0.124407 0.155825
1 0.12488 0.156313
1 0.12488 0.156313
1 0.12488 0.156313
1 0.12488 0.156313
1 0.12488 0.156313
1 0.12488 0.156313
1 0.12488 0.156313
1 0.12488 0.156313
0.0130465 0.0867781 0.0855116
0.0130159 0.0868391 0.0855268
0.0129397 0.0870527 0.0856031
0.0130312 0.0867933 0.0855116
0.0134585 0.0866102 0.0854047
0.0171664 0.086305 0.0849928
0.0281071 0.085893 0.0841382
0.0434882 0.0850538 0.0830243
0.0665141 0.0833448 0.0808423
0.132891 0.076112 0.0743267
0.274037 0.0590372 0.0607767
0.426947 0.0410163 0.0477455
0.517449 0.0331731 0.0427558
0.568765 0.0330663 0.0432898
0.618708 0.0351263 0.0454261
0.674372 0.0382391 0.048661
0.740597 0.0429999 0.0544137
0.81355 0.0486458 0.0630961
0.884657 0.05626 0.0742351
0.947677 0.0674296 0.0883345
0.991714 0.080705 0.104677
1 0.0946212 0.12108
1 0.107805 0.136355
1 0.120119 0.150134
1 0.125795 0.156435
1 0.126009 0.156939
1 0.125521 0.15668
1 0.125154 0.156466
1 0.124941 0.156344
1 0.124926 0.156344
1 0.12491 0.156329
1 0.12491 0.156329
1 0.12491 0.156329
0.00851453 0.0983902 0.08925
0.00843824 0.0986038 0.0893111
0.00828565 0.0989548 0.0894026
0.00842298 0.0986496 0.0893416
0.00851453 0.0985275 0.0892958
0.0106966 0.0982834 0.0891585
0.020676 0.0982986 0.0890059
0.0356146 0.0986496 0.0891585
0.057435 0.0981765 0.088365
0.0907454 0.0968338 0.0857862
0.182467 0.0896925 0.0776989
0.366796 0.0716869 0.0624704
0.540475 0.0538643 0.0518044
0.647822 0.0482032 0.0517128
0.715358 0.052018 0.0567178
0.767391 0.0595712 0.0637675
0.814343 0.0679637 0.0716106
0.862699 0.0757763 0.0798352
0.91397 0.0832227 0.0894026
0.963073 0.0917983 0.100206
0.996963 0.102296 0.113863
1 0.113695 0.127672
1 0.123796 0.143481
1 0.133639 0.155947
1 0.137636 0.162066
1 0.135607 0.161852
1 0.13254 0.160372
1 0.129702 0.158877
1 0.127611 0.157778
1 0.12723 0.157549
1 0.126894 0.157397
1 0.126711 0.15729
1 0.126635 0.157259
0.00273136 0.117815 0.0939498
0.00265507 0.118181 0.0940261
0.00251774 0.118791 0.0941634
0.00254826 0.118379 0.0940719
0.00254826 0.118288 0.0940261
0.00357061 0.11809 0.0939498
0.0101472 0.118318 0.0941176
0.0240787 0.120043 0.0952316
0.0450599 0.121965 0.0963607
0.0799573 0.122316 0.095079
0.139208 0.121019 0.0910964
0.263279 0.115206 0.0805219
0.44918 0.100084 0.0672465
0.632105 0.0854353 0.0641184
0.756619 0.0808576 0.0706493
0.841047 0.0829328 0.0788281
0.897932 0.0885786 0.0880446
0.934356 0.0973983 0.0958419
0.960647 0.107103 0.103258
0.983948 0.116808 0.111192
0.998672 0.127321 0.121416
1 0.13817 0.133455
1 0.147539 0.149645
1 0.156817 0.161837
1 0.160815 0.168978
1 0.157778 0.169146
1 0.152468 0.169055
1 0.147326 0.1673
1 0.142947 0.165225
1 0.141787 0.164675
1 0.140688 0.164172
1 0.140017 0.163867
1 0.139742 0.163745
0 0.157031 0.102174
0 0.157794 0.102327
0 0.159319 0.102647
0 0.158679 0.102556
1.5259e-05 0.158556 0.102556
0.000183108 0.158572 0.102602
0.00257877 0.159106 0.10309
0.0115816 0.163241 0.10515
0.0290684 0.166476 0.107027
0.0628672 0.164965 0.105425
0.120455 0.160601 0.100252
0.215854 0.154803 0.0963912
0.344121 0.150591 0.0810864
0.507301 0.140169 0.0723125
0.675334 0.126284 0.0750591
0.821714 0.115343 0.0851148
0.922469 0.114061 0.0966964
0.97705 0.120714 0.109026
0.995209 0.13048 0.120821
0.999115 0.140627 0.130785
0.999847 0.151034 0.138598
1 0.161807 0.146197
1 0.172183 0.155291
1 0.181353 0.165148
1 0.186282 0.17258
1 0.184298 0.174075
1 0.179141 0.175082
1 0.173846 0.174289
1 0.169421 0.172915
1 0.1682 0.172595
1 0.167102 0.172335
1 0.166415 0.172198
1 0.166232 0.172183
9.15541e-05 0.22681 0.112535
9.15541e-05 0.22797 0.112673
9.15541e-05 0.230671 0.113008
9.15541e-05 0.230167 0.112978
9.15541e-05 0.229953 0.112978
0.000106813 0.230961 0.113115
0.000411994 0.230503 0.11339
0.00227359 0.232715 0.114839
0.0100099 0.234562 0.116289
0.0356603 0.230732 0.114473
0.0910811 0.22031 0.106554
0.182498 0.210986 0.0995651
0.310552 0.201831 0.100023
0.427848 0.200488 0.0823224
0.557412 0.192599 0.0766461
0.702419 0.177554 0.0816052
0.851133 0.159838 0.093019
0.96202 0.152209 0.109163
0.99823 0.157733 0.127581
1 0.166506 0.143862
1 0.175708 0.156115
1 0.185168 0.164446
1 0.193561 0.169207
1 0.203357 0.172702
1 0.209842 0.17467
1 0.210986 0.175036
1 0.208286 0.174914
1 0.203815 0.17499
1 0.198795 0.175128
1 0.197116 0.175113
1 0.195819 0.175082
1 0.194995 0.175051
1 0.19469 0.175021
0.000274662 0.309682 0.121004
0.000274662 0.311162 0.121141
0.000274662 0.313924 0.121386
0.000274662 0.313298 0.121309
0.000274662 0.313588 0.12134
0.000274662 0.315175 0.121447
0.000274662 0.314092 0.121462
0.00030518 0.314076 0.122103
0.00125124 0.314733 0.123079
0.011017 0.311421 0.121675
0.0547036 0.298695 0.113207
0.140444 0.287114 0.0999619
0.269368 0.278538 0.0947127
0.412146 0.26746 0.102647
0.524453 0.263691 0.100038
0.615335 0.263081 0.0840467
0.730938 0.247807 0.0875715
0.873976 0.221256 0.0988174
0.977752 0.202823 0.118364
0.999863 0.202228 0.141695
1 0.207218 0.160723
1 0.210849 0.172122
1 0.210956 0.174823
1 0.213443 0.174838
1 0.218906 0.174426
1 0.226917 0.173724
1 0.233722 0.173114
1 0.235966 0.173098
1 0.236057 0.173297
1 0.236133 0.173358
1 0.235706 0.173419
1 0.235126 0.17348
1 0.234653 0.173526
0.000427253 0.390509 0.130053
0.000442512 0.391913 0.13022
0.000442512 0.394568 0.130541
0.000442512 0.394217 0.130449
0.000442512 0.394507 0.130465
0.000442512 0.396475 0.130709
0.000442512 0.395529 0.130571
0.000457771 0.394202 0.130556
0.000457771 0.394415 0.130724
0.00138857 0.392401 0.129076
0.0236973 0.380774 0.120333
0.0935836 0.368277 0.103761
0.220859 0.359731 0.0882734
0.36643 0.353353 0.0884413
0.504204 0.34136 0.103334
0.616541 0.331807 0.120592
0.683589 0.333837 0.105303
0.768719 0.326299 0.0966506
0.900801 0.299321 0.10399
0.988067 0.271321 0.125475
0.999969 0.260502 0.151858
1 0.255528 0.169528
1 0.243595 0.172549
1 0.234623 0.173068
1 0.23154 0.173404
1 0.234989 0.173251
1 0.243732 0.172534
1 0.256382 0.171771
1 0.269932 0.171054
1 0.27982 0.170504
1 0.285908 0.170123
1 0.287831 0.170001
1 0.287449 0.170016
0.000579843 0.467002 0.142199
0.000595102 0.468605 0.142473
0.000595102 0.471138 0.142885
0.000595102 0.470497 0.142809
0.000579843 0.470832 0.142901
0.000595102 0.473014 0.143343
0.000595102 0.472633 0.143313
0.000595102 0.47071 0.142931
0.000595102 0.470207 0.142565
0.000747692 0.46894 0.140764
0.00665293 0.461082 0.132708
0.0546883 0.44773 0.113771
0.164492 0.439002 0.0890516
0.321111 0.434104 0.0797894
0.459236 0.428275 0.0861524
0.582315 0.416236 0.103868
0.693523 0.40116 0.133318
0.761334 0.398596 0.134142
0.82742 0.397101 0.118456
0.932754 0.379034 0.112566
0.995315 0.351492 0.130892
1 0.332021 0.158206
1 0.30898 0.168734
1 0.285679 0.169741
1 0.270298 0.170672
1 0.264195 0.171221
1 0.266972 0.17113
1 0.27599 0.170611
1 0.29041 0.169787
1 0.307607 0.168963
1 0.325673 0.168597
1 0.33257 0.16846
1 0.332265 0.168475
0.000701915 0.538735 0.157855
0.000701915 0.53991 0.158175
0.000717174 0.542397 0.158862
0.000701915 0.542016 0.158801
0.000701915 0.54229 0.158892
0.000701915 0.54461 0.159503
0.000717174 0.544732 0.159548
0.000701915 0.543053 0.159075
0.000701915 0.541726 0.158328
0.000717174 0.540749 0.156466
0.00187686 0.535866 0.149813
0.0318456 0.522652 0.131212
0.116411 0.513558 0.102464
0.266072 0.509102 0.0777752
0.420462 0.506233 0.0805066
0.541939 0.499382 0.0887922
0.65037 0.486931 0.105989
0.753216 0.470634 0.135378
0.831907 0.462333 0.15198
0.897704 0.45951 0.145312
0.97467 0.449912 0.128496
0.999771 0.429389 0.138598
1 0.405173 0.160754
1 0.370413 0.166842
1 0.341222 0.168093
1 0.324529 0.168566
1 0.317311 0.168734
1 0.316457 0.16875
1 0.322728 0.168627
1 0.334981 0.168383
1 0.351141 0.168063
1 0.35845 0.167926
1 0.358267 0.167926
0.000793469 0.605097 0.176394
0.000793469 0.606394 0.176791
0.000793469 0.608743 0.177523
0.000793469 0.608423 0.177447
0.000793469 0.608927 0.1776
0.000793469 0.611093 0.178256
0.000793469 0.611582 0.178393
0.000793469 0.610071 0.177905
0.000793469 0.608347 0.17702
0.000808728 0.607217 0.175082
0.00154116 0.60383 0.169329
0.0215305 0.592828 0.152728
0.0853742 0.582666 0.124605
0.214633 0.577493 0.0890822
0.374807 0.575936 0.0793164
0.510369 0.571481 0.0864271
0.615335 0.563378 0.0934462
0.707897 0.552209 0.106737
0.803967 0.537026 0.133471
0.893034 0.523903 0.159136
0.966018 0.515663 0.166918
0.999237 0.508583 0.155184
1 0.494514 0.158068
1 0.470512 0.166751
1 0.434211 0.167041
1 0.404685 0.166308
1 0.388434 0.166751
1 0.380362 0.16701
1 0.377203 0.167147
1 0.378576 0.167147
1 0.384756 0.166903
1 0.388403 0.166735
1 0.388128 0.166751
0.000869764 0.666682 0.195483
0.000869764 0.667903 0.195865
0.000869764 0.670115 0.196551
0.000869764 0.669978 0.196506
0.000869764 0.670359 0.196628
0.000869764 0.672297 0.197223
0.000869764 0.673381 0.197559
0.000869764 0.672251 0.197192
0.000869764 0.670436 0.196384
0.000869764 0.668971 0.194537
0.00148013 0.666621 0.1897
0.0158999 0.658473 0.176318
0.0669566 0.647288 0.150103
0.173144 0.640436 0.110994
0.326329 0.637751 0.0857099
0.474022 0.635493 0.0868696
0.589715 0.62916 0.0933242
0.680018 0.620905 0.0987869
0.761364 0.61117 0.108659
0.853483 0.596475 0.132158
0.948928 0.578485 0.162387
1 0.56582 0.180255
1 0.55761 0.183749
1 0.54725 0.18735
1 0.526131 0.186267
1 0.493324 0.176822
1 0.467521 0.168963
1 0.452003 0.165316
1 0.442725 0.164508
1 0.436957 0.164706
1 0.434653 0.164767
1 0.434318 0.164767
1 0.434134 0.164767
0.000946059 0.723918 0.212696
0.000946059 0.725246 0.213062
0.000946059 0.727352 0.213657
0.000946059 0.727398 0.213672
0.000946059 0.727413 0.213672
0.000946059 0.72929 0.21416
0.000946059 0.730434 0.214481
0.000946059 0.729946 0.214343
0.000946059 0.728405 0.213779
0.000946059 0.726513 0.212238
0.00146487 0.72462 0.208286
0.0121309 0.719081 0.198154
0.0544137 0.707759 0.174624
0.140597 0.698955 0.136873
0.279469 0.693904 0.0989395
0.431586 0.691615 0.0890822
0.559289 0.687175 0.0936294
0.658869 0.679667 0.0989242
0.737667 0.671778 0.103639
0.813199 0.662837 0.111498
0.903105 0.647242 0.132158
0.990143 0.626551 0.165591
1 0.612909 0.188052
1 0.605447 0.19881
1 0.596063 0.20885
1 0.575586 0.209354
1 0.545815 0.200153
1 0.523079 0.186633
1 0.508858 0.17763
1 0.498527 0.17319
1 0.491173 0.170947
1 0.488777 0.170214
1 0.488396 0.170138
0.00102235 0.777157 0.226764
0.00102235 0.778225 0.227024
0.00102235 0.780163 0.227497
0.00102235 0.780392 0.227543
0.00102235 0.780209 0.227512
0.00102235 0.781933 0.227924
0.00102235 0.783398 0.228275
0.00102235 0.78323 0.228244
0.00102235 0.781704 0.227817
0.00102235 0.780041 0.226825
0.00135805 0.778164 0.223545
0.00859083 0.774548 0.215549
0.0417792 0.764385 0.195621
0.111894 0.753994 0.161227
0.233158 0.747066 0.116854
0.382162 0.742763 0.0926223
0.520317 0.739376 0.0917983
0.631449 0.733288 0.0971847
0.716976 0.725643 0.102327
0.790722 0.717952 0.107347
0.8645 0.708873 0.114519
0.949874 0.692943 0.134066
1 0.672648 0.167178
1 0.662196 0.186572
1 0.657237 0.200198
1 0.64831 0.214511
1 0.62649 0.221759
1 0.596414 0.219043
1 0.573861 0.212711
1 0.556741 0.206531
1 0.54464 0.200565
1 0.54049 0.197284
1 0.540307 0.197162
0.00108339 0.825788 0.238712
0.00108339 0.826917 0.239002
0.00108339 0.828702 0.239445
0.00109865 0.828687 0.239429
0.00108339 0.828656 0.239445
0.00109865 0.830152 0.239826
0.00109865 0.8318 0.240269
0.00108339 0.831861 0.240299
0.00108339 0.830777 0.240024
0.00109865 0.829099 0.239292
0.0012665 0.827497 0.236652
0.0053254 0.824964 0.229847
0.0277867 0.817243 0.213733
0.0836805 0.806378 0.182681
0.188479 0.798321 0.13637
0.328664 0.792203 0.0990768
0.471748 0.788388 0.0884108
0.594232 0.783993 0.092195
0.690364 0.7776 0.0984817
0.768795 0.770184 0.104555
0.841718 0.762509 0.110491
0.916136 0.752895 0.118318
0.983673 0.738689 0.136141
1 0.72549 0.158328
1 0.720043 0.173739
1 0.717235 0.189075
1 0.70782 0.204837
1 0.684092 0.214893
1 0.654582 0.221347
1 0.628412 0.224201
1 0.607141 0.223453
1 0.599237 0.22295
1 0.599023 0.222873
0.00114443 0.870756 0.251469
0.00114443 0.871809 0.251789
0.00115969 0.873487 0.252293
0.00115969 0.873472 0.252277
0.00115969 0.873503 0.252308
0.00115969 0.874769 0.25275
0.00115969 0.876463 0.25333
0.00115969 0.876829 0.253468
0.00115969 0.875898 0.253178
0.00115969 0.874586 0.252659
0.00125124 0.873045 0.250721
0.00369268 0.871168 0.244862
0.0180972 0.866361 0.231785
0.0605173 0.856687 0.203616
0.147265 0.848066 0.157549
0.274937 0.841215 0.111009
0.416983 0.836408 0.0869764
0.54873 0.833051 0.085481
0.655833 0.828458 0.0917067
0.741207 0.822538 0.0992294
0.818189 0.815869 0.106813
0.892744 0.807797 0.114229
0.96289 0.798383 0.123766
0.999817 0.789227 0.137453
1 0.784222 0.15198
1 0.782422 0.166857
1 0.780484 0.18143
1 0.770886 0.190021
1 0.748089 0.196399
1 0.722057 0.204959
1 0.693538 0.213733
1 0.681453 0.216938
1 0.681102 0.217044
0.0011902 0.91313 0.267063
0.0011902 0.914137 0.267445
0.00146487 0.915816 0.268238
0.00170901 0.915618 0.268254
0.00189212 0.915694 0.268391
0.00210575 0.916808 0.268956
0.00231937 0.918532 0.26981
0.00248722 0.918959 0.270085
0.00256352 0.918441 0.269902
0.00256352 0.917144 0.269352
0.00276188 0.915602 0.268055
0.0059205 0.914137 0.263233
0.0183871 0.911254 0.25211
0.0492409 0.903685 0.227329
0.116686 0.89543 0.183505
0.228687 0.889433 0.131655
0.365179 0.884169 0.0947433
0.500374 0.881071 0.0830854
0.616724 0.87866 0.0865949
0.710323 0.874754 0.0945754
0.791852 0.869841 0.103655
0.869657 0.863249 0.112856
0.944961 0.855268 0.122545
0.994766 0.847486 0.134463
1 0.842145 0.148501
1 0.840574 0.163363
1 0.839658 0.177966
1 0.835813 0.18703
1 0.8262 0.187778
1 0.811353 0.188251
1 0.792905 0.189792
1 0.784237 0.19057
1 0.783932 0.190585
0.0114748 0.953628 0.28751
0.0120546 0.954559 0.28809
0.0130465 0.956146 0.289097
0.0134585 0.956283 0.289296
0.0136416 0.956039 0.289235
0.0144045 0.957122 0.289921
0.0155184 0.959014 0.29102
0.0159457 0.959594 0.291386
0.0158846 0.959258 0.291218
0.0155184 0.958267 0.290684
0.0151369 0.956664 0.289601
0.0184176 0.955474 0.28603
0.0291752 0.95349 0.276646
0.0509957 0.948272 0.255924
0.100587 0.940673 0.215869
0.196719 0.935836 0.161181
0.322179 0.931563 0.114595
0.455711 0.928634 0.0912337
0.57966 0.927565 0.0885786
0.680873 0.925811 0.0951858
0.766461 0.922957 0.104616
0.84741 0.918425 0.115053
0.925978 0.911574 0.125811
0.985061 0.904067 0.137636
1 0.898039 0.151293
1 0.895445 0.166201
1 0.894499 0.180926
1 0.891768 0.192279
1 0.885847 0.194278
1 0.878767 0.193362
1 0.870695 0.192447
1 0.866621 0.192004
1 0.866392 0.191974
0.0353552 0.987945 0.311955
0.035874 0.988373 0.31252
0.0367742 0.98912 0.313497
0.0368811 0.989197 0.313649
0.0367285 0.988952 0.313512
0.0372168 0.989349 0.314076
0.0381781 0.990265 0.31516
0.0387121 0.990723 0.315755
0.0385595 0.990417 0.315602
0.0380255 0.989715 0.315068
0.0372625 0.988632 0.314092
0.0386358 0.98764 0.311803
0.0472419 0.986633 0.304524
0.0636301 0.984039 0.288228
0.0996414 0.979171 0.253697
0.180407 0.97586 0.198947
0.294072 0.973465 0.146517
0.422431 0.971557 0.112749
0.549737 0.97116 0.101442
0.656855 0.970794 0.104326
0.746334 0.969543 0.112551
0.829313 0.967346 0.122942
0.909194 0.96289 0.133898
0.975204 0.957015 0.145449
0.999329 0.950973 0.158007
1 0.947478 0.171756
1 0.946746 0.185657
1 0.944442 0.198138
1 0.939651 0.202121
1 0.934447 0.201266
1 0.931075 0.200717
1 0.92961 0.200504
1 0.929427 0.200473
0.0576181 0.999893 0.336126
0.0581674 0.999893 0.336721
0.0591745 0.999908 0.337804
0.0592813 0.999908 0.337942
0.059205 0.999847 0.33785
0.0596323 0.999649 0.338277
0.0607462 0.999512 0.339513
0.0614328 0.999451 0.340246
0.0613565 0.999359 0.340185
0.0609293 0.999222 0.339712
0.0602426 0.999039 0.338933
0.06009 0.998886 0.337545
0.0661936 0.998718 0.332403
0.0801251 0.998291 0.319646
0.107836 0.997299 0.291752
0.174411 0.996445 0.240955
0.276524 0.995819 0.186191
0.399466 0.99527 0.144045
0.52694 0.995087 0.123964
0.640345 0.995026 0.121828
0.732876 0.994827 0.127993
0.817319 0.994339 0.137377
0.897948 0.993225 0.147738
0.967361 0.991485 0.158587
0.997696 0.989227 0.169924
1 0.987579 0.181827
1 0.987991 0.19408
1 0.986969 0.205936
1 0.984009 0.211505
1 0.980896 0.210651
1 0.979522 0.210071
1 0.979095 0.209903
1 0.978958 0.209873
0.0802319 1 0.360678
0.0807507 1 0.361257
0.0817426 1 0.362341
0.0818647 1 0.362463
0.0818341 1 0.362417
0.0821088 1 0.362707
0.0832685 1 0.364019
0.0840314 1 0.364843
0.0840925 1 0.364904
0.083711 0.999985 0.364492
0.0831006 0.999985 0.363821
0.0824903 0.999985 0.362722
0.085771 0.999985 0.359335
0.0970474 0.999985 0.349554
0.118486 0.999908 0.328084
0.171252 0.999786 0.283513
0.262135 0.999603 0.227817
0.377035 0.999435 0.179126
0.502724 0.999283 0.150103
0.621408 0.999191 0.141482
0.718532 0.99913 0.144915
0.805005 0.999069 0.153246
0.887388 0.999023 0.163363
0.959823 0.998932 0.173754
0.995727 0.998779 0.184314
1 0.998657 0.194858
1 0.99884 0.205447
1 0.998779 0.215595
1 0.998352 0.222049
1 0.997909 0.222248
1 0.997742 0.22179
1 0.997696 0.221668
1 0.997665 0.221622
0.100435 1 0.38291
0.100954 1 0.383474
0.101717 1 0.384329
0.102083 1 0.384695
0.102205 1 0.384833
0.102678 1 0.385351
0.10396 1 0.386786
0.105043 1 0.388022
0.105348 1 0.388357
