LUT预设1/LUT全系打包/人像lut/人像系列lut/人像电影绿调.cube
TITLE "Generated by Resolve"
LUT_3D_SIZE 33
0.0144198 0.0668345 0.075227
0.0151522 0.0667887 0.0751202
0.0221561 0.0664073 0.0740063
0.0311131 0.0660716 0.0723125
0.0410925 0.0658122 0.0706951
0.0535286 0.0652781 0.0689097
0.071519 0.0636606 0.0691539
0.0994278 0.0610056 0.068574
0.156008 0.0535439 0.0636454
0.249699 0.0413367 0.0539406
0.351156 0.0300145 0.0445258
0.442527 0.0211948 0.0370794
0.51722 0.0157015 0.032517
0.581918 0.0129244 0.0305943
0.643137 0.0128634 0.0315862
0.704677 0.0149386 0.0347906
0.768795 0.0196384 0.0409705
0.839689 0.0288243 0.0517433
0.915053 0.0462348 0.071107
0.968536 0.0623636 0.089128
0.997497 0.0781872 0.106828
1 0.093019 0.122866
1 0.107088 0.137896
1 0.120745 0.152056
1 0.12488 0.156313
1 0.12488 0.156313
1 0.12488 0.156313
1 0.12488 0.156313
1 0.12488 0.156313
1 0.12488 0.156313
1 0.12488 0.156313
1 0.12488 0.156313
1 0.12488 0.156313
0.0144198 0.0669261 0.0752728
0.0145571 0.0668345 0.0752117
0.0225223 0.0664073 0.0738994
0.0284123 0.0661326 0.0727703
0.0376135 0.065919 0.0712444
0.0491646 0.0654765 0.0694896
0.065919 0.0641031 0.0692149
0.0909743 0.0618601 0.068925
0.140002 0.0557717 0.0652628
0.23125 0.043595 0.0558022
0.334157 0.0318303 0.0460059
0.429847 0.0222934 0.0380102
0.507607 0.0163272 0.0330053
0.57435 0.0131685 0.0307317
0.636027 0.0128176 0.0314031
0.698268 0.0146944 0.0344396
0.762234 0.0190433 0.0402075
0.832593 0.0273747 0.0501411
0.909529 0.04477 0.0694896
0.96463 0.0610819 0.0877089
0.996002 0.0769665 0.105486
1 0.0920729 0.121859
1 0.106157 0.136904
1 0.119661 0.150942
1 0.12488 0.156313
1 0.12488 0.156313
1 0.12488 0.156313
1 0.12488 0.156313
1 0.12488 0.156313
1 0.12488 0.156313
1 0.12488 0.156313
1 0.12488 0.156313
1 0.12488 0.156313
0.0144656 0.0691386 0.076463
0.0144808 0.0684672 0.0760967
0.0168612 0.0679026 0.0755169
0.029099 0.0665599 0.0729229
0.0431678 0.0657359 0.0704051
0.0495308 0.0653697 0.069688
0.0632029 0.0643168 0.0691997
0.0872206 0.0621958 0.0690471
0.132937 0.0567025 0.0658885
0.220508 0.044892 0.0568704
0.324086 0.0328985 0.046891
0.421698 0.0229953 0.0386053
0.501228 0.0167391 0.033341
0.56907 0.0133364 0.0308232
0.631052 0.0127718 0.031281
0.693095 0.0145113 0.0341497
0.757458 0.0186923 0.0397498
0.826398 0.0260166 0.0486458
0.904738 0.0434577 0.0680552
0.961212 0.0598459 0.086305
0.994873 0.0758831 0.10425
1 0.0909895 0.120684
1 0.105104 0.135775
1 0.11873 0.149966
1 0.124636 0.156054
1 0.12488 0.156313
1 0.12488 0.156313
1 0.12488 0.156313
1 0.12488 0.156313
1 0.12488 0.156313
1 0.12488 0.156313
1 0.12488 0.156313
1 0.12488 0.156313
0.0147402 0.0727092 0.0785077
0.0147097 0.072221 0.0782177
0.0147555 0.0719768 0.0780652
0.0231479 0.0711986 0.0764477
0.0347295 0.0700084 0.0745556
0.0593423 0.0666056 0.0705272
0.0836042 0.0639506 0.0697032
0.104631 0.0617838 0.068452
0.132647 0.0584421 0.0663767
0.209445 0.0476844 0.0585489
0.312428 0.0345312 0.0481422
0.413092 0.0237583 0.0392462
0.49453 0.0171817 0.0336767
0.563561 0.0135195 0.0309148
0.626398 0.0127413 0.0311437
0.689067 0.014374 0.0339513
0.753399 0.0184176 0.0393835
0.822309 0.0255131 0.0480049
0.902525 0.0428321 0.0673381
0.959777 0.0592813 0.0856641
0.99472 0.0753033 0.103609
1 0.0906081 0.120302
1 0.104829 0.13547
1 0.118456 0.149706
1 0.124407 0.15581
1 0.12488 0.156313
1 0.12488 0.156313
1 0.12488 0.156313
1 0.12488 0.156313
1 0.12488 0.156313
1 0.12488 0.156313
1 0.12488 0.156313
1 0.12488 0.156313
0.0150301 0.0775769 0.0813306
0.0150301 0.0771801 0.081117
0.0151064 0.0769513 0.0809949
0.0201724 0.076585 0.0801709
0.0307774 0.0757153 0.0785229
0.0439765 0.0745098 0.0769055
0.0715496 0.070634 0.0728466
0.141238 0.0603952 0.0667735
0.231693 0.0483406 0.0578927
0.29041 0.0426337 0.0529183
0.335531 0.0395056 0.0498207
0.411948 0.0318151 0.0435035
0.49102 0.0243229 0.0377356
0.560739 0.0191196 0.0342412
0.623148 0.0167697 0.0336004
0.684382 0.0167544 0.0354009
0.746792 0.0188754 0.0394293
0.813962 0.0246128 0.0468757
0.89424 0.0407263 0.0650187
0.954559 0.057435 0.0835889
0.992874 0.0736248 0.101793
1 0.089128 0.118715
1 0.103487 0.13402
1 0.117235 0.148455
1 0.124102 0.15552
1 0.12488 0.156313
1 0.12488 0.156313
1 0.12488 0.156313
1 0.12488 0.156313
1 0.12488 0.156313
1 0.12488 0.156313
1 0.12488 0.156313
1 0.12488 0.156313
0.0140688 0.0840314 0.0845045
0.0142214 0.0835889 0.0843214
0.0143587 0.0833753 0.0842298
0.0170138 0.0830701 0.0838483
0.0265354 0.0826123 0.0828565
0.0393988 0.081651 0.0816205
0.0566873 0.0800946 0.0797131
0.0847944 0.07776 0.0766155
0.212558 0.0611276 0.0640421
0.362219 0.0417792 0.0498512
0.455741 0.0319371 0.0426642
0.506539 0.0298009 0.0408942
0.53724 0.0314183 0.0419623
0.580713 0.0315709 0.0426184
0.63621 0.031281 0.0437934
0.701244 0.0330968 0.0475776
0.771527 0.0374762 0.0544289
0.838941 0.0429847 0.0622873
0.903761 0.0525826 0.074052
0.957916 0.0644694 0.0882734
0.994568 0.0774548 0.103716
1 0.0906386 0.118883
1 0.102983 0.13283
1 0.115587 0.146639
1 0.123583 0.155001
1 0.12488 0.156313
1 0.12488 0.156313
1 0.12488 0.156313
1 0.12488 0.156313
1 0.12488 0.156313
1 0.12488 0.156313
1 0.12488 0.156313
1 0.12488 0.156313
0.010605 0.0932631 0.0878767
0.0108339 0.0926986 0.0877089
0.0109407 0.0924086 0.087602
0.0115053 0.0921187 0.0874647
0.020798 0.0919203 0.0869917
0.0330968 0.0919966 0.0867933
0.0505226 0.0914168 0.0862287
0.0747387 0.090013 0.0840162
0.111284 0.0884565 0.0809949
0.267063 0.0715038 0.065919
0.467155 0.0468757 0.0496529
0.565988 0.037583 0.0450904
0.632349 0.0362707 0.0458991
0.680705 0.0414282 0.0502785
0.716808 0.0500496 0.0558785
0.757168 0.0589914 0.0619211
0.809033 0.0656596 0.0687266
0.868528 0.0704051 0.0804913
0.923125 0.0766003 0.0895094
0.970428 0.084596 0.10074
0.999908 0.0946517 0.113832
1 0.104936 0.12636
1 0.114488 0.138247
1 0.124376 0.150378
1 0.131075 0.158648
1 0.131106 0.159731
1 0.129229 0.158755
1 0.127596 0.157855
1 0.126192 0.157046
1 0.125216 0.156512
1 0.12517 0.156466
1 0.125124 0.156466
1 0.125109 0.156451
0.00486763 0.107362 0.0916457
0.00520333 0.106615 0.0915236
0.00529488 0.106371 0.0914931
0.00553903 0.10605 0.0914321
0.0125582 0.105867 0.0913558
0.0249943 0.106691 0.0919966
0.0411536 0.107362 0.0926986
0.0662699 0.106767 0.0914931
0.102693 0.105791 0.0887007
0.170016 0.104295 0.0840467
0.347448 0.0922713 0.0700542
0.554681 0.0699931 0.057908
0.672847 0.0636149 0.0593576
0.751553 0.0648508 0.0640421
0.815396 0.0688334 0.0708171
0.861784 0.0745708 0.0803388
0.888334 0.0832532 0.0856641
0.913405 0.0920729 0.0905776
0.944976 0.100313 0.0972457
0.979126 0.108507 0.106142
1 0.118029 0.117678
1 0.12813 0.128878
1 0.135958 0.147082
1 0.144976 0.158572
1 0.151049 0.167147
1 0.150027 0.168551
1 0.145876 0.166918
1 0.141726 0.165072
1 0.137407 0.16289
1 0.133608 0.160922
1 0.13283 0.160494
1 0.132113 0.160128
1 0.131426 0.159777
1.5259e-05 0.131029 0.0968643
1.5259e-05 0.129686 0.0965133
1.5259e-05 0.129229 0.0963455
7.62951e-05 0.128878 0.0962234
0.00199893 0.128267 0.0960555
0.0129702 0.130068 0.0969863
0.0281071 0.13286 0.0991073
0.0523995 0.136522 0.100893
0.0936904 0.135302 0.0980697
0.155184 0.13463 0.0944228
0.25391 0.131456 0.0838483
0.403937 0.122194 0.0722362
0.602716 0.104433 0.0683146
0.746365 0.0951858 0.0753796
0.840467 0.0941939 0.0825055
0.906691 0.0968795 0.0904402
0.954574 0.103044 0.0994736
0.982086 0.11162 0.107927
0.993042 0.120684 0.114458
0.999359 0.1299 0.120195
0.999664 0.139467 0.12755
1 0.148684 0.137346
1 0.157458 0.148074
1 0.166262 0.158999
1 0.173358 0.16878
1 0.173846 0.172122
1 0.169986 0.170825
1 0.165011 0.174807
1 0.160876 0.173312
1 0.157046 0.17171
1 0.156268 0.171435
1 0.155566 0.171176
1 0.154818 0.170932
0 0.180331 0.106935
0 0.178058 0.106584
0 0.176776 0.106401
0 0.17673 0.106447
0.000106813 0.175448 0.106447
0.0039826 0.180102 0.108583
0.0146792 0.184375 0.110857
0.0348516 0.184497 0.111223
0.0745708 0.178561 0.106752
0.135134 0.173053 0.100557
0.233402 0.16582 0.102525
0.336522 0.166079 0.0823835
0.457465 0.160525 0.0743877
0.612284 0.146334 0.0735332
0.773251 0.129549 0.0830091
0.896239 0.12221 0.0944686
0.967834 0.125429 0.106065
0.998383 0.133196 0.119112
0.999893 0.142718 0.131121
1 0.151385 0.141238
1 0.160632 0.147387
1 0.170489 0.151919
1 0.180133 0.157671
1 0.188785 0.164797
1 0.195315 0.172061
1 0.197284 0.176516
1 0.193851 0.176333
1 0.189593 0.175875
1 0.185199 0.175097
1 0.181079 0.17409
1 0.180163 0.173846
1 0.179492 0.173693
1 0.178759 0.173541
0.000137331 0.255161 0.115953
0.000137331 0.252811 0.115755
0.000137331 0.251072 0.115587
0.000137331 0.251835 0.115648
0.000137331 0.249943 0.115511
0.00015259 0.250034 0.116228
0.000747692 0.252338 0.117815
0.0113832 0.251514 0.118532
0.0440681 0.244022 0.114488
0.106111 0.230961 0.104036
0.196643 0.223957 0.0969253
0.324559 0.212665 0.106508
0.420798 0.214374 0.0845045
0.521279 0.210605 0.0773175
0.634989 0.200122 0.0783703
0.775051 0.179797 0.086305
0.915816 0.161547 0.0994278
0.994141 0.160479 0.116793
1 0.167712 0.134661
1 0.17525 0.14934
1 0.183001 0.160998
1 0.190936 0.169497
1 0.196872 0.173327
1 0.20621 0.175219
1 0.214267 0.175128
1 0.218372 0.174548
1 0.219211 0.174273
1 0.217334 0.174395
1 0.213764 0.174945
1 0.209018 0.175708
1 0.207553 0.175875
1 0.206485 0.175952
1 0.205402 0.176013
0.000320439 0.331014 0.122972
0.00030518 0.328511 0.122713
0.00030518 0.327108 0.122591
0.00030518 0.328328 0.122652
0.00030518 0.326696 0.122499
0.00030518 0.3252 0.122713
0.00030518 0.325917 0.123766
0.000839246 0.325353 0.124193
0.0145113 0.319387 0.121111
0.0707866 0.30338 0.109957
0.157702 0.295384 0.0966812
0.280995 0.28838 0.0923323
0.414755 0.276387 0.106081
0.516167 0.272709 0.10605
0.586831 0.276905 0.0847791
0.671916 0.269444 0.0846265
0.788891 0.247364 0.0911269
0.930632 0.217639 0.103197
0.999298 0.205875 0.124285
1 0.208667 0.145785
1 0.212894 0.162295
1 0.215335 0.172503
1 0.213855 0.175128
1 0.213352 0.174899
1 0.216526 0.174502
1 0.222431 0.174151
1 0.232334 0.173266
1 0.239445 0.172656
1 0.242496 0.172564
1 0.244236 0.172549
1 0.245396 0.172534
1 0.24596 0.172503
1 0.24567 0.17258
0.000457771 0.403189 0.131563
0.000457771 0.400824 0.131228
0.000457771 0.39942 0.131044
0.000457771 0.400931 0.131243
0.000457771 0.399802 0.131075
0.000457771 0.397467 0.1308
0.000457771 0.396933 0.13106
0.000457771 0.396902 0.130861
0.00184634 0.392599 0.12784
0.0354772 0.377356 0.116136
0.113039 0.367712 0.0994278
0.23827 0.360662 0.0861677
0.36875 0.355367 0.0879988
0.493248 0.344656 0.101091
0.603677 0.332967 0.124773
0.663005 0.335943 0.111223
0.717861 0.337423 0.0964523
0.813748 0.322545 0.0968338
0.94696 0.291981 0.107332
0.999634 0.269184 0.129931
1 0.262501 0.153399
1 0.258732 0.169131
1 0.247593 0.172274
1 0.238056 0.172793
1 0.232792 0.17322
1 0.232319 0.173434
1 0.237034 0.173114
1 0.245731 0.172396
1 0.257984 0.171679
1 0.271275 0.170977
1 0.281895 0.170382
1 0.289097 0.16994
1 0.294286 0.169604
0.000595102 0.471534 0.142962
0.000595102 0.469047 0.142489
0.000579843 0.467887 0.142275
0.000595102 0.469596 0.142596
0.000595102 0.468925 0.142489
0.000579843 0.4663 0.141985
0.000579843 0.464927 0.141695
0.000579843 0.464897 0.141115
0.0009308 0.461952 0.138186
0.0109407 0.450721 0.127169
0.0737011 0.437964 0.106935
0.185763 0.431769 0.0847181
0.330129 0.427619 0.0800183
0.452186 0.422507 0.0855726
0.560357 0.413458 0.0972305
0.674144 0.395499 0.13341
0.738399 0.391913 0.139757
0.785122 0.394842 0.126741
0.851286 0.391073 0.108507
0.961135 0.367834 0.110765
1 0.342519 0.1337
1 0.327062 0.159167
1 0.307774 0.168963
1 0.287098 0.169574
1 0.271855 0.170336
1 0.262669 0.171206
1 0.261418 0.171405
1 0.266117 0.171176
1 0.274983 0.170672
1 0.287343 0.169955
1 0.301717 0.169085
1 0.318364 0.16875
1 0.33257 0.16846
0.000701915 0.535683 0.157015
0.000686656 0.533593 0.156512
0.000686656 0.532494 0.156237
0.000686656 0.534066 0.156619
0.000701915 0.533806 0.156558
0.000686656 0.531868 0.156085
0.000686656 0.529717 0.155413
0.000686656 0.529076 0.154482
0.000701915 0.527001 0.15169
0.00273136 0.519783 0.142702
0.046128 0.504921 0.12137
0.13785 0.498955 0.0940871
0.282124 0.495369 0.0755627
0.419272 0.492775 0.0804913
0.527459 0.486854 0.0873274
0.620478 0.478248 0.09691
0.727245 0.458869 0.132433
0.799741 0.449943 0.152026
0.855894 0.448249 0.155184
0.908827 0.448005 0.135317
0.982666 0.436484 0.117861
1 0.414847 0.135821
1 0.3953 0.162539
1 0.362753 0.167651
1 0.33576 0.168414
1 0.318029 0.168765
1 0.309789 0.168917
1 0.306065 0.168948
1 0.307332 0.168917
1 0.313695 0.168795
1 0.324651 0.168582
1 0.339193 0.168322
1 0.355215 0.168032
0.00077821 0.595743 0.173495
0.00077821 0.593805 0.17293
0.00077821 0.592828 0.172625
0.00077821 0.594263 0.173053
0.00077821 0.594354 0.173068
0.00077821 0.592615 0.172534
0.00077821 0.590387 0.171771
0.00077821 0.589014 0.17052
0.00077821 0.587716 0.167849
0.00210575 0.582345 0.160098
0.0318914 0.568551 0.139986
0.103853 0.561135 0.112352
0.233967 0.557488 0.0819257
0.379156 0.556603 0.0776532
0.500175 0.552483 0.0852522
0.595376 0.545113 0.0912642
0.674128 0.537087 0.098436
0.765576 0.521737 0.124468
0.852323 0.507271 0.156069
0.916503 0.500847 0.16846
0.971801 0.497429 0.163287
0.998764 0.492393 0.14229
1 0.47892 0.145724
1 0.459236 0.160555
1 0.421073 0.165042
1 0.390646 0.166644
1 0.375006 0.167391
1 0.365866 0.167788
1 0.361517 0.16788
1 0.360113 0.16791
1 0.362371 0.167865
1 0.368414 0.167697
1 0.378225 0.167224
0.000854505 0.651408 0.190738
0.000839246 0.649805 0.190219
0.000839246 0.648905 0.189944
0.000839246 0.650141 0.190341
0.000839246 0.650599 0.190478
0.000839246 0.64918 0.190021
0.000839246 0.646998 0.189303
0.000839246 0.645106 0.188022
0.000854505 0.64387 0.185367
0.00189212 0.639902 0.178698
0.0239719 0.628611 0.161395
0.0824445 0.619226 0.134722
0.193637 0.614557 0.098497
0.335698 0.613016 0.0808576
0.468742 0.611337 0.0847944
0.572854 0.60557 0.0912795
0.654963 0.597879 0.0958572
0.723445 0.590997 0.10164
0.803937 0.578988 0.119753
0.898192 0.560906 0.15491
0.969451 0.54963 0.174792
1 0.542779 0.180499
1 0.536187 0.176394
1 0.527871 0.176913
1 0.513603 0.174487
1 0.478401 0.16492
1 0.448722 0.164294
1 0.432563 0.164675
1 0.422675 0.165057
1 0.416632 0.165362
1 0.413108 0.16553
1 0.412039 0.165576
1 0.41442 0.165469
0.000915541 0.703532 0.206943
0.000915541 0.702022 0.206485
0.000900282 0.701015 0.206195
0.000915541 0.702007 0.206455
0.000915541 0.702739 0.206683
0.000915541 0.701869 0.206424
0.000900282 0.699962 0.205814
0.000900282 0.697826 0.204715
0.000915541 0.696391 0.202319
0.00189212 0.693462 0.196735
0.0189822 0.685359 0.183337
0.0698253 0.67393 0.157305
0.160876 0.667887 0.120958
0.294545 0.664286 0.0908827
0.432151 0.66331 0.0864271
0.546532 0.659541 0.0921187
0.637003 0.652415 0.0970626
0.708003 0.645289 0.100877
0.771923 0.638605 0.105898
0.845594 0.628 0.119432
0.941344 0.60734 0.153567
1 0.592523 0.179583
1 0.584985 0.190417
1 0.578073 0.197009
1 0.570367 0.205631
1 0.55436 0.205646
1 0.526619 0.185046
1 0.503151 0.172274
1 0.488167 0.165652
1 0.477943 0.163363
1 0.469917 0.163577
1 0.464607 0.163714
1 0.46157 0.16379
0.000976577 0.7523 0.220691
0.000976577 0.750881 0.22031
0.000976577 0.749889 0.220035
0.000976577 0.750668 0.220203
0.000976577 0.751537 0.220417
0.000976577 0.751003 0.220279
0.000976577 0.749233 0.219806
0.000976577 0.747051 0.219013
0.000991836 0.74548 0.21709
0.00178531 0.743206 0.212375
0.0148928 0.737438 0.202014
0.0582589 0.725673 0.178347
0.135332 0.717586 0.143618
0.253849 0.7122 0.105226
0.391318 0.709865 0.0895247
0.514336 0.707439 0.0917372
0.614328 0.701793 0.0970016
0.691478 0.694697 0.101061
0.755978 0.687877 0.104845
0.818647 0.680949 0.109743
0.890684 0.669932 0.121721
0.982971 0.648966 0.154711
1 0.632807 0.183322
1 0.626459 0.194247
1 0.62208 0.204105
1 0.614908 0.21709
1 0.596551 0.223041
1 0.567727 0.216632
1 0.547219 0.201144
1 0.533562 0.189075
1 0.523308 0.181353
1 0.514977 0.1776
1 0.50927 0.175067
0.00105287 0.797436 0.231708
0.00105287 0.796109 0.231403
0.00103761 0.794965 0.231144
0.00103761 0.795758 0.231327
0.00103761 0.796704 0.231556
0.00103761 0.796414 0.231495
0.00103761 0.79498 0.231159
0.00103761 0.79295 0.230594
0.00103761 0.790936 0.229129
0.0015259 0.789273 0.224979
0.0105898 0.785031 0.216403
0.0453956 0.77435 0.196109
0.109972 0.764874 0.164172
0.215137 0.758328 0.122698
0.345937 0.753674 0.0943618
0.474891 0.751324 0.0897536
0.58439 0.74728 0.094255
0.670222 0.740826 0.0992599
0.73872 0.734051 0.103685
0.801648 0.727443 0.107988
0.863935 0.720088 0.113069
0.93489 0.708583 0.12491
1 0.688457 0.156542
1 0.676188 0.1785
1 0.671336 0.19028
1 0.669215 0.202304
1 0.661601 0.21677
1 0.642603 0.224338
1 0.614267 0.225498
1 0.592248 0.22266
1 0.574746 0.21767
1 0.561486 0.213733
1 0.552697 0.205982
0.00109865 0.838911 0.241962
0.00111391 0.837568 0.241611
0.00109865 0.836606 0.241398
0.00111391 0.837171 0.24155
0.00111391 0.838315 0.241886
0.00109865 0.838254 0.241886
0.00109865 0.836957 0.241581
0.00109865 0.835325 0.241123
0.00109865 0.83331 0.24004
0.00137331 0.831861 0.236408
0.00668345 0.828717 0.228794
0.0311894 0.820493 0.212161
0.0847486 0.810315 0.182574
0.177096 0.803067 0.140398
0.298924 0.796948 0.102586
0.428672 0.793271 0.0876326
0.54609 0.790524 0.0890974
0.6421 0.785351 0.094728
0.717281 0.779293 0.100282
0.782849 0.772885 0.105592
0.845945 0.766201 0.110765
0.90985 0.758251 0.116732
0.977172 0.747036 0.128985
1 0.733379 0.150668
1 0.72694 0.164294
1 0.724529 0.177295
1 0.722683 0.190616
1 0.713878 0.204776
1 0.693111 0.213489
1 0.667292 0.220417
1 0.643641 0.225254
1 0.623178 0.225345
1 0.606119 0.225467
0.00115969 0.877729 0.253559
0.00115969 0.876295 0.253117
0.00115969 0.875471 0.252888
0.00115969 0.875883 0.253071
0.00115969 0.877073 0.253498
0.00115969 0.877073 0.253544
0.00115969 0.876097 0.253223
0.00115969 0.874693 0.252766
0.00114443 0.872862 0.251926
0.00132753 0.871382 0.249073
0.00477607 0.869108 0.242084
0.0214542 0.863752 0.228382
0.0641642 0.854215 0.200702
0.142504 0.846479 0.158938
0.2533 0.840009 0.115236
0.379828 0.835004 0.0882124
0.502129 0.832319 0.0835431
0.60734 0.828962 0.0881208
0.689906 0.824201 0.0944839
0.759884 0.818708 0.101122
0.825864 0.812726 0.107622
0.890349 0.805615 0.113909
0.954025 0.797528 0.121401
1 0.7888 0.133059
1 0.782971 0.14551
1 0.780453 0.158267
1 0.779843 0.171038
1 0.777966 0.183505
1 0.768704 0.190112
1 0.749264 0.195483
1 0.72784 0.202579
1 0.703334 0.211154
1 0.679316 0.217563
0.0011902 0.914565 0.267613
0.0011902 0.913191 0.267063
0.0011902 0.912367 0.266758
0.0011902 0.912703 0.266941
0.0011902 0.913954 0.267521
0.0011902 0.91397 0.267582
0.0011902 0.913283 0.267308
0.0011902 0.91194 0.266789
0.00120546 0.910338 0.266056
0.00161746 0.90869 0.264134
0.00582895 0.907134 0.257755
0.0199893 0.903548 0.245884
0.0521401 0.895552 0.220813
0.115434 0.887968 0.180621
0.21326 0.882277 0.133608
0.333791 0.876814 0.0966964
0.457023 0.873487 0.0817121
0.56878 0.871672 0.0829786
0.659831 0.868574 0.0892195
0.734401 0.864469 0.0967117
0.803555 0.859754 0.10457
0.87039 0.853635 0.112306
0.936324 0.846571 0.12015
0.994476 0.839277 0.129839
1 0.833722 0.141558
1 0.830945 0.154192
1 0.830808 0.167025
1 0.830014 0.1794
1 0.826368 0.186145
1 0.818433 0.186709
1 0.805264 0.187091
1 0.789807 0.188571
1 0.770581 0.190814
0.00921645 0.950057 0.285237
0.00892653 0.948837 0.284642
0.00874342 0.947845 0.284153
0.00915541 0.94818 0.284413
0.00996414 0.949447 0.285161
0.0102388 0.949615 0.285328
0.010132 0.949096 0.285054
0.00972 0.94789 0.284428
0.00921645 0.94641 0.283635
0.00907912 0.944472 0.282155
0.0145266 0.943435 0.276829
0.026688 0.940948 0.266285
0.0500496 0.934783 0.244327
0.0989853 0.927504 0.206714
0.183642 0.922972 0.158419
0.295109 0.918334 0.114031
0.414801 0.914687 0.088716
0.530922 0.913466 0.083299
0.630076 0.912001 0.087953
0.709331 0.909636 0.0954452
0.781247 0.90631 0.104067
0.850538 0.901762 0.112993
0.918959 0.895781 0.122011
0.981476 0.888838 0.131701
1 0.882811 0.14316
1 0.879103 0.155886
1 0.878538 0.16907
1 0.877852 0.181704
1 0.875334 0.1906
1 0.87013 0.192157
1 0.863767 0.191318
1 0.856703 0.190539
1 0.846571 0.189487
0.0305638 0.983978 0.306737
0.0299382 0.983185 0.306111
0.0292668 0.982162 0.305455
0.0293431 0.982559 0.305592
0.0298619 0.983795 0.306188
0.0300908 0.984512 0.306493
0.0298161 0.984161 0.306233
0.0291295 0.983093 0.305562
0.0282902 0.981704 0.304707
0.027451 0.979797 0.30338
0.0312963 0.978546 0.299657
0.0415808 0.976822 0.290562
0.0583352 0.97258 0.272694
0.0945602 0.965896 0.238499
0.166995 0.961608 0.189227
0.267796 0.958618 0.140536
0.381888 0.955444 0.106676
0.497978 0.954284 0.0925002
0.60325 0.954223 0.0934157
0.687373 0.953338 0.0997024
0.761654 0.951308 0.108064
0.833051 0.948348 0.117479
0.90251 0.943481 0.127062
0.968124 0.937301 0.137026
1 0.931121 0.147768
1 0.926299 0.159808
1 0.924773 0.172564
1 0.924422 0.184894
1 0.92224 0.1953
1 0.917876 0.198611
1 0.912581 0.197833
1 0.909712 0.197436
1 0.905562 0.196872
0.0497292 0.999817 0.327596
0.0491188 0.999802 0.326955
0.0485237 0.999664 0.326268
0.0486458 0.999222 0.32639
0.0493172 0.998886 0.327138
0.0497597 0.998718 0.327596
0.0495308 0.998474 0.327352
0.0490425 0.998199 0.326818
0.048188 0.997742 0.325902
0.0473945 0.997284 0.324895
0.0483406 0.996872 0.322835
0.0577401 0.996384 0.315297
0.0720684 0.995148 0.300832
0.100542 0.99266 0.271885
0.161593 0.9906 0.225055
0.252979 0.989242 0.174548
0.360815 0.987762 0.134386
0.475273 0.986984 0.112367
0.583673 0.987076 0.107271
0.671992 0.986923 0.111254
0.74786 0.986404 0.11841
0.820081 0.985214 0.12723
0.889952 0.982727 0.136461
0.956893 0.978943 0.14612
0.997314 0.974243 0.156237
1 0.969787 0.166995
1 0.967681 0.178515
1 0.967666 0.189975
1 0.965713 0.200763
1 0.962173 0.205753
1 0.957504 0.204898
1 0.95491 0.204379
1 0.953658 0.20412
0.0695354 1 0.34902
0.068864 1 0.348318
0.0683146 1 0.347707
0.0682689 0.999985 0.347631
0.068986 0.999985 0.34844
0.0694896 0.999985 0.348959
0.0693065 0.999985 0.348791
0.068864 0.999969 0.348302
0.06804 0.999954 0.347417
0.0672007 0.999954 0.346471
0.066865 0.999939 0.344976
0.0736706 0.999939 0.339605
0.0866865 0.999893 0.327504
0.109728 0.999756 0.303731
0.160433 0.999603 0.261295
0.241932 0.99942 0.211475
0.344015 0.999222 0.166445
0.45626 0.9991 0.137499
0.56701 0.998947 0.126574
0.661509 0.998871 0.127718
0.738537 0.998825 0.133654
0.811933 0.998764 0.141741
0.882292 0.998657 0.150454
0.949981 0.998489 0.159579
0.994324 0.99794 0.168948
1 0.997101 0.178515
1 0.996658 0.188403
1 0.99794 0.198566
1 0.997375 0.208392
1 0.995438 0.214496
1 0.993408 0.21387
1 0.992172 0.213123
1 0.991974 0.212833
0.0889448 1 0.370199
0.0883497 1 0.369512
0.0878309 1 0.368933
0.0877089 1 0.368811
0.0884718 1 0.36968
0.0890211 1 0.370291
0.0888991 1 0.370138
0.088426 1 0.369635
0.0877546 1 0.368872
