LUT预设1/LUT全系打包/人像lut/人像系列lut/人像橙调.cube
TITLE "Generated by Resolve"
LUT_3D_SIZE 33
0.0304112 0.0299687 0.0310063
0.0288243 0.0300755 0.0314336
0.0305943 0.0301366 0.0314031
0.0410925 0.030869 0.0311437
0.0578012 0.0329137 0.0309148
0.0769207 0.0363928 0.0307317
0.110338 0.038056 0.0283055
0.153643 0.0361181 0.017792
0.200656 0.0306859 0.00712596
0.252659 0.0183871 0.000854505
0.308904 0.00315862 0
0.365652 0 0
0.419089 0 0
0.468177 0 0
0.51104 0 0
0.54725 0 0
0.5776 0 0
0.601373 0 0
0.619165 0 0
0.63212 0 0
0.641062 0 0
0.64622 0 0
0.646708 0 0
0.646708 0 0
0.646708 0 0
0.646708 0 0
0.646708 0 0
0.646708 0 0
0.646708 0 0
0.646708 0 0
0.646708 0 0
0.646708 0 0
0.646708 0 0
0.0303044 0.0318456 0.0324102
0.0310216 0.0316014 0.0328374
0.031281 0.0317693 0.0327611
0.0387884 0.0322728 0.0328069
0.0533608 0.034226 0.0326848
0.0733654 0.0373999 0.0323949
0.101656 0.0405127 0.0307317
0.144961 0.0397345 0.0234989
0.192157 0.0364996 0.0102846
0.243946 0.0249027 0.00262455
0.299306 0.0114137 4.57771e-05
0.356664 0.00169375 0
0.410773 3.0518e-05 0
0.46096 0 0
0.504051 0 0
0.541268 0 0
0.572412 0 0
0.597696 0 0
0.616983 0 0
0.630549 0 0
0.639948 0 0
0.64509 0 0
0.646708 0 0
0.646708 0 0
0.646708 0 0
0.646708 0 0
0.646708 0 0
0.646708 0 0
0.646708 0 0
0.646708 0 0
0.646708 0 0
0.646708 0 0
0.646708 0 0
0.0301823 0.0362249 0.0336461
0.0308232 0.0354314 0.0340124
0.0290684 0.0349737 0.0343786
0.0368963 0.0349432 0.0341344
0.0576181 0.0370184 0.0335699
0.0718853 0.0392309 0.033875
0.0966201 0.0422065 0.0330968
0.135683 0.0434424 0.0289311
0.182437 0.0425269 0.0148775
0.233814 0.0364691 0.00418097
0.289631 0.0229801 0.000183108
0.346929 0.00936904 0
0.402167 0.00146487 0
0.454566 6.10361e-05 0
0.499718 0 0
0.538003 0 0
0.570184 0 0
0.595956 0 0
0.615396 0 0
0.629419 0 0
0.638972 0 0
0.644526 0 0
0.646708 0 0
0.646708 0 0
0.646708 0 0
0.646708 0 0
0.646708 0 0
0.646708 0 0
0.646708 0 0
0.646708 0 0
0.646708 0 0
0.646708 0 0
0.646708 0 0
0.0297246 0.0423133 0.0350805
0.0301213 0.0412909 0.0354772
0.0304265 0.040528 0.0358587
0.0308232 0.0400854 0.0361791
0.0465095 0.0400549 0.0358892
0.0799573 0.0446174 0.0344396
0.113787 0.0477607 0.0311284
0.14078 0.0491188 0.0268254
0.176379 0.0498054 0.0192111
0.225696 0.0483864 0.00328069
0.28304 0.0391089 0.000656138
0.341161 0.0234684 0
0.397498 0.00949111 0
0.450599 0.00151064 0
0.499321 6.10361e-05 0
0.538308 0 0
0.570825 0 0
0.596994 0 0
0.617151 0 0
0.631785 0 0
0.641032 0 0
0.646799 0 0
0.648325 0 0
0.647593 0 0
0.646952 0 0
0.646723 0 0
0.646738 0 0
0.646738 0 0
0.646708 0 0
0.646708 0 0
0.646708 0 0
0.646708 0 0
0.646708 0 0
0.0286717 0.0491951 0.0368505
0.0297246 0.0479133 0.0372015
0.0308232 0.0469062 0.037583
0.032105 0.0464332 0.0380102
0.0406958 0.0466011 0.038117
0.0595407 0.049134 0.0379187
0.0968643 0.054078 0.0350652
0.159411 0.0569314 0.0233616
0.211734 0.0571603 0.00898756
0.249775 0.0568093 0.00355535
0.287724 0.0545357 0.000198367
0.340566 0.0446632 3.0518e-05
0.39733 0.0264744 0
0.451164 0.0108339 0
0.499275 0.00170901 0
0.541482 0 0
0.575113 0 0
0.601419 0 0
0.621851 0 0
0.636881 0 0
0.647547 0 0
0.65362 0 0
0.654795 0 0
0.653666 0 0
0.651591 0 0
0.649561 0 0
0.647959 0 0
0.647013 0 0
0.646998 0 0
0.647211 0 0
0.647334 0 0
0.647364 0 0
0.647288 0 0
0.0237278 0.0582132 0.0384833
0.0261692 0.0563821 0.0386969
0.0290227 0.0547951 0.0390021
0.0318608 0.053666 0.0394141
0.0353552 0.053254 0.0398871
0.0531472 0.0545357 0.0397498
0.0744335 0.0583505 0.0386969
0.11429 0.0634775 0.0348974
0.204318 0.0682383 0.0130617
0.280507 0.0675212 0.000686656
0.340642 0.060853 0
0.38381 0.0524147 0
0.417609 0.0437629 0
0.458747 0.0291142 0
0.504601 0.0108186 0
0.547143 0.00112917 0
0.582956 0 0
0.611566 0 0
0.630625 0 0
0.645151 0 0
0.655695 0 0
0.662577 0 0
0.665034 0 0
0.663355 0 0
0.660975 0 0
0.658701 0 0
0.656428 0 0
0.654215 0 0
0.653162 0 0
0.65243 0 0
0.651804 0 0
0.651209 0 0
0.65066 0 0
0.0138247 0.0711223 0.0398566
0.016495 0.0687572 0.0399939
0.0206149 0.0664378 0.040177
0.0237888 0.064622 0.0405432
0.0285649 0.0634623 0.0410315
0.0409247 0.0634775 0.0414282
0.0677958 0.0663005 0.040528
0.0970932 0.0708324 0.0382696
0.142733 0.0757305 0.0304112
0.23772 0.0826581 0.0068513
0.34696 0.0813001 7.62951e-05
0.421622 0.0678721 0
0.474678 0.0467842 0
0.510246 0.0317388 0
0.536828 0.0201877 0
0.563912 0.0091249 0
0.593866 0.0015259 0
0.621241 0 0
0.643061 0 0
0.657618 0 0
0.667002 0 0
0.673793 0 0
0.676966 0 0
0.674739 0 0
0.672145 0 0
0.669612 0 0
0.667124 0 0
0.664912 0 0
0.663432 0 0
0.662608 0 0
0.661875 0 0
0.661158 0 0
0.660517 0 0
0.00471504 0.0872969 0.0414435
0.0062562 0.0847486 0.0415503
0.0087129 0.0818189 0.0417487
0.0113832 0.0793622 0.0420081
0.0148775 0.0779431 0.0424353
0.025803 0.0777752 0.0427405
0.0552071 0.0794537 0.042298
0.085481 0.0837873 0.0399786
0.125933 0.0885634 0.0339361
0.179995 0.0935836 0.0197299
0.268925 0.101137 0.00389105
0.399924 0.100816 0
0.493614 0.0838026 0
0.551202 0.0580758 0
0.588876 0.0376593 0
0.61207 0.0269932 0
0.628504 0.0199435 0
0.643458 0.0146181 0
0.658351 0.0111849 0
0.671885 0.00860609 0
0.682231 0.00624094 0
0.688426 0.0043183 0
0.690044 0.00236515 0
0.688655 0.0009308 0
0.685542 0.000167849 0
0.682475 3.0518e-05 0
0.679576 0 0
0.676951 0 0
0.675029 0 0
0.674006 0 0
0.673106 0 0
0.672267 0 0
0.671458 0 0
0.000610361 0.105211 0.0430762
0.000961318 0.10309 0.0432288
0.00154116 0.0996567 0.0436866
0.00292973 0.0964065 0.0440528
0.00395209 0.0944991 0.0444495
0.0126345 0.0940871 0.0446632
0.034638 0.0954604 0.0440528
0.0731823 0.0990616 0.0415961
0.110735 0.104524 0.0363012
0.163485 0.109819 0.0227512
0.225925 0.116426 0.0080415
0.307912 0.123781 0.000335698
0.439994 0.128237 0
0.552575 0.114641 0
0.614023 0.0951247 0
0.649897 0.0788434 0
0.67071 0.0665904 0
0.682033 0.0582742 0
0.688716 0.0537118 0
0.695689 0.0499123 0
0.701274 0.0457923 0
0.705882 0.0387884 0
0.708263 0.0309453 0
0.706111 0.0208743 0
0.702571 0.0124056 0
0.69868 0.00619516 0
0.695064 0.00288396 0
0.691676 0.0018616 0
0.689448 0.00131228 0
0.687861 0.0010071 0
0.686564 0.000854505 0
0.685359 0.000732433 0
0.68423 0.00062562 0
0 0.125231 0.0435798
0 0.123522 0.0438392
1.5259e-05 0.12015 0.0445716
9.15541e-05 0.11606 0.0455177
0.000259403 0.113222 0.0461738
0.00355535 0.112215 0.0466468
0.0186618 0.113069 0.0459144
0.0505837 0.115923 0.0430762
0.0971389 0.121126 0.0375982
0.146944 0.127199 0.0244144
0.208026 0.134188 0.00738537
0.276646 0.142443 0.000183108
0.355337 0.150103 0
0.474617 0.156191 0
0.598947 0.151949 0
0.668498 0.143526 0
0.701411 0.133333 0
0.716899 0.122393 0
0.722988 0.112261 0
0.725124 0.104112 0
0.727199 0.0997177 0
0.728527 0.0964828 0
0.728618 0.0908675 0
0.726619 0.0811475 0
0.72285 0.0683909 0
0.718791 0.057145 0
0.714534 0.0462043 0
0.710674 0.0364843 0
0.707439 0.0278325 0
0.705562 0.0237736 0
0.703731 0.0200351 0
0.701915 0.0164797 0
0.700298 0.01355 0
0 0.147921 0.0418097
0 0.146502 0.0421454
0 0.143542 0.0430152
0 0.139269 0.0444953
0 0.135332 0.045716
0.000244144 0.133394 0.0464179
0.00779736 0.133532 0.0458534
0.0316472 0.135744 0.0430457
0.0749981 0.140307 0.0364691
0.125917 0.147097 0.0240177
0.189227 0.154925 0.0080415
0.257771 0.163958 0.00164797
0.33167 0.172564 1.5259e-05
0.410452 0.179782 0
0.513787 0.185779 0
0.634546 0.188312 0
0.709606 0.188067 0
0.74287 0.186847 0
0.755337 0.18204 0
0.75845 0.173526 0
0.75639 0.163607 0
0.751873 0.155581 0
0.748943 0.150057 0
0.74696 0.145724 0
0.744976 0.141527 0
0.741863 0.133303 0
0.738109 0.122805 0
0.734142 0.110887 0
0.730983 0.101122 0
0.728511 0.0932021 0
0.726085 0.0851759 0
0.723644 0.076997 0
0.721447 0.0695048 0
0 0.172824 0.037232
0 0.171618 0.0374456
0 0.169268 0.0383001
0 0.165393 0.0399329
0 0.160647 0.0420233
4.57771e-05 0.157549 0.0431983
0.00187686 0.156832 0.043122
0.0158846 0.158572 0.0399329
0.0475929 0.162936 0.0315557
0.0999313 0.170077 0.0177768
0.164797 0.179492 0.00376898
0.238041 0.189731 0.00062562
0.312612 0.199252 0
0.390982 0.207309 0
0.470054 0.213657 0
0.558297 0.218753 0
0.666468 0.22475 0
0.741878 0.230579 0
0.775647 0.237201 0
0.787503 0.237064 0
0.787518 0.228458 0
0.781445 0.214969 0
0.774121 0.201663 0
0.768383 0.191058 0
0.765118 0.184741 0
0.763027 0.180072 0
0.761639 0.176944 0
0.759579 0.172488 0
0.757748 0.168582 0
0.75555 0.163775 0
0.753399 0.159075 0
0.750927 0.153643 0
0.748409 0.147814 0
0 0.199084 0.0273136
0 0.198215 0.0273442
0 0.196536 0.0280308
0 0.193271 0.0297551
0 0.188525 0.0324712
0 0.184054 0.0353094
0.000167849 0.182376 0.0360266
0.00428778 0.183276 0.0332036
0.0235142 0.18735 0.0230716
0.0654459 0.19501 0.0100252
0.134218 0.205859 0.00169375
0.214893 0.217716 9.15541e-05
0.292302 0.228779 0
0.370733 0.238132 0
0.451255 0.245884 0
0.528817 0.25156 0
0.605844 0.254871 0
0.694026 0.260456 0
0.76643 0.271321 0
0.801846 0.284566 0
0.812284 0.287068 0
0.810071 0.278019 0
0.804501 0.263783 0
0.79736 0.248829 0
0.790661 0.235966 0
0.785779 0.227359 0
0.78349 0.223133 0
0.783001 0.222095 0
0.782757 0.221393 0
0.782238 0.220081 0
0.780789 0.216953 0
0.77908 0.213352 0
0.777722 0.210513 0
0 0.22768 0.00833143
0 0.227237 0.00982681
0 0.226078 0.0113375
0 0.223331 0.0133211
0 0.218845 0.0164034
0 0.213764 0.0199435
0 0.210178 0.0216983
0.000244144 0.210254 0.0177615
0.00621042 0.213718 0.0093843
0.0331273 0.22153 0.00325017
0.0916915 0.232959 0.000610361
0.183536 0.246662 0
0.268956 0.259968 0
0.349996 0.271138 0
0.431128 0.279805 0
0.510887 0.286458 0
0.586084 0.291066 0
0.654429 0.293446 0
0.724437 0.297673 0
0.787564 0.310536 0
0.823011 0.328908 0
0.832334 0.333745 0
0.829511 0.325612 0
0.825528 0.313603 0
0.820096 0.300679 0
0.814908 0.289082 0
0.810529 0.279911 0
0.807065 0.273167 0
0.805203 0.269932 0
0.8047 0.268666 0
0.804593 0.268101 0
0.80531 0.269383 0
0.805493 0.269505 0
0 0.260029 6.10361e-05
0 0.259983 7.62951e-05
0 0.258778 9.15541e-05
0 0.256596 0.00015259
0 0.252461 0.00155642
0 0.247166 0.00376898
0 0.242527 0.00494392
0 0.240848 0.00195315
0.000381476 0.243656 0.000732433
0.00958267 0.251087 0.000274662
0.0540627 0.262669 7.62951e-05
0.13492 0.277287 0
0.238544 0.2925 0
0.32668 0.306691 0
0.410925 0.317205 0
0.492576 0.324804 0
0.570306 0.329656 0
0.641337 0.332586 0
0.701991 0.334478 0
0.757565 0.338399 0
0.810086 0.351278 0
0.842954 0.372457 0
0.851881 0.380224 0
0.849699 0.375006 0
0.846296 0.366232 0
0.843275 0.358328 0
0.840314 0.34844 0
0.836301 0.338277 0
0.833097 0.331502 0
0.831266 0.329397 0
0.830686 0.328557 0
0.830747 0.329091 0
0.830747 0.328908 0
0 0.293935 0
0 0.294148 0
0 0.293172 0
0 0.2916 0
0 0.28835 1.5259e-05
0 0.283391 4.57771e-05
0 0.278355 6.10361e-05
0 0.275395 1.5259e-05
1.5259e-05 0.276616 0
0.00106813 0.282765 0
0.0221103 0.294255 0
0.0899062 0.309514 0
0.194644 0.326513 0
0.298894 0.343511 0
0.388983 0.357824 0
0.474754 0.367239 0
0.555154 0.373526 0
0.629191 0.376867 0
0.694179 0.378424 0
0.747723 0.380056 0
0.792325 0.38381 0
0.833005 0.395956 0
0.862104 0.41648 0
0.87216 0.428229 0
0.871687 0.427222 0
0.871382 0.426474 0
0.869535 0.422065 0
0.865812 0.412802 0
0.864302 0.408789 0
0.863066 0.405432 0
0.861662 0.40177 0
0.86038 0.399023 0
0.858961 0.396948 0
0 0.32549 0
0 0.325704 0
0 0.325307 0
0 0.324178 0
0 0.322484 0
0 0.318425 0
0 0.313527 0
0 0.309987 0
0 0.309651 0
6.10361e-05 0.314168 0
0.00366217 0.324849 0
0.0520943 0.340825 0
0.143618 0.359716 0
0.258518 0.379385 0
0.362966 0.397879 0
0.453925 0.411551 0
0.539254 0.420188 0
0.616968 0.425147 0
0.686229 0.427237 0
0.745052 0.427909 0
0.791562 0.429496 0
0.827878 0.433249 0
0.858854 0.444282 0
0.883421 0.463172 0
0.893309 0.476493 0
0.89572 0.481895 0
0.898497 0.488167 0
0.898955 0.48893 0
0.900481 0.490013 0
0.901091 0.489586 0
0.901213 0.487465 0
0.900114 0.484199 0
0.897719 0.479896 0
0 0.353933 0
0 0.35404 0
0 0.353964 0
0 0.35317 0
0 0.351934 0
0 0.349401 0
0 0.345129 0
0 0.341588 0
0 0.340505 0
0 0.343954 0
0.000793469 0.352895 0
0.018204 0.369421 0
0.0920272 0.389761 0
0.204334 0.411948 0
0.327504 0.433555 0
0.428794 0.452537 0
0.5205 0.46508 0
0.603006 0.472587 0
0.677043 0.476143 0
0.741009 0.477485 0
0.793057 0.47863 0
0.832898 0.480873 0
0.862287 0.484825 0
0.886015 0.494377 0
0.906386 0.511788 0
0.914305 0.523415 0
0.918822 0.533257 0
0.924483 0.545754 0
0.927489 0.552499 0
0.929976 0.557153 0
0.932418 0.559945 0
0.935073 0.561776 0
0.93608 0.56141 0
0 0.379339 0
0 0.37969 0
0 0.379614 0
0 0.379049 0
0 0.378088 0
0 0.376928 0
0 0.37377 0
0 0.369955 0
0 0.368704 0
0 0.371633 0
1.5259e-05 0.379767 0
0.00231937 0.394919 0
0.0423285 0.416571 0
0.147799 0.440696 0
0.277607 0.465232 0
0.396262 0.48777 0
0.495369 0.505699 0
0.586114 0.517357 0
0.66511 0.523522 0
0.734081 0.525979 0
0.791836 0.527535 0
0.83772 0.52932 0
0.87129 0.532113 0
0.895109 0.537224 0
0.91371 0.545815 0
0.929091 0.559655 0
0.934768 0.568856 0
0.940597 0.581781 0
0.947906 0.598276 0
0.953002 0.609735 0
0.955947 0.616312 0
0.95816 0.620127 0
0.960281 0.622492 0
0 0.400778 0
0 0.40116 0
0 0.401129 0
0 0.400763 0
0 0.400168 0
0 0.399298 0
0 0.398138 0
0 0.395163 0
0 0.393637 0
0 0.395789 0
1.5259e-05 0.403296 0
0.000518807 0.417365 0
0.00933852 0.439155 0
0.0904707 0.465339 0
0.219135 0.492256 0
0.353857 0.517678 0
0.464225 0.539971 0
0.563088 0.557168 0
0.649424 0.567544 0
0.724483 0.573266 0
0.788052 0.57615 0
0.839887 0.578195 0
0.879469 0.58053 0
0.907012 0.584146 0
0.926299 0.589517 0
0.940734 0.597391 0
0.950744 0.606332 0
0.954269 0.612497 0
0.960403 0.626719 0
0.969009 0.645838 0
0.975067 0.659525 0
0.978759 0.668528 0
0.980163 0.672709 0
0 0.417777 0
0 0.417884 0
0 0.418006 0
0 0.417807 0
0 0.417426 0
0 0.416861 0
0 0.415961 0
0 0.414755 0
0 0.413367 0
0 0.415274 0
0 0.421927 0
7.62951e-05 0.434562 0
0.00256352 0.454673 0
0.0319371 0.482719 0
0.156313 0.512306 0
0.297658 0.541054 0
0.426841 0.567041 0
0.531762 0.588785 0
0.628214 0.605371 0
0.710719 0.615473 0
0.781689 0.621271 0
0.839063 0.624704 0
0.883818 0.627588 0
0.916991 0.630884 0
0.939757 0.635355 0
0.955306 0.640681 0
0.966064 0.646632 0
0.970932 0.650767 0
0.972686 0.6551 0
0.978149 0.668559 0
0.984695 0.684764 0
0.98941 0.697658 0
0.993164 0.708186 0
0 0.43093 0
0 0.430869 0
0 0.431266 0
0 0.431174 0
0 0.430838 0
0 0.430442 0
0 0.429862 0
0 0.429206 0
0 0.428687 0
0 0.429694 0
0 0.435782 0
0 0.447532 0
0.000198367 0.46566 0
0.00671397 0.491875 0
0.0811475 0.524193 0
0.241749 0.555917 0
0.384405 0.58558 0
0.496864 0.611765 0
0.599084 0.633097 0
0.691737 0.649302 0
0.769757 0.658854 0
0.833982 0.664958 0
0.884565 0.668711 0
0.922301 0.672267 0
0.949889 0.676646 0
0.96878 0.681865 0
0.980194 0.68629 0
0.985275 0.688853 0
0.98613 0.689464 0
0.988113 0.693721 0
0.991043 0.704585 0
0.993698 0.715251 0
0.99556 0.725856 0
0 0.441169 0
0 0.441154 0
0 0.441398 0
0 0.441474 0
0 0.441291 0
0 0.440925 0
0 0.440543 0
0 0.440208 0
0 0.440192 0
0 0.441749 0
0 0.446693 0
0 0.456992 0
0.000137331 0.473838 0
0.00276188 0.497993 0
0.0246128 0.529595 0
0.193591 0.56379 0
0.335637 0.596658 0
0.458274 0.626612 0
0.565682 0.652277 0
0.664317 0.673136 0
0.751156 0.688304 0
0.823194 0.697673 0
0.880293 0.703838 0
0.923903 0.708309 0
0.955932 0.712474 0
0.977768 0.717052 0
0.990875 0.72105 0
0.994614 0.722744 0
0.99472 0.722255 0
0.994476 0.721691 0
0.996139 0.725704 0
0.997177 0.733745 0
0.997269 0.739345 0
0 0.449058 0
0 0.448936 0
0 0.449012 0
0 0.449119 0
0 0.449012 0
0 0.448753 0
0 0.448463 0
0 0.448218 0
0 0.448463 0
0 0.450126 0
0 0.454429 0
0 0.463905 0
7.62951e-05 0.47895 0
0.00254826 0.501244 0
0.0269627 0.531167 0
0.120317 0.566308 0
0.284077 0.601617 0
0.415091 0.634714 0
0.529 0.664012 0
0.632136 0.688853 0
0.725765 0.708797 0
0.806821 0.722728 0
0.871366 0.731884 0
0.92105 0.73817 0
0.958297 0.743282 0
0.983139 0.747631 0
0.994934 0.75021 0
0.997284 0.750332 0
0.997467 0.749706 0
0.997436 0.748394 0
0.997345 0.747936 0
0.997482 0.751629 0
0.997574 0.755825 0
0 0.455665 0
0 0.455512 0
0 0.455497 0
0 0.455604 0
0 0.455451 0
0 0.455207 0
0 0.454963 0
0 0.454749 0
0 0.454948 0
0 0.456306 0
0 0.460075 0
0 0.468162 0
0 0.482506 0
0.000686656 0.502892 0
0.012314 0.530205 0
0.0665446 0.563943 0
0.223789 0.600534 0
0.368658 0.636469 0
0.489769 0.668986 0
0.597177 0.697246 0
0.696315 0.720806 0
0.783673 0.739254 0
0.857145 0.752239 0
0.913542 0.761151 0
0.956191 0.76759 0
0.983886 0.771771 0
0.99649 0.773465 0
0.997497 0.772763 0
0.997543 0.772305 0
0.997559 0.77084 0
0.997559 0.769665 0
0.997559 0.770092 0
0.997543 0.772213 0
0 0.463249 0
0 0.463004 0
0 0.463035 0
0 0.463127 0
0 0.463096 0
0 0.462943 0
0 0.46276 0
0 0.462486 0
0 0.462364 0
0 0.463371 0
0 0.466835 0
0 0.474311 0
0 0.487068 0
4.57771e-05 0.50605 0
0.00361639 0.531014 0
0.048661 0.561837 0
0.165728 0.597055 0
0.32694 0.633829 0
0.449836 0.668894 0
0.562188 0.70016 0
0.664485 0.726833 0
0.756512 0.748562 0
0.837079 0.765347 0
0.901732 0.777249 0
0.950042 0.785245 0
0.981445 0.78999 0
0.995499 0.791348 0
0.997482 0.790326 0
0.997513 0.789349 0
0.997513 0.788663 0
0.997513 0.78764 0
0.997513 0.78706 0
0.997513 0.787778 0
0 0.472892 0
0 0.472557 0
0 0.472496 0
0 0.472633 0
0 0.472801 0
0 0.472679 0
0 0.472496 0
0 0.472221 0
0 0.471778 0
0 0.472068 0
0 0.475441 0
0 0.483604 0
0 0.495811 0
0 0.51371 0
0.00242618 0.536568 0
0.0367742 0.56466 0
0.131304 0.597101 0
0.289174 0.632639 0
0.417121 0.668284 0
0.529 0.700908 0
0.633646 0.729686 0
0.729198 0.753826 0
0.81355 0.77319 0
0.886183 0.788083 0
0.941573 0.798245 0
0.978378 0.804303 0
0.994156 0.805615 0
0.997467 0.804379 0
0.997482 0.802976 0
0.997482 0.801984 0
0.997482 0.80119 0
0.997497 0.800595 0
0.997482 0.800885 0
0 0.482689 0
0 0.48217 0
0 0.481773 0
0 0.481971 0
0 0.482155 0
0 0.482246 0
0 0.482246 0
0 0.482216 0
0 0.482155 0
