LUT预设1/LUT全系打包/人像lut/人像系列lut/人像绿调（高对比）.cube
TITLE "Generated by Resolve"
LUT_3D_SIZE 5
0.0144198 0.0668345 0.075227
0.0829633 0.0625772 0.0689097
0.710445 0.0153658 0.0353399
1 0.12488 0.156313
1 0.12488 0.156313
0.00851453 0.0983902 0.08925
0.057435 0.0981765 0.088365
0.814343 0.0679637 0.0716106
1 0.137636 0.162066
1 0.126635 0.157259
0.000793469 0.605097 0.176394
0.000793469 0.608347 0.17702
0.615335 0.563378 0.0934462
1 0.434211 0.167041
1 0.388128 0.166751
0.0353552 0.987945 0.311955
0.0385595 0.990417 0.315602
0.294072 0.973465 0.146517
0.999329 0.950973 0.158007
1 0.929427 0.200473
0.111269 1 0.395102
0.111269 1 0.395102
0.179446 0.999893 0.340322
0.94696 0.999084 0.191089
1 0.9991 0.234943
0 0.0782025 0.153353
0.0569772 0.066804 0.119387
0.709941 0.0169833 0.069749
1 0.125246 0.165652
1 0.124956 0.158145
0.00445563 0.101106 0.112215
0.0521401 0.101228 0.108995
0.764584 0.0759594 0.0973678
1 0.137881 0.16733
1 0.126772 0.158724
0.000793469 0.606546 0.177859
0.000793469 0.610086 0.178912
0.615946 0.566308 0.093492
1 0.459251 0.1776
1 0.494285 0.168872
0.0366369 0.989349 0.313375
0.0398413 0.991394 0.317021
0.29929 0.975753 0.1467
0.999146 0.954498 0.159289
1 0.918593 0.199023
0.111269 1 0.395102
0.111269 1 0.395102
0.183642 0.999878 0.336873
0.950622 0.999084 0.191394
1 0.9991 0.234943
0 0.113115 0.604135
0 0.10901 0.598688
0.689219 0.0198672 0.726406
0.998093 0.109895 0.754009
0.998459 0.109361 0.703227
0 0.148821 0.564111
0 0.152483 0.587427
0.718761 0.0613565 0.746532
0.998169 0.115618 0.74493
0.998459 0.109743 0.701457
0.0202335 0.570581 0.610574
0.0225986 0.575433 0.616342
0.50782 0.509194 0.486549
1 0.494667 0.473823
1 0.462501 0.439155
0.0573587 0.96762 0.549249
0.0644236 0.972274 0.570336
0.242679 0.956649 0.356924
0.995712 0.944961 0.242084
1 0.844495 0.522805
0.113832 1 0.441093
0.114443 1 0.451804
0.174029 0.999954 0.388525
0.940291 0.9991 0.204776
1 0.9991 0.242084
0 0.140673 0.795895
0 0.144671 0.813245
0.581521 0.0972915 1
0.996506 0.146639 1
0.996506 0.144533 1
0 0.184527 0.823835
0 0.192782 0.847745
0.585245 0.123156 1
0.996506 0.146715 1
0.99649 0.144457 1
6.10361e-05 0.616434 0.869566
7.62951e-05 0.621424 0.873899
0.354421 0.555535 0.960723
0.996979 0.438056 0.999908
0.997574 0.404517 0.999573
0.15317 0.946532 0.994034
0.158495 0.954055 0.994751
0.300343 0.92369 0.977325
0.871199 0.863142 0.86183
1 0.860044 0.864637
0.228656 1 0.994827
0.230625 1 0.995315
0.263752 1 0.993561
0.740841 0.999939 0.779126
1 0.999695 0.748196
0 0.140673 0.795911
0 0.144533 0.809171
0.532662 0.100877 1
0.996521 0.149065 1
0.996536 0.153414 1
0 0.171923 0.819806
0 0.177356 0.835004
0.532876 0.119478 1
0.996521 0.149599 1
0.996536 0.153414 1
0 0.609125 0.913451
0 0.614679 0.915648
0.306325 0.55436 0.997452
0.992386 0.431571 1
0.997543 0.400595 1
0.145464 0.958511 0.995163
0.151125 0.965698 0.995178
0.265156 0.939864 0.995926
0.801297 0.884794 0.999252
0.999283 0.82591 1
0.241398 1 0.99559
0.24155 1 0.99559
0.283177 1 0.99585
0.751797 1 0.998566
1 1 1
