LUT预设1/LUT全系打包/人像lut/人像系列lut/人像电影绿调.cube
TITLE "Generated by Resolve"
LUT_3D_SIZE 9
0.0144198 0.0668345 0.075227
0.0410925 0.0658122 0.0706951
0.156008 0.0535439 0.0636454
0.51722 0.0157015 0.032517
0.768795 0.0196384 0.0409705
0.997497 0.0781872 0.106828
1 0.12488 0.156313
1 0.12488 0.156313
1 0.12488 0.156313
0.0150301 0.0775769 0.0813306
0.0307774 0.0757153 0.0785229
0.231693 0.0483406 0.0578927
0.49102 0.0243229 0.0377356
0.746792 0.0188754 0.0394293
0.992874 0.0736248 0.101793
1 0.124102 0.15552
1 0.12488 0.156313
1 0.12488 0.156313
1.5259e-05 0.131029 0.0968643
0.00199893 0.128267 0.0960555
0.0936904 0.135302 0.0980697
0.602716 0.104433 0.0683146
0.954574 0.103044 0.0994736
0.999664 0.139467 0.12755
1 0.173358 0.16878
1 0.160876 0.173312
1 0.154818 0.170932
0.000457771 0.403189 0.131563
0.000457771 0.399802 0.131075
0.00184634 0.392599 0.12784
0.36875 0.355367 0.0879988
0.717861 0.337423 0.0964523
1 0.262501 0.153399
1 0.232792 0.17322
1 0.257984 0.171679
1 0.294286 0.169604
0.000854505 0.651408 0.190738
0.000839246 0.650599 0.190478
0.000854505 0.64387 0.185367
0.193637 0.614557 0.098497
0.654963 0.597879 0.0958572
0.969451 0.54963 0.174792
1 0.513603 0.174487
1 0.422675 0.165057
1 0.41442 0.165469
0.00109865 0.838911 0.241962
0.00111391 0.838315 0.241886
0.00109865 0.83331 0.24004
0.0847486 0.810315 0.182574
0.54609 0.790524 0.0890974
0.845945 0.766201 0.110765
1 0.72694 0.164294
1 0.693111 0.213489
1 0.606119 0.225467
0.0305638 0.983978 0.306737
0.0298619 0.983795 0.306188
0.0282902 0.981704 0.304707
0.0583352 0.97258 0.272694
0.381888 0.955444 0.106676
0.761654 0.951308 0.108064
1 0.931121 0.147768
1 0.92224 0.1953
1 0.905562 0.196872
0.105287 1 0.388281
0.105852 1 0.388876
0.105974 1 0.389075
0.115129 1 0.377356
0.312032 0.999603 0.234134
0.708782 0.999207 0.159747
0.983337 0.999054 0.188708
1 0.999084 0.218677
1 0.999084 0.228183
0.111269 1 0.395102
0.111269 1 0.395102
0.111269 1 0.395102
0.113558 1 0.393896
0.22623 0.999802 0.304906
0.620218 0.999283 0.174151
0.918883 0.9991 0.188434
1 0.999069 0.215259
1 0.9991 0.234943
0.0037232 0.0704662 0.0908064
0.0296788 0.0689555 0.0843519
0.146777 0.0551156 0.0745251
0.513726 0.0163119 0.0395361
0.767178 0.0197299 0.0429541
0.996933 0.0780499 0.107286
1 0.12488 0.156313
1 0.12488 0.156313
1 0.12488 0.156313
0.0123598 0.0783856 0.0875868
0.0262608 0.0767987 0.0846113
0.115923 0.0669718 0.074464
0.486885 0.024445 0.040177
0.743252 0.0186618 0.0395361
0.992294 0.0727703 0.100847
1 0.123995 0.155413
1 0.12488 0.156313
1 0.12488 0.156313
0 0.13019 0.0977493
0.0018616 0.127245 0.0965133
0.0923781 0.134615 0.0982376
0.617624 0.100267 0.0772259
0.797726 0.118532 0.0842908
0.998489 0.138689 0.120455
1 0.17322 0.168597
1 0.161059 0.173434
1 0.154788 0.170977
0.000457771 0.402197 0.131411
0.000457771 0.399313 0.130983
0.00128176 0.392508 0.127901
0.3664 0.35552 0.0877852
0.78201 0.310506 0.0941176
1 0.270024 0.145205
1 0.331151 0.162753
1 0.320226 0.168872
1 0.301472 0.1691
0.000839246 0.651514 0.190784
0.000839246 0.650523 0.190463
0.000854505 0.643992 0.185443
0.191348 0.61474 0.098436
0.654169 0.598123 0.0957809
0.971817 0.547494 0.175051
1 0.480385 0.165637
1 0.443687 0.164981
1 0.48896 0.16611
0.00111391 0.838788 0.241932
0.00109865 0.838041 0.241825
0.00109865 0.833219 0.240101
0.0838026 0.810254 0.183017
0.544869 0.790234 0.0890516
0.844648 0.76585 0.110674
1 0.726574 0.164126
1 0.65745 0.22295
1 0.597696 0.225132
0.030518 0.984222 0.306691
0.0296635 0.983627 0.30605
0.0279698 0.981277 0.304417
0.0573434 0.972198 0.272969
0.379217 0.95491 0.106981
0.759503 0.950866 0.107637
0.999725 0.930358 0.147219
1 0.921431 0.19498
1 0.894194 0.195361
0.105303 1 0.388266
0.105837 1 0.388861
0.105623 1 0.388678
0.114519 1 0.377356
0.308965 0.999619 0.235004
0.706355 0.999207 0.159335
0.982223 0.999054 0.188296
1 0.999084 0.218509
1 0.9991 0.228244
0.111269 1 0.395102
0.111269 1 0.395102
0.111269 1 0.395102
0.113359 1 0.394003
0.222934 0.999802 0.306905
0.616495 0.999283 0.174319
0.916289 0.9991 0.188205
1 0.999069 0.214954
1 0.9991 0.234943
0 0.0855116 0.234867
0 0.0830243 0.216617
0.113436 0.0556191 0.182101
0.494072 0.0146334 0.149798
0.77084 0.0211948 0.145129
1 0.0765393 0.188464
1 0.12517 0.214176
1 0.125582 0.192233
1 0.125597 0.188708
0 0.089601 0.173587
1.5259e-05 0.0879225 0.169558
0.0925307 0.0679026 0.154162
0.473075 0.0223697 0.130617
0.74786 0.0198825 0.120989
0.999802 0.0731823 0.170489
1 0.124407 0.20325
1 0.125689 0.186679
1 0.125658 0.182849
0.000366217 0.134325 0.143908
0.00178531 0.13048 0.140581
0.0936294 0.137346 0.13994
0.491859 0.118105 0.129046
0.798886 0.116411 0.136461
1 0.135195 0.159899
1 0.170687 0.197131
1 0.160403 0.186343
1 0.153979 0.179675
0.000274662 0.396689 0.168963
0.000259403 0.394125 0.168566
0.00201419 0.387655 0.161456
0.35697 0.351095 0.110262
0.78999 0.292409 0.15555
0.958099 0.329732 0.119646
1 0.341176 0.15935
1 0.317601 0.170459
1 0.299428 0.169558
0.00077821 0.647822 0.201251
0.00077821 0.647211 0.201694
0.000793469 0.641215 0.194766
0.183017 0.612161 0.10428
0.650599 0.596445 0.0964828
0.999817 0.52462 0.171756
1 0.494697 0.20029
1 0.521569 0.182391
1 0.524483 0.181445
0.00109865 0.837369 0.241764
0.00109865 0.836789 0.241672
0.00109865 0.832166 0.239948
0.0814374 0.809689 0.1841
0.542336 0.789837 0.0889601
0.843442 0.765698 0.110582
1 0.724407 0.165972
1 0.626688 0.238117
1 0.610986 0.259953
0.0300908 0.983642 0.306294
0.0292668 0.983124 0.305669
0.0278325 0.981216 0.304311
0.0570687 0.972366 0.273259
0.378256 0.955154 0.10721
0.75935 0.9514 0.107668
0.999512 0.931044 0.147295
1 0.922667 0.195163
1 0.867582 0.191821
0.105653 1 0.388663
0.106203 1 0.389288
0.105913 1 0.389044
0.114855 1 0.377569
0.309499 0.999603 0.235126
0.706905 0.999207 0.159731
0.982315 0.999054 0.188617
1 0.999084 0.218692
1 0.9991 0.22826
0.111269 1 0.395102
0.111269 1 0.395102
0.111269 1 0.395102
0.11342 1 0.394003
0.223148 0.999802 0.306661
0.617075 0.999283 0.174273
0.916808 0.9991 0.188266
1 0.999069 0.215015
1 0.9991 0.234943
0 0.102266 0.473457
0 0.100816 0.46186
0.00158694 0.079881 0.453254
0.456794 0.00553903 0.471824
0.775631 0.0169985 0.518013
0.998795 0.0598917 0.550774
0.999512 0.110262 0.559503
0.999878 0.112123 0.508049
0.999878 0.112581 0.495415
0 0.108339 0.425772
0 0.106874 0.422889
3.0518e-05 0.088365 0.41886
0.435019 0.0110323 0.438849
0.746624 0.0136568 0.469459
0.999344 0.0571908 0.520623
0.999664 0.109316 0.537682
0.999908 0.112627 0.491325
0.999924 0.113191 0.475914
0 0.166217 0.347311
0 0.162539 0.34374
0.00350958 0.166796 0.385214
0.463096 0.101869 0.459648
0.776944 0.0977493 0.474678
0.999207 0.113268 0.480797
0.999954 0.15082 0.493034
0.999985 0.14406 0.449882
1 0.138903 0.429801
0 0.377066 0.393774
0 0.374853 0.393606
0.0304112 0.367498 0.383505
0.31223 0.326314 0.308537
0.67718 0.315801 0.296071
0.950362 0.308995 0.291432
1 0.31751 0.300877
1 0.299901 0.283391
1 0.284276 0.266011
0.00262455 0.62034 0.395499
0.00364691 0.619547 0.396963
0.0102541 0.614542 0.381369
0.160021 0.590829 0.269261
0.622843 0.58201 0.201663
0.95668 0.516014 0.324742
1 0.542443 0.213993
1 0.535225 0.212909
1 0.522469 0.203357
0.000747692 0.823529 0.335653
0.000915541 0.822721 0.33547
0.000915541 0.819135 0.328084
0.0776226 0.800107 0.260502
0.518334 0.782635 0.134737
0.833906 0.7617 0.146883
1 0.688212 0.243198
1 0.634333 0.355367
1 0.675181 0.247883
0.030396 0.978668 0.338155
0.0296635 0.977951 0.338445
0.0282292 0.976257 0.337316
0.0538033 0.968643 0.304158
0.360647 0.951461 0.12697
0.751232 0.948486 0.116655
0.998428 0.928405 0.151095
1 0.917876 0.196643
1 0.821912 0.286137
0.105165 1 0.393713
0.105196 1 0.39321
0.104982 1 0.39266
0.112947 1 0.379751
0.302495 0.999634 0.237125
0.701793 0.999207 0.158755
0.980453 0.999054 0.187793
1 0.999084 0.218326
1 0.9991 0.228382
0.111269 1 0.395102
0.111269 1 0.395102
0.111269 1 0.395102
0.113039 1 0.394186
0.217884 0.999802 0.309911
0.611917 0.999283 0.174517
0.913542 0.9991 0.187976
1 0.999069 0.214542
1 0.9991 0.234943
0 0.115251 0.626337
0 0.115557 0.622995
0 0.102876 0.642298
0.384833 0.0259251 0.746059
0.761517 0.0315709 0.798962
0.991073 0.066041 0.813214
0.997635 0.111635 0.820356
0.997864 0.110994 0.78677
0.997925 0.11078 0.778149
0 0.122637 0.603326
0 0.121614 0.602579
0 0.108965 0.619883
0.356817 0.0290379 0.721996
0.740978 0.0276951 0.772152
0.992264 0.0619059 0.793256
0.997726 0.109071 0.804776
0.99794 0.11075 0.775494
0.998016 0.110475 0.764981
0 0.193744 0.58024
0 0.190249 0.577829
0 0.193637 0.621927
0.38854 0.123217 0.763058
0.751995 0.0975204 0.776333
0.991882 0.10634 0.776059
0.998032 0.140719 0.779995
0.998199 0.133761 0.752361
0.998276 0.127886 0.73875
0 0.408576 0.572915
0 0.406882 0.571893
0 0.400778 0.570642
0.210575 0.354604 0.591775
0.640833 0.285786 0.647257
0.924849 0.274296 0.650599
0.999496 0.280644 0.658122
0.999527 0.262959 0.643626
0.999557 0.247288 0.632471
0.0329137 0.611872 0.660151
0.0324865 0.611521 0.660014
0.0427558 0.605417 0.651637
0.193515 0.571328 0.594583
0.535851 0.53489 0.514336
0.821225 0.532738 0.510384
1 0.524636 0.500465
1 0.510353 0.483589
1 0.495369 0.465705
0.0581979 0.786679 0.672953
0.0585946 0.786007 0.674327
0.0584268 0.78201 0.669871
0.1308 0.760937 0.611551
0.42649 0.732601 0.449622
0.777615 0.735775 0.408606
1 0.680262 0.535668
1 0.688914 0.422126
1 0.674586 0.400061
0.0667277 0.947784 0.629877
0.066743 0.946639 0.631434
0.0655985 0.944793 0.629572
0.0791485 0.939437 0.585489
0.299351 0.923079 0.385534
0.693202 0.929076 0.285603
0.990295 0.917403 0.287602
1 0.875608 0.369314
1 0.811124 0.591302
0.121065 1 0.589426
0.120867 1 0.589166
0.121416 1 0.593713
0.123766 1 0.56817
0.258274 0.999878 0.390631
0.645075 0.999344 0.236713
0.960754 0.99913 0.243198
1 0.99913 0.260258
1 0.999115 0.26598
0.117021 1 0.488594
0.116335 1 0.481987
0.116396 1 0.487297
0.117052 1 0.477928
0.201892 0.999924 0.380209
0.578363 0.999359 0.210712
0.895949 0.99913 0.210422
1 0.9991 0.231449
1 0.999115 0.249012
0 0.129152 0.727031
0 0.129793 0.727474
0 0.123415 0.764843
0.295827 0.066453 0.926696
0.721187 0.0601663 0.98909
0.97499 0.0866865 0.991669
0.996445 0.126986 1
0.996506 0.124941 0.99173
0.996536 0.124208 0.986938
0 0.134661 0.717891
0 0.133867 0.718029
0 0.126879 0.750164
0.255818 0.0677501 0.905791
0.702358 0.0564584 0.980011
0.967956 0.082414 0.984253
0.996475 0.123476 0.996567
0.996551 0.124041 0.985153
0.996582 0.123125 0.979156
0 0.21529 0.733944
0 0.212009 0.732464
0 0.21387 0.774533
0.293873 0.160235 0.949935
0.701411 0.117205 0.99234
0.971984 0.119814 0.986282
0.996597 0.147494 0.989899
0.996689 0.140063 0.975021
0.996719 0.133715 0.965698
0 0.431022 0.727001
0 0.429587 0.72636
0 0.423453 0.733852
0.139803 0.37789 0.795422
0.57435 0.301625 0.911025
0.897826 0.266423 0.911238
0.997604 0.264607 0.913619
0.997635 0.249027 0.900359
0.99765 0.23389 0.890837
0.00561532 0.633906 0.782193
0.00495918 0.633555 0.782361
0.00636301 0.628046 0.776837
0.129503 0.598764 0.743008
0.462837 0.556344 0.751202
0.781094 0.501152 0.787274
0.999329 0.485023 0.791089
0.999359 0.474937 0.786633
0.999359 0.45922 0.778424
0.0812543 0.785168 0.84651
0.0810712 0.784726 0.846693
0.080354 0.781125 0.843412
0.145281 0.760632 0.815412
0.451865 0.716793 0.740536
0.68777 0.685649 0.685115
0.967727 0.682216 0.689921
1 0.687541 0.694484
1 0.673777 0.673777
0.125216 0.930846 0.876234
0.125017 0.929793 0.87631
0.1243 0.928222 0.875471
0.138125 0.919966 0.855497
0.346288 0.890349 0.75935
0.606806 0.869047 0.642802
0.925063 0.882811 0.617823
1 0.840635 0.736171
1 0.869917 0.612284
0.184451 1 0.900328
0.183612 1 0.898955
0.184237 1 0.901244
0.185306 1 0.887404
0.287709 1 0.777035
0.547662 0.999863 0.600122
0.87921 0.999527 0.537774
1 0.999435 0.526436
1 0.99855 0.591745
0.175235 1 0.840803
0.174395 1 0.837583
0.175372 1 0.841917
0.173617 1 0.832746
0.220905 1 0.739284
0.476844 0.999863 0.531746
0.796963 0.999466 0.432181
1 0.999313 0.417823
1 0.999298 0.408576
0 0.140673 0.795895
0 0.142123 0.799817
0 0.14078 0.83653
0.269474 0.107393 0.996353
0.673655 0.0953689 1
0.953048 0.111009 1
0.996506 0.146395 1
0.996506 0.145632 1
0.996506 0.144945 1
0 0.145663 0.796994
0 0.145205 0.796948
0 0.142473 0.826078
0.228885 0.10634 0.99379
0.655604 0.0926223 1
0.946426 0.107027 1
0.996506 0.143328 1
0.996506 0.144778 1
0.99649 0.143832 1
0 0.233585 0.836027
0 0.230747 0.835233
0 0.233524 0.869352
0.246464 0.191608 0.997574
0.642802 0.148272 1
0.944213 0.140139 1
0.996582 0.162875 1
0.996551 0.156451 1
0.996521 0.14992 1
0 0.447425 0.828687
0 0.446097 0.828183
0 0.439399 0.837507
0.102281 0.396674 0.926024
0.49781 0.329778 0.999756
0.862013 0.277867 1
0.997009 0.269841 1
0.996948 0.255253 1
0.996902 0.240757 1
0.000320439 0.650752 0.873396
0.000274662 0.650385 0.873243
0.000244144 0.645075 0.870207
0.0798352 0.619303 0.87277
0.399207 0.576822 0.938399
0.720851 0.512551 0.999634
0.995178 0.467506 0.999237
0.997787 0.451514 0.998581
0.997742 0.435721 0.997299
0.0711833 0.797101 0.937789
0.0709239 0.79675 0.937789
0.0695354 0.793561 0.935424
0.114015 0.7776 0.922286
0.376333 0.745007 0.887602
0.619791 0.705638 0.897871
0.929458 0.648722 0.927337
0.998993 0.642313 0.933913
0.999023 0.628794 0.921492
0.144503 0.934173 0.992721
0.143954 0.932998 0.992523
0.143206 0.931716 0.992935
0.157275 0.922927 0.988937
0.353704 0.893874 0.943664
0.632883 0.859464 0.879255
0.844678 0.839612 0.835691
1 0.846143 0.849989
1 0.839353 0.841993
0.224964 1 0.995499
0.223987 1 0.995483
0.224338 1 0.995499
0.22594 1 0.995468
0.327703 1 0.987823
0.589868 0.999069 0.90724
0.791348 0.989013 0.81532
1 0.995422 0.785809
1 0.954131 0.86656
0.226688 1 0.994598
0.226154 1 0.994659
0.226658 1 0.995193
0.225589 1 0.995102
0.274434 1 0.986099
0.510796 1 0.875059
0.701381 0.999954 0.75169
0.996643 0.999664 0.715755
1 0.999664 0.714824
0 0.140673 0.795911
0 0.141482 0.798123
0 0.141939 0.831525
0.233036 0.11078 0.9944
0.647913 0.100008 1
0.938003 0.115587 1
0.996536 0.150484 1
0.996536 0.153414 1
0.996536 0.153414 1
0 0.142535 0.797391
0 0.142336 0.797299
0 0.143374 0.826383
0.19826 0.112718 0.992706
0.628916 0.100069 1
0.930739 0.113634 1
0.996521 0.149355 1
0.996536 0.153414 1
0.996536 0.153414 1
0 0.230549 0.856855
0 0.228077 0.857404
0 0.232319 0.889632
0.217838 0.197299 0.998138
0.606699 0.157961 1
0.920119 0.147463 1
0.996612 0.169116 1
0.996582 0.164233 1
0.996567 0.158389 1
0 0.446189 0.8701
0 0.445075 0.869825
0 0.439551 0.881254
0.0808423 0.400137 0.970504
0.455512 0.341207 0.99942
0.818875 0.288853 1
0.996979 0.27744 1
0.996994 0.266224 1
0.996948 0.252689 1
0.000122072 0.658564 0.933669
7.62951e-05 0.658305 0.933623
3.0518e-05 0.653361 0.932799
0.0614023 0.628534 0.949065
0.360189 0.588602 0.997726
0.653986 0.533211 0.999847
0.982757 0.471763 1
0.997757 0.452461 1
0.997696 0.436667 1
0.0581826 0.810117 0.994507
0.0577249 0.809888 0.994492
0.0565652 0.806851 0.993713
0.0973526 0.791592 0.991089
0.328405 0.761166 0.992309
0.572824 0.723598 0.998444
0.89456 0.656764 1
0.998505 0.633463 1
0.998444 0.618265 1
0.143267 0.946914 0.995178
0.142428 0.945724 0.995193
0.141833 0.944823 0.995193
0.154879 0.936172 0.9953
0.321386 0.911986 0.996353
0.578958 0.888029 0.996262
0.798581 0.856138 0.99556
0.999176 0.81854 0.999985
0.999207 0.803723 1
0.236332 1 0.99556
0.23534 1 0.99556
0.235523 1 0.99556
0.236866 1 0.99556
0.332723 1 0.996124
0.595117 1 0.99765
0.80174 0.983948 0.996902
0.971664 0.955505 0.964126
1 0.947356 0.960952
0.247608 1 0.995636
0.24744 1 0.995636
0.247547 1 0.995636
0.247242 1 0.995621
0.299306 1 0.995926
0.535042 1 0.997299
0.740414 1 0.997223
0.942473 0.999969 0.940246
1 0.999908 0.923949
0 0.140673 0.795911
0 0.1411 0.797086
0 0.142565 0.827573
0.203891 0.112276 0.990036
0.63035 0.100114 1
0.928191 0.113725 1
0.996521 0.149035 1
0.996536 0.153414 1
0.996536 0.153414 1
0 0.141253 0.796368
0 0.141161 0.796307
0 0.143908 0.823026
0.165957 0.114122 0.986557
0.610224 0.100206 1
0.920546 0.111757 1
0.996521 0.147829 1
0.996536 0.153414 1
0.996536 0.153414 1
0 0.222797 0.855894
0 0.220691 0.855894
0 0.225483 0.884962
0.193301 0.193515 0.99733
0.587442 0.15285 1
0.906035 0.141421 1
0.996582 0.163043 1
0.996567 0.159838 1
0.996536 0.154177 1
0 0.431968 0.86775
0 0.430625 0.867445
0 0.424598 0.877302
0.0605936 0.386572 0.962524
0.440391 0.327825 0.999374
0.804608 0.277287 1
0.996689 0.2663 1
0.996963 0.257786 1
0.996918 0.245045 1
1.5259e-05 0.648722 0.929534
1.5259e-05 0.648341 0.929305
0 0.643229 0.927901
0.0465858 0.619501 0.943709
0.344656 0.580194 0.997665
0.641321 0.525307 0.999802
0.977356 0.463447 1
0.997726 0.445533 1
0.997665 0.430854 1
0.0540932 0.804211 0.994751
0.0537728 0.803586 0.995117
0.0525368 0.801114 0.995163
0.0885023 0.787625 0.994568
0.308934 0.758267 0.99678
0.554376 0.721218 0.998383
0.865599 0.658228 1
0.998489 0.630106 1
0.998428 0.614984 1
0.136751 0.947433 0.995148
0.135943 0.94612 0.995148
0.135439 0.945373 0.995163
0.14667 0.93785 0.995254
0.298268 0.91574 0.996185
0.548821 0.894469 0.997726
0.766995 0.86537 0.999115
0.99823 0.816785 1
0.999176 0.799161 1
0.227375 1 0.995499
0.226291 1 0.995499
0.226505 1 0.995499
0.228519 1 0.995514
0.321889 1 0.996048
0.561975 1 0.997452
0.75259 0.999359 0.998566
0.938567 0.962142 0.999786
0.999756 0.940826 1
0.241398 1 0.99559
0.241611 1 0.99559
0.241581 1 0.99559
0.241779 1 0.99559
0.299825 1 0.995941
0.512978 1 0.997177
0.720714 1 0.998383
0.929488 1 0.999588
1 1 1
