LUT预设1/富士LUT改款/Log机型使用/爆改ASTIA.cube
TITLE "Generated by Resolve"
LUT_3D_SIZE 9
0.00946059 0.015198 0.0153506
0.0319219 0.0163882 0.0162051
0.261631 0.0177005 0.0220645
0.576944 0.013489 0.0404822
0.875151 0.0150759 0.198322
0.951308 0.0189212 0.506096
0.953857 0.098558 0.53196
0.953857 0.098558 0.53196
0.953857 0.098558 0.53196
0.00898756 0.0660258 0.0174716
0.0285039 0.0338903 0.0164797
0.226017 0.0213779 0.0193942
0.654353 0.0135348 0.0603494
0.951217 0.0148013 0.399359
0.953552 0.0922866 0.531151
0.953857 0.098558 0.53196
0.953857 0.098558 0.53196
0.953857 0.098558 0.53196
0.00607309 0.265461 0.0227665
0.00820935 0.141985 0.0201267
0.118257 0.103136 0.0185245
0.521263 0.0710613 0.0159152
0.911681 0.0285344 0.213214
0.952789 0.0715648 0.516426
0.953857 0.098558 0.53196
0.953857 0.098558 0.53196
0.953857 0.098558 0.53196
0.0154421 0.62945 0.037995
0.00787366 0.415229 0.0264591
0.0286564 0.335073 0.0243534
0.355993 0.276463 0.0177768
0.806638 0.224903 0.0249332
0.960525 0.179278 0.36614
0.96112 0.19266 0.470237
0.956497 0.138689 0.504448
0.954055 0.101472 0.529641
0.0298314 0.909239 0.0561532
0.0211185 0.73344 0.0451362
0.0180667 0.68069 0.0415656
0.160922 0.618326 0.0317235
0.669673 0.562539 0.0251469
0.981079 0.495933 0.0731365
0.983352 0.420386 0.304814
0.973632 0.328145 0.380041
0.96112 0.189288 0.471061
0.0328222 0.968719 0.0598459
0.0320134 0.952331 0.058854
0.0311742 0.939178 0.0582895
0.0443885 0.911803 0.0559243
0.46865 0.848844 0.0274662
0.913405 0.76611 0.031342
0.998062 0.692668 0.038468
0.996719 0.585122 0.132036
0.983352 0.419654 0.30779
0.0328222 0.969055 0.0598611
0.0328222 0.969055 0.0598611
0.0328222 0.969055 0.0598611
0.0331121 0.969055 0.0598611
0.150027 0.969375 0.0550698
0.721706 0.975509 0.0317388
0.989822 0.897261 0.0355535
0.998093 0.797726 0.0336614
0.998459 0.701854 0.0423743
0.0328222 0.969055 0.0598611
0.0328222 0.969055 0.0598611
0.0328222 0.969055 0.0598611
0.0328222 0.969055 0.0598611
0.0352178 0.96907 0.0598154
0.259541 0.970413 0.0456397
0.809659 0.984161 0.034287
0.985016 0.97232 0.0494087
0.989761 0.913817 0.0370642
0.0328222 0.969055 0.0598611
0.0328222 0.969055 0.0598611
0.0328222 0.969055 0.0598611
0.0328222 0.969055 0.0598611
0.0328222 0.969055 0.0598611
0.0564431 0.969207 0.0592813
0.468406 0.976394 0.0326543
0.945037 0.981643 0.0465553
0.983688 0.980957 0.0558328
0.00894179 0.0153506 0.0251774
0.0157015 0.0158694 0.0181125
0.302617 0.0172122 0.02121
0.795346 0.0142061 0.123125
0.950912 0.014725 0.491524
0.951782 0.0273442 0.521248
0.953033 0.0781262 0.528817
0.953857 0.0984207 0.532036
0.953857 0.098558 0.53196
0.00823987 0.0327306 0.0424353
0.0156252 0.020676 0.0205386
0.119127 0.0201267 0.0187991
0.377386 0.016083 0.0211643
0.695171 0.0136263 0.0727245
0.916243 0.0149691 0.269352
0.951751 0.0319829 0.510109
0.953857 0.098558 0.53196
0.953857 0.098558 0.53196
0.00578317 0.256138 0.0228428
0.00735485 0.146746 0.0202182
0.0889143 0.0930343 0.0184634
0.471733 0.0659495 0.0165866
0.882506 0.0254368 0.175631
0.952163 0.0565042 0.51519
0.953857 0.098558 0.53196
0.953857 0.098558 0.53196
0.953857 0.098558 0.53196
0.0157626 0.636912 0.0386358
0.00862135 0.441901 0.0275578
0.0178683 0.331029 0.0242618
0.322026 0.268757 0.0177615
0.793317 0.214923 0.0254826
0.959457 0.166155 0.362325
0.960922 0.191257 0.470939
0.956466 0.138231 0.504921
0.954101 0.101976 0.529244
0.0311437 0.938796 0.0577554
0.0223697 0.753307 0.04654
0.0180514 0.682979 0.0417639
0.139208 0.616053 0.032929
0.658701 0.55877 0.0247044
0.979385 0.493996 0.0710765
0.983459 0.42153 0.303685
0.974243 0.333883 0.375799
0.962203 0.202548 0.462989
0.0328222 0.969055 0.0598611
0.0322423 0.957092 0.0591135
0.031281 0.9411 0.0583658
0.0417792 0.914168 0.0561227
0.451087 0.850874 0.0281224
0.906477 0.767941 0.0311437
0.998108 0.694804 0.0390936
0.996902 0.588983 0.127062
0.983627 0.421851 0.305882
0.0328222 0.969055 0.0598611
0.0328222 0.969055 0.0598611
0.0328222 0.969055 0.0598611
0.0330053 0.969055 0.0598611
0.138018 0.969345 0.0557717
0.712001 0.976059 0.0316167
0.989197 0.900175 0.0356146
0.998047 0.799893 0.0336461
0.998459 0.703578 0.0421454
0.0328222 0.969055 0.0598611
0.0328222 0.969055 0.0598611
0.0328222 0.969055 0.0598611
0.0328222 0.969055 0.0598611
0.0343481 0.96907 0.0598306
0.24538 0.970123 0.0469062
0.799664 0.984192 0.0339513
0.984894 0.97319 0.0500343
0.989593 0.916152 0.0372168
0.0328222 0.969055 0.0598611
0.0328222 0.969055 0.0598611
0.0328222 0.969055 0.0598611
0.0328222 0.969055 0.0598611
0.0328222 0.969055 0.0598611
0.0555123 0.969207 0.0592966
0.460716 0.976059 0.0328832
0.941527 0.98172 0.0458381
0.983688 0.980957 0.0558328
0.00544747 0.0163119 0.100511
0.00611887 0.0161135 0.0891432
0.233768 0.0162814 0.0421149
0.801053 0.0142824 0.120821
0.951644 0.0387732 0.50898
0.953857 0.098558 0.53196
0.953857 0.098558 0.53196
0.953857 0.098558 0.53196
0.953857 0.098558 0.53196
0.00463874 0.016846 0.131685
0.00622568 0.0164034 0.100877
0.217609 0.0157015 0.0534066
0.708003 0.0135805 0.0817884
0.950744 0.0153811 0.446311
0.953246 0.082414 0.528328
0.953552 0.0919356 0.530953
0.953735 0.0962539 0.531655
0.953857 0.098558 0.53196
0.00311284 0.234272 0.273732
0.0033875 0.187686 0.217517
0.0606241 0.0778821 0.0870375
0.269749 0.0772564 0.0292363
0.57702 0.055375 0.0226291
0.867262 0.0203098 0.160189
0.951141 0.0176089 0.470741
0.953811 0.0976272 0.531807
0.953857 0.098558 0.53196
0.018616 0.687816 0.10724
0.0145266 0.605249 0.0699168
0.00959792 0.36849 0.0314031
0.255238 0.282307 0.0190433
0.734874 0.227161 0.0389868
0.960311 0.173861 0.308843
0.961044 0.18938 0.471717
0.955367 0.119081 0.517494
0.953979 0.100008 0.531029
0.0322423 0.958801 0.0591592
0.0266575 0.830457 0.0519722
0.0204929 0.723918 0.0445411
0.0820478 0.643885 0.0373999
0.600839 0.579812 0.0221866
0.971099 0.51162 0.0521248
0.983932 0.426291 0.299168
0.974884 0.34081 0.370428
0.963363 0.216373 0.454383
0.0328222 0.969055 0.0598611
0.0325933 0.96405 0.0595407
0.0315862 0.946471 0.0585946
0.0388037 0.916381 0.0563058
0.433585 0.852583 0.0288243
0.899321 0.769512 0.0309148
0.998154 0.697429 0.0392157
0.99707 0.594308 0.120012
0.984451 0.428794 0.299382
0.0328222 0.969055 0.0598611
0.0328222 0.969055 0.0598611
0.0328222 0.969055 0.0598611
0.032929 0.969055 0.0598611
0.127138 0.969329 0.0563973
0.701961 0.976486 0.0314794
0.98851 0.903258 0.0356756
0.998001 0.802029 0.0336614
0.998474 0.705242 0.0418402
0.0328222 0.969055 0.0598611
0.0328222 0.969055 0.0598611
0.0328222 0.969055 0.0598611
0.0328222 0.969055 0.0598611
0.0337835 0.969055 0.0598459
0.232227 0.970016 0.0480812
0.789197 0.984222 0.0336156
0.984802 0.974029 0.0505989
0.989425 0.918074 0.0373388
0.0328222 0.969055 0.0598611
0.0328222 0.969055 0.0598611
0.0328222 0.969055 0.0598611
0.0328222 0.969055 0.0598611
0.0328222 0.969055 0.0598611
0.0545357 0.969192 0.0593271
0.451575 0.975662 0.0331273
0.937499 0.981826 0.0450294
0.983688 0.980957 0.0558328
0.00392157 0.0201114 0.29044
0.00392157 0.0201877 0.293706
0.0920272 0.0168765 0.177203
0.73344 0.0128481 0.20676
0.951385 0.0307927 0.536904
0.953857 0.098558 0.532128
0.953857 0.098558 0.53196
0.953857 0.098558 0.53196
0.953857 0.098558 0.53196
0.00393683 0.0206455 0.311818
0.00390631 0.0200809 0.288853
0.145235 0.0157778 0.163409
0.755627 0.0129854 0.209186
0.951431 0.0306859 0.530663
0.953857 0.098558 0.532052
0.953857 0.098558 0.53196
0.953857 0.098558 0.53196
0.953857 0.098558 0.53196
0.00450141 0.04271 0.503868
0.00430304 0.0452583 0.501686
0.0304417 0.0332952 0.312978
0.459327 0.0120699 0.256245
0.897597 0.0133974 0.421057
0.951797 0.0589456 0.587991
0.953857 0.0985428 0.532876
0.953857 0.098558 0.53196
0.953902 0.0990005 0.531609
0.0100099 0.618647 0.728054
0.00914015 0.601938 0.715389
0.00360113 0.405249 0.476249
0.196109 0.252461 0.298131
0.557382 0.242115 0.124559
0.795285 0.193729 0.0835889
0.94844 0.112337 0.255772
0.956039 0.128511 0.478294
0.95613 0.130739 0.508675
0.0345312 0.931579 0.488457
0.0337224 0.892943 0.394644
0.0251469 0.778897 0.195331
0.0297398 0.663066 0.165728
0.544533 0.582559 0.098558
0.94609 0.507881 0.239033
0.985046 0.466758 0.431525
0.975845 0.351263 0.367956
0.962814 0.208148 0.460182
0.0328222 0.969055 0.0598611
0.0328222 0.968994 0.0598611
0.0326696 0.966201 0.0596628
0.0316777 0.946502 0.0586099
0.263066 0.891493 0.0415198
0.827405 0.811276 0.0290532
0.998703 0.727184 0.0617227
0.997452 0.60209 0.110079
0.986511 0.446433 0.282094
0.0328222 0.969055 0.0598611
0.0328222 0.969055 0.0598611
0.0328222 0.969055 0.0598611
0.0328222 0.969055 0.0598611
0.108522 0.969314 0.0575113
0.68925 0.976669 0.0313268
0.987839 0.905684 0.0357214
0.997955 0.803967 0.0336919
0.998474 0.706142 0.0419013
0.0328222 0.969055 0.0598611
0.0328222 0.969055 0.0598611
0.0328222 0.969055 0.0598611
0.0328222 0.969055 0.0598611
0.0331579 0.969055 0.0598611
0.2168 0.969894 0.0494698
0.778637 0.984253 0.0332799
0.984726 0.974716 0.0510719
0.989334 0.919295 0.0374151
0.0328222 0.969055 0.0598611
0.0328222 0.969055 0.0598611
0.0328222 0.969055 0.0598611
0.0328222 0.969055 0.0598611
0.0328222 0.969055 0.0598611
0.0531472 0.969192 0.0593729
0.440375 0.975158 0.0334173
0.932494 0.981933 0.0440375
0.983688 0.980957 0.0558328
0.00729381 0.0273899 0.631296
0.00737011 0.0274815 0.636957
0.00741588 0.0275273 0.640681
0.501106 0.00994888 0.422507
0.948592 0.0158236 0.670405
0.953872 0.112795 0.608408
0.953765 0.0997024 0.544198
0.953857 0.098558 0.53196
0.953857 0.098558 0.53196
0.00759899 0.0277562 0.655924
0.00737011 0.0274815 0.636927
0.00733959 0.0273899 0.630793
0.542382 0.00991836 0.416037
0.948928 0.0163577 0.66183
0.953872 0.112184 0.605982
0.95378 0.0995346 0.544167
0.953857 0.098558 0.53196
0.953857 0.098558 0.53196
0.007187 0.0272831 0.623499
0.00695811 0.0270237 0.6056
0.00695811 0.0268406 0.59353
0.550271 0.00988785 0.396612
0.949706 0.0167544 0.639628
0.953872 0.111223 0.60235
0.953796 0.0991226 0.543832
0.953857 0.098558 0.53196
0.953857 0.098558 0.53196
0.00209049 0.21706 0.920913
0.00292973 0.179126 0.895201
0.00247196 0.199115 0.902815
0.11667 0.127703 0.685634
0.734295 0.0469368 0.628183
0.946548 0.0382544 0.734447
0.959335 0.1897 0.665873
0.958007 0.156329 0.576516
0.955688 0.127626 0.511788
0.0217136 0.845335 0.958831
0.0212558 0.837339 0.959304
0.0184024 0.791775 0.921614
0.011841 0.656001 0.778271
0.446708 0.531487 0.60383
0.802502 0.52343 0.410269
0.960342 0.4551 0.31487
0.978027 0.370077 0.336919
0.970016 0.292241 0.405509
0.0289311 0.949279 0.638117
0.0317235 0.949294 0.575235
0.0342718 0.946441 0.520211
0.0344549 0.934279 0.495689
0.107774 0.862089 0.471794
0.769299 0.809934 0.378149
0.995987 0.727153 0.505409
0.994537 0.636805 0.489738
0.991501 0.497765 0.266728
0.0328222 0.969055 0.0598611
0.0328222 0.969055 0.0598611
0.0328222 0.969055 0.0598611
0.0328222 0.969055 0.0598611
0.0329747 0.969024 0.067155
0.441871 0.975128 0.0374609
0.951598 0.958587 0.0544747
0.996582 0.850111 0.076997
0.998428 0.709133 0.0402838
0.0328222 0.969055 0.0598611
0.0328222 0.969055 0.0598611
0.0328222 0.969055 0.0598611
0.0328222 0.969055 0.0598611
0.0328222 0.969055 0.0598611
0.191745 0.969696 0.0516823
0.765515 0.984283 0.0328222
0.984649 0.975311 0.0514687
0.989319 0.919615 0.0373999
0.0328222 0.969055 0.0598611
0.0328222 0.969055 0.0598611
0.0328222 0.969055 0.0598611
0.0328222 0.969055 0.0598611
0.0328222 0.969055 0.0598611
0.0502632 0.969162 0.0594339
0.422034 0.974411 0.0340887
0.925917 0.982116 0.0428626
0.983688 0.980957 0.0558328
0.00939956 0.0301976 0.831144
0.00950637 0.0302129 0.8318
0.00956741 0.0302281 0.832227
0.00953689 0.0302281 0.831998
0.888075 0.0148318 0.775982
0.948837 0.0874037 0.724849
0.953185 0.119005 0.657832
0.953887 0.105959 0.581872
0.953857 0.098558 0.53196
0.00978103 0.0302892 0.8336
0.00946059 0.0302129 0.83151
0.00944533 0.0302129 0.831388
0.00936904 0.0301976 0.830823
0.895964 0.0148928 0.771298
0.949004 0.088716 0.722026
0.953201 0.118898 0.656764
0.953902 0.106142 0.582437
0.953857 0.098558 0.53196
0.00950637 0.0302281 0.831815
0.00918593 0.0301671 0.828626
0.00920119 0.0301671 0.828656
0.00903334 0.030045 0.820447
0.886198 0.0145418 0.755444
0.949248 0.0908064 0.717617
0.953246 0.118853 0.655116
0.953902 0.106279 0.583017
0.953857 0.098558 0.532021
0.00888075 0.0301061 0.823926
0.00860609 0.0300145 0.814725
0.00863661 0.0300298 0.816587
0.0172732 0.0298772 0.805936
0.89041 0.0144045 0.738842
0.949584 0.0937819 0.7122
0.953353 0.119356 0.65301
0.953872 0.106447 0.58436
0.95375 0.0987869 0.537346
0.00238041 0.524941 0.943038
0.00187686 0.477562 0.939895
0.00209049 0.438422 0.935897
0.00187686 0.46685 0.939284
0.3187 0.348165 0.932677
0.917693 0.201144 0.880461
0.966033 0.327688 0.781201
0.966354 0.303136 0.728069
0.966705 0.266773 0.631495
0.0261845 0.913161 0.972107
0.0259251 0.909697 0.972
0.0256657 0.906371 0.971786
0.0243229 0.885664 0.970657
0.0208896 0.823072 0.951446
0.67097 0.755245 0.827726
0.967086 0.739986 0.675212
0.995041 0.68011 0.542245
0.994293 0.575113 0.406439
0.0283513 0.94934 0.6551
0.0281071 0.949325 0.663401
0.0288243 0.949371 0.643793
0.0287175 0.94931 0.646494
0.0286412 0.949264 0.646036
0.167132 0.94583 0.645121
0.887526 0.94107 0.568078
0.994003 0.82678 0.613123
0.995804 0.73785 0.509285
0.0328222 0.969055 0.0598611
0.0328527 0.969039 0.0642405
0.0328832 0.969009 0.0678569
0.0328832 0.968978 0.0700694
0.0330205 0.968948 0.0887465
0.045243 0.968551 0.151507
0.529137 0.978866 0.068925
0.977783 0.980606 0.100923
0.98851 0.957244 0.0608988
0.0328222 0.969055 0.0598611
0.0328222 0.969055 0.0598611
0.0328222 0.969055 0.0598611
0.0328222 0.969055 0.0598611
0.0328222 0.969055 0.0598611
0.0370794 0.969085 0.0597543
0.386618 0.973144 0.0359503
0.909087 0.982559 0.0407874
0.983688 0.980957 0.0558328
0.0121157 0.0336309 0.863081
0.0121462 0.0338293 0.863447
0.0121614 0.0338445 0.863508
0.0121157 0.0336919 0.863157
0.0120394 0.033341 0.86247
0.94197 0.0176089 0.912749
0.945129 0.0511788 0.79237
0.949844 0.0965744 0.707668
0.95378 0.109133 0.592569
0.0122225 0.0341344 0.864088
0.0120851 0.0335393 0.862882
0.0120699 0.033463 0.86273
0.0120241 0.0332494 0.862287
0.0119478 0.0328985 0.86157
0.942336 0.0177462 0.910231
0.94522 0.0526436 0.789853
0.949905 0.0969253 0.707012
0.95378 0.109148 0.592538
0.0121614 0.0338445 0.863478
0.0119478 0.0329137 0.861585
0.0118563 0.0325475 0.860853
0.011841 0.0323796 0.860334
0.0178378 0.0322271 0.861311
0.942428 0.0188754 0.904463
0.945403 0.0549477 0.785779
0.950011 0.0977646 0.705409
0.953765 0.108461 0.590326
0.0118105 0.0319829 0.858976
0.0117189 0.0310216 0.855817
0.0117189 0.0309758 0.855634
0.01178 0.0316167 0.857755
0.0303197 0.0317235 0.86424
0.942473 0.0189822 0.898405
0.945617 0.0573892 0.781521
0.950134 0.0987106 0.703609
0.95375 0.10753 0.587427
0.0117037 0.0306554 0.854566
0.0118868 0.0304723 0.849195
0.0117189 0.0304112 0.845029
0.0119326 0.030457 0.848112
0.0332647 0.0312047 0.860777
0.942489 0.0183566 0.889113
0.945846 0.0600595 0.776928
0.950256 0.099794 0.701564
0.95378 0.108141 0.590158
0.0102998 0.663661 0.953368
0.0071107 0.617304 0.949691
0.00468452 0.578393 0.946685
0.00350958 0.556069 0.945327
0.00477607 0.581476 0.946944
0.541939 0.561685 0.973907
0.966049 0.438575 0.965408
0.969787 0.446235 0.863005
0.969299 0.375967 0.77911
0.0270695 0.930358 0.972656
0.0270695 0.930358 0.972656
0.0270695 0.930358 0.972656
0.0270695 0.930358 0.972656
0.0272374 0.927871 0.97261
0.0244755 0.889357 0.971176
0.770809 0.862562 0.942184
0.990219 0.832761 0.797574
0.993545 0.786862 0.635401
0.0273136 0.933211 0.972381
0.0273442 0.933288 0.972412
0.027512 0.934874 0.968688
0.0276188 0.936538 0.9617
0.0278325 0.939834 0.9467
0.0281376 0.9467 0.895598
0.253269 0.95111 0.751324
0.939712 0.984649 0.671168
0.98999 0.940673 0.603174
0.0277714 0.938521 0.956466
0.0278019 0.938827 0.955764
0.027863 0.940078 0.950362
0.0279088 0.941039 0.946242
0.027924 0.942138 0.939437
0.0281224 0.943435 0.924285
0.029221 0.944701 0.916594
0.698909 0.978805 0.755764
0.987793 0.984619 0.429389
0.0124056 0.0349279 0.86569
0.0124056 0.0349279 0.86569
0.0124056 0.0349279 0.86569
0.0124056 0.0349279 0.86569
0.0124056 0.0349279 0.86569
0.0124056 0.0349279 0.86569
0.942031 0.0179599 0.941665
0.942519 0.0178531 0.901549
0.94667 0.0690623 0.761273
0.0124056 0.0349279 0.86569
0.0124056 0.0349279 0.86569
0.0124056 0.0349279 0.86569
0.0124056 0.0349279 0.86569
0.0124056 0.0349279 0.86569
0.0124056 0.0349279 0.86569
0.942031 0.0179599 0.941558
0.942565 0.0179599 0.899367
0.946624 0.0686961 0.761975
0.0124056 0.0349279 0.86569
0.0124056 0.0349279 0.86569
0.0124056 0.0349279 0.86569
0.0124056 0.0349279 0.86569
0.0124056 0.0349279 0.86569
0.0254978 0.0348974 0.867857
0.942031 0.0179446 0.941024
0.942657 0.0181125 0.894392
0.946807 0.0704051 0.758709
0.0124056 0.0349279 0.86569
0.0124056 0.0349279 0.86569
0.0124056 0.0349279 0.86569
0.0124056 0.0349279 0.86569
0.0124056 0.0349279 0.86569
0.0366217 0.0348211 0.869627
0.942031 0.0179446 0.940902
0.942748 0.0181582 0.889738
0.947005 0.072282 0.755154
0.0124056 0.0349279 0.86569
0.0124056 0.0349279 0.86569
0.0124056 0.0349279 0.86569
0.0124056 0.0349279 0.86569
0.0124056 0.0349279 0.86569
0.0280308 0.0348974 0.867872
0.942031 0.0179446 0.941054
0.94284 0.0181735 0.885222
0.947188 0.0739147 0.751995
0.0124056 0.0349279 0.86569
0.0124056 0.0349279 0.86569
0.0124056 0.0349279 0.86569
0.0124056 0.0349279 0.86569
0.0124056 0.0349279 0.86569
0.0124056 0.0349279 0.86569
0.942031 0.0179446 0.940932
0.942916 0.0183566 0.880674
0.947387 0.0758984 0.748211
0.0260166 0.911971 0.972137
0.0248722 0.896773 0.971572
0.0225071 0.860166 0.969543
0.0181125 0.786389 0.964019
0.012604 0.695338 0.955474
0.0174868 0.775891 0.963119
0.624933 0.625849 0.980148
0.968078 0.529747 0.976638
0.967391 0.472755 0.94493
0.0270695 0.930358 0.972656
0.0270695 0.930358 0.972656
0.0270695 0.930358 0.972656
0.0270695 0.930358 0.972656
0.0270695 0.930358 0.972656
0.0270695 0.930358 0.972656
0.0276493 0.928649 0.97261
0.824598 0.936126 0.990738
0.986084 0.912947 0.881727
0.0270695 0.930358 0.972656
0.0270695 0.930358 0.972656
0.0270695 0.930358 0.972656
0.0270695 0.930358 0.972656
0.0270695 0.930358 0.972656
0.0270695 0.930358 0.972656
0.0277104 0.929808 0.972641
0.334981 0.955703 0.973983
0.983764 0.988495 0.944518
0.0124056 0.0349279 0.86569
0.0124056 0.0349279 0.86569
0.0124056 0.0349279 0.86569
0.0124056 0.0349279 0.86569
0.0124056 0.0349279 0.86569
0.0124056 0.0349279 0.86569
0.746777 0.0169833 0.942779
0.942031 0.0179599 0.941665
0.942031 0.0179599 0.941665
0.0124056 0.0349279 0.86569
0.0124056 0.0349279 0.86569
0.0124056 0.0349279 0.86569
0.0124056 0.0349279 0.86569
0.0124056 0.0349279 0.86569
0.0124056 0.0349279 0.86569
0.753094 0.016968 0.942687
0.942031 0.0179599 0.941665
0.942031 0.0179599 0.941665
0.0124056 0.0349279 0.86569
0.0124056 0.0349279 0.86569
0.0124056 0.0349279 0.86569
0.0124056 0.0349279 0.86569
0.0124056 0.0349279 0.86569
0.0124056 0.0349279 0.86569
0.737819 0.0170748 0.942885
0.942031 0.0179599 0.941665
0.942031 0.0179599 0.941665
0.0124056 0.0349279 0.86569
0.0124056 0.0349279 0.86569
0.0124056 0.0349279 0.86569
0.0124056 0.0349279 0.86569
0.0124056 0.0349279 0.86569
0.0124056 0.0349279 0.86569
0.737514 0.0171054 0.942855
0.942031 0.0179599 0.941665
0.942031 0.0179599 0.941665
0.0124056 0.0349279 0.86569
0.0124056 0.0349279 0.86569
0.0124056 0.0349279 0.86569
0.0124056 0.0349279 0.86569
0.0124056 0.0349279 0.86569
0.0124056 0.0349279 0.86569
0.77789 0.0169375 0.942199
0.942031 0.0179599 0.941665
0.942031 0.0179599 0.941665
0.0124056 0.0349279 0.86569
0.0124056 0.0349279 0.86569
0.0124056 0.0349279 0.86569
0.0124056 0.0349279 0.86569
0.0124056 0.0349279 0.86569
0.0124056 0.0349279 0.86569
0.875334 0.0171359 0.941009
0.942031 0.0179599 0.941665
0.942031 0.0179599 0.941665
0.0124056 0.0349279 0.86569
0.0124056 0.0349279 0.86569
0.0124056 0.0349279 0.86569
0.0124056 0.0349279 0.86569
0.0124056 0.0349279 0.86569
0.0124056 0.0349279 0.86569
0.518868 0.0657511 0.947219
0.942031 0.0179599 0.941665
0.942031 0.0179599 0.941665
0.0270695 0.930358 0.972656
0.0270695 0.930358 0.972656
0.0270695 0.930358 0.972656
0.0270695 0.930358 0.972656
0.0270695 0.930358 0.972656
0.0264286 0.914061 0.972168
0.0257725 0.910887 0.972122
0.739971 0.895903 0.991547
0.980163 0.705516 0.9888
0.0270695 0.930358 0.972656
0.0270695 0.930358 0.972656
0.0270695 0.930358 0.972656
0.0270695 0.930358 0.972656
0.0270695 0.930358 0.972656
0.0270695 0.930358 0.972656
0.0270695 0.930358 0.972656
0.0277714 0.929717 0.972625
0.984497 0.988968 0.997131
