LUT预设1/富士LUT改款/Log机型使用/爆改富士cn.cube
TITLE "Generated by Resolve"
LUT_3D_SIZE 33
0.00875868 0.0140841 0.0142214
0.00872816 0.0140841 0.0142214
0.00869764 0.0140841 0.0142214
0.0105287 0.0142519 0.0142367
0.0211795 0.0151675 0.0145266
0.0390936 0.0166781 0.0147555
0.0610666 0.0183108 0.0146792
0.0893721 0.0201419 0.0145724
0.129015 0.0231632 0.0146181
0.186526 0.0281987 0.014725
0.262913 0.0348516 0.014725
0.333089 0.0426032 0.0154879
0.383139 0.0516823 0.0207828
0.4262 0.0628824 0.0411688
0.464866 0.0751202 0.0682383
0.514611 0.0961929 0.0864729
0.582223 0.116381 0.102495
0.659815 0.122347 0.105043
0.735698 0.126513 0.105913
0.797711 0.130343 0.107042
0.843671 0.133288 0.108064
0.87631 0.135576 0.110063
0.897856 0.137118 0.114992
0.908888 0.137758 0.123735
0.911986 0.137728 0.131395
0.9122 0.137682 0.133913
0.9122 0.137728 0.133776
0.912169 0.137728 0.133745
0.912139 0.137728 0.133745
0.912108 0.137728 0.133745
0.912077 0.137728 0.133745
0.912047 0.137728 0.133745
0.912016 0.137728 0.133745
0.00875868 0.0140536 0.0142214
0.00872816 0.0140536 0.0142214
0.0087129 0.0140536 0.0142214
0.0106813 0.0142367 0.0142367
0.0218051 0.0152132 0.0145266
0.0404364 0.0167849 0.014847
0.0629282 0.0184176 0.0147555
0.0916609 0.0202182 0.0145876
0.131685 0.023209 0.0146181
0.189548 0.028275 0.0147707
0.266453 0.0350042 0.0148623
0.337774 0.0428626 0.0156558
0.390402 0.052018 0.0208591
0.438041 0.0633097 0.0410925
0.482094 0.075761 0.0680705
0.537148 0.0970016 0.0862898
0.605722 0.117494 0.102541
0.683207 0.123644 0.105241
0.757244 0.127901 0.106264
0.813428 0.131472 0.107393
0.854337 0.134188 0.108354
0.883101 0.136187 0.111116
0.901335 0.137423 0.117327
0.909957 0.137804 0.125963
0.912123 0.137697 0.132219
0.912215 0.137652 0.133944
0.9122 0.137697 0.133776
0.912169 0.137697 0.133745
0.912139 0.137697 0.133745
0.912108 0.137697 0.133745
0.912077 0.137697 0.133745
0.912047 0.137697 0.133745
0.912016 0.137697 0.133745
0.00875868 0.014023 0.0142214
0.00872816 0.014023 0.0142214
0.00869764 0.014023 0.0142214
0.00944533 0.0140841 0.0142214
0.0176394 0.0148013 0.0143282
0.0354314 0.0162051 0.014786
0.0582742 0.0180362 0.0147707
0.0864271 0.0200504 0.0145724
0.123949 0.0226596 0.0146029
0.178088 0.0268406 0.0147555
0.253071 0.0330968 0.0149386
0.333608 0.04094 0.0152132
0.399298 0.0502327 0.0177157
0.45687 0.0608835 0.0339971
0.514107 0.0734722 0.0599832
0.57644 0.0928511 0.0801556
0.647837 0.116335 0.100008
0.722423 0.125383 0.105287
0.787961 0.129839 0.106828
0.834928 0.132876 0.107866
0.868574 0.135195 0.10898
0.891997 0.136797 0.113222
0.905623 0.137667 0.120989
0.911055 0.137758 0.128893
0.912184 0.137636 0.133104
0.912215 0.137636 0.133913
0.9122 0.137667 0.133761
0.912169 0.137667 0.133745
0.912139 0.137667 0.133745
0.912108 0.137667 0.133745
0.912077 0.137667 0.133745
0.912047 0.137667 0.133745
0.912016 0.137667 0.133745
0.00875868 0.0141451 0.0142367
0.00872816 0.0141299 0.0142367
0.00869764 0.0141451 0.0142367
0.00888075 0.0141604 0.0142367
0.0140688 0.0146334 0.0143282
0.0281987 0.015671 0.0146639
0.0489357 0.0172274 0.0147707
0.074403 0.0193637 0.0146334
0.10837 0.021973 0.0146181
0.158511 0.0252537 0.0146792
0.230228 0.0305638 0.0148165
0.319219 0.0383764 0.0148318
0.403433 0.0475319 0.0156252
0.476982 0.0575418 0.0249943
0.553491 0.0703136 0.0476844
0.62652 0.0873121 0.0721141
0.701457 0.111208 0.0931106
0.77055 0.126818 0.104738
0.822263 0.131991 0.107591
0.858763 0.134417 0.108476
0.884443 0.136217 0.11136
0.900938 0.137362 0.117906
0.909346 0.137774 0.125917
0.911879 0.137667 0.131701
0.91223 0.137606 0.1337
0.91223 0.137621 0.133822
0.9122 0.137636 0.133745
0.912169 0.137636 0.133745
0.912139 0.137636 0.133745
0.912108 0.137636 0.133745
0.912077 0.137636 0.133745
0.912047 0.137636 0.133745
0.912016 0.137636 0.133745
0.00869764 0.0173495 0.0144961
0.00866712 0.0173648 0.0144961
0.00866712 0.016907 0.0144961
0.00886549 0.0162356 0.0146181
0.011368 0.0162203 0.0145876
0.0217746 0.0168765 0.0146487
0.0402533 0.0181582 0.014725
0.0632792 0.0202029 0.0146792
0.0937209 0.0225071 0.0146792
0.137484 0.0251621 0.014786
0.201312 0.0296635 0.0149081
0.290745 0.036759 0.014786
0.390875 0.0452735 0.014847
0.484779 0.0547036 0.0179294
0.580438 0.0677348 0.0364843
0.668925 0.0826886 0.0639658
0.748363 0.105165 0.0849165
0.812406 0.127275 0.103655
0.853315 0.133806 0.108248
0.880629 0.135866 0.110185
0.898146 0.137102 0.116869
0.907485 0.137636 0.124666
0.911315 0.137682 0.130526
0.9122 0.137591 0.133318
0.912245 0.137575 0.133837
0.91223 0.137606 0.133761
0.9122 0.137606 0.133745
0.912169 0.137606 0.133745
0.912139 0.137606 0.133745
0.912108 0.137606 0.133745
0.912077 0.137606 0.133745
0.912047 0.137606 0.133745
0.912016 0.137606 0.133745
0.00856031 0.0261692 0.0160372
0.00852979 0.0261997 0.0160372
0.00852979 0.0243687 0.0157473
0.00865187 0.0221408 0.0155947
0.00955215 0.0210727 0.0153201
0.0160678 0.0208286 0.0150759
0.0318303 0.0213016 0.0149844
0.0540475 0.0227207 0.0148928
0.0816663 0.0246433 0.0149691
0.118669 0.0271916 0.0151217
0.172335 0.0312352 0.015198
0.252613 0.0371405 0.0150454
0.356756 0.0447852 0.0148013
0.463798 0.0537423 0.0151217
0.573495 0.0650645 0.0276799
0.680705 0.0789654 0.0532387
0.769833 0.0990005 0.076997
0.835416 0.122744 0.0985885
0.873503 0.133852 0.107668
0.895491 0.136873 0.113695
0.906569 0.137575 0.123156
0.910933 0.137636 0.130037
0.912108 0.13756 0.133135
0.912276 0.13756 0.133806
0.912245 0.137575 0.133776
0.91223 0.137575 0.133745
0.9122 0.137575 0.133745
0.912169 0.137575 0.133745
0.912139 0.137575 0.133745
0.912108 0.137575 0.133745
0.912077 0.137575 0.133745
0.912047 0.137575 0.133745
0.912016 0.137575 0.133745
0.00862135 0.0400092 0.018967
0.00859083 0.0399176 0.0189517
0.00846876 0.0372015 0.0183871
0.00836194 0.033753 0.0179141
0.00874342 0.0315557 0.0174258
0.0120089 0.0300603 0.0168612
0.0241093 0.0290379 0.0162051
0.0453803 0.0291905 0.0157015
0.0715038 0.030518 0.0156863
0.104128 0.0324407 0.0156405
0.149859 0.0354772 0.0155642
0.217975 0.0399176 0.0154574
0.314031 0.0468605 0.0152895
0.421302 0.0555581 0.0151522
0.532418 0.0651408 0.0205386
0.651713 0.0775311 0.0413672
0.756451 0.0932784 0.0689403
0.834836 0.115145 0.0901503
0.87866 0.13286 0.106081
0.901167 0.137591 0.11548
0.909422 0.137713 0.12604
0.911864 0.137591 0.131899
0.912276 0.137514 0.1337
0.912276 0.137545 0.133776
0.912261 0.13756 0.133684
0.91223 0.13756 0.1337
0.9122 0.13756 0.13373
0.912169 0.137545 0.13373
0.912139 0.137545 0.133745
0.912108 0.137545 0.133745
0.912077 0.137545 0.133745
0.912047 0.137545 0.133745
0.912016 0.137545 0.133745
0.00889601 0.0569619 0.022385
0.00885023 0.0564584 0.0223087
0.00868238 0.0543679 0.0217899
0.00842298 0.0509194 0.0211948
0.00856031 0.0477302 0.0207065
0.0101625 0.044831 0.0200809
0.0177157 0.0424811 0.0192416
0.0356603 0.0418402 0.0181888
0.0619669 0.0423438 0.0171206
0.0926528 0.0430152 0.0164187
0.133394 0.0446021 0.016022
0.193072 0.0478676 0.0158999
0.279164 0.0537423 0.0157778
0.3841 0.0606241 0.0153964
0.488731 0.0691844 0.016144
0.599786 0.0800793 0.0315557
0.709667 0.0928664 0.0587778
0.802823 0.111711 0.0811017
0.86421 0.132342 0.1019
0.896635 0.138781 0.111498
0.908171 0.13875 0.124086
0.911543 0.138125 0.130922
0.912245 0.137835 0.133196
0.912291 0.137758 0.133486
0.912261 0.137713 0.133471
0.91223 0.137636 0.133562
0.912184 0.137575 0.133669
0.912169 0.13753 0.133715
0.912139 0.13753 0.133715
0.912108 0.13753 0.133715
0.912077 0.13753 0.133715
0.912047 0.13753 0.13373
0.912016 0.13753 0.13373
0.009308 0.076997 0.0261234
0.00924697 0.0763867 0.0260166
0.00920119 0.0743877 0.0256504
0.00889601 0.0708476 0.0248875
0.00875868 0.0673228 0.0243839
0.00958267 0.063798 0.0239872
0.0129397 0.0607767 0.0234684
0.0260929 0.0593118 0.0221561
0.0514534 0.0589303 0.0197757
0.0817426 0.0592508 0.0180362
0.118456 0.0603189 0.0173037
0.17142 0.0626841 0.0168917
0.249332 0.0670024 0.0164034
0.354452 0.0726024 0.0158541
0.460609 0.0796979 0.0153353
0.564218 0.0889448 0.0240024
0.668986 0.10013 0.0468299
0.762142 0.114488 0.0722362
0.833021 0.134707 0.0943923
0.877958 0.14609 0.107012
0.900923 0.146609 0.117174
0.909621 0.142718 0.126497
0.912032 0.140368 0.131533
0.912383 0.139406 0.132967
0.912337 0.138872 0.133165
0.912245 0.138338 0.133303
0.912184 0.137881 0.133486
0.912154 0.137621 0.133562
0.912139 0.137545 0.133608
0.912108 0.13753 0.133623
0.912077 0.13753 0.133623
0.912047 0.137514 0.133654
0.912016 0.137499 0.13373
0.00994888 0.101335 0.0307774
0.00991836 0.101061 0.0307012
0.00984207 0.0979019 0.030457
0.00943008 0.0936294 0.0296483
0.0090486 0.0900893 0.0290227
0.00935378 0.0865949 0.0287633
0.0108949 0.0830091 0.0283665
0.0189059 0.0802319 0.0272526
0.0388342 0.0787823 0.0247196
0.0690471 0.0788434 0.0214542
0.103593 0.0796979 0.0199435
0.150622 0.0813764 0.0189975
0.220493 0.0848249 0.0180667
0.322606 0.0913252 0.0171359
0.436576 0.0987716 0.0159915
0.542885 0.105898 0.0187076
0.645045 0.114458 0.0366522
0.733532 0.125078 0.0637522
0.803738 0.142626 0.0854353
0.854871 0.159655 0.103609
0.887587 0.162844 0.111254
0.904753 0.157626 0.120134
0.91136 0.152163 0.12845
0.912917 0.148302 0.132647
0.912902 0.145556 0.133486
0.912535 0.142885 0.133318
0.912245 0.140307 0.133135
0.912139 0.138506 0.133059
0.912139 0.137728 0.133165
0.912123 0.137575 0.133242
0.912093 0.13756 0.133318
0.912047 0.137514 0.133486
0.912016 0.137469 0.13373
0.0107729 0.132418 0.0374609
0.0107576 0.132418 0.0373999
0.0104067 0.128145 0.0368963
0.0100252 0.122621 0.0359808
0.00978103 0.117327 0.0353246
0.00978103 0.112444 0.0348363
0.0102998 0.108125 0.0342565
0.0139467 0.104463 0.0332952
0.0266575 0.101946 0.0312963
0.053193 0.101091 0.0277714
0.0888075 0.101488 0.0243381
0.131716 0.102724 0.0223392
0.193652 0.105592 0.021088
0.287022 0.110826 0.0195926
0.404166 0.118486 0.0175479
0.515709 0.125933 0.0161593
0.620249 0.134798 0.0286717
0.713466 0.14522 0.0530556
0.785565 0.158251 0.0758831
0.838621 0.175738 0.0977188
0.874449 0.18291 0.108202
0.897795 0.180835 0.114458
0.910002 0.174792 0.123857
0.914199 0.168338 0.131472
0.914565 0.162524 0.134569
0.913954 0.157122 0.134691
0.913283 0.151705 0.13402
0.91281 0.146685 0.133501
0.912551 0.143008 0.133242
0.912398 0.140749 0.133059
0.9122 0.139239 0.132982
0.912016 0.138247 0.133165
0.911925 0.137682 0.133501
0.0119936 0.172198 0.0460822
0.0119478 0.172183 0.0459449
0.0113222 0.166262 0.0454871
0.0110475 0.15816 0.0442817
0.010956 0.150805 0.0429236
0.0107424 0.144579 0.0419623
0.0105745 0.138537 0.0411994
0.011902 0.133196 0.0402228
0.0185855 0.129259 0.038941
0.0370031 0.126726 0.036408
0.0720226 0.126223 0.031693
0.113695 0.126787 0.0274662
0.168826 0.128649 0.025391
0.251255 0.132753 0.0235447
0.364767 0.139391 0.0207675
0.482979 0.147417 0.0181735
0.591485 0.156664 0.0227512
0.692241 0.167117 0.0420386
0.77023 0.178576 0.0674144
0.827024 0.19353 0.0887617
0.865919 0.205875 0.10399
0.891844 0.208057 0.110826
0.908492 0.203403 0.119463
0.915709 0.196338 0.129534
0.917113 0.188388 0.135714
0.916701 0.18117 0.137133
0.915831 0.174304 0.136614
0.914946 0.166781 0.135836
0.914214 0.159457 0.134936
0.91368 0.153292 0.134142
0.913039 0.148119 0.133639
0.912413 0.144045 0.133425
0.912047 0.14107 0.13341
0.0132448 0.223102 0.0571756
0.013138 0.22295 0.0569162
0.0127565 0.215351 0.0563668
0.0121004 0.204547 0.0547799
0.0118105 0.194751 0.0530098
0.0116579 0.186145 0.0513771
0.0111238 0.177157 0.0501106
0.0109865 0.169604 0.0493172
0.0147707 0.16405 0.0479591
0.0259251 0.159869 0.0458839
0.0503548 0.157305 0.0424201
0.0936751 0.1561 0.0367895
0.143923 0.156664 0.0317693
0.215976 0.159243 0.0287327
0.322377 0.164401 0.0256657
0.445853 0.172869 0.0220645
0.559457 0.181994 0.0195468
0.66453 0.192828 0.0336156
0.75082 0.204425 0.0585946
0.814664 0.216052 0.0794842
0.858549 0.231006 0.0998856
0.887541 0.236484 0.11017
0.907179 0.233921 0.118273
0.917128 0.228443 0.128847
0.920195 0.220386 0.136248
0.920012 0.211246 0.138842
0.91899 0.202396 0.138964
0.918105 0.193591 0.138445
0.917235 0.184771 0.137545
0.916289 0.176349 0.136538
0.915206 0.167926 0.135805
0.914076 0.159976 0.13521
0.913283 0.153155 0.1346
0.014313 0.286458 0.0717327
0.0141604 0.286336 0.0714275
0.0138094 0.277394 0.0701762
0.0132296 0.26482 0.0679026
0.0126955 0.253056 0.0657664
0.0121614 0.241779 0.0640269
0.0115511 0.230137 0.0618601
0.0112917 0.219715 0.0598306
0.0127718 0.210636 0.0586404
0.0187686 0.203632 0.0570535
0.0344549 0.198215 0.0542
0.0688334 0.194095 0.0493324
0.118395 0.192187 0.0426184
0.183902 0.192889 0.0357824
0.280034 0.197131 0.0316472
0.404776 0.204669 0.0277714
0.525383 0.213367 0.0241703
0.636103 0.22417 0.0290684
0.730358 0.236774 0.0479744
0.800092 0.246906 0.0695964
0.849821 0.258412 0.0911574
0.88368 0.26598 0.107576
0.906233 0.266484 0.119142
0.918318 0.262333 0.1299
0.92282 0.254871 0.138003
0.923354 0.245274 0.141146
0.922499 0.235599 0.140856
0.921584 0.22562 0.139971
0.920821 0.216236 0.139116
0.919539 0.2056 0.138674
0.918669 0.195468 0.138079
0.917052 0.184665 0.137713
0.915892 0.175662 0.13698
0.0156405 0.362081 0.087892
0.0154879 0.361791 0.0877241
0.0149233 0.353109 0.0861219
0.0145266 0.340581 0.0838788
0.0142672 0.328038 0.0817273
0.0137179 0.314656 0.0795911
0.0131838 0.300084 0.0770886
0.0129549 0.285786 0.074342
0.013077 0.272404 0.0722057
0.016083 0.261112 0.0703288
0.0248112 0.252064 0.067689
0.0444953 0.244327 0.0640421
0.092195 0.239704 0.0568856
0.151308 0.238041 0.0488441
0.237018 0.240101 0.0387427
0.360098 0.24622 0.0347295
0.488319 0.253697 0.0306401
0.6056 0.264179 0.0281376
0.708125 0.276448 0.0417792
0.785565 0.287083 0.0634165
0.840665 0.295003 0.0840009
0.878599 0.303044 0.105425
0.90425 0.305547 0.120699
0.919448 0.301671 0.131914
0.926055 0.294026 0.140902
0.927275 0.282948 0.144045
0.926345 0.270863 0.143511
0.92491 0.259495 0.141421
0.923995 0.249241 0.139879
0.923171 0.239628 0.139498
0.922011 0.230274 0.139345
0.920897 0.219409 0.13872
0.919539 0.207401 0.138491
0.0179904 0.440497 0.106004
0.0178988 0.440513 0.10602
0.0173037 0.434241 0.105013
0.0167239 0.424475 0.103243
0.0162661 0.412695 0.100969
0.0159304 0.398688 0.0981003
0.0154574 0.382925 0.095079
0.0148928 0.366262 0.0922255
0.0144961 0.349218 0.0894026
0.0154879 0.333822 0.0865949
0.0204166 0.321263 0.0836194
0.0318151 0.310475 0.0801251
0.0559548 0.302083 0.0749676
0.118395 0.297536 0.0659037
0.195056 0.296361 0.0556954
0.31104 0.30045 0.0440223
0.445579 0.307149 0.0390326
0.571313 0.315618 0.0360266
0.68217 0.326467 0.0418402
0.769894 0.33846 0.061326
0.831861 0.343694 0.0808576
0.874189 0.348714 0.10277
0.902632 0.351019 0.12079
0.920287 0.347662 0.133654
0.928939 0.340047 0.144472
0.931044 0.328054 0.149325
0.930129 0.313497 0.147875
0.928664 0.299016 0.144747
0.927489 0.285466 0.141665
0.926741 0.274861 0.140414
0.925795 0.266499 0.140276
0.924483 0.255879 0.139376
0.92343 0.244572 0.13962
0.0206455 0.520043 0.12604
0.0206149 0.520043 0.12604
0.0200504 0.514626 0.125338
0.0197299 0.506325 0.123827
0.019379 0.495918 0.12166
0.0189212 0.483268 0.118822
0.0182803 0.468574 0.115709
0.0176852 0.452445 0.112749
0.0171969 0.435492 0.109529
0.0169528 0.418662 0.106065
0.0188449 0.403464 0.103182
0.0254215 0.390402 0.10016
0.041474 0.379049 0.0957656
0.0803998 0.370306 0.088777
0.153307 0.366171 0.0776532
0.257786 0.366842 0.0636759
0.394415 0.371908 0.0508125
0.531136 0.379065 0.0458686
0.653056 0.387671 0.0458076
0.753536 0.398337 0.0595865
0.823865 0.403098 0.078584
0.870527 0.404959 0.100084
0.901747 0.405661 0.121202
0.921767 0.402899 0.137041
0.932723 0.395636 0.148486
0.93637 0.382528 0.155474
0.935454 0.364233 0.155612
0.933333 0.345449 0.1514
0.931258 0.32903 0.146563
0.93022 0.31577 0.143236
0.929549 0.305791 0.141985
0.928786 0.295689 0.141939
0.927794 0.284504 0.141772
0.0247807 0.602167 0.150439
0.0247807 0.60145 0.150225
0.0242313 0.594965 0.148592
0.0238956 0.585992 0.14641
0.0235294 0.575906 0.144167
0.0229343 0.564172 0.141268
0.0221866 0.550729 0.137743
0.0215305 0.536416 0.134508
0.0208438 0.521813 0.131136
0.020325 0.506767 0.127718
0.0202792 0.491981 0.124865
0.0226444 0.477882 0.122042
0.0319677 0.465126 0.118624
0.0549325 0.454368 0.113268
0.110231 0.4477 0.103563
0.203464 0.444785 0.0889143
0.33669 0.447486 0.0714122
0.482063 0.452766 0.0581979
0.616724 0.45922 0.0543069
0.730632 0.467567 0.0632334
0.813458 0.472877 0.0802167
0.867521 0.472221 0.0994888
0.90164 0.469337 0.122286
0.923964 0.46569 0.14023
0.937972 0.4589 0.152239
0.943297 0.445548 0.161578
0.942443 0.42562 0.164034
0.939681 0.403113 0.160372
0.937102 0.381735 0.154665
0.935027 0.364111 0.150439
0.933562 0.350484 0.147936
0.932815 0.338933 0.147143
0.931731 0.328222 0.146334
0.0310369 0.682689 0.178302
0.0308232 0.679835 0.177157
0.0298466 0.672572 0.17409
0.0294041 0.663127 0.170886
0.0288853 0.652827 0.168185
0.0281376 0.641535 0.165179
0.0271763 0.629923 0.161715
0.0263676 0.617853 0.158434
0.0257877 0.605112 0.15523
0.0250095 0.591791 0.152056
0.0242008 0.578347 0.149615
0.0240635 0.565362 0.147112
0.0282292 0.552789 0.14403
0.0413825 0.541436 0.139696
0.071519 0.532723 0.133104
0.148135 0.528054 0.119493
0.270832 0.52874 0.101183
0.424109 0.533089 0.0811322
0.56994 0.538293 0.0683452
0.698451 0.544045 0.0701762
0.798199 0.54905 0.0834058
0.863157 0.547402 0.0991531
0.901198 0.541619 0.119951
0.926055 0.535149 0.140688
0.943236 0.527535 0.156664
0.950591 0.514809 0.167865
0.950454 0.494896 0.172992
0.947814 0.470192 0.17116
0.944411 0.444389 0.164996
0.941466 0.42118 0.158877
0.939055 0.403143 0.155352
0.937789 0.389044 0.154269
0.936202 0.375967 0.152483
0.0386664 0.747189 0.20589
0.0382086 0.74316 0.204013
0.0372625 0.737255 0.201205
0.0366369 0.730938 0.198657
0.0360113 0.723918 0.196277
0.0350347 0.715404 0.193271
0.0339971 0.705699 0.189944
0.0331273 0.695384 0.186618
0.0322881 0.684657 0.183154
0.0314488 0.673182 0.179843
0.030518 0.661524 0.176867
0.029633 0.64976 0.1738
0.0303197 0.637812 0.170886
0.0360266 0.626719 0.167758
0.0539559 0.617075 0.162753
0.096376 0.610513 0.153643
0.199313 0.609598 0.136767
0.351736 0.612863 0.114
0.512901 0.618189 0.0931563
0.656886 0.622583 0.0838941
0.773571 0.626352 0.0895247
0.852445 0.624704 0.101717
0.897627 0.617411 0.117449
0.925704 0.607462 0.138827
0.945068 0.597955 0.158816
0.955093 0.586587 0.170871
0.957504 0.568383 0.178851
0.95584 0.543908 0.180133
0.952789 0.516136 0.176181
0.949615 0.489235 0.170916
0.946578 0.466743 0.165927
0.9449 0.448753 0.163912
0.942855 0.432013 0.161547
0.0447852 0.794736 0.232868
0.044358 0.791806 0.230777
0.0438087 0.787717 0.228
0.0432746 0.783551 0.225788
0.0426337 0.779248 0.223682
0.0417334 0.774182 0.220951
0.04094 0.7682 0.218006
0.0403601 0.761913 0.215259
0.0396735 0.754604 0.212161
0.03888 0.745525 0.208835
0.0380255 0.735927 0.205798
0.0371862 0.72607 0.202518
0.0367437 0.71577 0.19939
0.0382544 0.705882 0.196811
0.0480659 0.696468 0.193194
0.0707256 0.68864 0.18703
0.127581 0.684047 0.175296
0.263447 0.685908 0.15285
0.438849 0.691524 0.12665
0.601999 0.697337 0.107668
0.737896 0.700313 0.101335
0.832166 0.699306 0.108782
0.887572 0.6925 0.119234
0.920226 0.681147 0.135393
0.94284 0.66949 0.156497
0.956054 0.658091 0.172244
0.961181 0.642069 0.182498
0.961563 0.619562 0.187472
0.959625 0.59173 0.18645
0.957015 0.56228 0.181445
0.954253 0.535851 0.176028
0.952285 0.515557 0.173465
0.950591 0.498283 0.171923
0.049836 0.831907 0.259907
0.0494392 0.829862 0.257771
0.0488899 0.826795 0.255283
0.0484321 0.823514 0.25301
0.0479438 0.820096 0.250462
0.0473487 0.816556 0.2477
0.0467536 0.813001 0.245182
0.0463722 0.809354 0.24271
0.0459907 0.804959 0.239887
0.0454261 0.799435 0.236896
0.0446784 0.793469 0.234226
0.0439765 0.787091 0.231479
0.0434577 0.779385 0.228611
0.0431067 0.770947 0.226535
0.0467231 0.762264 0.223697
0.059556 0.754482 0.218982
0.0878462 0.748318 0.211398
0.171466 0.746578 0.195087
0.337758 0.751965 0.168109
0.523644 0.759899 0.140063
0.685176 0.764965 0.122988
0.798901 0.765225 0.120287
0.869429 0.759197 0.125048
0.910689 0.748318 0.135103
0.937285 0.736187 0.15198
0.953552 0.724681 0.170626
0.96141 0.710887 0.1832
0.963851 0.69099 0.190997
0.963348 0.665141 0.192111
0.96202 0.636011 0.189364
0.960678 0.608042 0.185733
0.958846 0.585611 0.182605
0.957321 0.56759 0.181231
0.0542763 0.86067 0.287419
0.0539559 0.859083 0.285374
0.0534371 0.856825 0.282963
0.0528878 0.854292 0.280369
0.0524147 0.851469 0.277516
0.052018 0.848661 0.274922
0.0515145 0.845914 0.272526
0.051133 0.843198 0.269947
0.0508125 0.840238 0.267155
0.0503853 0.837003 0.264332
0.0498054 0.8336 0.261616
0.0492103 0.829801 0.259037
0.0486763 0.82501 0.256565
0.0480507 0.81944 0.254627
0.0487678 0.813565 0.252247
0.0542 0.80734 0.249195
0.0711528 0.801633 0.244068
0.110201 0.797421 0.23418
0.224506 0.799176 0.21355
0.414923 0.807584 0.181796
0.60708 0.816892 0.154101
0.749279 0.82005 0.140948
0.840604 0.816037 0.13843
0.895232 0.807157 0.142184
0.927993 0.795392 0.152041
0.948211 0.783551 0.166629
0.959533 0.771557 0.179461
0.964202 0.754803 0.190295
0.964828 0.732311 0.194842
0.964553 0.705577 0.195056
0.964065 0.678538 0.193118
0.963165 0.654322 0.190341
0.962051 0.635538 0.188495
0.057496 0.882185 0.315389
0.0572061 0.880827 0.313313
0.0568093 0.879164 0.310658
0.0562753 0.877287 0.307744
0.055848 0.875227 0.304891
0.0555734 0.873182 0.302449
0.0551919 0.871199 0.30016
0.0548714 0.8692 0.29749
0.0546426 0.867002 0.294606
0.0543679 0.864546 0.291752
0.0539864 0.861891 0.288823
0.0535134 0.859007 0.285939
0.0530404 0.855924 0.283452
0.0525978 0.852689 0.281376
0.0523537 0.849317 0.279408
0.053666 0.845258 0.277424
0.0611734 0.841047 0.274235
0.0814221 0.837446 0.268025
0.137072 0.836561 0.256092
0.282307 0.8421 0.229847
0.491737 0.854261 0.194919
0.67541 0.86273 0.170581
0.797375 0.862959 0.16022
0.871519 0.857069 0.158358
0.914443 0.846983 0.16199
0.940673 0.835431 0.16994
0.956069 0.824033 0.180667
0.9635 0.810178 0.190845
0.965621 0.791211 0.196078
0.965942 0.76791 0.197055
0.965423 0.742855 0.196689
0.964813 0.718532 0.194995
0.964309 0.699077 0.193881
0.0594034 0.896971 0.343557
0.059144 0.89604 0.341344
0.0589456 0.894865 0.338506
0.0586557 0.893477 0.335515
0.0584115 0.892073 0.332662
0.0582437 0.890791 0.330098
0.0579385 0.889555 0.327688
0.0576638 0.888197 0.32491
0.0575113 0.886625 0.322026
0.0573434 0.884855 0.319234
0.0571298 0.882902 0.316289
0.0568093 0.880766 0.313176
0.0564431 0.878492 0.310414
0.0560464 0.875975 0.308232
0.0556497 0.873335 0.306432
0.0555276 0.870665 0.304448
0.057557 0.867964 0.302205
0.0660868 0.865461 0.298466
0.0899672 0.864378 0.292271
0.164462 0.866041 0.276783
0.343557 0.876783 0.245518
0.561944 0.891279 0.210803
0.729809 0.898939 0.189395
0.833158 0.897673 0.181247
0.893538 0.890364 0.18024
0.928985 0.879789 0.183734
0.950103 0.868452 0.190677
0.961196 0.85716 0.197513
0.965133 0.841566 0.201068
0.966232 0.821927 0.201694
0.966232 0.799405 0.20148
0.965743 0.776577 0.198932
0.965377 0.756848 0.197024
0.060029 0.904204 0.372442
0.0598306 0.903761 0.370306
0.0597543 0.903212 0.367346
0.0597086 0.902647 0.363973
0.0596475 0.902129 0.360678
0.0595712 0.901747 0.357473
0.0594186 0.90135 0.354437
0.0592508 0.900725 0.3514
0.059144 0.899794 0.348623
0.0590677 0.898634 0.34612
0.0589914 0.897322 0.343404
0.0588846 0.895888 0.340337
0.0587167 0.894362 0.337499
0.0584268 0.892607 0.335256
0.0580758 0.890669 0.333394
0.0578164 0.888685 0.331212
0.0579995 0.886564 0.329015
0.0599069 0.884337 0.326558
0.0692912 0.882765 0.323125
0.0966506 0.882399 0.316289
0.199237 0.888334 0.29688
0.408881 0.904112 0.261112
0.624842 0.919829 0.227207
0.772168 0.926665 0.208927
0.86009 0.924407 0.202976
0.910185 0.915923 0.203037
0.939696 0.905287 0.205676
0.95581 0.895674 0.210208
0.963073 0.883467 0.213794
0.965774 0.86743 0.215091
0.966155 0.848188 0.213169
0.966262 0.827466 0.20795
0.966018 0.808438 0.203159
0.0592966 0.905455 0.404059
0.0593118 0.905394 0.401999
0.0593271 0.905333 0.399008
0.0594339 0.905348 0.395346
0.0595407 0.90547 0.39173
0.0596017 0.905684 0.388006
0.059617 0.905852 0.384451
0.0595865 0.905791 0.381094
0.0595712 0.90544 0.37818
