LUT预设1/富士LUT改款/Log机型使用/爆改富士cn.cube
TITLE "Generated by Resolve"
LUT_3D_SIZE 9
0.00875868 0.0140841 0.0142214
0.0211795 0.0151675 0.0145266
0.129015 0.0231632 0.0146181
0.383139 0.0516823 0.0207828
0.582223 0.116381 0.102495
0.843671 0.133288 0.108064
0.911986 0.137728 0.131395
0.912139 0.137728 0.133745
0.912016 0.137728 0.133745
0.00869764 0.0173495 0.0144961
0.011368 0.0162203 0.0145876
0.0937209 0.0225071 0.0146792
0.390875 0.0452735 0.014847
0.748363 0.105165 0.0849165
0.898146 0.137102 0.116869
0.912245 0.137575 0.133837
0.912139 0.137606 0.133745
0.912016 0.137606 0.133745
0.009308 0.076997 0.0261234
0.00875868 0.0673228 0.0243839
0.0514534 0.0589303 0.0197757
0.249332 0.0670024 0.0164034
0.668986 0.10013 0.0468299
0.900923 0.146609 0.117174
0.912337 0.138872 0.133165
0.912139 0.137545 0.133608
0.912016 0.137499 0.13373
0.0132448 0.223102 0.0571756
0.0118105 0.194751 0.0530098
0.0147707 0.16405 0.0479591
0.143923 0.156664 0.0317693
0.559457 0.181994 0.0195468
0.858549 0.231006 0.0998856
0.920195 0.220386 0.136248
0.917235 0.184771 0.137545
0.913283 0.153155 0.1346
0.0206455 0.520043 0.12604
0.019379 0.495918 0.12166
0.0171969 0.435492 0.109529
0.041474 0.379049 0.0957656
0.394415 0.371908 0.0508125
0.823865 0.403098 0.078584
0.932723 0.395636 0.148486
0.931258 0.32903 0.146563
0.927794 0.284504 0.141772
0.0447852 0.794736 0.232868
0.0426337 0.779248 0.223682
0.0396735 0.754604 0.212161
0.0367437 0.71577 0.19939
0.127581 0.684047 0.175296
0.737896 0.700313 0.101335
0.94284 0.66949 0.156497
0.959625 0.59173 0.18645
0.950591 0.498283 0.171923
0.0594034 0.896971 0.343557
0.0584115 0.892073 0.332662
0.0575113 0.886625 0.322026
0.0564431 0.878492 0.310414
0.057557 0.867964 0.302205
0.343557 0.876783 0.245518
0.893538 0.890364 0.18024
0.965133 0.841566 0.201068
0.965377 0.756848 0.197024
0.057496 0.903822 0.460029
0.0575875 0.904036 0.451682
0.0577096 0.90428 0.441444
0.0580911 0.904768 0.42884
0.0585641 0.905013 0.414359
0.058854 0.904234 0.399603
0.594324 0.949722 0.299657
0.936049 0.963607 0.261601
0.962631 0.923491 0.260288
0.0565499 0.90399 0.486366
0.0568704 0.903777 0.486366
0.0567483 0.903777 0.486366
0.0566262 0.903777 0.486366
0.0564431 0.903609 0.487114
0.0563516 0.903227 0.484367
0.137728 0.908186 0.46511
0.787274 0.973114 0.358999
0.946181 0.980652 0.325933
0.00872816 0.0141451 0.0146029
0.0187533 0.0149386 0.014313
0.124269 0.0231632 0.0145724
0.395209 0.0504768 0.0177157
0.631647 0.11809 0.102083
0.874693 0.135454 0.109255
0.912245 0.137697 0.133806
0.912139 0.137728 0.133623
0.912016 0.137728 0.133623
0.00869764 0.0188449 0.0229953
0.0106355 0.0170138 0.0171664
0.0923476 0.0213931 0.0147707
0.359014 0.0419928 0.0148013
0.671183 0.0966049 0.0799115
0.882841 0.135988 0.110597
0.912245 0.13756 0.133822
0.912139 0.137606 0.133623
0.912016 0.137606 0.133623
0.00987259 0.0875105 0.0468147
0.00924697 0.0736248 0.0355688
0.0497597 0.0621347 0.0242618
0.252445 0.0641642 0.0159762
0.748058 0.0910201 0.0422522
0.907393 0.138247 0.12163
0.912261 0.137606 0.133379
0.912139 0.137499 0.133608
0.912016 0.137499 0.133623
0.0134279 0.250172 0.0903334
0.0122377 0.21033 0.0724498
0.0154574 0.16878 0.0551614
0.139162 0.156176 0.0328832
0.557946 0.180179 0.0190585
0.866423 0.224079 0.0952926
0.917662 0.197543 0.135225
0.913725 0.154818 0.133852
0.911971 0.139208 0.133288
0.0226444 0.555779 0.162295
0.0205081 0.511711 0.144961
0.0175021 0.441062 0.119234
0.0420691 0.379004 0.0974899
0.383017 0.369116 0.0494392
0.824384 0.403296 0.073167
0.932433 0.396384 0.147189
0.930205 0.321447 0.143053
0.923751 0.257069 0.137743
0.0472114 0.805234 0.273564
0.0440681 0.78352 0.251774
0.0399176 0.753933 0.223407
0.0361486 0.71368 0.200427
0.124361 0.679301 0.172045
0.736675 0.694697 0.0990311
0.942916 0.671183 0.151156
0.959564 0.59472 0.184146
0.950271 0.499519 0.169543
0.0587778 0.896025 0.383536
0.0584573 0.891295 0.363104
0.0576638 0.884352 0.333913
0.0562295 0.876097 0.310582
0.0573434 0.865309 0.298619
0.323644 0.87396 0.244633
0.894957 0.88864 0.177417
0.965393 0.843137 0.199756
0.965362 0.76054 0.194598
0.0568856 0.903883 0.484169
0.0570535 0.903868 0.469215
0.0576638 0.904067 0.447669
0.0583047 0.904707 0.426596
0.0587625 0.905318 0.410269
0.0586557 0.903716 0.39472
0.585885 0.94931 0.29659
0.937835 0.962737 0.259953
0.962585 0.924605 0.260426
0.0593423 0.903181 0.572427
0.0575418 0.903685 0.519722
0.0565347 0.903716 0.49073
0.0566415 0.903746 0.486839
0.0564279 0.903624 0.486336
0.0563058 0.903197 0.483238
0.133181 0.90808 0.462791
0.79147 0.973617 0.354864
0.94667 0.980484 0.322988
0.0107881 0.0177005 0.0413825
0.0179751 0.0171206 0.0314794
0.113573 0.0230259 0.0215
0.377874 0.048661 0.0175784
0.629969 0.11252 0.0970321
0.868727 0.135256 0.108659
0.912062 0.137697 0.132738
0.912139 0.137728 0.133501
0.912016 0.137728 0.133501
0.0139773 0.0233158 0.0665599
0.0132143 0.021088 0.0487373
0.0889754 0.0249485 0.0330816
0.339895 0.0416266 0.0194858
0.672816 0.0907301 0.0737316
0.87715 0.135729 0.10901
0.9122 0.137591 0.133318
0.912139 0.137606 0.133501
0.912016 0.137606 0.133501
0.0115358 0.104311 0.12726
0.0107271 0.088426 0.102235
0.0571756 0.074464 0.0690166
0.253559 0.0700542 0.0337224
0.695247 0.0874495 0.035996
0.889799 0.137606 0.109087
0.912245 0.137667 0.133257
0.912123 0.137575 0.133394
0.912016 0.137499 0.133486
0.0177157 0.294881 0.22388
0.0151064 0.247761 0.177554
0.0179446 0.192508 0.125093
0.147402 0.16994 0.0837568
0.589105 0.181003 0.0362554
0.891127 0.206287 0.0959335
0.915496 0.181704 0.133608
0.913573 0.15697 0.133211
0.912337 0.143252 0.13283
0.0307469 0.597101 0.350927
0.0264897 0.550546 0.289799
0.0212253 0.475486 0.216205
0.0471962 0.406104 0.162783
0.38381 0.38172 0.0963455
0.828046 0.399634 0.0953689
0.931823 0.384497 0.152651
0.926879 0.299443 0.136599
0.921004 0.240467 0.135256
0.0517433 0.817517 0.424323
0.0482185 0.797848 0.374182
0.043061 0.763607 0.304356
0.038407 0.720439 0.256123
0.124636 0.683268 0.206973
0.735836 0.690166 0.121599
0.944427 0.664271 0.181277
0.958572 0.587182 0.189868
0.94876 0.498116 0.165133
0.0580301 0.896468 0.498344
0.05626 0.891264 0.448753
0.0561074 0.881239 0.407919
0.0556649 0.870375 0.368765
0.057496 0.859937 0.333349
0.292821 0.869078 0.259693
0.8963 0.885328 0.177386
0.966445 0.83714 0.219104
0.965682 0.758389 0.203174
0.0621042 0.902998 0.65069
0.0597086 0.903319 0.589319
0.0569009 0.903914 0.500801
0.0569162 0.904021 0.462837
0.057847 0.904311 0.433219
0.0591745 0.902846 0.402716
0.560189 0.946975 0.298833
0.939498 0.960693 0.255787
0.962402 0.921477 0.25565
0.0655222 0.902419 0.746883
0.0636912 0.902495 0.699123
0.0603037 0.903029 0.615015
0.0572824 0.903288 0.531563
0.0561532 0.903487 0.502937
0.05626 0.903166 0.490944
0.135439 0.9084 0.461814
0.791669 0.973816 0.350896
0.947417 0.979675 0.318135
0.0235752 0.026154 0.10016
0.0258488 0.0241093 0.0827649
0.121553 0.0276341 0.0639048
0.383383 0.0500954 0.0520638
0.633448 0.108766 0.10721
0.865934 0.134951 0.115312
0.912261 0.137713 0.135409
0.912139 0.137728 0.133394
0.912016 0.137728 0.133394
0.0343786 0.0355993 0.141909
0.0275883 0.0319524 0.115496
0.100923 0.0355688 0.0948348
0.348592 0.0487831 0.0751049
0.690044 0.0928817 0.108186
0.887068 0.136233 0.125582
0.912261 0.137591 0.135622
0.912139 0.137606 0.133394
0.912016 0.137606 0.133394
0.0301671 0.117586 0.251286
0.0238956 0.103029 0.211246
0.0713817 0.0938125 0.163699
0.26096 0.091249 0.126604
0.688487 0.105364 0.103929
0.889891 0.146914 0.143893
0.912398 0.137881 0.137514
0.912139 0.137499 0.133379
0.912016 0.137499 0.133394
0.0247959 0.357641 0.497108
0.0210422 0.306996 0.418585
0.0214389 0.235126 0.301213
0.167285 0.1991 0.203174
0.610147 0.199649 0.130388
0.876234 0.222171 0.152087
0.917174 0.196353 0.157061
0.914046 0.163119 0.137331
0.912657 0.144945 0.132906
0.0418097 0.636286 0.664988
0.0374304 0.596017 0.593133
0.0307622 0.524804 0.459236
0.0566262 0.450645 0.342138
0.412406 0.418311 0.235096
0.855756 0.411597 0.192889
0.931914 0.355993 0.201297
0.923827 0.277455 0.161822
0.919936 0.23389 0.141482
0.0576791 0.817472 0.721782
0.0552682 0.804181 0.680537
0.0511635 0.778515 0.587991
0.0461433 0.736507 0.487907
0.137026 0.697444 0.392432
0.748882 0.703685 0.272007
0.949554 0.663767 0.270741
0.957488 0.569543 0.23505
0.942245 0.454093 0.183703
0.0648203 0.896315 0.764172
0.0619516 0.89221 0.698772
0.0581369 0.883803 0.605127
0.0557717 0.86952 0.534646
0.0569619 0.85539 0.473198
0.284016 0.862516 0.376867
0.900404 0.884031 0.295338
0.96936 0.831052 0.293431
0.967514 0.748455 0.252003
0.0680552 0.903426 0.82591
0.0665446 0.903197 0.790127
0.0634775 0.903212 0.704707
0.0596475 0.903532 0.604883
0.0562295 0.902983 0.509544
0.0607767 0.90071 0.46949
0.531792 0.941909 0.364614
0.941527 0.959136 0.293858
0.962768 0.917174 0.266133
0.0694285 0.903258 0.844038
0.0684977 0.903426 0.840497
0.0661936 0.903059 0.793545
0.0637064 0.902968 0.722271
0.0605325 0.903059 0.634684
0.0572366 0.9037 0.556985
0.139208 0.908507 0.496696
0.789212 0.973678 0.378897
0.948058 0.979248 0.323812
0.0514382 0.0512398 0.218509
0.0468452 0.0444343 0.179995
0.140871 0.0434577 0.147494
0.411109 0.0612497 0.137285
0.684169 0.12755 0.197177
0.87599 0.153155 0.206912
0.915602 0.153903 0.219455
0.913649 0.149142 0.165423
0.911971 0.13785 0.135058
0.070222 0.0675669 0.294865
0.0579538 0.0592508 0.248981
0.123323 0.061799 0.21944
0.391073 0.0680552 0.198276
0.739788 0.112932 0.238956
0.898817 0.166522 0.272419
0.917144 0.16643 0.244816
0.913817 0.149386 0.166537
0.911986 0.137743 0.135042
0.0897231 0.143389 0.432471
0.0752117 0.131426 0.404334
0.096437 0.13048 0.367407
0.310033 0.122637 0.310414
0.717052 0.134676 0.27892
0.891096 0.184848 0.294713
0.918669 0.173419 0.274098
0.914488 0.15433 0.185046
0.912184 0.137911 0.136599
0.0856947 0.405081 0.726711
0.0704204 0.346258 0.653727
0.0567941 0.290913 0.58146
0.204761 0.255436 0.450294
0.624018 0.244221 0.353094
0.882567 0.262745 0.333501
0.927275 0.254749 0.316869
0.919219 0.19733 0.214603
0.91342 0.147265 0.157259
0.0532235 0.700221 0.910719
0.0487831 0.668025 0.884932
0.0413825 0.600275 0.799176
0.0780346 0.523949 0.667155
0.463661 0.476905 0.497185
0.872038 0.45005 0.394751
0.941543 0.408637 0.355917
0.93106 0.320882 0.247684
0.922698 0.253819 0.187518
0.0652171 0.832441 0.942657
0.0635233 0.822583 0.92874
0.0601205 0.798749 0.881163
0.0554665 0.761395 0.791989
0.157412 0.722728 0.677302
0.767651 0.729412 0.527291
0.958206 0.674891 0.452888
0.953414 0.520745 0.323476
0.936645 0.411185 0.225406
0.0719158 0.891981 0.95053
0.0703136 0.888853 0.928557
0.0674144 0.883177 0.870115
0.0637369 0.873899 0.805844
0.0626078 0.858213 0.746288
0.295216 0.859495 0.655848
0.905547 0.886992 0.530037
0.97464 0.832227 0.472084
0.971222 0.738109 0.357794
0.0729534 0.904509 0.920241
0.0721599 0.904891 0.918441
0.0704814 0.904448 0.892729
0.0677348 0.903929 0.828336
0.0644083 0.902602 0.747265
0.0688334 0.899428 0.674983
0.524163 0.936049 0.562814
0.948211 0.958312 0.482521
0.968444 0.915175 0.414603
0.0729686 0.904402 0.907805
0.0725872 0.904326 0.906294
0.0712291 0.903868 0.889342
0.0691997 0.903731 0.870878
0.0671855 0.90367 0.822324
0.065156 0.902754 0.76527
0.151156 0.908904 0.682567
0.789014 0.973114 0.51281
0.951354 0.979644 0.406287
0.106249 0.100389 0.43975
0.0878157 0.0876783 0.381933
0.176333 0.0815747 0.324788
0.458717 0.0851759 0.317418
0.754421 0.148669 0.359396
0.899413 0.194186 0.394568
0.925063 0.205722 0.401144
0.924804 0.214176 0.324895
0.921141 0.193423 0.252491
0.141756 0.125368 0.527962
0.116014 0.113359 0.489296
0.166033 0.117525 0.476478
0.458549 0.118059 0.45623
0.807614 0.149691 0.478386
0.917006 0.210224 0.490852
0.927642 0.216526 0.443839
0.926253 0.222263 0.351034
0.921431 0.19704 0.268238
0.206882 0.192813 0.635309
0.176471 0.190478 0.654215
0.16672 0.206012 0.674479
0.393133 0.198032 0.61709
0.77969 0.1841 0.553918
0.910002 0.222873 0.527993
0.929473 0.216281 0.48539
0.927398 0.225391 0.376318
0.922744 0.204486 0.293965
0.227665 0.431357 0.820325
0.19942 0.386511 0.788663
0.173358 0.387839 0.814298
0.296315 0.360616 0.745937
0.684764 0.323888 0.652064
0.90193 0.31693 0.598566
0.939269 0.307103 0.546715
0.935607 0.285847 0.429114
0.926085 0.222858 0.319097
0.19266 0.743526 0.961593
0.174517 0.70663 0.954696
0.137346 0.643336 0.928618
0.146883 0.580514 0.877852
0.532891 0.568643 0.775494
0.879896 0.527367 0.68719
0.951736 0.48954 0.61738
0.950408 0.436515 0.508522
0.936721 0.334432 0.371176
0.0715343 0.837827 0.968414
0.0714885 0.831296 0.967788
0.0676432 0.81471 0.966003
0.0636759 0.787076 0.955886
0.215274 0.758846 0.908186
0.783703 0.763485 0.78471
0.961532 0.707607 0.684474
0.967147 0.613825 0.564065
0.952987 0.49337 0.402686
0.0751965 0.887831 0.973175
0.0744335 0.886152 0.973007
0.0725872 0.882185 0.972427
0.0708782 0.875715 0.968185
0.0688182 0.865003 0.948531
0.313649 0.865675 0.876234
0.907851 0.891279 0.763806
0.976791 0.828962 0.672374
0.973449 0.709697 0.507485
0.0763867 0.906264 0.973449
0.0762341 0.906172 0.973404
0.0757 0.905562 0.970748
0.0741588 0.904982 0.962936
0.071519 0.903319 0.936996
0.0769055 0.898787 0.884276
0.534569 0.932937 0.804883
0.952346 0.95581 0.708049
0.975402 0.91313 0.627314
0.0754711 0.906172 0.968444
0.075288 0.906142 0.967636
0.0747082 0.905608 0.956893
0.0738994 0.905104 0.939681
0.0720989 0.904616 0.91957
0.0707713 0.904585 0.907698
0.170672 0.910613 0.866651
0.790234 0.970794 0.741756
0.959472 0.978317 0.623713
0.216968 0.182956 0.676478
0.177066 0.160098 0.635355
0.249989 0.149828 0.592889
0.523507 0.153368 0.594125
0.822736 0.189746 0.598337
0.923064 0.24416 0.604379
0.936492 0.261311 0.573281
0.935714 0.269154 0.507286
0.931365 0.249409 0.439719
0.272389 0.219532 0.733471
0.235355 0.203037 0.72166
0.267659 0.221958 0.752407
0.553552 0.233951 0.740078
0.861875 0.233188 0.724437
0.934493 0.2822 0.685237
0.939529 0.275212 0.619425
0.93753 0.274586 0.539376
0.93254 0.254032 0.465827
0.317632 0.272312 0.8009
0.330877 0.315129 0.839124
0.338338 0.362371 0.874784
0.503059 0.351507 0.842924
0.828687 0.301961 0.78703
0.928939 0.299001 0.729488
0.941024 0.279988 0.671504
0.939208 0.276738 0.574258
0.934127 0.252964 0.492958
0.354772 0.46772 0.903899
0.33756 0.442466 0.889235
0.389776 0.520424 0.933211
0.426947 0.494453 0.909178
0.737362 0.449317 0.85745
0.920073 0.409705 0.80119
0.949187 0.382544 0.737652
0.946944 0.342519 0.627909
0.939284 0.284947 0.532189
0.329427 0.708431 0.96286
0.327123 0.676112 0.958877
0.32369 0.668406 0.958862
0.32401 0.65861 0.955291
0.607767 0.666911 0.930907
0.893629 0.615381 0.872831
0.957931 0.561913 0.804288
0.958572 0.499504 0.70312
0.951843 0.426352 0.602991
0.110765 0.810864 0.965621
0.128145 0.800046 0.965393
0.149645 0.789075 0.964965
0.15761 0.776333 0.96408
0.290211 0.768811 0.961639
0.802014 0.803784 0.93547
0.959594 0.758724 0.873838
0.971878 0.694682 0.785992
0.966918 0.61973 0.686885
0.0729381 0.86508 0.970901
0.0726329 0.863813 0.970764
0.0723888 0.862821 0.970687
0.0720989 0.861845 0.970733
0.0747692 0.858656 0.97055
0.372747 0.869291 0.968658
0.905013 0.894255 0.913558
0.979477 0.846296 0.840177
0.976944 0.770855 0.73341
0.0772106 0.902449 0.974044
0.0769665 0.901854 0.974014
0.0768292 0.901366 0.973999
0.0765545 0.901091 0.973938
0.0758984 0.899413 0.973892
0.080293 0.896071 0.972992
0.523812 0.930724 0.939773
0.954116 0.952667 0.868177
0.979339 0.905913 0.793561
0.0776989 0.905898 0.974258
0.0774701 0.905913 0.974273
0.0770123 0.906111 0.974273
0.0764782 0.906065 0.974212
0.0757153 0.906218 0.973159
0.0749371 0.905638 0.964569
0.146029 0.909941 0.952132
0.783444 0.969985 0.889204
0.965972 0.975708 0.812528
0.329259 0.293843 0.835645
0.317906 0.27921 0.818799
0.357992 0.270542 0.809201
0.604807 0.284123 0.81146
0.867552 0.285451 0.790616
0.941375 0.344488 0.767834
0.946136 0.342275 0.717388
0.945449 0.331273 0.657893
0.942672 0.316182 0.614572
0.34815 0.315251 0.854459
0.349126 0.318456 0.855222
0.43621 0.391104 0.898573
0.629664 0.421302 0.899992
0.885817 0.402701 0.875853
0.946609 0.400549 0.820081
0.948013 0.36173 0.759167
0.946548 0.342885 0.691707
0.944625 0.325917 0.647074
0.405341 0.381353 0.897444
0.446632 0.442329 0.923537
0.476967 0.495293 0.938796
0.552071 0.503471 0.931945
0.841962 0.477104 0.912963
0.939879 0.414633 0.857954
0.949676 0.375586 0.804028
0.948196 0.347539 0.727306
0.945876 0.328893 0.680476
0.470558 0.515526 0.941085
0.464683 0.499718 0.936675
0.447623 0.530327 0.937942
0.472404 0.535912 0.933425
0.730648 0.547677 0.937041
0.92668 0.515373 0.910414
0.955688 0.472404 0.8551
0.952438 0.407492 0.772702
0.949279 0.35938 0.717266
0.343923 0.701732 0.962921
0.380758 0.676234 0.962768
0.404669 0.641321 0.956909
0.403662 0.642191 0.952178
0.544381 0.668345 0.950454
0.889952 0.676829 0.949844
0.963897 0.622248 0.905699
0.960815 0.547295 0.832807
0.958083 0.487419 0.768475
0.153094 0.793332 0.963958
0.171801 0.778836 0.963409
0.218387 0.761196 0.963272
0.272053 0.742367 0.963012
0.349126 0.74844 0.963561
0.764431 0.807874 0.978225
0.956786 0.784726 0.956283
0.974487 0.721172 0.89807
0.969192 0.659937 0.824033
0.071397 0.852918 0.969558
0.0718853 0.849042 0.969116
0.0738537 0.841856 0.968322
0.0847791 0.830106 0.967193
0.103258 0.818219 0.966705
0.369604 0.834318 0.969528
0.890425 0.890959 0.981491
0.978988 0.858289 0.940276
0.979294 0.810742 0.874937
0.0762951 0.894499 0.973312
0.076051 0.893126 0.97322
0.0753338 0.889433 0.973068
0.0748608 0.884504 0.97261
0.0742504 0.880323 0.97229
0.0842298 0.880751 0.972381
0.522255 0.920958 0.982055
0.946777 0.946319 0.961013
0.982284 0.910658 0.908721
0.0775769 0.905516 0.974075
0.0774548 0.905516 0.974075
0.0773327 0.905516 0.974075
0.0772259 0.905516 0.974075
0.0772717 0.905577 0.974105
0.0768749 0.905699 0.974136
0.115587 0.907988 0.974029
0.739422 0.964752 0.970153
0.969421 0.97438 0.926925
0.433783 0.416388 0.917082
0.416144 0.398596 0.908522
0.473411 0.420951 0.911971
0.654627 0.459861 0.919646
0.878264 0.446571 0.902708
0.948455 0.456168 0.862867
0.953124 0.431006 0.827268
0.951461 0.408835 0.780209
0.949859 0.395941 0.746288
0.452873 0.433158 0.924285
0.451743 0.433448 0.924331
0.502464 0.48986 0.938766
0.555581 0.505608 0.930541
0.823743 0.51809 0.928008
0.940261 0.481422 0.883818
0.955184 0.450248 0.854597
0.952575 0.421088 0.809384
0.951308 0.409079 0.776654
0.488243 0.479622 0.939162
0.477363 0.499886 0.940703
0.460029 0.516426 0.939071
0.498192 0.522423 0.932479
0.700542 0.532906 0.933822
0.919417 0.507362 0.912413
0.958007 0.462364 0.879561
0.953536 0.423331 0.837766
0.952361 0.411383 0.807233
0.463249 0.551659 0.944198
0.45565 0.527749 0.938384
0.440391 0.532921 0.937438
0.451774 0.53901 0.934447
0.550546 0.546456 0.930831
0.879957 0.557305 0.931502
0.960479 0.532097 0.9075
0.957397 0.468254 0.869825
0.954437 0.432822 0.836301
0.340063 0.702968 0.963363
0.372152 0.683955 0.963149
0.397864 0.651362 0.958892
0.408164 0.615015 0.946883
0.446693 0.583276 0.933593
0.786068 0.619669 0.947127
0.950256 0.633539 0.937789
0.96698 0.580804 0.90985
0.961227 0.532631 0.873045
0.181674 0.779568 0.962982
0.189883 0.76817 0.962798
0.219928 0.754665 0.962798
0.274006 0.73901 0.962783
0.354696 0.733257 0.962112
0.602975 0.746288 0.962341
0.920546 0.767956 0.965255
0.976196 0.726833 0.949508
0.972122 0.673289 0.911269
0.0824292 0.832242 0.967132
0.0962081 0.825422 0.966354
0.11078 0.818509 0.965576
0.13164 0.808103 0.964538
0.137514 0.798474 0.964401
0.286259 0.80621 0.965545
0.821286 0.864317 0.98587
0.969604 0.851148 0.975341
0.980911 0.809491 0.947631
0.0753948 0.887602 0.972732
0.0749676 0.884855 0.972503
0.0743572 0.879469 0.972137
0.0731212 0.870085 0.971176
0.0717021 0.859312 0.970123
0.071046 0.85156 0.969268
0.373068 0.876936 0.973312
0.92723 0.93579 0.991989
0.983139 0.910842 0.973724
0.0775769 0.905516 0.973953
0.0774548 0.905516 0.973953
0.0773632 0.905241 0.973953
0.0771649 0.904875 0.973922
0.0770733 0.903777 0.973938
0.0764782 0.900481 0.97377
0.12137 0.899687 0.973465
0.70396 0.953231 0.988296
0.967453 0.971572 0.984344
