LUT预设1/富士LUT改款/Log机型使用/爆改富士cn.cube
TITLE "Generated by Resolve"
LUT_3D_SIZE 5
0.00875868 0.0140841 0.0142214
0.129015 0.0231632 0.0146181
0.582223 0.116381 0.102495
0.911986 0.137728 0.131395
0.912016 0.137728 0.133745
0.009308 0.076997 0.0261234
0.0514534 0.0589303 0.0197757
0.668986 0.10013 0.0468299
0.912337 0.138872 0.133165
0.912016 0.137499 0.13373
0.0206455 0.520043 0.12604
0.0171969 0.435492 0.109529
0.394415 0.371908 0.0508125
0.932723 0.395636 0.148486
0.927794 0.284504 0.141772
0.0594034 0.896971 0.343557
0.0575113 0.886625 0.322026
0.057557 0.867964 0.302205
0.893538 0.890364 0.18024
0.965377 0.756848 0.197024
0.0565499 0.90399 0.486366
0.0567483 0.903777 0.486366
0.0564431 0.903609 0.487114
0.137728 0.908186 0.46511
0.946181 0.980652 0.325933
0.0107881 0.0177005 0.0413825
0.113573 0.0230259 0.0215
0.629969 0.11252 0.0970321
0.912062 0.137697 0.132738
0.912016 0.137728 0.133501
0.0115358 0.104311 0.12726
0.0571756 0.074464 0.0690166
0.695247 0.0874495 0.035996
0.912245 0.137667 0.133257
0.912016 0.137499 0.133486
0.0307469 0.597101 0.350927
0.0212253 0.475486 0.216205
0.38381 0.38172 0.0963455
0.931823 0.384497 0.152651
0.921004 0.240467 0.135256
0.0580301 0.896468 0.498344
0.0561074 0.881239 0.407919
0.057496 0.859937 0.333349
0.8963 0.885328 0.177386
0.965682 0.758389 0.203174
0.0655222 0.902419 0.746883
0.0603037 0.903029 0.615015
0.0561532 0.903487 0.502937
0.135439 0.9084 0.461814
0.947417 0.979675 0.318135
0.0514382 0.0512398 0.218509
0.140871 0.0434577 0.147494
0.684169 0.12755 0.197177
0.915602 0.153903 0.219455
0.911971 0.13785 0.135058
0.0897231 0.143389 0.432471
0.096437 0.13048 0.367407
0.717052 0.134676 0.27892
0.918669 0.173419 0.274098
0.912184 0.137911 0.136599
0.0532235 0.700221 0.910719
0.0413825 0.600275 0.799176
0.463661 0.476905 0.497185
0.941543 0.408637 0.355917
0.922698 0.253819 0.187518
0.0719158 0.891981 0.95053
0.0674144 0.883177 0.870115
0.0626078 0.858213 0.746288
0.905547 0.886992 0.530037
0.971222 0.738109 0.357794
0.0729686 0.904402 0.907805
0.0712291 0.903868 0.889342
0.0671855 0.90367 0.822324
0.151156 0.908904 0.682567
0.951354 0.979644 0.406287
0.216968 0.182956 0.676478
0.249989 0.149828 0.592889
0.822736 0.189746 0.598337
0.936492 0.261311 0.573281
0.931365 0.249409 0.439719
0.317632 0.272312 0.8009
0.338338 0.362371 0.874784
0.828687 0.301961 0.78703
0.941024 0.279988 0.671504
0.934127 0.252964 0.492958
0.329427 0.708431 0.96286
0.32369 0.668406 0.958862
0.607767 0.666911 0.930907
0.957931 0.561913 0.804288
0.951843 0.426352 0.602991
0.0729381 0.86508 0.970901
0.0723888 0.862821 0.970687
0.0747692 0.858656 0.97055
0.905013 0.894255 0.913558
0.976944 0.770855 0.73341
0.0776989 0.905898 0.974258
0.0770123 0.906111 0.974273
0.0757153 0.906218 0.973159
0.146029 0.909941 0.952132
0.965972 0.975708 0.812528
0.433783 0.416388 0.917082
0.473411 0.420951 0.911971
0.878264 0.446571 0.902708
0.953124 0.431006 0.827268
0.949859 0.395941 0.746288
0.488243 0.479622 0.939162
0.460029 0.516426 0.939071
0.700542 0.532906 0.933822
0.958007 0.462364 0.879561
0.952361 0.411383 0.807233
0.340063 0.702968 0.963363
0.397864 0.651362 0.958892
0.446693 0.583276 0.933593
0.950256 0.633539 0.937789
0.961227 0.532631 0.873045
0.0824292 0.832242 0.967132
0.11078 0.818509 0.965576
0.137514 0.798474 0.964401
0.821286 0.864317 0.98587
0.980911 0.809491 0.947631
0.0775769 0.905516 0.973953
0.0773632 0.905241 0.973953
0.0770733 0.903777 0.973938
0.12137 0.899687 0.973465
0.967453 0.971572 0.984344
