LUT预设1/富士LUT改款/Log机型使用/爆改ASTIA.cube
TITLE "Generated by Resolve"
LUT_3D_SIZE 33
0.00946059 0.015198 0.0153506
0.00946059 0.015198 0.0153506
0.00946059 0.015198 0.0153506
0.00946059 0.015198 0.0153506
0.0319219 0.0163882 0.0162051
0.073106 0.0174563 0.0176852
0.129412 0.0181582 0.0198062
0.195499 0.0182956 0.0222477
0.261631 0.0177005 0.0220645
0.334966 0.0163729 0.0222324
0.411887 0.0149844 0.0241398
0.492897 0.0139773 0.0296178
0.576944 0.013489 0.0404822
0.658625 0.01355 0.0578317
0.736812 0.0142214 0.0819409
0.812009 0.0147097 0.129747
0.875151 0.0150759 0.198322
0.922484 0.0150912 0.284337
0.949844 0.014725 0.38175
0.951171 0.0152285 0.462104
0.951308 0.0189212 0.506096
0.951827 0.0325628 0.522133
0.953063 0.0795758 0.529335
0.953658 0.0944076 0.531411
0.953857 0.098558 0.53196
0.953857 0.098558 0.53196
0.953857 0.098558 0.53196
0.953857 0.098558 0.53196
0.953857 0.098558 0.53196
0.953857 0.098558 0.53196
0.953857 0.098558 0.53196
0.953857 0.098558 0.53196
0.953857 0.098558 0.53196
0.00946059 0.015198 0.0153506
0.00946059 0.015198 0.0153506
0.00946059 0.015198 0.0153506
0.0201724 0.0158541 0.01561
0.0572366 0.0170596 0.0168917
0.119707 0.0180819 0.0196994
0.196262 0.0182345 0.0219272
0.283528 0.0172122 0.0221866
0.381765 0.0155337 0.0233463
0.485985 0.014023 0.0283665
0.593317 0.0133211 0.0416419
0.692226 0.0138705 0.0681468
0.783062 0.0145113 0.111986
0.860609 0.0150301 0.179843
0.918349 0.0151522 0.270726
0.947692 0.0147402 0.374365
0.951186 0.015198 0.459571
0.951324 0.0189822 0.506355
0.951858 0.0362097 0.522744
0.953338 0.0864881 0.530297
0.953719 0.0957504 0.531579
0.953857 0.098558 0.53196
0.953857 0.098558 0.53196
0.953857 0.098558 0.53196
0.953857 0.098558 0.53196
0.953857 0.098558 0.53196
0.953857 0.098558 0.53196
0.953857 0.098558 0.53196
0.953857 0.098558 0.53196
0.953857 0.098558 0.53196
0.953857 0.098558 0.53196
0.953857 0.098558 0.53196
0.953857 0.098558 0.53196
0.00946059 0.015198 0.0153506
0.00946059 0.015198 0.0153506
0.00946059 0.0152132 0.0153506
0.0224613 0.0162661 0.0157321
0.0639506 0.0174105 0.0175479
0.124865 0.0184176 0.0196231
0.199496 0.0185397 0.0206455
0.289494 0.0173953 0.0209659
0.391867 0.0157015 0.022858
0.501335 0.0140993 0.0295415
0.61146 0.0133516 0.0459449
0.715862 0.0139162 0.0780041
0.811963 0.0145418 0.131044
0.891188 0.0150759 0.216907
0.937163 0.0149386 0.32871
0.949905 0.0149691 0.434684
0.951385 0.0179446 0.497581
0.951873 0.0404822 0.52134
0.953307 0.085481 0.530129
0.953811 0.0973831 0.531838
0.953857 0.0983902 0.53196
0.953857 0.098558 0.53196
0.953857 0.098558 0.53196
0.953857 0.098558 0.53196
0.953857 0.098558 0.53196
0.953857 0.098558 0.53196
0.953857 0.098558 0.53196
0.953857 0.098558 0.53196
0.953857 0.098558 0.53196
0.953857 0.098558 0.53196
0.953857 0.098558 0.53196
0.953857 0.098558 0.53196
0.953857 0.098558 0.53196
0.00924697 0.0310674 0.0161135
0.00927749 0.0294804 0.0160372
0.009308 0.0267033 0.0159457
0.015259 0.0207218 0.0158236
0.047303 0.0180362 0.0164797
0.0920424 0.0181888 0.018265
0.143862 0.0183719 0.0206455
0.215198 0.0179599 0.0213016
0.306386 0.016846 0.0210117
0.409705 0.0151827 0.0227359
0.520211 0.0139315 0.0320897
0.632822 0.0135348 0.0551766
0.739879 0.0138705 0.0955062
0.835935 0.0145876 0.163317
0.910231 0.0151522 0.260136
0.951171 0.0150454 0.376638
0.951553 0.0153964 0.471229
0.951888 0.0378729 0.509407
0.952728 0.0692149 0.525521
0.953475 0.0899977 0.531044
0.953796 0.0974594 0.532006
0.953857 0.098558 0.53196
0.953857 0.098558 0.53196
0.953857 0.098558 0.53196
0.953857 0.098558 0.53196
0.953857 0.098558 0.53196
0.953857 0.098558 0.53196
0.953857 0.098558 0.53196
0.953857 0.098558 0.53196
0.953857 0.098558 0.53196
0.953857 0.098558 0.53196
0.953857 0.098558 0.53196
0.953857 0.098558 0.53196
0.00898756 0.0660258 0.0174716
0.00900282 0.0631723 0.0173648
0.00900282 0.0564889 0.017319
0.0100404 0.0428168 0.0167697
0.0285039 0.0338903 0.0164797
0.0623941 0.0293736 0.0168307
0.0997635 0.0264439 0.0181125
0.151522 0.0242008 0.0190127
0.226017 0.0213779 0.0193942
0.320668 0.0180972 0.0200351
0.428428 0.0153201 0.0248417
0.54165 0.0138705 0.0361486
0.654353 0.0135348 0.0603494
0.760571 0.013962 0.103655
0.854368 0.0146487 0.176501
0.921843 0.0149691 0.28127
0.951217 0.0148013 0.399359
0.951553 0.0162509 0.48571
0.951843 0.0403296 0.51548
0.952789 0.0726329 0.527138
0.953552 0.0922866 0.531151
0.953857 0.098558 0.53196
0.953857 0.098558 0.53196
0.953857 0.098558 0.53196
0.953857 0.098558 0.53196
0.953857 0.098558 0.53196
0.953857 0.098558 0.53196
0.953857 0.098558 0.53196
0.953857 0.098558 0.53196
0.953857 0.098558 0.53196
0.953857 0.098558 0.53196
0.953857 0.098558 0.53196
0.953857 0.098558 0.53196
0.00856031 0.105425 0.0187991
0.00862135 0.102159 0.0187076
0.00872816 0.0913558 0.0187839
0.00895705 0.0694285 0.0178225
0.0188602 0.055314 0.017258
0.0459449 0.0490272 0.0170443
0.0768902 0.0447395 0.0170901
0.121187 0.0404669 0.0172885
0.186526 0.0361791 0.0177768
0.274235 0.0310521 0.0186923
0.38027 0.0255283 0.0206302
0.49247 0.0210574 0.0256352
0.603906 0.017319 0.0421454
0.711467 0.014786 0.0767529
0.812909 0.014313 0.135012
0.898787 0.0150301 0.22591
0.945541 0.0149691 0.346151
0.950805 0.0151217 0.454353
0.951644 0.0236057 0.502464
0.952331 0.0602579 0.523919
0.953384 0.0885328 0.530419
0.95378 0.0970321 0.531807
0.953857 0.098558 0.53196
0.953857 0.098558 0.53196
0.953857 0.098558 0.53196
0.953857 0.098558 0.53196
0.953857 0.098558 0.53196
0.953857 0.098558 0.53196
0.953857 0.098558 0.53196
0.953857 0.098558 0.53196
0.953857 0.098558 0.53196
0.953857 0.098558 0.53196
0.953857 0.098558 0.53196
0.00758373 0.145769 0.019852
0.00769055 0.141665 0.0197604
0.00802625 0.125383 0.0197299
0.00869764 0.0971237 0.0189364
0.013611 0.0769818 0.0182498
0.0347753 0.0680552 0.017792
0.0631113 0.0634165 0.0175937
0.103044 0.058854 0.0175326
0.162707 0.0550698 0.0173648
0.246372 0.05037 0.0169375
0.35314 0.0424048 0.0165408
0.463462 0.0349889 0.0180667
0.574319 0.0268254 0.0299992
0.68336 0.0202335 0.0588388
0.786648 0.0170443 0.108965
0.880476 0.0158999 0.190188
0.934997 0.0151064 0.306889
0.949187 0.0144961 0.421332
0.951415 0.0222782 0.489693
0.951873 0.0503395 0.51989
0.953017 0.0815747 0.529458
0.953796 0.0974289 0.531807
0.953857 0.098558 0.53196
0.953857 0.098558 0.53196
0.953857 0.098558 0.53196
0.953857 0.098558 0.53196
0.953857 0.098558 0.53196
0.953857 0.098558 0.53196
0.953857 0.098558 0.53196
0.953857 0.098558 0.53196
0.953857 0.098558 0.53196
0.953857 0.098558 0.53196
0.953857 0.098558 0.53196
0.00616464 0.195804 0.0209354
0.00621042 0.190417 0.0208133
0.00679026 0.16614 0.0203861
0.00799573 0.129549 0.0198672
0.00972 0.104219 0.0194095
0.0252079 0.0912795 0.0187839
0.0516976 0.0847639 0.0183261
0.0879377 0.0798505 0.018265
0.141756 0.0750439 0.0180209
0.218357 0.0698558 0.0173495
0.321386 0.0631113 0.0160525
0.434821 0.0543984 0.0157473
0.549889 0.0450599 0.0187228
0.660731 0.0352483 0.0371862
0.762905 0.0259709 0.0801862
0.857404 0.0184176 0.154238
0.921157 0.0155032 0.265888
0.947143 0.0148013 0.387961
0.951095 0.0191653 0.475166
0.951293 0.0379034 0.513161
0.952514 0.07187 0.526513
0.953872 0.0986343 0.531731
0.953857 0.0986343 0.531899
0.953857 0.098558 0.53196
0.953857 0.098558 0.53196
0.953857 0.098558 0.53196
0.953857 0.098558 0.53196
0.953857 0.098558 0.53196
0.953857 0.098558 0.53196
0.953857 0.098558 0.53196
0.953857 0.098558 0.53196
0.953857 0.098558 0.53196
0.953857 0.098558 0.53196
0.00607309 0.265461 0.0227665
0.00604257 0.259495 0.0226139
0.00593576 0.223987 0.0217441
0.00656138 0.174609 0.0206455
0.00820935 0.141985 0.0201267
0.0176394 0.12488 0.019791
0.0375677 0.116365 0.0194705
0.0697795 0.110033 0.0190127
0.118257 0.103136 0.0185245
0.190158 0.0961013 0.017792
0.287877 0.0890669 0.0167544
0.403235 0.0810712 0.0159762
0.521263 0.0710613 0.0159152
0.634165 0.0604562 0.0238499
0.738369 0.049073 0.0505989
0.833005 0.0376898 0.111009
0.911681 0.0285344 0.213214
0.946609 0.0206912 0.339803
0.9514 0.0192721 0.440635
0.951629 0.0357366 0.492515
0.952789 0.0715648 0.516426
0.954025 0.100023 0.527733
0.953796 0.099382 0.531029
0.953857 0.0986343 0.531884
0.953857 0.098558 0.53196
0.953857 0.098558 0.53196
0.953857 0.098558 0.53196
0.953857 0.098558 0.53196
0.953857 0.098558 0.53196
0.953857 0.098558 0.53196
0.953857 0.098558 0.53196
0.953857 0.098558 0.53196
0.953857 0.098558 0.53196
0.00680552 0.348684 0.0248112
0.00662242 0.340383 0.0245212
0.00619516 0.294621 0.0235599
0.00590524 0.234684 0.0223239
0.00650034 0.194842 0.0214084
0.0115053 0.172839 0.0209506
0.0265812 0.160067 0.0205844
0.0523842 0.150408 0.0200656
0.0958572 0.141268 0.0193637
0.161288 0.132723 0.0184176
0.251896 0.12459 0.0173495
0.367071 0.115938 0.0170901
0.487007 0.105211 0.0169375
0.60235 0.0940108 0.0187076
0.710231 0.0826581 0.030457
0.807141 0.0695506 0.0677043
0.895842 0.056199 0.152529
0.938842 0.0420539 0.27689
0.949905 0.0344244 0.389548
0.952056 0.0475013 0.4598
0.953292 0.0808118 0.496208
0.954665 0.109224 0.513191
0.954742 0.112993 0.520897
0.954543 0.108446 0.524239
0.954376 0.10454 0.527047
0.954101 0.101152 0.530312
0.953918 0.0991379 0.531701
0.953857 0.098558 0.53196
0.953857 0.098558 0.53196
0.953857 0.098558 0.53196
0.953857 0.098558 0.53196
0.953857 0.098558 0.53196
0.953857 0.098558 0.53196
0.00856031 0.439063 0.0276646
0.00822461 0.427115 0.0271
0.00715648 0.371603 0.0252995
0.00643931 0.304829 0.0239719
0.00607309 0.260487 0.0231174
0.00756847 0.23389 0.0223697
0.0163882 0.217212 0.0218509
0.0345769 0.203876 0.0213626
0.0713664 0.192554 0.0207523
0.13051 0.181445 0.0197299
0.213642 0.170916 0.018616
0.326436 0.160723 0.0183108
0.448203 0.149172 0.0180667
0.565469 0.137224 0.0183566
0.676448 0.12546 0.0218204
0.777249 0.11313 0.0358282
0.86949 0.0996262 0.0924239
0.926619 0.0820478 0.202731
0.948119 0.0673381 0.326528
0.952895 0.0726329 0.416892
0.954208 0.0997635 0.465736
0.956115 0.129809 0.489158
0.956878 0.140246 0.502861
0.956024 0.130282 0.509224
0.955367 0.120943 0.515145
0.954955 0.113695 0.521508
0.954604 0.108492 0.525109
0.95436 0.104906 0.527489
0.95407 0.101701 0.529763
0.953902 0.0993973 0.531426
0.953857 0.098558 0.53196
0.953857 0.098558 0.53196
0.953857 0.098558 0.53196
0.0116121 0.533471 0.0322118
0.0110018 0.51548 0.0312657
0.00901808 0.451682 0.0279545
0.0074464 0.379751 0.0253758
0.00653086 0.33521 0.0241703
0.0065919 0.307179 0.0236973
0.00779736 0.287602 0.0233158
0.0186618 0.272007 0.0229953
0.0467079 0.258564 0.0226749
0.0986496 0.243961 0.021561
0.174914 0.229511 0.0198215
0.281804 0.217975 0.0185245
0.40531 0.205982 0.0188296
0.526757 0.192157 0.0191653
0.640024 0.17969 0.0202792
0.743008 0.168505 0.0235294
0.838468 0.155856 0.0429084
0.914672 0.139162 0.123247
0.948272 0.117815 0.252186
0.955016 0.111986 0.362249
0.956313 0.131167 0.424903
0.958648 0.161807 0.458366
0.959716 0.175937 0.479454
0.958587 0.163699 0.488533
0.95761 0.151431 0.495796
0.957046 0.140368 0.503578
0.956237 0.130022 0.510307
0.955383 0.121218 0.516106
0.954742 0.113588 0.521385
0.954421 0.107637 0.525689
0.954238 0.103334 0.528847
0.954009 0.100145 0.530999
0.953857 0.098558 0.53196
0.0154421 0.62945 0.037995
0.0142977 0.601389 0.0363012
0.0115663 0.529427 0.0321202
0.00910964 0.458946 0.028275
0.00787366 0.415229 0.0264591
0.00733959 0.386969 0.0256199
0.00743114 0.367788 0.0250858
0.0133822 0.351247 0.0246433
0.0286564 0.335073 0.0243534
0.0691691 0.318929 0.0232547
0.134798 0.303777 0.0209964
0.231479 0.290547 0.0178988
0.355993 0.276463 0.0177768
0.485237 0.262425 0.0194858
0.603082 0.249851 0.0211337
0.708934 0.238376 0.0227359
0.806638 0.224903 0.0249332
0.897154 0.209751 0.0624857
0.94551 0.188891 0.163714
0.958129 0.172671 0.282734
0.960525 0.179278 0.36614
0.962417 0.203815 0.416678
0.963531 0.218265 0.44686
0.962432 0.207843 0.461372
0.96112 0.19266 0.470237
0.960052 0.177005 0.48043
0.958907 0.162432 0.488991
0.95758 0.150652 0.497215
0.956497 0.138689 0.504448
0.955734 0.126925 0.512505
0.955062 0.116365 0.51989
0.954498 0.107759 0.525521
0.954055 0.101472 0.529641
0.0199588 0.716487 0.0442817
0.0179141 0.680842 0.0417182
0.0144503 0.603052 0.0367285
0.011841 0.537621 0.0327001
0.0103456 0.49781 0.0303197
0.00952163 0.471473 0.0289311
0.00935378 0.452659 0.0279698
0.0113527 0.436271 0.0271916
0.0204013 0.419883 0.0265049
0.0467689 0.403052 0.025452
0.0995651 0.386496 0.0234379
0.182605 0.371466 0.0191653
0.300191 0.356893 0.0164797
0.435248 0.342565 0.0183566
0.563272 0.329686 0.0222782
0.675563 0.317861 0.0252537
0.775479 0.304631 0.0263066
0.869871 0.290471 0.0346532
0.935363 0.273213 0.0894179
0.962249 0.253101 0.189593
0.967208 0.245258 0.291539
0.967498 0.256031 0.361669
0.968093 0.266514 0.403647
0.96733 0.259678 0.427817
0.965743 0.241856 0.439811
0.964141 0.223621 0.451896
0.962661 0.206287 0.461509
0.961059 0.190692 0.471717
0.959518 0.174212 0.481056
0.958068 0.156924 0.492699
0.956863 0.141192 0.503227
0.95555 0.124529 0.513329
0.95462 0.109728 0.523644
0.0248569 0.795026 0.0494698
0.0222477 0.751156 0.0466316
0.0174258 0.670237 0.0410315
0.0149233 0.614649 0.0374304
0.01355 0.580591 0.0351873
0.0125734 0.556893 0.0336004
0.0120546 0.539269 0.032578
0.0120851 0.524086 0.0318303
0.0166476 0.508003 0.0308995
0.0300603 0.490745 0.0297856
0.0695201 0.473442 0.0280613
0.1411 0.456764 0.024033
0.247272 0.441932 0.0185855
0.379522 0.427726 0.0165713
0.515099 0.413748 0.0199741
0.638636 0.401511 0.0252689
0.74432 0.389227 0.0284733
0.839567 0.376822 0.0304112
0.919783 0.360815 0.049836
0.963333 0.340215 0.114244
0.974105 0.323369 0.209232
0.973861 0.319875 0.292638
0.973587 0.323018 0.350896
0.972564 0.316426 0.38645
0.97055 0.297032 0.403037
0.968841 0.277607 0.416144
0.96733 0.258473 0.428595
0.965759 0.239384 0.440986
0.963714 0.219623 0.453666
0.961517 0.197528 0.466423
0.959899 0.177096 0.479149
0.957809 0.15201 0.495262
0.955795 0.125811 0.513176
0.0279698 0.859266 0.053254
0.02533 0.804456 0.0501411
0.0209812 0.730907 0.0452583
0.0184024 0.687373 0.0421302
0.0169833 0.659922 0.0401465
0.0159762 0.640009 0.0387579
0.0153201 0.624857 0.0378729
0.0148013 0.610941 0.0370794
0.0155337 0.596231 0.0361486
0.0222477 0.579828 0.0349889
0.0483253 0.562997 0.0334478
0.106615 0.545693 0.0303197
0.200931 0.529793 0.0242313
0.324819 0.516472 0.0180209
0.461753 0.502495 0.0175479
0.594278 0.488411 0.021973
0.710552 0.475425 0.027863
0.810254 0.463828 0.0313268
0.89987 0.449424 0.0360876
0.958801 0.429053 0.0672313
0.978546 0.408209 0.131243
0.981445 0.39353 0.209674
0.980545 0.387137 0.283116
0.978851 0.376745 0.333394
0.976318 0.356558 0.359091
0.974136 0.335622 0.375067
0.97229 0.315221 0.389578
0.970382 0.294362 0.40412
0.96846 0.271916 0.420157
0.966171 0.246357 0.435599
0.964218 0.222538 0.451362
0.960952 0.189471 0.471168
0.958053 0.152575 0.495872
0.0298314 0.909239 0.0561532
0.0273442 0.845991 0.052842
0.0243687 0.787732 0.0489662
0.0224765 0.755245 0.0466773
0.0211185 0.73344 0.0451362
0.0200504 0.717708 0.0440528
0.0192416 0.705028 0.0432441
0.018616 0.693477 0.0424811
0.0180667 0.68069 0.0415656
0.0216678 0.666346 0.0405432
0.0348669 0.650477 0.0394293
0.0782025 0.634073 0.0370336
0.160922 0.618326 0.0317235
0.274723 0.604074 0.0241703
0.410498 0.59173 0.0193027
0.546761 0.577142 0.0207065
0.669673 0.562539 0.0251469
0.777478 0.54963 0.0304417
0.873152 0.535637 0.0337682
0.946044 0.517754 0.0428473
0.981079 0.495933 0.0731365
0.9888 0.474525 0.129503
0.987701 0.458366 0.200381
0.985962 0.442008 0.265599
0.983352 0.420386 0.304814
0.98088 0.397665 0.325353
0.978408 0.375113 0.343557
0.975952 0.352331 0.36144
0.973632 0.328145 0.380041
0.970855 0.300999 0.399588
0.968734 0.272725 0.419455
0.965087 0.235676 0.442374
0.96112 0.189288 0.471061
0.0313115 0.942138 0.0581216
0.0288548 0.8822 0.0547494
0.0271458 0.841978 0.0522469
0.0259861 0.817716 0.050782
0.0250706 0.800641 0.0497292
0.0243687 0.788296 0.0489662
0.0237736 0.777981 0.0482795
0.023209 0.768444 0.0476081
0.0226902 0.75761 0.046891
0.0233616 0.745449 0.0462348
0.0304265 0.731502 0.0453193
0.0587472 0.717235 0.0435798
0.123552 0.702129 0.0398108
0.226276 0.687526 0.0324407
0.359014 0.675547 0.0242313
0.497871 0.663478 0.0218967
0.624949 0.647944 0.0235447
0.738064 0.630777 0.0272526
0.838911 0.614298 0.0316472
0.926452 0.597833 0.0345769
0.979507 0.58027 0.0427405
0.994781 0.558984 0.0690623
0.994034 0.535302 0.119448
0.992416 0.511177 0.185565
0.99057 0.486366 0.238804
0.988434 0.462715 0.265934
0.985656 0.438727 0.28864
0.982742 0.413733 0.310979
0.979873 0.388144 0.332677
0.976577 0.359518 0.356847
0.973556 0.326848 0.381384
0.969619 0.286442 0.409552
0.965042 0.233692 0.443488
0.0321965 0.957702 0.0591287
0.0301366 0.917586 0.0567025
0.0291905 0.891585 0.0554818
0.0284733 0.873777 0.0542916
0.0279393 0.860899 0.0534981
0.0275425 0.851118 0.052903
0.0272068 0.843137 0.0524147
0.0269017 0.83592 0.0519722
0.0265354 0.827649 0.051545
0.0260319 0.817639 0.0510719
0.0290532 0.806394 0.0504005
0.0433051 0.793729 0.0492409
0.0888991 0.780072 0.0467536
0.179553 0.765026 0.0405585
0.3037 0.752438 0.0308385
0.445991 0.740414 0.0240635
0.578439 0.724117 0.0238651
0.695964 0.703441 0.0258488
0.800412 0.682918 0.0289006
0.897704 0.665202 0.0326543
0.966384 0.650904 0.03505
0.992966 0.636286 0.0400397
0.997497 0.614328 0.0607462
0.996612 0.585168 0.105226
0.995499 0.555154 0.158267
0.994278 0.52929 0.196445
0.992096 0.504433 0.223789
0.989853 0.478584 0.25037
0.987045 0.451667 0.276631
0.983474 0.421424 0.304814
0.979507 0.385306 0.334768
0.974746 0.340597 0.370947
0.970001 0.291447 0.406958
0.032639 0.965835 0.0596628
0.0318761 0.952087 0.0588693
0.0311742 0.938262 0.0581369
0.0306096 0.92517 0.0571603
0.0301518 0.915419 0.0565499
0.0298619 0.908003 0.0562295
0.0296178 0.901808 0.0559854
0.0293736 0.896208 0.055787
0.0291295 0.889662 0.0554818
0.0288396 0.88191 0.0549935
0.0286107 0.87248 0.0543526
0.0338293 0.861814 0.0535592
0.0592508 0.849928 0.0522164
0.126238 0.836149 0.0483864
0.2439 0.821546 0.0389258
0.387991 0.806851 0.0285649
0.527382 0.789441 0.0252995
0.650477 0.768719 0.0260471
0.759594 0.746639 0.0276341
0.860059 0.725399 0.0303349
0.941756 0.708858 0.0333562
0.985946 0.697749 0.0348516
0.998154 0.683665 0.037232
0.997864 0.65948 0.0491493
0.997497 0.626612 0.0798505
0.99675 0.596887 0.115908
0.996002 0.571923 0.146441
0.99498 0.545602 0.178683
0.993164 0.517769 0.210239
0.990417 0.486 0.242878
0.986664 0.447684 0.279286
0.981109 0.399481 0.324056
0.975998 0.354147 0.362158
0.0328222 0.968719 0.0598459
0.0327153 0.966766 0.0597086
0.0325475 0.962921 0.0594644
0.0322576 0.956954 0.0590982
0.0320134 0.952331 0.058854
0.0317693 0.948745 0.0587167
0.0315709 0.945739 0.0586099
0.0313725 0.942672 0.0584878
0.0311742 0.939178 0.0582895
0.0309911 0.934752 0.0579232
0.0310216 0.928588 0.0574044
0.0333867 0.92108 0.0567788
0.0443885 0.911803 0.0559243
0.0870832 0.899763 0.0539101
0.183246 0.88394 0.0474861
0.318853 0.866133 0.0357366
0.46865 0.848844 0.0274662
0.600412 0.830976 0.0264286
0.716075 0.809812 0.0272679
0.819211 0.787549 0.0287938
0.913405 0.76611 0.031342
0.975448 0.750072 0.033463
0.996612 0.737987 0.0342718
0.998398 0.720928 0.0349737
0.998062 0.692668 0.038468
0.997803 0.664103 0.0512703
0.997848 0.640101 0.0743114
0.997696 0.613733 0.100603
0.996719 0.585122 0.132036
0.995407 0.552773 0.170581
0.993011 0.513191 0.214343
0.988205 0.461997 0.26746
0.983352 0.419654 0.30779
0.0328222 0.968917 0.0598611
0.0327916 0.968185 0.0598001
0.0327459 0.967361 0.0597543
0.0327153 0.966766 0.0597391
0.0326696 0.966247 0.0597238
0.032639 0.96582 0.0597086
0.0326238 0.965469 0.059678
0.0326085 0.965042 0.0596475
0.0325628 0.964431 0.0595865
0.0325628 0.963485 0.0595102
0.0327001 0.961517 0.0593576
0.0337835 0.958129 0.0590982
0.0421607 0.953216 0.0585489
0.0690166 0.945922 0.0574044
0.131853 0.935393 0.0539101
0.247654 0.92108 0.0441444
0.397848 0.904662 0.0320897
0.543389 0.888426 0.0273136
0.667872 0.870268 0.0274205
0.776837 0.848951 0.0284581
0.877531 0.826383 0.0303044
0.954269 0.806775 0.0322271
0.989731 0.789746 0.0333867
0.998596 0.769818 0.0336919
0.998856 0.745846 0.0343633
0.998657 0.722667 0.0362249
0.998489 0.701793 0.0390478
0.998444 0.679118 0.0451972
0.998367 0.65211 0.0636606
0.998032 0.620493 0.0946059
0.996384 0.580514 0.137087
0.993957 0.527642 0.198795
0.991058 0.489082 0.242496
0.0328222 0.969055 0.0598611
0.0328222 0.969055 0.0598611
0.0328222 0.969055 0.0598611
0.0328222 0.969055 0.0598611
0.0328222 0.969055 0.0598611
0.0328222 0.969055 0.0598611
0.0328222 0.969055 0.0598611
0.0328222 0.968948 0.0598611
0.0328069 0.968704 0.0598306
0.0327916 0.968353 0.0598154
0.0327611 0.967926 0.0597696
0.0336461 0.967269 0.0597086
0.0375067 0.966171 0.059556
0.0506447 0.964691 0.0591592
0.089601 0.962707 0.0579385
0.17438 0.957748 0.0525368
0.314366 0.947707 0.039826
0.473823 0.937484 0.0301976
0.611627 0.926726 0.0284581
0.729946 0.909483 0.02916
0.835187 0.887861 0.0306859
0.924895 0.865858 0.0324712
0.979156 0.844495 0.0338293
0.995865 0.820676 0.0339666
0.99794 0.792996 0.0336156
0.998627 0.767285 0.0337224
0.99881 0.748562 0.0340429
0.998581 0.732967 0.0350347
0.998428 0.712749 0.0384985
0.998367 0.685145 0.0455482
0.997909 0.647669 0.0697337
0.996948 0.594781 0.123491
0.995636 0.560464 0.161746
0.0328222 0.969055 0.0598611
0.0328222 0.969055 0.0598611
0.0328222 0.969055 0.0598611
0.0328222 0.969055 0.0598611
0.0328222 0.969055 0.0598611
0.0328222 0.969055 0.0598611
0.0328222 0.969055 0.0598611
0.0328222 0.969055 0.0598611
0.0328222 0.969055 0.0598611
0.0328222 0.969055 0.0598611
0.0328222 0.969055 0.0598611
0.0328222 0.969055 0.0598611
0.0339055 0.969055 0.0598459
0.0396887 0.96907 0.0597086
0.0572366 0.96907 0.0593423
0.110384 0.968093 0.0573587
0.223896 0.965179 0.0489357
0.381109 0.965103 0.0359197
0.5411 0.965499 0.0302586
0.672023 0.957717 0.0302281
0.786084 0.94374 0.0315557
0.885481 0.924605 0.0331121
0.957198 0.899413 0.0344854
0.987564 0.873732 0.0348821
0.99559 0.844282 0.0344549
0.997391 0.813107 0.033814
0.998215 0.789014 0.0336919
0.998535 0.773266 0.0337987
0.998642 0.757671 0.0339361
0.998688 0.738354 0.0346685
0.998306 0.709224 0.0399939
0.998199 0.662394 0.0636606
0.998108 0.63418 0.0826886
0.0328222 0.969055 0.0598611
0.0328222 0.969055 0.0598611
0.0328222 0.969055 0.0598611
0.0328222 0.969055 0.0598611
0.0328222 0.969055 0.0598611
0.0328222 0.969055 0.0598611
0.0328222 0.969055 0.0598611
0.0328222 0.969055 0.0598611
0.0328222 0.969055 0.0598611
0.0328222 0.969055 0.0598611
0.0328222 0.969055 0.0598611
0.0328222 0.969055 0.0598611
0.0331121 0.969055 0.0598611
0.0342718 0.969055 0.0598306
0.0438544 0.969085 0.0596323
0.0775464 0.969253 0.0589456
0.150027 0.969375 0.0550698
0.281712 0.970672 0.0437171
0.446754 0.97435 0.03299
0.596109 0.976928 0.0306706
0.721706 0.975509 0.0317388
0.8309 0.966018 0.0333867
0.919249 0.947158 0.0348821
0.971054 0.924865 0.0357061
0.989822 0.897261 0.0355535
0.99443 0.865003 0.0348211
0.996338 0.835416 0.0343328
0.997436 0.814923 0.0339361
0.998093 0.797726 0.0336614
0.998428 0.779492 0.0337224
0.998581 0.756481 0.0339055
0.998535 0.721096 0.0385443
0.998459 0.701854 0.0423743
0.0328222 0.969055 0.0598611
0.0328222 0.969055 0.0598611
0.0328222 0.969055 0.0598611
0.0328222 0.969055 0.0598611
0.0328222 0.969055 0.0598611
0.0328222 0.969055 0.0598611
0.0328222 0.969055 0.0598611
0.0328222 0.969055 0.0598611
0.0328222 0.969055 0.0598611
0.0328222 0.969055 0.0598611
0.0328222 0.969055 0.0598611
0.0328222 0.969055 0.0598611
0.0331884 0.969055 0.0598611
0.0348516 0.969055 0.0598154
0.0391241 0.969055 0.0597238
0.0561227 0.969085 0.0593423
0.104555 0.969238 0.0576181
0.196201 0.969573 0.0513924
0.338125 0.971832 0.0389258
0.500206 0.977783 0.0315099
0.639567 0.982147 0.0310063
0.759609 0.981918 0.0323339
0.863523 0.975372 0.0343786
0.94052 0.963027 0.0377356
0.978821 0.944381 0.0399176
0.989883 0.916869 0.0376745
0.992538 0.886015 0.0355993
0.994644 0.862135 0.0347295
0.995956 0.843565 0.0344549
0.996994 0.823713 0.0341802
0.997894 0.799176 0.0337377
0.998474 0.768215 0.0338293
0.998657 0.753521 0.0340429
0.0328222 0.969055 0.0598611
0.0328222 0.969055 0.0598611
