LUT预设1/富士LUT改款/Log机型使用/爆改ASTIA.cube
TITLE "Generated by Resolve"
LUT_3D_SIZE 5
0.00946059 0.015198 0.0153506
0.261631 0.0177005 0.0220645
0.875151 0.0150759 0.198322
0.953857 0.098558 0.53196
0.953857 0.098558 0.53196
0.00607309 0.265461 0.0227665
0.118257 0.103136 0.0185245
0.911681 0.0285344 0.213214
0.953857 0.098558 0.53196
0.953857 0.098558 0.53196
0.0298314 0.909239 0.0561532
0.0180667 0.68069 0.0415656
0.669673 0.562539 0.0251469
0.983352 0.420386 0.304814
0.96112 0.189288 0.471061
0.0328222 0.969055 0.0598611
0.0328222 0.969055 0.0598611
0.150027 0.969375 0.0550698
0.989822 0.897261 0.0355535
0.998459 0.701854 0.0423743
0.0328222 0.969055 0.0598611
0.0328222 0.969055 0.0598611
0.0328222 0.969055 0.0598611
0.468406 0.976394 0.0326543
0.983688 0.980957 0.0558328
0.00544747 0.0163119 0.100511
0.233768 0.0162814 0.0421149
0.951644 0.0387732 0.50898
0.953857 0.098558 0.53196
0.953857 0.098558 0.53196
0.00311284 0.234272 0.273732
0.0606241 0.0778821 0.0870375
0.57702 0.055375 0.0226291
0.951141 0.0176089 0.470741
0.953857 0.098558 0.53196
0.0322423 0.958801 0.0591592
0.0204929 0.723918 0.0445411
0.600839 0.579812 0.0221866
0.983932 0.426291 0.299168
0.963363 0.216373 0.454383
0.0328222 0.969055 0.0598611
0.0328222 0.969055 0.0598611
0.127138 0.969329 0.0563973
0.98851 0.903258 0.0356756
0.998474 0.705242 0.0418402
0.0328222 0.969055 0.0598611
0.0328222 0.969055 0.0598611
0.0328222 0.969055 0.0598611
0.451575 0.975662 0.0331273
0.983688 0.980957 0.0558328
0.00729381 0.0273899 0.631296
0.00741588 0.0275273 0.640681
0.948592 0.0158236 0.670405
0.953765 0.0997024 0.544198
0.953857 0.098558 0.53196
0.007187 0.0272831 0.623499
0.00695811 0.0268406 0.59353
0.949706 0.0167544 0.639628
0.953796 0.0991226 0.543832
0.953857 0.098558 0.53196
0.0217136 0.845335 0.958831
0.0184024 0.791775 0.921614
0.446708 0.531487 0.60383
0.960342 0.4551 0.31487
0.970016 0.292241 0.405509
0.0328222 0.969055 0.0598611
0.0328222 0.969055 0.0598611
0.0329747 0.969024 0.067155
0.951598 0.958587 0.0544747
0.998428 0.709133 0.0402838
0.0328222 0.969055 0.0598611
0.0328222 0.969055 0.0598611
0.0328222 0.969055 0.0598611
0.422034 0.974411 0.0340887
0.983688 0.980957 0.0558328
0.0121157 0.0336309 0.863081
0.0121614 0.0338445 0.863508
0.0120394 0.033341 0.86247
0.945129 0.0511788 0.79237
0.95378 0.109133 0.592569
0.0121614 0.0338445 0.863478
0.0118563 0.0325475 0.860853
0.0178378 0.0322271 0.861311
0.945403 0.0549477 0.785779
0.953765 0.108461 0.590326
0.0117037 0.0306554 0.854566
0.0117189 0.0304112 0.845029
0.0332647 0.0312047 0.860777
0.945846 0.0600595 0.776928
0.95378 0.108141 0.590158
0.0270695 0.930358 0.972656
0.0270695 0.930358 0.972656
0.0272374 0.927871 0.97261
0.770809 0.862562 0.942184
0.993545 0.786862 0.635401
0.0277714 0.938521 0.956466
0.027863 0.940078 0.950362
0.027924 0.942138 0.939437
0.029221 0.944701 0.916594
0.987793 0.984619 0.429389
0.0124056 0.0349279 0.86569
0.0124056 0.0349279 0.86569
0.0124056 0.0349279 0.86569
0.746777 0.0169833 0.942779
0.942031 0.0179599 0.941665
0.0124056 0.0349279 0.86569
0.0124056 0.0349279 0.86569
0.0124056 0.0349279 0.86569
0.737819 0.0170748 0.942885
0.942031 0.0179599 0.941665
0.0124056 0.0349279 0.86569
0.0124056 0.0349279 0.86569
0.0124056 0.0349279 0.86569
0.77789 0.0169375 0.942199
0.942031 0.0179599 0.941665
0.0124056 0.0349279 0.86569
0.0124056 0.0349279 0.86569
0.0124056 0.0349279 0.86569
0.518868 0.0657511 0.947219
0.942031 0.0179599 0.941665
0.0270695 0.930358 0.972656
0.0270695 0.930358 0.972656
0.0270695 0.930358 0.972656
0.0270695 0.930358 0.972656
0.984497 0.988968 0.997131
