LUT预设1/iPhone专用lut合集3/iPhone合集3标准版（log）/FAKE理光负片.cube
TITLE "Generated by Resolve"
LUT_3D_SIZE 33
0.00428778 0.0267491 0.0616312
0.00973526 0.0268559 0.0617227
0.0211643 0.026978 0.0618753
0.0436713 0.0269474 0.0619821
0.0904402 0.0262303 0.0617227
0.163943 0.0243992 0.0610513
0.249653 0.0222629 0.0600595
0.338476 0.0209964 0.0588693
0.425238 0.0205997 0.0583352
0.507744 0.0205081 0.0586252
0.581476 0.0205081 0.0591897
0.649363 0.0205081 0.060029
0.711925 0.0205539 0.0612802
0.770764 0.0206149 0.0630503
0.822477 0.020676 0.0650034
0.852262 0.0207828 0.0663157
0.85803 0.0208133 0.0665904
0.858076 0.0208133 0.0665904
0.858076 0.0208133 0.0665904
0.858076 0.0208133 0.0665904
0.858076 0.0208133 0.0665904
0.858076 0.0208133 0.0665904
0.858076 0.0208133 0.0665904
0.858076 0.0208133 0.0665904
0.858076 0.0208133 0.0665904
0.858076 0.0208133 0.0665904
0.858076 0.0208133 0.0665904
0.858076 0.0208133 0.0665904
0.858076 0.0208133 0.0665904
0.858076 0.0208133 0.0665904
0.858076 0.0208133 0.0665904
0.858076 0.0208133 0.0665904
0.858076 0.0208133 0.0665904
0.00415045 0.0267491 0.0615854
0.0052491 0.0267643 0.0616007
0.0112612 0.0268559 0.0617227
0.0248875 0.0269932 0.0619059
0.0550851 0.0268101 0.0619516
0.113451 0.0257115 0.0615244
0.1935 0.023621 0.0607309
0.281407 0.0216983 0.059617
0.368307 0.020798 0.0586252
0.452201 0.0205539 0.0583963
0.529351 0.0205081 0.0587625
0.599908 0.0205539 0.0594339
0.66569 0.0205539 0.0603494
0.727916 0.0205386 0.0616617
0.787198 0.0205844 0.0635996
0.838209 0.020737 0.0657206
0.857114 0.0208133 0.0665446
0.858061 0.0208133 0.0665904
0.858076 0.0208133 0.0665904
0.858076 0.0208133 0.0665904
0.858076 0.0208133 0.0665904
0.858076 0.0208133 0.0665904
0.858076 0.0208133 0.0665904
0.858076 0.0208133 0.0665904
0.858076 0.0208133 0.0665904
0.858076 0.0208133 0.0665904
0.858076 0.0208133 0.0665904
0.858076 0.0208133 0.0665904
0.858076 0.0208133 0.0665904
0.858076 0.0208133 0.0665904
0.858076 0.0208133 0.0665904
0.858076 0.0208133 0.0665904
0.858076 0.0208133 0.0665904
0.00421149 0.0273747 0.0616159
0.00421149 0.0268101 0.0615854
0.00547799 0.0269932 0.0616312
0.0140383 0.0269169 0.0617838
0.0300603 0.0270085 0.0619669
0.0715801 0.026566 0.0618753
0.14197 0.0250095 0.0612802
0.226978 0.022797 0.0603494
0.314199 0.0212253 0.059205
0.400443 0.0206455 0.0584115
0.483268 0.0205386 0.0584878
0.559258 0.0205081 0.0589914
0.629129 0.0204929 0.0597086
0.694255 0.0205081 0.0608072
0.756481 0.0205386 0.062501
0.81413 0.0206302 0.0646525
0.849424 0.0207523 0.0661631
0.857389 0.0208133 0.0665599
0.858076 0.0208133 0.0665904
0.858076 0.0208133 0.0665904
0.858076 0.0208133 0.0665904
0.858076 0.0208133 0.0665904
0.858076 0.0208133 0.0665904
0.858076 0.0208133 0.0665904
0.858076 0.0208133 0.0665904
0.858076 0.0208133 0.0665904
0.858076 0.0208133 0.0665904
0.858076 0.0208133 0.0665904
0.858076 0.0208133 0.0665904
0.858076 0.0208133 0.0665904
0.858076 0.0208133 0.0665904
0.858076 0.0208133 0.0665904
0.858076 0.0208133 0.0665904
0.00497444 0.0340734 0.0620737
0.00466926 0.0315251 0.0618753
0.00476081 0.0306706 0.0618296
0.00691234 0.0301976 0.0618601
0.0196536 0.0283055 0.0619669
0.0406806 0.0276341 0.0620279
0.0928511 0.0266117 0.0617685
0.179309 0.0240635 0.0608225
0.273487 0.0217594 0.0597543
0.364935 0.0207828 0.0586557
0.452094 0.0205539 0.0583658
0.533379 0.0204776 0.0587778
0.606195 0.0204776 0.0594034
0.673167 0.0205081 0.0604105
0.737087 0.0205386 0.0619211
0.796399 0.0205844 0.0639506
0.840513 0.0206912 0.0657206
0.856031 0.020798 0.0664683
0.858076 0.0208133 0.0665904
0.858076 0.0208133 0.0665904
0.858076 0.0208133 0.0665904
0.858076 0.0208133 0.0665904
0.858076 0.0208133 0.0665904
0.858076 0.0208133 0.0665904
0.858076 0.0208133 0.0665904
0.858076 0.0208133 0.0665904
0.858076 0.0208133 0.0665904
0.858076 0.0208133 0.0665904
0.858076 0.0208133 0.0665904
0.858076 0.0208133 0.0665904
0.858076 0.0208133 0.0665904
0.858076 0.0208133 0.0665904
0.858076 0.0208133 0.0665904
0.00608835 0.043946 0.0627451
0.00560006 0.0391394 0.0624704
0.00535592 0.037171 0.0622873
0.00561532 0.0376135 0.0623178
0.010544 0.0372931 0.0624247
0.027451 0.0341039 0.0624399
0.0666209 0.031693 0.0621958
0.126467 0.0295109 0.0615396
0.222187 0.0251621 0.0605783
0.324407 0.0222019 0.0591287
0.419532 0.0211337 0.0583963
0.507561 0.0205692 0.0586099
0.584833 0.0204929 0.0591897
0.654124 0.0205386 0.0601205
0.719615 0.0205692 0.0614939
0.780392 0.0206149 0.063386
0.830533 0.0206607 0.0652934
0.853803 0.0207828 0.0663615
0.858076 0.0208133 0.0665904
0.858076 0.0208133 0.0665904
0.858076 0.0208133 0.0665904
0.858076 0.0208133 0.0665904
0.858076 0.0208133 0.0665904
0.858076 0.0208133 0.0665904
0.858076 0.0208133 0.0665904
0.858076 0.0208133 0.0665904
0.858076 0.0208133 0.0665904
0.858076 0.0208133 0.0665904
0.858076 0.0208133 0.0665904
0.858076 0.0208133 0.0665904
0.858076 0.0208133 0.0665904
0.858076 0.0208133 0.0665904
0.858076 0.0208133 0.0665904
0.00735485 0.0590829 0.0634012
0.00691234 0.0537728 0.0631876
0.00663767 0.05037 0.063035
0.00656138 0.0487831 0.062974
0.00813306 0.0504005 0.0630655
0.0148013 0.0501717 0.0631113
0.0397803 0.0453956 0.0628061
0.0945449 0.0406653 0.0621195
0.167193 0.0374456 0.0614176
0.253544 0.0330816 0.0603037
0.358862 0.0279698 0.0590829
0.461433 0.0244297 0.0587015
0.549142 0.0228428 0.0590829
0.625467 0.021973 0.0598459
0.694804 0.0212253 0.0609903
0.75877 0.020737 0.0626535
0.815396 0.0206607 0.0647288
0.849515 0.0207828 0.0661936
0.858076 0.0208133 0.0665904
0.858076 0.0208133 0.0665904
0.858076 0.0208133 0.0665904
0.858076 0.0208133 0.0665904
0.858076 0.0208133 0.0665904
0.858076 0.0208133 0.0665904
0.858076 0.0208133 0.0665904
0.858076 0.0208133 0.0665904
0.858076 0.0208133 0.0665904
0.858076 0.0208133 0.0665904
0.858076 0.0208133 0.0665904
0.858076 0.0208133 0.0665904
0.858076 0.0208133 0.0665904
0.858076 0.0208133 0.0665904
0.858076 0.0208133 0.0665904
0.00901808 0.0812848 0.06421
0.00859083 0.0753033 0.0639963
0.00834669 0.0719158 0.0638895
0.00825513 0.0708476 0.0638437
0.00846876 0.0692912 0.063798
0.0105592 0.0697642 0.0638132
0.0194858 0.0695048 0.0637675
0.0553292 0.0640574 0.0631266
0.130343 0.0555428 0.0618601
0.218341 0.0487678 0.0607614
0.302052 0.0445563 0.0599832
0.398322 0.0393835 0.059617
0.498299 0.034226 0.0597543
0.585687 0.0298314 0.0601205
0.661845 0.0265354 0.0607614
0.730602 0.0246281 0.0621195
0.793408 0.0234531 0.0641947
0.842374 0.0225071 0.0661326
0.858274 0.0216068 0.0667124
0.858137 0.0209964 0.0666209
0.858076 0.0208133 0.0665904
0.858076 0.0208133 0.0665904
0.858076 0.0208133 0.0665904
0.858076 0.0208133 0.0665904
0.858076 0.0208133 0.0665904
0.858076 0.0208133 0.0665904
0.858076 0.0208133 0.0665904
0.858076 0.0208133 0.0665904
0.858076 0.0208133 0.0665904
0.858076 0.0208133 0.0665904
0.858076 0.0208133 0.0665904
0.858076 0.0208133 0.0665904
0.858076 0.0208133 0.0665904
0.0110475 0.111421 0.0655833
0.0105898 0.104219 0.0652323
0.0103456 0.100694 0.0650645
0.0102693 0.099733 0.0650339
0.010193 0.0978714 0.0649424
0.0104524 0.0967269 0.0648814
0.0133364 0.0946517 0.0647746
0.0260014 0.0951705 0.0647898
0.0736858 0.0904097 0.0639048
0.175738 0.0775769 0.0614328
0.276158 0.0677806 0.0603189
0.36762 0.0620432 0.0601663
0.450568 0.0581674 0.0604562
0.540093 0.0524147 0.0609293
0.62475 0.0446174 0.0614786
0.69897 0.0373388 0.0625162
0.765942 0.0322271 0.0642252
0.827787 0.0293278 0.0665141
0.857221 0.0270848 0.067628
0.86009 0.0252384 0.0674449
0.859251 0.0237888 0.0671092
0.858686 0.0226596 0.0668803
0.858351 0.0216678 0.0667277
0.858137 0.0210117 0.0666209
0.858076 0.0208133 0.0665904
0.858076 0.0208133 0.0665904
0.858076 0.0208133 0.0665904
0.858076 0.0208133 0.0665904
0.858076 0.0208133 0.0665904
0.858076 0.0208133 0.0665904
0.858076 0.0208133 0.0665904
0.858076 0.0208133 0.0665904
0.858076 0.0208133 0.0665904
0.0137179 0.1514 0.0682689
0.0131228 0.142855 0.067628
0.0128176 0.138567 0.0673075
0.0127565 0.137743 0.0672618
0.0128481 0.138994 0.0673686
0.0126802 0.136446 0.0671855
0.0133516 0.13109 0.0668193
0.0191348 0.126879 0.0665751
0.0389563 0.129122 0.0667124
0.100496 0.127947 0.0659037
0.232715 0.111192 0.0618448
0.342641 0.0970016 0.0604715
0.439307 0.0889296 0.0607156
0.518029 0.0865187 0.061326
0.592676 0.0820325 0.0620584
0.668193 0.0724193 0.0632792
0.738994 0.060441 0.065156
0.803433 0.0493172 0.0674144
0.85005 0.0406348 0.0691691
0.865904 0.035874 0.0693828
0.864286 0.0321355 0.0687419
0.862577 0.0294347 0.0682383
0.86125 0.0272068 0.0678569
0.860121 0.0252232 0.0674601
0.859251 0.0237278 0.0671092
0.858671 0.0225986 0.0668803
0.858335 0.021622 0.0667124
0.858137 0.0210117 0.0666209
0.858076 0.0208286 0.0665904
0.858076 0.0208133 0.0665904
0.858076 0.0208133 0.0665904
0.858076 0.0208133 0.0665904
0.858076 0.0208133 0.0665904
0.0185702 0.204471 0.0735485
0.0175631 0.194385 0.0724346
0.0170596 0.189014 0.0718853
0.016968 0.187823 0.071809
0.0171817 0.189792 0.0720531
0.017319 0.191073 0.0722057
0.0170443 0.187442 0.071809
0.0188602 0.175937 0.0706493
0.028687 0.171786 0.0703136
0.0592203 0.176242 0.0708934
0.144427 0.182605 0.0709544
0.299794 0.166491 0.0656138
0.422522 0.145205 0.0618906
0.518685 0.133455 0.0614786
0.59472 0.128298 0.0620432
0.657633 0.124437 0.0631266
0.720363 0.115602 0.0651865
0.782284 0.101335 0.0679637
0.839353 0.0852522 0.0707561
0.873167 0.0698405 0.0723125
0.875959 0.0564126 0.0718547
0.872419 0.047776 0.0709544
0.869368 0.041001 0.0701762
0.866621 0.0359808 0.0694285
0.864302 0.0321965 0.0687266
0.862394 0.02916 0.0681621
0.861067 0.0268406 0.0677653
0.859983 0.0248264 0.0673838
0.85919 0.0234073 0.0670634
0.858686 0.0224765 0.066865
0.858396 0.0217746 0.066743
0.858228 0.0212711 0.0666667
0.858152 0.0210422 0.0666209
0.0285496 0.274052 0.083772
0.0267491 0.262547 0.0819715
0.0256657 0.255436 0.0808728
0.025391 0.253437 0.0805982
0.0258183 0.255955 0.0810254
0.0264744 0.259892 0.081651
0.0263828 0.259419 0.0815595
0.0259861 0.252293 0.0804456
0.0290532 0.237537 0.0784009
0.0459754 0.232807 0.0781415
0.0923476 0.241443 0.0797742
0.200397 0.25687 0.0823072
0.380301 0.24799 0.0764477
0.512612 0.219959 0.0669718
0.602213 0.20116 0.0637675
0.672999 0.189136 0.0633402
0.72932 0.18294 0.064332
0.779614 0.175555 0.0661479
0.830289 0.162753 0.0690318
0.874266 0.1449 0.0726329
0.89134 0.123278 0.0744793
0.88864 0.101884 0.0743572
0.883711 0.0825208 0.0737011
0.879576 0.068513 0.0727092
0.875746 0.0569009 0.0717784
0.87216 0.0478218 0.0708782
0.869062 0.0409247 0.0700999
0.866423 0.0358434 0.069398
0.864149 0.0321508 0.0687114
0.862348 0.0292821 0.0681468
0.861021 0.0270085 0.0677195
0.860044 0.0250706 0.0673838
0.85948 0.0238956 0.0671855
0.0455482 0.36022 0.100145
0.0426032 0.346868 0.0974746
0.0409552 0.339254 0.0959793
0.0404364 0.336873 0.0955215
0.0409857 0.339452 0.0960708
0.041886 0.343893 0.0969863
0.0425574 0.347234 0.0976577
0.0428016 0.348424 0.0978714
0.0402075 0.331441 0.0945754
0.0484169 0.316396 0.0921798
0.0830091 0.311971 0.0918898
0.147143 0.323919 0.094667
0.2654 0.345815 0.100328
0.458076 0.343938 0.095079
0.594919 0.316884 0.0806897
0.678904 0.29247 0.0723583
0.74377 0.272816 0.0682078
0.796262 0.260777 0.0670176
0.839017 0.253498 0.0674144
0.878904 0.242145 0.0690929
0.907683 0.222614 0.0716716
0.912825 0.19733 0.0733959
0.905898 0.169589 0.0743725
0.898939 0.143008 0.0750134
0.892729 0.119173 0.0751354
0.88777 0.0994583 0.0743725
0.883131 0.0818494 0.0734874
0.878996 0.0677653 0.0725719
0.875319 0.0568093 0.0716564
0.871977 0.0480507 0.0708019
0.869261 0.0418708 0.0701152
0.867018 0.0373236 0.0695659
0.865599 0.0346685 0.0692302
0.0735027 0.45449 0.121767
0.0690166 0.440925 0.118532
0.066743 0.433509 0.116808
0.0659495 0.430488 0.116136
0.0671702 0.433341 0.116854
0.0686961 0.437263 0.11783
0.0703136 0.441657 0.118898
0.0713359 0.444846 0.119677
0.0697337 0.440879 0.11873
0.0669871 0.423743 0.114855
0.087068 0.40853 0.111818
0.136294 0.403006 0.111055
0.211566 0.413977 0.114168
0.337346 0.433722 0.119829
0.52575 0.437537 0.118563
0.660792 0.415259 0.103487
0.738781 0.389166 0.0898299
0.799481 0.367391 0.0803388
0.848783 0.350866 0.0749523
0.887526 0.340032 0.0728771
0.917662 0.330053 0.0720836
0.93344 0.312795 0.0713207
0.931395 0.28748 0.0709697
0.925948 0.25655 0.071458
0.919249 0.223987 0.0725414
0.911833 0.192447 0.0738689
0.904158 0.162966 0.074876
0.897917 0.138949 0.0749676
0.892393 0.117494 0.0746929
0.887648 0.0990768 0.0741741
0.883513 0.0834974 0.0734569
0.87985 0.0705425 0.0727092
0.877089 0.0612497 0.0720989
0.113817 0.54258 0.143801
0.108049 0.530571 0.140795
0.104952 0.524025 0.139147
0.103731 0.521385 0.138476
0.104845 0.523552 0.139025
0.106279 0.526452 0.139757
0.107866 0.529854 0.140597
0.109407 0.53344 0.141482
0.110231 0.535836 0.142061
0.106569 0.528679 0.140246
0.109453 0.51487 0.136919
0.140612 0.498863 0.133333
0.200595 0.492897 0.132219
0.287984 0.502647 0.134874
0.410986 0.514885 0.138964
0.581231 0.517525 0.140352
0.709865 0.49926 0.127642
0.784588 0.47509 0.111681
0.840833 0.454566 0.0991379
0.886107 0.436912 0.0903334
0.920073 0.42414 0.0850233
0.938674 0.413458 0.0816205
0.943343 0.400244 0.0788281
0.941588 0.378836 0.0759289
0.939101 0.350912 0.0728923
0.93576 0.318044 0.0710002
0.931731 0.28307 0.0705119
0.926253 0.24889 0.0710918
0.918624 0.217121 0.0725414
0.911437 0.189807 0.07364
0.904738 0.16434 0.0743267
0.899092 0.14258 0.0746014
0.894484 0.124498 0.0746166
0.154147 0.616541 0.162249
0.148714 0.606821 0.159808
0.145525 0.601068 0.158358
0.144411 0.598993 0.157824
0.145434 0.600687 0.158236
0.146746 0.60293 0.158801
0.148333 0.605737 0.159487
0.150088 0.608927 0.160281
0.151675 0.611963 0.161028
0.151644 0.612238 0.161105
0.148821 0.605646 0.159487
0.154986 0.592248 0.156222
0.200992 0.577752 0.152789
0.272862 0.574075 0.151965
0.36321 0.576654 0.152285
0.476631 0.580804 0.154086
0.625132 0.579629 0.156176
0.746395 0.56701 0.148074
0.820508 0.545541 0.132921
0.871794 0.527443 0.120745
0.913329 0.511284 0.110918
0.939529 0.497749 0.103639
0.948791 0.486488 0.0989853
0.948241 0.476844 0.0961624
0.947478 0.46305 0.0921798
0.946242 0.442695 0.0870222
0.944518 0.415869 0.0814374
0.942351 0.385092 0.076173
0.939361 0.349706 0.0720531
0.936126 0.315175 0.0694743
0.931182 0.282139 0.0698253
0.925673 0.252354 0.0709087
0.920104 0.226001 0.0720531
0.19147 0.678065 0.176883
0.186618 0.670115 0.174975
0.183764 0.665431 0.173846
0.182712 0.663706 0.173419
0.183627 0.665187 0.17377
0.184695 0.666941 0.174182
0.185992 0.669093 0.17467
0.187381 0.671382 0.175219
0.188983 0.674067 0.175845
0.190326 0.67631 0.176379
0.189319 0.674647 0.175998
0.185733 0.668757 0.174624
0.203281 0.656703 0.171847
0.262577 0.644572 0.168872
0.342824 0.63682 0.16614
0.431708 0.634089 0.165118
0.533532 0.633844 0.16614
0.659236 0.631601 0.168368
0.776059 0.621653 0.16463
0.849989 0.60444 0.152575
0.899382 0.588052 0.141421
0.934981 0.574136 0.132509
0.951492 0.560632 0.125444
0.952529 0.549889 0.121126
0.952026 0.541039 0.117784
0.951476 0.531884 0.114443
0.950637 0.518151 0.10959
0.949508 0.499199 0.103044
0.948104 0.474434 0.0953536
0.946502 0.446418 0.0873121
0.944701 0.416648 0.0800336
0.942626 0.385718 0.074342
0.939727 0.354574 0.0721904
0.223316 0.729152 0.188876
0.219135 0.722469 0.187289
0.216907 0.718914 0.18645
0.216114 0.717617 0.186145
0.216892 0.718853 0.186435
0.21799 0.720607 0.186862
0.218967 0.722179 0.187228
0.219959 0.723781 0.18761
0.221225 0.725841 0.188067
0.222538 0.727916 0.188571
0.222995 0.728588 0.188769
0.221836 0.726711 0.188342
0.222141 0.721004 0.186999
0.253254 0.709361 0.183993
0.323781 0.697276 0.180591
0.406683 0.687037 0.177234
0.489693 0.682063 0.17586
0.580118 0.680003 0.176562
0.691035 0.676905 0.178546
0.800977 0.669001 0.178836
0.87509 0.654627 0.170047
0.922087 0.640345 0.160464
0.949615 0.627039 0.152651
0.956466 0.614191 0.146685
0.955779 0.603265 0.142214
0.95523 0.594583 0.138689
0.954787 0.58732 0.13579
0.954253 0.578683 0.132326
0.95346 0.565469 0.127169
0.952468 0.54847 0.120592
0.951263 0.528176 0.113024
0.949905 0.505028 0.104814
0.948455 0.48069 0.0965133
0.252399 0.773983 0.20032
0.248661 0.768261 0.19884
0.246677 0.765225 0.198047
0.245884 0.763989 0.197726
0.246601 0.765103 0.198016
0.24741 0.766323 0.198337
0.248356 0.767803 0.198718
0.249256 0.769223 0.199069
0.250309 0.770916 0.199466
0.251484 0.772656 0.199924
0.252262 0.77377 0.200259
0.252506 0.77406 0.200366
0.25182 0.772961 0.200092
0.257908 0.765072 0.197894
0.303975 0.754406 0.194491
0.384039 0.742016 0.190402
0.465156 0.730709 0.186862
0.543359 0.724697 0.185687
0.621607 0.721233 0.185962
0.718196 0.717403 0.187808
0.822263 0.711345 0.190677
0.895781 0.699107 0.185473
0.941283 0.68571 0.177234
0.959487 0.673182 0.170916
0.959487 0.660945 0.165881
0.958801 0.650172 0.161471
0.958236 0.641718 0.158007
0.957809 0.635065 0.155276
0.957366 0.628412 0.152529
0.956832 0.620066 0.149096
0.9561 0.608408 0.144305
0.955184 0.593698 0.138338
0.954131 0.576852 0.131579
0.279469 0.814221 0.211551
0.276066 0.809155 0.210117
0.274296 0.806531 0.209369
0.273732 0.805661 0.209125
0.274281 0.80647 0.209354
0.274861 0.80734 0.209598
0.275639 0.808499 0.209918
0.276432 0.809674 0.210224
0.27744 0.811185 0.210605
0.278401 0.812604 0.211002
0.279316 0.813931 0.211398
0.280171 0.815167 0.211765
0.280522 0.815686 0.211917
0.279011 0.812238 0.210941
0.287846 0.804761 0.208545
0.350576 0.794659 0.204135
0.43743 0.781781 0.199161
0.518532 0.769818 0.195727
0.588861 0.763149 0.194873
0.659754 0.758999 0.194919
0.744396 0.75462 0.196567
0.840208 0.74992 0.200687
0.914534 0.739239 0.198505
0.955581 0.726345 0.192218
0.963104 0.714 0.187167
0.962325 0.702495 0.182666
0.961578 0.69218 0.178531
0.960967 0.683513 0.175051
0.960494 0.67657 0.172229
0.960159 0.671382 0.170123
0.959777 0.665507 0.167742
0.959289 0.657954 0.16466
0.958618 0.647623 0.160433
0.303838 0.850629 0.22179
0.300847 0.846082 0.220523
0.299351 0.843809 0.219898
0.298787 0.842954 0.219654
0.299306 0.843717 0.219867
0.299962 0.844694 0.220142
0.300801 0.84593 0.220508
0.30135 0.846693 0.220737
0.302007 0.847639 0.221012
0.302632 0.848646 0.221286
0.303517 0.85005 0.221668
0.304311 0.851331 0.222019
0.304952 0.852369 0.222309
0.304524 0.851789 0.222141
0.302144 0.848219 0.221134
0.32604 0.841138 0.218265
0.401617 0.83003 0.21268
0.491402 0.81622 0.207172
0.563592 0.805295 0.204639
0.628641 0.798154 0.203494
0.69369 0.79382 0.203449
0.768994 0.789334 0.205127
0.857557 0.784756 0.209461
0.929549 0.77615 0.209934
0.963348 0.76347 0.206027
0.965667 0.751217 0.201495
0.964904 0.740276 0.197299
0.964187 0.730373 0.193484
0.963592 0.721843 0.190173
0.963165 0.715343 0.18764
0.962814 0.709941 0.18555
0.962539 0.705852 0.183963
0.962188 0.700725 0.181949
0.321386 0.878355 0.229313
0.319661 0.875578 0.22858
0.318761 0.874113 0.228199
0.318502 0.873686 0.228092
0.318914 0.874327 0.22826
0.319356 0.875013 0.228458
0.320027 0.876036 0.228733
0.320623 0.876951 0.228992
0.320851 0.877302 0.229099
0.32108 0.877684 0.229206
0.321553 0.878508 0.229419
0.322118 0.879469 0.229679
0.322713 0.880522 0.229938
0.322866 0.880827 0.229999
0.322438 0.88011 0.229801
0.324163 0.876982 0.228824
0.363775 0.870726 0.225559
0.453544 0.860029 0.219837
0.538445 0.84799 0.215656
0.605859 0.837613 0.213001
0.665156 0.83064 0.211688
0.72398 0.826078 0.211795
0.79089 0.821256 0.213397
0.872038 0.816724 0.217548
0.944091 0.809369 0.220279
0.968215 0.797909 0.218448
0.96817 0.786282 0.21445
0.967407 0.775692 0.210575
0.966735 0.766247 0.20708
0.966155 0.758083 0.204028
0.965682 0.751232 0.201465
0.965347 0.746563 0.199695
0.965087 0.742702 0.198215
0.328374 0.889876 0.23238
0.328023 0.889311 0.232227
0.327932 0.889143 0.232181
0.327993 0.889235 0.232212
0.328206 0.889601 0.232303
0.328511 0.890105 0.232441
0.328939 0.890822 0.232624
0.329351 0.891524 0.232807
0.329351 0.891524 0.232807
0.329351 0.891524 0.232807
0.329351 0.891524 0.232807
0.329305 0.891447 0.232792
0.329259 0.891356 0.232761
0.329015 0.890944 0.232654
0.328862 0.8907 0.232593
0.328695 0.890364 0.232502
0.338842 0.889555 0.231861
0.396918 0.887358 0.229282
0.491753 0.881971 0.225483
0.576013 0.874739 0.222644
0.640833 0.866911 0.220706
0.69601 0.860639 0.219791
0.749767 0.856214 0.220127
0.811124 0.851072 0.221576
0.885908 0.846265 0.225605
0.95378 0.839811 0.229603
0.971359 0.829602 0.228458
0.97055 0.818631 0.225254
0.969757 0.808621 0.222034
0.9691 0.799878 0.219104
0.968521 0.791882 0.216327
0.968093 0.785611 0.214099
0.967758 0.780774 0.21236
0.329351 0.891524 0.232807
0.329351 0.891524 0.232807
0.329351 0.891524 0.232807
0.329351 0.891524 0.232807
0.329351 0.891524 0.232807
0.329351 0.891524 0.232807
0.329351 0.891524 0.232807
0.329351 0.891524 0.232807
0.329351 0.891524 0.232807
0.329351 0.891524 0.232807
0.329351 0.891524 0.232807
0.329351 0.891524 0.232807
0.329351 0.891524 0.232807
0.329351 0.891524 0.232807
0.329351 0.891524 0.232807
0.329351 0.891524 0.232807
0.329549 0.891524 0.232792
0.33817 0.891508 0.232471
0.420569 0.891371 0.229786
0.523796 0.890929 0.227527
0.607202 0.890883 0.227115
0.668956 0.889769 0.227237
0.721477 0.884871 0.226917
0.772457 0.880476 0.227466
0.829923 0.876249 0.229099
0.898909 0.872526 0.233341
0.962005 0.867414 0.237919
0.973617 0.858824 0.236789
0.972869 0.849195 0.234028
0.972122 0.840101 0.231388
0.971481 0.831891 0.228977
0.970977 0.82472 0.226871
0.970535 0.818555 0.22501
0.329351 0.891524 0.232807
0.329351 0.891524 0.232807
0.329351 0.891524 0.232807
0.329351 0.891524 0.232807
0.329351 0.891524 0.232807
0.329351 0.891524 0.232807
0.329351 0.891524 0.232807
0.329351 0.891524 0.232807
0.329351 0.891524 0.232807
0.329351 0.891524 0.232807
0.329351 0.891524 0.232807
0.329351 0.891524 0.232807
0.329351 0.891524 0.232807
0.329351 0.891524 0.232807
0.329351 0.891524 0.232807
0.329351 0.891524 0.232807
0.329351 0.891524 0.232807
0.329351 0.891524 0.232807
0.359915 0.891463 0.231601
0.450538 0.891295 0.228946
0.554528 0.890898 0.227085
0.632151 0.89102 0.227268
0.690288 0.890684 0.227893
0.741405 0.889632 0.228916
0.791882 0.888747 0.230533
0.846632 0.888701 0.233326
0.909865 0.890303 0.23917
0.971984 0.888533 0.245121
0.975479 0.881865 0.243519
0.974884 0.875319 0.241505
0.974273 0.868635 0.239445
0.973724 0.861677 0.237415
0.973266 0.855131 0.235599
0.329351 0.891524 0.232807
0.329351 0.891524 0.232807
0.329351 0.891524 0.232807
0.329351 0.891524 0.232807
0.329351 0.891524 0.232807
0.329351 0.891524 0.232807
0.329351 0.891524 0.232807
0.329351 0.891524 0.232807
0.329351 0.891524 0.232807
0.329351 0.891524 0.232807
0.329351 0.891524 0.232807
0.329351 0.891524 0.232807
0.329351 0.891524 0.232807
0.329351 0.891524 0.232807
0.329351 0.891524 0.232807
0.329351 0.891524 0.232807
0.329351 0.891524 0.232807
0.329351 0.891524 0.232807
0.332448 0.891524 0.232685
0.379004 0.891478 0.231083
0.483024 0.891035 0.228199
0.582101 0.890929 0.227131
0.653941 0.890898 0.227451
0.710216 0.89044 0.228275
0.760266 0.88983 0.229618
0.808377 0.889418 0.231434
0.860197 0.88957 0.234409
0.920089 0.890379 0.240146
0.97319 0.891203 0.246036
0.976364 0.891279 0.246403
0.976364 0.891264 0.246403
0.976287 0.890501 0.246174
0.976089 0.888289 0.245502
0.329351 0.891524 0.232807
0.329351 0.891524 0.232807
0.329351 0.891524 0.232807
0.329351 0.891524 0.232807
0.329351 0.891524 0.232807
0.329351 0.891524 0.232807
0.329351 0.891524 0.232807
0.329351 0.891524 0.232807
0.329351 0.891524 0.232807
0.329351 0.891524 0.232807
0.329351 0.891524 0.232807
0.329351 0.891524 0.232807
0.329351 0.891524 0.232807
0.329351 0.891524 0.232807
0.329351 0.891524 0.232807
0.329351 0.891524 0.232807
0.329351 0.891524 0.232807
0.329351 0.891524 0.232807
0.329458 0.891524 0.232807
0.34049 0.891508 0.23238
0.407691 0.891356 0.230137
0.5122 0.89102 0.227771
0.605859 0.890959 0.227192
0.674357 0.890761 0.227726
0.728908 0.890211 0.228733
0.777401 0.889616 0.230228
0.824353 0.889403 0.232288
0.874968 0.88983 0.235798
0.930083 0.890562 0.241291
0.975479 0.891264 0.246296
0.976364 0.891279 0.246403
0.976364 0.891279 0.246403
0.976349 0.891142 0.246357
0.329351 0.891524 0.232807
0.329351 0.891524 0.232807
0.329351 0.891524 0.232807
0.329351 0.891524 0.232807
