LUT预设1/iPhone专用lut合集3/iPhone合集3标准版（log）/FAKE理光负片.cube
TITLE "Generated by Resolve"
LUT_3D_SIZE 5
0.00428778 0.0267491 0.0616312
0.425238 0.0205997 0.0583352
0.85803 0.0208133 0.0665904
0.858076 0.0208133 0.0665904
0.858076 0.0208133 0.0665904
0.0137179 0.1514 0.0682689
0.0389563 0.129122 0.0667124
0.738994 0.060441 0.065156
0.859251 0.0237278 0.0671092
0.858076 0.0208133 0.0665904
0.223316 0.729152 0.188876
0.221225 0.725841 0.188067
0.489693 0.682063 0.17586
0.955779 0.603265 0.142214
0.948455 0.48069 0.0965133
0.329351 0.891524 0.232807
0.329351 0.891524 0.232807
0.329351 0.891524 0.232807
0.760266 0.88983 0.229618
0.976089 0.888289 0.245502
0.329351 0.891524 0.232807
0.329351 0.891524 0.232807
0.329351 0.891524 0.232807
0.438727 0.891188 0.229236
0.920546 0.890471 0.240314
0.00927749 0.0284581 0.305913
0.246326 0.0293889 0.18764
0.836118 0.021088 0.120317
0.858778 0.0207675 0.0771801
0.858076 0.0208133 0.0665904
0.0128786 0.134569 0.171649
0.0732433 0.0953689 0.120256
0.74519 0.0386511 0.0726024
0.858503 0.0220188 0.0667887
0.858076 0.0208133 0.0665904
0.202914 0.704799 0.198962
0.181674 0.663569 0.176104
0.595529 0.640665 0.168856
0.952941 0.557321 0.123735
0.939193 0.348058 0.0721904
0.329351 0.891524 0.232807
0.329351 0.891524 0.232807
0.348302 0.891493 0.232044
0.823301 0.888548 0.231891
0.974197 0.865766 0.238819
0.329351 0.891524 0.232807
0.329351 0.891524 0.232807
0.329351 0.891524 0.232807
0.563699 0.890974 0.227237
0.953902 0.890974 0.243915
0.0151675 0.0328832 0.728679
0.150484 0.0380865 0.742443
0.716243 0.0731823 0.662974
0.767361 0.0724346 0.505379
0.784848 0.0583505 0.375433
0.0255131 0.162676 0.745602
0.0375067 0.115846 0.679301
0.58764 0.116945 0.633341
0.772 0.0809186 0.476707
0.809094 0.0441444 0.295003
0.128542 0.715099 0.762356
0.0919203 0.66273 0.737072
0.587015 0.662394 0.715404
0.929198 0.553445 0.509117
0.927413 0.30071 0.192889
0.262501 0.907423 0.6336
0.26273 0.907485 0.636515
0.41622 0.912581 0.597314
0.871366 0.893233 0.464302
0.971267 0.827253 0.234195
0.269566 0.90634 0.489403
0.27097 0.906035 0.482322
0.282811 0.903197 0.400961
0.703365 0.896132 0.303929
0.971344 0.891173 0.245838
0.0151675 0.0328832 0.728985
0.0556344 0.0339513 0.734127
0.721218 0.0817273 0.842527
0.781857 0.0888533 0.85243
0.780331 0.0873121 0.822629
0.0250248 0.144091 0.773312
0.0229343 0.118242 0.763577
0.474937 0.0996719 0.816907
0.784146 0.0965744 0.854734
0.779522 0.0862745 0.804059
0.135195 0.713542 0.944808
0.104051 0.67335 0.938598
0.421088 0.661921 0.949783
0.891615 0.605844 0.954574
0.87393 0.510674 0.873549
0.27332 0.912016 0.96762
0.27332 0.912016 0.96762
0.397711 0.915206 0.968887
0.88867 0.900084 0.960861
0.937346 0.83801 0.855833
0.265782 0.911086 0.912047
0.264851 0.910918 0.903532
0.26302 0.91075 0.888472
0.734417 0.926253 0.878401
0.959899 0.922972 0.803235
0.0151675 0.0328832 0.728985
0.0236667 0.0331426 0.72987
0.55375 0.0645151 0.815122
0.781857 0.0888533 0.85243
0.781857 0.0888533 0.85243
0.0246738 0.140185 0.772015
0.0228885 0.118364 0.763592
0.200305 0.0836805 0.777188
0.781857 0.0888838 0.85243
0.781857 0.0888533 0.85243
0.125292 0.703502 0.943908
0.102602 0.671839 0.938506
0.154269 0.64036 0.937972
0.869596 0.590951 0.952468
0.871504 0.489952 0.941802
0.27332 0.912016 0.96762
0.27332 0.912016 0.96762
0.32723 0.912856 0.969299
0.816587 0.905425 0.980621
0.931548 0.853574 0.981445
0.27332 0.912016 0.96762
0.27332 0.912016 0.96762
0.27332 0.912016 0.96762
0.737209 0.927626 0.980896
0.950698 0.93051 0.988571
