LUT预设1/iPhone专用lut合集3/iPhone合集3标准版（log）/FAKE胶片1980.cube
TITLE "Generated by Resolve"
LUT_3D_SIZE 9
0 0.0437476 0.0573281
0.00257877 0.0424048 0.0547646
0.0446021 0.0413825 0.0441901
0.161685 0.0476539 0.0383764
0.301442 0.0554971 0.0350805
0.346563 0.0554513 0.0334173
0.346777 0.0554055 0.0334325
0.346777 0.0554055 0.0334325
0.346777 0.0554055 0.0334325
0 0.0540322 0.0613565
0.0010071 0.0577707 0.0605325
0.0797742 0.0607919 0.0498207
0.205447 0.0552377 0.0374762
0.323919 0.0580301 0.0344244
0.351232 0.0559854 0.0333562
0.347723 0.0555276 0.0334173
0.346944 0.055436 0.0334325
0.346838 0.0554055 0.0334325
0 0.0934462 0.0751812
0 0.0977493 0.0771649
0.043946 0.131685 0.0859998
0.381872 0.158709 0.0611429
0.505364 0.108431 0.0323186
0.481987 0.0859541 0.0307774
0.448249 0.0762493 0.031281
0.417105 0.0681621 0.0319066
0.404822 0.0653086 0.0322118
0 0.170825 0.104204
0 0.180728 0.106889
0.00263981 0.202625 0.1122
0.256855 0.325444 0.144915
0.690455 0.335332 0.117601
0.738582 0.248554 0.0617227
0.70956 0.198672 0.0421149
0.668986 0.167056 0.0355535
0.649104 0.15407 0.0336919
0.0140536 0.312612 0.155856
0.0187228 0.330068 0.160021
0.0278325 0.343648 0.164141
0.141634 0.418235 0.206424
0.587518 0.581964 0.275669
0.950607 0.617792 0.276371
0.970581 0.56759 0.232959
0.961563 0.536507 0.208499
0.94519 0.493843 0.178729
0.170657 0.500298 0.227268
0.20325 0.520806 0.23714
0.213107 0.524575 0.238209
0.345098 0.586191 0.272435
0.608698 0.698192 0.378256
0.886336 0.794705 0.506416
1 0.806241 0.534524
1 0.793133 0.511559
1 0.797345 0.519112
0.513909 0.665827 0.303731
0.522942 0.669474 0.305303
0.529946 0.672145 0.306386
0.63122 0.713863 0.337575
0.742077 0.768444 0.421729
0.848997 0.812131 0.52546
0.988006 0.839475 0.585504
1 0.84239 0.610254
1 0.842161 0.609705
0.534173 0.673823 0.307195
0.534173 0.673823 0.307195
0.534737 0.674022 0.307256
0.620844 0.708766 0.330938
0.733776 0.763775 0.411536
0.827268 0.805615 0.510613
0.963165 0.836027 0.572244
1 0.842237 0.608789
1 0.84239 0.610254
0.534173 0.673823 0.307195
0.534173 0.673823 0.307195
0.534173 0.673823 0.307195
0.622309 0.709102 0.33019
0.745495 0.770047 0.424445
0.843046 0.810117 0.520714
0.966705 0.8365 0.573587
1 0.842176 0.60824
1 0.84239 0.610254
0 0.0402533 0.0602274
0.00453193 0.0401617 0.0635386
0.0579385 0.0402075 0.0591287
0.163729 0.0463264 0.040589
0.299962 0.0544442 0.0348211
0.344442 0.0550698 0.033402
0.34612 0.0552987 0.0334325
0.346761 0.0554055 0.0334325
0.346777 0.0554055 0.0334325
0 0.0556802 0.0729839
3.0518e-05 0.0562142 0.0710918
0.0868544 0.0564736 0.0546731
0.212528 0.0545663 0.0378119
0.323552 0.0574655 0.034226
0.350607 0.0558633 0.033341
0.347555 0.0554971 0.0334173
0.346929 0.0554208 0.0334325
0.346868 0.0554208 0.0334325
0 0.0987869 0.0956283
0 0.101503 0.0933852
0.0667582 0.138369 0.0926986
0.401266 0.155993 0.0575418
0.502342 0.102022 0.0315251
0.47837 0.0848402 0.0307927
0.447379 0.0758679 0.0312657
0.418906 0.0686351 0.0318914
0.408972 0.0663615 0.0321355
0 0.181003 0.122316
0 0.188724 0.121157
0.0223239 0.217014 0.122744
0.317021 0.344106 0.145678
0.702342 0.335302 0.117052
0.734218 0.234424 0.0551614
0.703273 0.194217 0.0412451
0.667506 0.166522 0.0355993
0.652689 0.157214 0.034287
0.0142061 0.324895 0.173098
0.0221866 0.340276 0.170474
0.0315251 0.349798 0.169055
0.217655 0.446326 0.224033
0.661494 0.60351 0.281041
0.959609 0.619348 0.276509
0.973846 0.577188 0.240696
0.956207 0.521172 0.197101
0.942535 0.487785 0.175128
0.172274 0.509667 0.240406
0.215595 0.529839 0.245914
0.223178 0.53135 0.242954
0.39382 0.607752 0.291829
0.664836 0.716731 0.402289
0.914733 0.802365 0.516899
1 0.805722 0.534234
1 0.796902 0.518654
1 0.797284 0.518685
0.524544 0.670848 0.308019
0.528344 0.672023 0.307713
0.536171 0.674815 0.308278
0.657893 0.725856 0.350988
0.762936 0.779202 0.446479
0.871794 0.817777 0.537346
0.997589 0.840726 0.591684
1 0.842374 0.610208
1 0.842268 0.609979
0.535561 0.674617 0.308248
0.535698 0.674693 0.308354
0.535943 0.674601 0.307774
0.642145 0.717845 0.33933
0.751644 0.77351 0.432898
0.849149 0.811887 0.52462
0.975891 0.837797 0.578073
1 0.842329 0.609598
1 0.84239 0.610254
0.53579 0.674754 0.308415
0.535943 0.67483 0.308537
0.535988 0.674693 0.308034
0.642878 0.718212 0.339925
0.762387 0.778729 0.444556
0.868482 0.817014 0.53547
0.981735 0.838605 0.579232
1 0.842283 0.609247
1 0.84239 0.610254
0 0.0339513 0.070573
0.000350958 0.0341192 0.0803845
0.0587167 0.0373236 0.109331
0.160464 0.0406958 0.0960555
0.271809 0.0461585 0.0438544
0.291707 0.0476844 0.0328527
0.301076 0.0487678 0.0328374
0.311727 0.0501106 0.0329747
0.317998 0.0509499 0.0330968
0 0.0452125 0.0894942
0 0.0446937 0.0929732
0.0755779 0.0415045 0.115633
0.199191 0.0434424 0.091249
0.290059 0.0474556 0.0408637
0.298573 0.0484016 0.032929
0.307515 0.0496223 0.0329595
0.31754 0.0509804 0.033051
0.320745 0.0514229 0.0330968
0 0.100572 0.152087
0 0.103609 0.154833
0.0620737 0.119707 0.148882
0.365743 0.121035 0.0855879
0.487114 0.0800183 0.032929
0.463416 0.0744945 0.0305943
0.442176 0.0725872 0.0311742
0.420172 0.0685893 0.0317388
0.412665 0.0671092 0.0319371
0 0.216419 0.214817
0 0.22707 0.224414
0.00323491 0.243961 0.206195
0.342519 0.346731 0.191424
0.704417 0.326772 0.123049
0.723171 0.215305 0.0491798
0.699596 0.189227 0.0400702
0.669779 0.167422 0.0356909
0.659739 0.161227 0.0347601
0.0102388 0.373709 0.275669
0.0161135 0.3897 0.281788
0.0221408 0.392279 0.265415
0.259297 0.483497 0.279805
0.707317 0.622568 0.311833
0.964309 0.621195 0.284031
0.969619 0.564828 0.232502
0.950423 0.508934 0.190082
0.940291 0.487602 0.177371
0.185061 0.561608 0.345342
0.236744 0.581155 0.344167
0.240955 0.574563 0.326467
0.437583 0.642237 0.338659
0.717571 0.741711 0.433875
0.936538 0.808301 0.52256
1 0.805753 0.530571
1 0.802777 0.529091
1 0.795773 0.515038
0.610712 0.719158 0.376867
0.616632 0.719371 0.371618
0.600839 0.711666 0.36173
0.718624 0.753323 0.385428
0.793927 0.790143 0.461662
0.897871 0.821988 0.536248
0.998001 0.840604 0.593713
1 0.842115 0.608927
1 0.842008 0.608438
0.611414 0.71635 0.366247
0.607691 0.714366 0.36376
0.603738 0.712016 0.359243
0.699245 0.745785 0.378332
0.782238 0.784955 0.447776
0.883772 0.818021 0.523842
0.990692 0.837354 0.572931
1 0.842237 0.609445
1 0.841688 0.606897
0.612528 0.71696 0.367117
0.612116 0.716793 0.367559
0.612955 0.716991 0.366873
0.709682 0.750484 0.38407
0.786145 0.787427 0.454917
0.90898 0.822919 0.529641
0.995163 0.834257 0.560769
1 0.840711 0.602182
1 0.841993 0.608331
0 0.0312963 0.0830701
0 0.0316167 0.0918288
0.0152132 0.0344396 0.126558
0.0918135 0.0359045 0.143862
0.237125 0.0418097 0.136934
0.280186 0.0461891 0.0680095
0.282734 0.046479 0.0535592
0.282155 0.0464332 0.0476997
0.282124 0.0464179 0.0453651
0 0.0346685 0.102617
0 0.0338903 0.104479
0.0178073 0.036408 0.145617
0.118044 0.0364538 0.154757
0.246738 0.042298 0.135088
0.280003 0.0461433 0.0702068
0.282109 0.0464179 0.0574044
0.283116 0.0464942 0.0470588
0.282658 0.0464637 0.0447852
0 0.0783856 0.189548
0 0.0780804 0.194858
0.00476081 0.0918593 0.209689
0.288579 0.0744488 0.232029
0.422126 0.0555886 0.153719
0.383154 0.0516823 0.0589151
0.363317 0.0508125 0.0484474
0.344274 0.0499275 0.0416571
0.337819 0.0495766 0.0401923
0 0.251194 0.336339
0 0.264378 0.348806
0.000366217 0.282338 0.361273
0.296025 0.344717 0.350332
0.639765 0.278019 0.213657
0.654643 0.155535 0.0645457
0.642695 0.133593 0.0398871
0.628351 0.124834 0.0353094
0.621607 0.119646 0.0334478
0.0132448 0.436637 0.413291
0.0165255 0.453254 0.430961
0.0191653 0.457893 0.429694
0.20885 0.528588 0.405585
0.690013 0.629129 0.400824
0.95465 0.609903 0.338094
0.948425 0.530404 0.253452
0.926055 0.478767 0.208331
0.917128 0.46157 0.195468
0.232532 0.626963 0.471092
0.280934 0.645945 0.478309
0.277974 0.642695 0.46894
0.431327 0.685786 0.465019
0.726268 0.763745 0.501793
0.961959 0.819608 0.533272
1 0.811002 0.517296
1 0.803037 0.506325
1 0.794507 0.491798
0.611582 0.747036 0.481041
0.612116 0.747662 0.482353
0.623484 0.748287 0.47335
0.651789 0.756115 0.472923
0.753841 0.788464 0.506508
0.938598 0.82858 0.543725
1 0.827375 0.539803
1 0.827329 0.541634
1 0.830411 0.555535
0.625742 0.749325 0.474845
0.628046 0.749401 0.472572
0.635493 0.750286 0.468208
0.648615 0.754253 0.468864
0.727337 0.779751 0.49192
0.918959 0.826123 0.544564
0.999908 0.828321 0.53875
1 0.827756 0.543557
1 0.826993 0.540108
0.625925 0.749447 0.475959
0.623896 0.748989 0.475608
0.628626 0.749554 0.472786
0.642908 0.75375 0.473671
0.728069 0.781476 0.500725
0.938781 0.828931 0.551675
1 0.830213 0.550698
1 0.826581 0.538277
1 0.827817 0.543786
0 0.031342 0.0933547
0 0.031632 0.0986954
0 0.03299 0.130938
0.0458076 0.0348058 0.16289
0.139696 0.0364843 0.178439
0.243656 0.041825 0.151675
0.247501 0.042298 0.13872
0.250935 0.0427558 0.128023
0.252583 0.0429847 0.124117
0 0.0324712 0.109651
0 0.032517 0.111833
0 0.0342412 0.151919
0.057969 0.0353552 0.175402
0.144686 0.0366522 0.180819
0.244968 0.0418555 0.15491
0.246571 0.0421454 0.14374
0.248676 0.0425422 0.132128
0.250141 0.0427558 0.127428
0 0.0669566 0.230045
0 0.0696422 0.236606
0 0.0665751 0.256168
0.130312 0.0654307 0.301869
0.31249 0.0456703 0.265843
0.341527 0.0461433 0.175235
0.318502 0.0455634 0.147753
0.300908 0.0451972 0.129824
0.295384 0.0451057 0.124392
0.000564584 0.267659 0.451408
0.000793469 0.282261 0.467918
0.00141909 0.286244 0.473991
0.0681468 0.325139 0.487648
0.529076 0.283833 0.469368
0.648768 0.134081 0.305684
0.620279 0.0991073 0.206622
0.587259 0.0848402 0.158343
0.575128 0.0787518 0.14519
0.0224918 0.489403 0.572946
0.026154 0.503197 0.585931
0.0264439 0.504173 0.588312
0.117342 0.565927 0.606104
0.58706 0.626078 0.600977
0.856306 0.566323 0.483665
0.879744 0.516518 0.399054
0.865232 0.466361 0.332464
0.859617 0.450385 0.313527
0.252171 0.682902 0.60267
0.280613 0.696529 0.61619
0.279606 0.698131 0.615412
0.318425 0.715526 0.635477
0.589136 0.756085 0.624506
0.917296 0.808011 0.617624
0.998535 0.819654 0.595987
0.999573 0.809186 0.574639
0.999512 0.802457 0.569711
0.420569 0.740536 0.617319
0.409247 0.740749 0.627085
0.412299 0.74078 0.624094
0.400793 0.743481 0.64242
0.585534 0.782956 0.661662
0.910094 0.839597 0.663767
0.996933 0.847059 0.645823
0.995727 0.846357 0.649454
1 0.839704 0.604212
0.428016 0.740673 0.612345
0.422354 0.740856 0.617044
0.424811 0.740566 0.614832
0.41294 0.741588 0.626719
0.547463 0.772274 0.643381
0.875654 0.8327 0.654322
0.983948 0.850599 0.672175
0.996887 0.844999 0.636393
0.992782 0.849317 0.667903
0.409003 0.74052 0.626307
0.412863 0.740673 0.624552
0.417502 0.740826 0.620371
0.400961 0.742504 0.637125
0.546715 0.775326 0.657511
0.88365 0.835996 0.667292
0.976303 0.852766 0.697185
0.986481 0.852094 0.694682
0.996674 0.845899 0.641901
0 0.0321355 0.106538
0 0.0321508 0.106767
0 0.0332341 0.13283
0.0293126 0.0359655 0.176715
0.0871595 0.0358434 0.195422
0.225254 0.0399939 0.211124
0.232029 0.0403601 0.208972
0.234607 0.040589 0.203906
0.235782 0.0406806 0.201434
0 0.0333562 0.127245
0 0.0331426 0.123491
0 0.0343023 0.149645
0.0373236 0.03682 0.189548
0.09131 0.0358129 0.197406
0.227878 0.040116 0.211765
0.231144 0.0402838 0.210712
0.233173 0.0404669 0.206867
0.234806 0.0406043 0.20351
0 0.0742504 0.269856
0 0.0734569 0.270863
0 0.0637064 0.260502
0.0408789 0.0551461 0.315511
0.202594 0.0427863 0.291783
0.310628 0.0427253 0.266438
0.296452 0.0424353 0.242588
0.276951 0.0421149 0.221164
0.271122 0.0420844 0.213596
0.00187686 0.279042 0.514382
0.00274662 0.294224 0.528099
0.00267033 0.290608 0.525963
0.00762951 0.306249 0.546273
0.337575 0.302571 0.559121
0.564675 0.184588 0.545144
0.567742 0.127504 0.503563
0.556161 0.0848707 0.448341
0.549355 0.0784924 0.428016
0.0215457 0.488899 0.656489
0.0244755 0.502541 0.665309
0.0266117 0.504555 0.666911
0.0626383 0.546304 0.686687
0.512627 0.663539 0.724987
0.754726 0.648402 0.714214
0.810178 0.653544 0.719951
0.797559 0.604868 0.692164
0.79324 0.591012 0.684276
0.216999 0.710597 0.735515
0.236576 0.722133 0.741695
0.231632 0.719417 0.740429
0.267567 0.730236 0.749874
0.543572 0.775601 0.766842
0.798245 0.776822 0.750286
0.922515 0.769116 0.717754
0.92668 0.760433 0.701701
0.927352 0.757565 0.696635
0.29044 0.7458 0.745693
0.287709 0.746075 0.74934
0.288258 0.74609 0.748974
0.304738 0.751476 0.759182
0.597833 0.812207 0.795743
0.799542 0.832151 0.770123
0.931304 0.84831 0.755062
0.961181 0.850706 0.768948
0.961959 0.848203 0.764782
0.293782 0.745449 0.740642
0.290745 0.745663 0.744244
0.289998 0.746395 0.748959
0.298436 0.749355 0.755261
0.553536 0.804868 0.790311
0.782498 0.831388 0.775998
0.902312 0.845624 0.750759
0.957855 0.855528 0.773938
0.960662 0.855879 0.775113
0.288823 0.746365 0.749966
0.287541 0.746441 0.751446
0.287343 0.746151 0.749966
0.311666 0.753262 0.760189
0.585336 0.810956 0.795941
0.784741 0.831785 0.776791
0.90399 0.84622 0.75465
0.956207 0.855222 0.774273
0.96112 0.855909 0.774151
0 0.032166 0.107012
0 0.0321202 0.106233
0 0.0330663 0.128008
0.0200961 0.0356909 0.172244
0.0773022 0.0359045 0.192294
0.220722 0.039765 0.211948
0.230243 0.0402228 0.212039
0.230243 0.0402228 0.212039
0.230243 0.0402228 0.212039
0 0.0337072 0.130785
0 0.0332799 0.125261
0 0.0340887 0.143481
0.0280156 0.036759 0.188647
0.0821698 0.035874 0.194186
0.224475 0.0399481 0.211978
0.230259 0.0402228 0.212039
0.230243 0.0402228 0.212039
0.230243 0.0402228 0.212039
0 0.0850843 0.288823
0 0.0880598 0.292592
0 0.0740368 0.271962
0.0107271 0.0622721 0.318914
0.1944 0.0437018 0.297536
0.29424 0.0420539 0.262989
0.292317 0.0419776 0.248341
0.270054 0.0413672 0.234424
0.264027 0.0412146 0.230945
0.00311284 0.298421 0.533608
0.00404364 0.312642 0.544244
0.00366217 0.307073 0.540551
0.0055848 0.314061 0.554665
0.271763 0.31841 0.564019
0.532494 0.193988 0.550683
0.531441 0.139116 0.525032
0.501122 0.0952316 0.491112
0.489891 0.0857252 0.47776
0.0246891 0.500298 0.670878
0.0317235 0.517205 0.679438
0.0311894 0.517998 0.680491
0.0517128 0.541955 0.697993
0.501564 0.685405 0.745037
0.783154 0.699931 0.748959
0.810346 0.696162 0.748119
0.784115 0.658396 0.732204
0.774624 0.642115 0.726009
0.225345 0.717052 0.755749
0.236728 0.724178 0.757839
0.232868 0.721477 0.757
0.268299 0.732494 0.761196
0.553979 0.780118 0.787442
0.809277 0.794934 0.801144
0.886687 0.798169 0.794247
0.889998 0.799313 0.793912
0.889509 0.798627 0.793484
0.276234 0.74667 0.763867
0.276539 0.746838 0.763897
0.276539 0.746853 0.763912
0.289494 0.749447 0.765026
0.579873 0.810224 0.801205
0.774945 0.833906 0.818173
0.901564 0.843442 0.822217
0.927199 0.843626 0.8177
0.926253 0.841657 0.815381
0.276738 0.746868 0.763806
0.276631 0.746868 0.763882
0.276646 0.746868 0.763882
0.28957 0.749569 0.765072
0.550683 0.805234 0.797635
0.763622 0.834073 0.816007
0.86894 0.844526 0.816815
0.93431 0.852842 0.818311
0.939834 0.853452 0.812772
0.276646 0.746868 0.763867
0.2766 0.746868 0.763912
0.27657 0.746868 0.763928
0.305028 0.753094 0.76672
0.588327 0.811826 0.802152
0.76788 0.834546 0.816358
0.869566 0.844724 0.81973
0.931594 0.852735 0.82417
0.93756 0.8533 0.817243
0 0.0322118 0.107942
0 0.032105 0.105837
0 0.0328527 0.122545
0.0137484 0.0354009 0.168612
0.0706951 0.0360113 0.190585
0.213046 0.0394141 0.211658
0.230243 0.0402228 0.212039
0.230243 0.0402228 0.212039
0.230243 0.0402228 0.212039
0 0.0340734 0.135958
0 0.0335088 0.129351
0 0.0338903 0.138247
0.0184634 0.0366064 0.18735
0.0740826 0.0360113 0.192004
0.218387 0.0396582 0.211856
0.230243 0.0402228 0.212039
0.230243 0.0402228 0.212039
0.230243 0.0402228 0.212039
0 0.0968185 0.308827
0 0.0972 0.310842
0 0.0785534 0.281544
0.00105287 0.0707713 0.323384
0.192493 0.0483558 0.318669
0.273564 0.041413 0.257298
0.288334 0.0418708 0.24593
0.274739 0.0415045 0.237797
0.266896 0.0412604 0.232456
0.00415045 0.315175 0.546654
0.00491341 0.329213 0.558495
0.00434882 0.31931 0.550729
0.00505074 0.318807 0.557382
0.191806 0.341909 0.571221
0.510201 0.202472 0.549233
0.527443 0.124315 0.52163
0.503456 0.0997024 0.493828
0.492409 0.0863661 0.481117
0.0302739 0.514702 0.67837
0.0352941 0.530358 0.687007
0.0345312 0.528283 0.685985
0.0458076 0.53669 0.69543
0.429282 0.67631 0.741024
0.771511 0.698848 0.748989
0.806241 0.690684 0.745754
0.783322 0.655238 0.731395
0.773663 0.638941 0.725124
0.2309 0.720592 0.756832
0.236164 0.723445 0.757549
0.240284 0.726223 0.758404
0.257984 0.73019 0.760174
0.517067 0.776745 0.784634
0.789456 0.794369 0.800916
0.884138 0.796811 0.794034
0.889265 0.798627 0.793637
0.888609 0.797833 0.793225
0.27631 0.746731 0.763882
0.276493 0.746838 0.763912
0.276478 0.746822 0.763912
0.285344 0.748562 0.76463
0.549004 0.805005 0.79765
0.766567 0.832517 0.817884
0.895872 0.842985 0.825238
0.924483 0.843671 0.822629
0.922972 0.841566 0.820996
0.276555 0.746868 0.763928
0.276555 0.746868 0.763928
0.276555 0.746868 0.763928
0.28481 0.748516 0.764614
0.522286 0.800198 0.794339
0.756313 0.833295 0.81767
0.866728 0.8448 0.826612
0.929686 0.852827 0.830381
0.931075 0.853086 0.830503
0.276555 0.746868 0.763928
0.276555 0.746868 0.763928
0.276555 0.746868 0.763928
0.292012 0.750057 0.765301
0.559808 0.806836 0.798947
0.762142 0.833967 0.818235
0.867369 0.844831 0.826688
0.929397 0.852796 0.830365
0.931075 0.853086 0.830503
0 0.0322271 0.108049
0 0.0320897 0.105913
0 0.0327001 0.119203
0.0105135 0.0352331 0.166522
0.0669718 0.0360723 0.189807
0.202426 0.0389563 0.211109
0.230243 0.0402228 0.212039
0.230243 0.0402228 0.212039
0.230243 0.0402228 0.212039
0 0.0338598 0.135866
0 0.0335546 0.130724
0 0.0337682 0.135622
0.0134279 0.0366217 0.189609
0.0717479 0.0361791 0.192874
0.210468 0.039292 0.211627
0.230243 0.0402228 0.212039
0.230243 0.0402228 0.212039
0.230243 0.0402228 0.212039
0 0.101091 0.319402
0 0.103563 0.319799
0 0.086183 0.291081
0.000183108 0.0808118 0.33019
0.195407 0.0534676 0.340398
0.265232 0.0412909 0.260502
0.289769 0.0419165 0.246998
0.279393 0.0416419 0.240589
0.273198 0.041413 0.235737
0.00486763 0.328786 0.558373
0.00572213 0.341222 0.567483
0.0049897 0.328603 0.557244
0.00497444 0.322103 0.559213
0.152483 0.354589 0.577447
0.504372 0.225238 0.55903
0.530892 0.127443 0.525704
0.51162 0.112261 0.502785
0.50164 0.0970932 0.491661
0.0355688 0.530877 0.687221
0.043183 0.547951 0.695613
0.0411994 0.541543 0.692073
0.0441138 0.538293 0.696361
0.395193 0.67451 0.740398
0.77026 0.707088 0.75317
0.810178 0.69633 0.748165
0.790112 0.665675 0.735637
0.782986 0.654459 0.731136
0.237125 0.724102 0.757763
0.245914 0.729274 0.759182
0.244938 0.728862 0.759106
0.257343 0.731121 0.76025
0.502083 0.776287 0.783795
0.777951 0.794888 0.801144
0.883177 0.796628 0.794202
0.889204 0.79855 0.793591
0.888548 0.797772 0.793179
0.276478 0.746822 0.763912
0.276509 0.746838 0.763928
0.276524 0.746853 0.763928
0.283619 0.74818 0.764462
0.539269 0.803311 0.796475
0.763714 0.832502 0.817746
0.891844 0.843214 0.825574
0.9252 0.844678 0.823438
0.923781 0.842664 0.821836
0.276555 0.746868 0.763928
0.276555 0.746868 0.763928
0.276555 0.746868 0.763928
0.285573 0.748684 0.764691
0.518242 0.799451 0.79382
0.754513 0.833082 0.817502
0.864424 0.844572 0.826413
0.929549 0.852811 0.830365
0.931075 0.853086 0.830503
0.276555 0.746868 0.763928
0.276555 0.746868 0.763928
0.276555 0.746868 0.763928
0.293446 0.750393 0.765454
0.555367 0.806043 0.798383
0.760281 0.833753 0.818051
0.865446 0.844648 0.826535
0.92932 0.852781 0.83035
0.931075 0.853086 0.830503
