LUT预设1/iPhone专用lut合集3/iPhone合集3标准版（log）/FAKE理光负片（暖）.cube
TITLE "Generated by Resolve"
LUT_3D_SIZE 5
0.00428778 0.0267491 0.0616312
0.402533 0.0207065 0.0584726
0.855009 0.020798 0.066453
0.858076 0.0208133 0.0665904
0.858076 0.0208133 0.0665904
0.0126192 0.135027 0.0671702
0.0485695 0.114061 0.0656443
0.72256 0.0529335 0.0640879
0.859129 0.0231937 0.0670481
0.858076 0.0208133 0.0665904
0.197681 0.687999 0.179202
0.196414 0.686015 0.178668
0.498604 0.644907 0.168185
0.953109 0.559243 0.124895
0.943587 0.404379 0.0800183
0.329351 0.891524 0.232807
0.329351 0.891524 0.232807
0.329381 0.891524 0.232807
0.778164 0.887251 0.229679
0.973098 0.85304 0.234958
0.329351 0.891524 0.232807
0.329351 0.891524 0.232807
0.329351 0.891524 0.232807
0.435859 0.891203 0.229404
0.913558 0.890349 0.239567
0.00836194 0.028275 0.256992
0.250935 0.0275883 0.155657
0.822736 0.0208591 0.102266
0.858442 0.020798 0.0722667
0.858076 0.0208133 0.0665904
0.01178 0.119448 0.137423
0.0810101 0.0856184 0.094789
0.733776 0.0356298 0.0668498
0.858473 0.0217594 0.0667887
0.858076 0.0208133 0.0665904
0.17911 0.661295 0.178759
0.156649 0.620203 0.163668
0.608759 0.608515 0.162158
0.950011 0.50634 0.105592
0.930114 0.283833 0.0722667
0.329351 0.891524 0.232807
0.32932 0.891478 0.232792
0.361608 0.891478 0.231632
0.83624 0.87602 0.229541
0.971633 0.833341 0.229358
0.329351 0.891524 0.232807
0.329351 0.891524 0.232807
0.329351 0.891524 0.232807
0.555459 0.890959 0.227451
0.948821 0.890822 0.243336
0.0148318 0.0324865 0.705516
0.152697 0.0361486 0.669993
0.684901 0.0666056 0.563546
0.777539 0.0628977 0.408927
0.813794 0.041825 0.282872
0.0214237 0.140917 0.654231
0.0436103 0.0992905 0.580728
0.57435 0.101259 0.521691
0.7906 0.0619974 0.364004
0.844312 0.0272526 0.196735
0.0991226 0.672801 0.674144
0.072755 0.612833 0.640711
0.598947 0.621225 0.592554
0.938277 0.464866 0.323323
0.916869 0.222492 0.113024
0.265965 0.906569 0.547509
0.265232 0.905501 0.5505
0.468071 0.898497 0.468681
0.890669 0.85771 0.308354
0.96875 0.7944 0.217487
0.293629 0.900649 0.354849
0.294118 0.900526 0.353262
0.312551 0.895994 0.288365
0.692653 0.891371 0.238102
0.969177 0.891157 0.245594
0.0151675 0.0328832 0.728985
0.0702983 0.0345922 0.736782
0.708202 0.0803693 0.840543
0.780972 0.0879377 0.835554
0.775738 0.0822919 0.726223
0.0242618 0.134905 0.76994
0.0230411 0.107347 0.759396
0.508263 0.0962692 0.819898
0.78323 0.0964828 0.829984
0.774777 0.0813153 0.705333
0.107439 0.676555 0.939086
0.0851148 0.632136 0.930968
0.471733 0.629496 0.947158
0.884947 0.571694 0.904265
0.858579 0.435492 0.774166
0.268605 0.911009 0.935286
0.267659 0.909712 0.932921
0.433158 0.896483 0.918791
0.89247 0.870176 0.873289
0.942428 0.795758 0.740658
0.259953 0.909575 0.816434
0.260044 0.909621 0.818097
0.260563 0.909483 0.805402
0.749569 0.923232 0.782528
0.969055 0.916487 0.667216
0.0151675 0.0328832 0.728985
0.0277867 0.0332799 0.730327
0.587228 0.0679789 0.820935
0.781857 0.0888533 0.85243
0.781857 0.0888533 0.85243
0.0233616 0.124086 0.765835
0.0217441 0.104265 0.75816
0.274144 0.0766461 0.784848
0.782086 0.0896468 0.852659
0.781857 0.0888533 0.85243
0.0962692 0.663844 0.936996
0.0812238 0.627802 0.930266
0.2112 0.605814 0.935653
0.872114 0.5449 0.947951
0.867628 0.467308 0.938659
0.273075 0.911559 0.967559
0.272343 0.910185 0.967391
0.376928 0.902174 0.969406
0.84651 0.871763 0.979492
0.926833 0.82652 0.97789
0.27332 0.912016 0.96762
0.27332 0.912016 0.96762
0.273793 0.912047 0.967636
0.757839 0.928115 0.981399
0.950729 0.930465 0.987503
