LUT预设1/iPhone专用lut合集3/iPhone合集3标准版（log）/FAKE胶片1980.cube
TITLE "Generated by Resolve"
LUT_3D_SIZE 5
0 0.0437476 0.0573281
0.0446021 0.0413825 0.0441901
0.301442 0.0554971 0.0350805
0.346777 0.0554055 0.0334325
0.346777 0.0554055 0.0334325
0 0.0934462 0.0751812
0.043946 0.131685 0.0859998
0.505364 0.108431 0.0323186
0.448249 0.0762493 0.031281
0.404822 0.0653086 0.0322118
0.0140536 0.312612 0.155856
0.0278325 0.343648 0.164141
0.587518 0.581964 0.275669
0.970581 0.56759 0.232959
0.94519 0.493843 0.178729
0.513909 0.665827 0.303731
0.529946 0.672145 0.306386
0.742077 0.768444 0.421729
0.988006 0.839475 0.585504
1 0.842161 0.609705
0.534173 0.673823 0.307195
0.534173 0.673823 0.307195
0.745495 0.770047 0.424445
0.966705 0.8365 0.573587
1 0.84239 0.610254
0 0.0339513 0.070573
0.0587167 0.0373236 0.109331
0.271809 0.0461585 0.0438544
0.301076 0.0487678 0.0328374
0.317998 0.0509499 0.0330968
0 0.100572 0.152087
0.0620737 0.119707 0.148882
0.487114 0.0800183 0.032929
0.442176 0.0725872 0.0311742
0.412665 0.0671092 0.0319371
0.0102388 0.373709 0.275669
0.0221408 0.392279 0.265415
0.707317 0.622568 0.311833
0.969619 0.564828 0.232502
0.940291 0.487602 0.177371
0.610712 0.719158 0.376867
0.600839 0.711666 0.36173
0.793927 0.790143 0.461662
0.998001 0.840604 0.593713
1 0.842008 0.608438
0.612528 0.71696 0.367117
0.612955 0.716991 0.366873
0.786145 0.787427 0.454917
0.995163 0.834257 0.560769
1 0.841993 0.608331
0 0.031342 0.0933547
0 0.03299 0.130938
0.139696 0.0364843 0.178439
0.247501 0.042298 0.13872
0.252583 0.0429847 0.124117
0 0.0669566 0.230045
0 0.0665751 0.256168
0.31249 0.0456703 0.265843
0.318502 0.0455634 0.147753
0.295384 0.0451057 0.124392
0.0224918 0.489403 0.572946
0.0264439 0.504173 0.588312
0.58706 0.626078 0.600977
0.879744 0.516518 0.399054
0.859617 0.450385 0.313527
0.420569 0.740536 0.617319
0.412299 0.74078 0.624094
0.585534 0.782956 0.661662
0.996933 0.847059 0.645823
1 0.839704 0.604212
0.409003 0.74052 0.626307
0.417502 0.740826 0.620371
0.546715 0.775326 0.657511
0.976303 0.852766 0.697185
0.996674 0.845899 0.641901
0 0.032166 0.107012
0 0.0330663 0.128008
0.0773022 0.0359045 0.192294
0.230243 0.0402228 0.212039
0.230243 0.0402228 0.212039
0 0.0850843 0.288823
0 0.0740368 0.271962
0.1944 0.0437018 0.297536
0.292317 0.0419776 0.248341
0.264027 0.0412146 0.230945
0.0246891 0.500298 0.670878
0.0311894 0.517998 0.680491
0.501564 0.685405 0.745037
0.810346 0.696162 0.748119
0.774624 0.642115 0.726009
0.276234 0.74667 0.763867
0.276539 0.746853 0.763912
0.579873 0.810224 0.801205
0.901564 0.843442 0.822217
0.926253 0.841657 0.815381
0.276646 0.746868 0.763867
0.27657 0.746868 0.763928
0.588327 0.811826 0.802152
0.869566 0.844724 0.81973
0.93756 0.8533 0.817243
0 0.0322271 0.108049
0 0.0327001 0.119203
0.0669718 0.0360723 0.189807
0.230243 0.0402228 0.212039
0.230243 0.0402228 0.212039
0 0.101091 0.319402
0 0.086183 0.291081
0.195407 0.0534676 0.340398
0.289769 0.0419165 0.246998
0.273198 0.041413 0.235737
0.0355688 0.530877 0.687221
0.0411994 0.541543 0.692073
0.395193 0.67451 0.740398
0.810178 0.69633 0.748165
0.782986 0.654459 0.731136
0.276478 0.746822 0.763912
0.276524 0.746853 0.763928
0.539269 0.803311 0.796475
0.891844 0.843214 0.825574
0.923781 0.842664 0.821836
0.276555 0.746868 0.763928
0.276555 0.746868 0.763928
0.555367 0.806043 0.798383
0.865446 0.844648 0.826535
0.931075 0.853086 0.830503
