LUT预设1/iPhone专用lut合集3/iPhone合集3标准版（log）/FAKE理光负片.cube
TITLE "Generated by Resolve"
LUT_3D_SIZE 9
0.00428778 0.0267491 0.0616312
0.0904402 0.0262303 0.0617227
0.425238 0.0205997 0.0583352
0.711925 0.0205539 0.0612802
0.85803 0.0208133 0.0665904
0.858076 0.0208133 0.0665904
0.858076 0.0208133 0.0665904
0.858076 0.0208133 0.0665904
0.858076 0.0208133 0.0665904
0.00608835 0.043946 0.0627451
0.010544 0.0372931 0.0624247
0.222187 0.0251621 0.0605783
0.584833 0.0204929 0.0591897
0.830533 0.0206607 0.0652934
0.858076 0.0208133 0.0665904
0.858076 0.0208133 0.0665904
0.858076 0.0208133 0.0665904
0.858076 0.0208133 0.0665904
0.0137179 0.1514 0.0682689
0.0128481 0.138994 0.0673686
0.0389563 0.129122 0.0667124
0.439307 0.0889296 0.0607156
0.738994 0.060441 0.065156
0.864286 0.0321355 0.0687419
0.859251 0.0237278 0.0671092
0.858076 0.0208286 0.0665904
0.858076 0.0208133 0.0665904
0.0735027 0.45449 0.121767
0.0671702 0.433341 0.116854
0.0697337 0.440879 0.11873
0.211566 0.413977 0.114168
0.738781 0.389166 0.0898299
0.917662 0.330053 0.0720836
0.919249 0.223987 0.0725414
0.892393 0.117494 0.0746929
0.877089 0.0612497 0.0720989
0.223316 0.729152 0.188876
0.216892 0.718853 0.186435
0.221225 0.725841 0.188067
0.222141 0.721004 0.186999
0.489693 0.682063 0.17586
0.87509 0.654627 0.170047
0.955779 0.603265 0.142214
0.95346 0.565469 0.127169
0.948455 0.48069 0.0965133
0.321386 0.878355 0.229313
0.318914 0.874327 0.22826
0.320851 0.877302 0.229099
0.322713 0.880522 0.229938
0.363775 0.870726 0.225559
0.665156 0.83064 0.211688
0.944091 0.809369 0.220279
0.966735 0.766247 0.20708
0.965087 0.742702 0.198215
0.329351 0.891524 0.232807
0.329351 0.891524 0.232807
0.329351 0.891524 0.232807
0.329351 0.891524 0.232807
0.329351 0.891524 0.232807
0.483024 0.891035 0.228199
0.760266 0.88983 0.229618
0.97319 0.891203 0.246036
0.976089 0.888289 0.245502
0.329351 0.891524 0.232807
0.329351 0.891524 0.232807
0.329351 0.891524 0.232807
0.329351 0.891524 0.232807
0.329351 0.891524 0.232807
0.329549 0.891524 0.232792
0.604425 0.890959 0.227146
0.829252 0.889372 0.232471
0.976059 0.891264 0.246372
0.329351 0.891524 0.232807
0.329351 0.891524 0.232807
0.329351 0.891524 0.232807
0.329351 0.891524 0.232807
0.329351 0.891524 0.232807
0.329351 0.891524 0.232807
0.438727 0.891188 0.229236
0.761715 0.889769 0.229648
0.920546 0.890471 0.240314
0.00497444 0.0272984 0.101305
0.0563363 0.0272831 0.0850233
0.373877 0.0209049 0.0682383
0.680003 0.0205692 0.0626841
0.857786 0.0208133 0.0665751
0.858076 0.0208133 0.0665904
0.858076 0.0208133 0.0665904
0.858076 0.0208133 0.0665904
0.858076 0.0208133 0.0665904
0.00579843 0.039765 0.0724956
0.0146792 0.0313725 0.0641184
0.241047 0.0232853 0.0604257
0.577142 0.0205081 0.059144
0.823178 0.0206607 0.0650034
0.858076 0.0208133 0.0665904
0.858076 0.0208133 0.0665904
0.858076 0.0208133 0.0665904
0.858076 0.0208133 0.0665904
0.0129702 0.141115 0.0674754
0.0115816 0.120272 0.0660716
0.0632944 0.110689 0.0652018
0.451591 0.0755474 0.0607309
0.764279 0.0425879 0.0651102
0.861769 0.0280766 0.0679484
0.85864 0.022385 0.0668498
0.858076 0.0208133 0.0665904
0.858076 0.0208133 0.0665904
0.0666056 0.436042 0.117266
0.0573739 0.402823 0.109728
0.0545052 0.375738 0.104051
0.272618 0.392432 0.110155
0.745235 0.349355 0.0797284
0.923735 0.278737 0.0707713
0.904479 0.163378 0.074342
0.883696 0.0842298 0.0733959
0.871855 0.0464332 0.0708171
0.217578 0.720073 0.186709
0.208362 0.705242 0.183215
0.204242 0.698634 0.181628
0.238117 0.689784 0.179477
0.539864 0.661341 0.171817
0.892851 0.630381 0.158907
0.955184 0.593774 0.138369
0.950957 0.523369 0.110979
0.94432 0.415808 0.0819409
0.318654 0.87393 0.228138
0.314504 0.867308 0.226368
0.313802 0.866056 0.226078
0.313252 0.865156 0.225879
0.427985 0.852094 0.218296
0.699947 0.813245 0.208042
0.964767 0.791135 0.215854
0.96582 0.753262 0.202197
0.964538 0.734936 0.195239
0.329351 0.891524 0.232807
0.329351 0.891524 0.232807
0.329351 0.891524 0.232807
0.329351 0.891524 0.232807
0.329351 0.891524 0.232807
0.561303 0.890929 0.227268
0.793149 0.889494 0.230823
0.976257 0.890196 0.246082
0.97525 0.878599 0.242588
0.329351 0.891524 0.232807
0.329351 0.891524 0.232807
0.329351 0.891524 0.232807
0.329351 0.891524 0.232807
0.329351 0.891524 0.232807
0.339239 0.891508 0.232425
0.660441 0.890837 0.227558
0.857877 0.889601 0.234333
0.976364 0.891279 0.246403
0.329351 0.891524 0.232807
0.329351 0.891524 0.232807
0.329351 0.891524 0.232807
0.329351 0.891524 0.232807
0.329351 0.891524 0.232807
0.329351 0.891524 0.232807
0.50161 0.891051 0.227955
0.790768 0.889433 0.230686
0.93846 0.890776 0.242206
0.00927749 0.0284581 0.305913
0.0374151 0.0286717 0.245533
0.246326 0.0293889 0.18764
0.588861 0.0227359 0.14316
0.836118 0.021088 0.120317
0.859648 0.0207675 0.0949416
0.858778 0.0207675 0.0771801
0.858183 0.0208133 0.0682841
0.858076 0.0208133 0.0665904
0.00872816 0.040177 0.232624
0.00970474 0.0314336 0.191028
0.144778 0.0289769 0.144305
0.522057 0.0215152 0.109316
0.797635 0.0206912 0.0932326
0.858625 0.020798 0.0750744
0.858076 0.0208133 0.0665904
0.858076 0.0208133 0.0665904
0.858076 0.0208133 0.0665904
0.0128786 0.134569 0.171649
0.0113375 0.110933 0.148425
0.0732433 0.0953689 0.120256
0.447532 0.0640421 0.0844892
0.74519 0.0386511 0.0726024
0.861097 0.0268864 0.0687877
0.858503 0.0220188 0.0667887
0.858076 0.0208133 0.0665904
0.858076 0.0208133 0.0665904
0.0495308 0.417487 0.173236
0.0415656 0.367208 0.14844
0.054902 0.334676 0.120241
0.336904 0.36376 0.11162
0.739757 0.309529 0.0715648
0.915221 0.209567 0.0726024
0.894667 0.125566 0.0744488
0.879072 0.0672313 0.0725109
0.869032 0.0398566 0.0700847
0.202914 0.704799 0.198962
0.189242 0.680507 0.188296
0.181674 0.663569 0.176104
0.29691 0.658213 0.172152
0.595529 0.640665 0.168856
0.895521 0.605783 0.148806
0.952941 0.557321 0.123735
0.94667 0.449714 0.0890211
0.939193 0.348058 0.0721904
0.312032 0.863371 0.225483
0.30457 0.851682 0.222126
0.300496 0.845594 0.220417
0.296559 0.836118 0.2177
0.49279 0.832517 0.211749
0.733257 0.794232 0.204623
0.966339 0.771862 0.209094
0.96524 0.745144 0.19913
0.962371 0.70425 0.183429
0.329351 0.891524 0.232807
0.329351 0.891524 0.232807
0.329351 0.891524 0.232807
0.329351 0.891524 0.232807
0.348302 0.891493 0.232044
0.615946 0.890898 0.227192
0.823301 0.888548 0.231891
0.975845 0.885649 0.244678
0.974197 0.865766 0.238819
0.329351 0.891524 0.232807
0.329351 0.891524 0.232807
0.329351 0.891524 0.232807
0.329351 0.891524 0.232807
0.329351 0.891524 0.232807
0.397848 0.891371 0.230503
0.703731 0.890501 0.228199
0.88481 0.889937 0.236545
0.976364 0.891279 0.246403
0.329351 0.891524 0.232807
0.329351 0.891524 0.232807
0.329351 0.891524 0.232807
0.329351 0.891524 0.232807
0.329351 0.891524 0.232807
0.330175 0.891524 0.232776
0.563699 0.890974 0.227237
0.819852 0.889235 0.231815
0.953902 0.890974 0.243915
0.0128023 0.0306554 0.572976
0.0332494 0.0306554 0.546349
0.184741 0.0332036 0.479301
0.476112 0.0447547 0.411933
0.721508 0.0548562 0.359289
0.815808 0.0402075 0.278294
0.837491 0.0301671 0.21709
0.850935 0.0242008 0.172107
0.856138 0.0225376 0.152468
0.0128328 0.0423438 0.505699
0.0122683 0.0333715 0.467445
0.086717 0.0310674 0.41825
0.377707 0.0383001 0.366079
0.671778 0.0480507 0.321645
0.82414 0.0363317 0.253956
0.850187 0.024918 0.181018
0.860304 0.0211185 0.130129
0.859861 0.0209812 0.108293
0.0178531 0.14873 0.47332
0.0157321 0.121447 0.430579
0.0514687 0.102892 0.389181
0.304738 0.101442 0.355795
0.642176 0.091249 0.306096
0.840497 0.0460212 0.22884
0.856382 0.0240635 0.155749
0.859831 0.0209506 0.109804
0.859068 0.0207828 0.0822919
0.0392462 0.437705 0.492042
0.0337072 0.3832 0.453895
0.0387732 0.337804 0.412268
0.274434 0.379156 0.409415
0.705013 0.322393 0.294148
0.899596 0.213718 0.192615
0.892424 0.114946 0.116182
0.8766 0.0585641 0.0806287
0.866758 0.0360876 0.0694438
0.138369 0.715389 0.484718
0.118593 0.685634 0.468849
0.103609 0.659129 0.44123
0.264714 0.656977 0.397314
0.63032 0.642969 0.316579
0.894209 0.584039 0.180407
0.949218 0.488533 0.110384
0.942809 0.387228 0.0755932
0.932891 0.299428 0.0704662
0.257084 0.872145 0.418479
0.247303 0.854994 0.41442
0.242039 0.841627 0.395804
0.257588 0.823011 0.341466
0.557717 0.811872 0.291752
0.770291 0.778973 0.228748
0.964233 0.749615 0.202914
0.963134 0.714488 0.187457
0.959121 0.655756 0.163714
0.301411 0.898863 0.322454
0.301015 0.898894 0.323766
0.304967 0.897932 0.311376
0.317494 0.894865 0.271824
0.437308 0.892393 0.243214
0.676143 0.890684 0.229572
0.8533 0.88658 0.233143
0.974716 0.872801 0.240787
0.973281 0.854337 0.235523
0.322774 0.89337 0.254444
0.324727 0.892958 0.249104
0.325582 0.892699 0.24622
0.328115 0.89192 0.237247
0.33048 0.891569 0.233219
0.517617 0.89102 0.227634
0.744381 0.890013 0.229114
0.90753 0.890242 0.238895
0.976364 0.891279 0.246403
0.327901 0.891951 0.237766
0.329091 0.8916 0.233768
0.32932 0.891539 0.232898
0.329351 0.891524 0.232807
0.329351 0.891524 0.232807
0.379797 0.891478 0.231037
0.634821 0.890959 0.227375
0.850355 0.889509 0.233539
0.96405 0.891081 0.245014
0.0151675 0.0328832 0.728679
0.0231937 0.0331273 0.729778
0.150484 0.0380865 0.742443
0.486503 0.0551919 0.720027
0.716243 0.0731823 0.662974
0.769924 0.0758373 0.585534
0.767361 0.0724346 0.505379
0.773648 0.0655985 0.428977
0.784848 0.0583505 0.375433
0.0162356 0.0449683 0.724758
0.0152895 0.0368658 0.712001
0.0662699 0.0345464 0.70219
0.345907 0.0454871 0.681636
0.645747 0.0651255 0.638163
0.769497 0.0755627 0.577813
0.767758 0.0715496 0.494408
0.773953 0.064271 0.404898
0.798428 0.0499275 0.322866
0.0255131 0.162676 0.745602
0.0225986 0.13727 0.708721
0.0375067 0.115846 0.679301
0.23122 0.108049 0.663462
0.58764 0.116945 0.633341
0.777005 0.113268 0.576486
0.772 0.0809186 0.476707
0.779446 0.0605631 0.380941
0.809094 0.0441444 0.295003
0.048188 0.461677 0.789593
0.0437629 0.415534 0.762325
0.0424659 0.36997 0.726986
0.188235 0.388388 0.72488
0.592325 0.397879 0.707408
0.813916 0.357458 0.645441
0.827634 0.262531 0.528817
0.824323 0.155566 0.381231
0.83888 0.0741436 0.261845
0.128542 0.715099 0.762356
0.108598 0.689082 0.750103
0.0919203 0.66273 0.737072
0.204852 0.653803 0.726879
0.587015 0.662394 0.715404
0.847425 0.625238 0.635706
0.929198 0.553445 0.509117
0.93576 0.431861 0.329732
0.927413 0.30071 0.192889
0.239445 0.871992 0.712673
0.229282 0.854841 0.704982
0.219791 0.839307 0.699245
0.22501 0.81883 0.679881
0.527794 0.817258 0.661204
0.766339 0.799115 0.602518
0.960052 0.759121 0.4495
0.960739 0.691432 0.321355
0.9579 0.624811 0.206806
0.262501 0.907423 0.6336
0.26273 0.907469 0.634607
0.26273 0.907485 0.636515
0.262867 0.907378 0.621897
0.41622 0.912581 0.597314
0.700603 0.910262 0.549386
0.871366 0.893233 0.464302
0.974548 0.864897 0.353613
0.971267 0.827253 0.234195
0.266133 0.906844 0.537469
0.265507 0.906874 0.545815
0.265766 0.906813 0.549584
0.267231 0.906615 0.531655
0.28603 0.906432 0.487449
0.584405 0.90602 0.432319
0.782834 0.89984 0.367498
0.931853 0.894652 0.295003
0.976516 0.892119 0.257191
0.269566 0.90634 0.489403
0.270542 0.906096 0.484764
0.27097 0.906035 0.482322
0.273945 0.905394 0.454795
0.282811 0.903197 0.400961
0.43267 0.900618 0.347814
0.703365 0.896132 0.303929
0.876524 0.892164 0.265675
0.971344 0.891173 0.245838
0.0151675 0.0328832 0.728985
0.0160525 0.0329137 0.729076
0.0953384 0.0356146 0.741283
0.454032 0.0570535 0.799786
0.737285 0.0835279 0.844602
0.780301 0.0871748 0.820661
0.776761 0.0832685 0.747341
0.773587 0.080293 0.680873
0.771313 0.0775769 0.623407
0.0160525 0.0417334 0.732631
0.0154726 0.0360571 0.730236
0.0410925 0.0342565 0.732326
0.273304 0.0456703 0.773236
0.652323 0.074342 0.831647
0.780072 0.0869612 0.817914
0.776852 0.0832837 0.747402
0.773556 0.0801404 0.679591
0.770932 0.0768902 0.608621
0.0259403 0.155245 0.777783
0.0244907 0.137591 0.770962
0.0265812 0.120821 0.76492
0.156588 0.104433 0.777966
0.566415 0.116304 0.833005
0.782132 0.117708 0.820645
0.780499 0.0979782 0.739498
0.773999 0.083299 0.663966
0.770108 0.0760052 0.588708
0.0521096 0.463783 0.89099
0.0487678 0.425361 0.87895
0.0459449 0.391791 0.868086
0.13196 0.384771 0.878004
0.542763 0.405127 0.911299
0.80415 0.372381 0.870512
0.837247 0.320623 0.793194
0.818219 0.242679 0.70573
0.793667 0.160998 0.602991
0.140124 0.719234 0.941466
0.12195 0.696834 0.938598
0.107057 0.676219 0.935668
0.174456 0.661479 0.932555
0.531243 0.66807 0.924971
0.794018 0.641566 0.882155
0.891722 0.608591 0.821561
0.879667 0.543664 0.753262
0.861997 0.443549 0.676097
0.245212 0.870588 0.9131
0.235935 0.854932 0.907683
0.22768 0.841581 0.904418
0.22385 0.820722 0.892668
0.50135 0.813458 0.880537
0.765164 0.800443 0.856458
0.928527 0.772488 0.803967
0.933364 0.726207 0.727504
0.937118 0.668757 0.628687
0.260884 0.910063 0.847303
0.260777 0.910018 0.843565
0.260777 0.910018 0.843076
0.260349 0.909743 0.835279
0.412222 0.914687 0.831266
0.705119 0.915221 0.818891
0.876402 0.900664 0.778103
0.959106 0.87277 0.682506
0.959258 0.82501 0.588327
0.259342 0.908965 0.775387
0.259586 0.90898 0.773983
0.259556 0.909026 0.777554
0.259403 0.908934 0.772839
0.277928 0.90988 0.763241
0.583444 0.920424 0.75581
0.804715 0.920546 0.728511
0.945525 0.916655 0.671199
0.973739 0.912657 0.588449
0.259983 0.908522 0.739208
0.260105 0.908476 0.734813
0.260151 0.908537 0.737881
0.26038 0.908461 0.73022
0.260746 0.908202 0.714244
0.425666 0.915099 0.697047
0.717922 0.918196 0.664591
0.887312 0.914199 0.619165
0.975784 0.907591 0.488457
0.0151675 0.0328832 0.728985
0.0151675 0.0328832 0.728985
0.0556344 0.0339513 0.734127
0.339025 0.0497597 0.78323
0.721218 0.0817273 0.842527
0.781857 0.0888533 0.85243
0.781857 0.0888533 0.85243
0.781567 0.0885786 0.847822
0.780331 0.0873121 0.822629
0.0157473 0.0388495 0.731365
0.0153048 0.0342412 0.729534
0.0240024 0.0331579 0.729885
0.167193 0.0393988 0.755642
0.603479 0.0693217 0.823941
0.781857 0.0888533 0.85243
0.781857 0.0888533 0.85243
0.781567 0.0885786 0.847288
0.780255 0.0871138 0.819577
0.0250248 0.144091 0.773312
0.0239261 0.130861 0.768338
0.0229343 0.118242 0.763577
0.0931716 0.0970932 0.764675
0.474937 0.0996719 0.816907
0.773968 0.103548 0.855146
0.784146 0.0965744 0.854734
0.781781 0.0898451 0.844541
0.779522 0.0862745 0.804059
0.0504616 0.444892 0.885481
0.0474861 0.410239 0.874357
0.0455329 0.3879 0.86685
0.0785229 0.356909 0.861479
0.411475 0.385962 0.901381
0.775189 0.350042 0.916197
0.839078 0.311116 0.913252
0.830518 0.273655 0.891875
0.814023 0.212284 0.828016
0.135195 0.713542 0.944808
0.118242 0.69247 0.94168
0.104051 0.67335 0.938598
0.120104 0.651362 0.937148
0.421088 0.661921 0.949783
0.753552 0.638865 0.954162
0.891615 0.605844 0.954574
0.885267 0.570687 0.929412
0.87393 0.510674 0.873549
0.248875 0.86775 0.963195
0.240848 0.854032 0.961822
0.234028 0.842756 0.960586
0.225406 0.824109 0.958495
0.457008 0.816083 0.963256
0.735744 0.803037 0.971359
0.910552 0.778958 0.968338
0.915572 0.74931 0.931838
0.909209 0.70634 0.877989
0.27332 0.912016 0.96762
0.27332 0.912016 0.967575
0.27332 0.912016 0.96762
0.273152 0.911788 0.967285
0.397711 0.915206 0.968887
0.692042 0.9131 0.970596
0.88867 0.900084 0.960861
0.939284 0.874815 0.918532
0.937346 0.83801 0.855833
0.270054 0.911589 0.945617
0.26949 0.911528 0.941955
0.269535 0.911528 0.942138
0.268879 0.911452 0.937301
0.281086 0.912108 0.930526
0.585458 0.922026 0.929931
0.82562 0.928481 0.92015
0.950683 0.926268 0.890654
0.95874 0.923506 0.82092
0.265782 0.911086 0.912047
0.265064 0.910979 0.904784
0.264851 0.910918 0.903532
0.263905 0.910796 0.897047
0.26302 0.91075 0.888472
0.441611 0.917479 0.884688
0.734417 0.926253 0.878401
0.90808 0.924773 0.858
0.959899 0.922972 0.803235
0.0151675 0.0328832 0.728985
0.0151675 0.0328832 0.728985
0.0331121 0.033402 0.730922
0.20853 0.0418402 0.76286
0.658091 0.0750134 0.833005
0.781857 0.0888533 0.85243
0.781857 0.0888533 0.85243
0.781857 0.0888533 0.85243
0.781857 0.0888533 0.85243
0.0156405 0.0376135 0.730922
0.0153658 0.0349126 0.729793
0.0180667 0.0333715 0.729427
0.103593 0.0359655 0.742931
0.500618 0.0599374 0.806226
0.781765 0.088838 0.852415
0.781857 0.0888533 0.85243
0.781857 0.0888533 0.85243
0.781857 0.0888533 0.85243
0.0244755 0.137697 0.771008
0.0235599 0.126513 0.766812
0.0227054 0.116197 0.762844
0.0573129 0.0949569 0.75874
0.334096 0.0890364 0.797253
0.737804 0.0923323 0.847578
0.7823 0.0903792 0.852872
0.781857 0.0888533 0.85243
0.781857 0.0888533 0.85243
0.049073 0.430106 0.881209
0.0464179 0.399619 0.871214
0.0450599 0.38378 0.865919
0.0489815 0.34461 0.853086
0.235157 0.363592 0.883253
0.705501 0.33463 0.907835
0.831342 0.273594 0.905119
0.823392 0.2392 0.896468
0.817914 0.216037 0.89041
0.12961 0.708141 0.944457
0.112093 0.68632 0.940978
0.101472 0.670344 0.938231
0.0887007 0.644999 0.933806
0.275486 0.650858 0.944274
0.682246 0.637415 0.953231
0.889143 0.590921 0.953338
0.882445 0.552422 0.949203
0.877943 0.526192 0.946273
0.247547 0.865354 0.962997
0.240314 0.853147 0.96173
0.234333 0.843137 0.960678
0.223621 0.825605 0.958663
0.386053 0.815976 0.961563
0.675883 0.804227 0.969879
0.890105 0.775982 0.970443
0.915511 0.746777 0.968246
0.912093 0.725231 0.965927
0.27332 0.912016 0.96762
0.27332 0.912016 0.96762
0.27332 0.912016 0.96762
0.273274 0.91194 0.967605
0.367254 0.913725 0.970382
0.662181 0.915312 0.977523
0.863554 0.900969 0.982132
0.936904 0.878279 0.984497
0.932174 0.856458 0.980911
0.27332 0.912016 0.96762
0.27332 0.912016 0.96762
0.27332 0.912016 0.96762
0.27332 0.912016 0.96762
0.278065 0.912291 0.967819
0.570321 0.921691 0.975647
0.818341 0.929366 0.983032
0.949798 0.930495 0.98851
0.950668 0.929824 0.984131
0.27332 0.912016 0.96762
0.27332 0.912016 0.96762
0.27332 0.912016 0.96762
0.27332 0.912016 0.96762
0.27332 0.912016 0.96762
0.43624 0.917861 0.972366
0.737255 0.927565 0.979339
0.926863 0.930175 0.9841
0.95111 0.929885 0.974426
0.0151675 0.0328832 0.728985
0.0151675 0.0328832 0.728985
0.0236667 0.0331426 0.72987
0.125719 0.0369268 0.747219
0.55375 0.0645151 0.815122
0.781857 0.0888533 0.85243
0.781857 0.0888533 0.85243
0.781857 0.0888533 0.85243
0.781857 0.0888533 0.85243
0.0156405 0.0378271 0.730922
0.0153201 0.0345617 0.729641
0.0161288 0.0331426 0.729168
0.0730602 0.034699 0.737224
0.361471 0.0512245 0.786847
0.762951 0.0865187 0.849165
0.781857 0.0888533 0.85243
0.781857 0.0888533 0.85243
0.781857 0.0888533 0.85243
0.0246738 0.140185 0.772015
0.0237125 0.128267 0.767391
0.0228885 0.118364 0.763592
0.0398413 0.098436 0.757946
0.200305 0.0836805 0.777188
0.650111 0.0867018 0.835157
0.781857 0.0888838 0.85243
0.781857 0.0888533 0.85243
0.781857 0.0888533 0.85243
0.0486915 0.426505 0.880491
0.0464027 0.398779 0.870878
0.0454566 0.386969 0.866651
0.0437476 0.351034 0.854475
0.137072 0.346288 0.867277
0.597574 0.341482 0.902159
0.82858 0.261585 0.902129
0.812573 0.1944 0.884413
0.808194 0.178637 0.879789
0.125292 0.703502 0.943908
0.109712 0.682841 0.940444
0.102602 0.671839 0.938506
0.0909133 0.651423 0.93492
0.154269 0.64036 0.937972
0.576608 0.644846 0.952621
0.869596 0.590951 0.952468
0.876905 0.519829 0.945617
0.871504 0.489952 0.941802
0.247822 0.865995 0.962982
0.240421 0.853391 0.9617
0.234577 0.84361 0.960678
0.224659 0.827314 0.958846
0.299992 0.814404 0.95935
0.588357 0.80557 0.966506
0.836271 0.778897 0.969848
0.914031 0.737224 0.967254
0.909941 0.712673 0.964721
0.27332 0.912016 0.96762
0.27332 0.912016 0.96762
0.27332 0.912016 0.96762
0.27332 0.912016 0.96762
0.32723 0.912856 0.969299
0.611765 0.918379 0.976349
0.816587 0.905425 0.980621
0.936812 0.877623 0.984466
0.931548 0.853574 0.981445
0.27332 0.912016 0.96762
0.27332 0.912016 0.96762
0.27332 0.912016 0.96762
0.27332 0.912016 0.96762
0.276066 0.912154 0.967727
0.560616 0.921386 0.975357
0.801953 0.929137 0.98262
0.943206 0.930419 0.988159
0.950698 0.93051 0.988571
0.27332 0.912016 0.96762
0.27332 0.912016 0.96762
0.27332 0.912016 0.96762
0.27332 0.912016 0.96762
0.27332 0.912016 0.96762
0.422187 0.917494 0.972061
0.737209 0.927626 0.980896
0.929519 0.930419 0.987594
0.950698 0.93051 0.988571
