LUT预设1/iPhone专用lut合集3/iPhone合集3标准版（log）/FAKE胶片复古.cube
TITLE "Generated by Resolve"
LUT_3D_SIZE 9
0.00422675 0.0272068 0.0628672
0.0165866 0.0270085 0.0623026
0.139788 0.0250553 0.0612497
0.465934 0.0205234 0.0584573
0.744396 0.0205844 0.062211
0.858076 0.0208133 0.0665904
0.858076 0.0208133 0.0665904
0.858076 0.0208133 0.0665904
0.858076 0.0208133 0.0665904
0.00517281 0.0358892 0.062562
0.00917067 0.0361028 0.0623484
0.126406 0.0319829 0.0616617
0.49337 0.0228733 0.0587625
0.764248 0.0208743 0.0629129
0.858061 0.0208438 0.0665904
0.858076 0.0208133 0.0665904
0.858076 0.0208133 0.0665904
0.858076 0.0208133 0.0665904
0.00863661 0.076173 0.0647288
0.00929274 0.0825666 0.0644846
0.0375525 0.0866407 0.064271
0.382345 0.0668193 0.0602579
0.716136 0.0470893 0.0637217
0.863127 0.0327306 0.0687266
0.861311 0.0271763 0.0678111
0.859129 0.0234379 0.0670329
0.858198 0.021149 0.0666514
0.0154421 0.172076 0.0711376
0.0176242 0.193042 0.0728161
0.022385 0.214038 0.0750286
0.216739 0.259236 0.0827802
0.701396 0.231083 0.0661784
0.896071 0.205249 0.0715343
0.900572 0.149493 0.074403
0.888975 0.103334 0.074052
0.882124 0.0794385 0.0730755
0.0457771 0.357504 0.100618
0.0588998 0.405219 0.110582
0.0757153 0.452796 0.121782
0.193668 0.515755 0.137728
0.590326 0.576181 0.154528
0.906554 0.545724 0.124025
0.950774 0.519905 0.11017
0.949142 0.494148 0.101991
0.945861 0.443244 0.0889143
0.144701 0.599664 0.157977
0.169558 0.641978 0.168231
0.194949 0.68368 0.178134
0.242267 0.714488 0.185321
0.549386 0.749035 0.191333
0.806806 0.76524 0.202197
0.964965 0.747707 0.200076
0.964218 0.730312 0.193408
0.964431 0.733501 0.194675
0.237934 0.751812 0.194568
0.259007 0.783734 0.203037
0.281254 0.816739 0.212238
0.304906 0.838956 0.218311
0.54818 0.86125 0.219196
0.770123 0.875441 0.226078
0.936034 0.884672 0.240192
0.97496 0.875563 0.241642
0.974655 0.87158 0.240513
0.304494 0.851652 0.222095
0.319036 0.87451 0.228351
0.328466 0.890043 0.232425
0.331258 0.891432 0.2327
0.555352 0.890959 0.227329
0.75903 0.88983 0.229633
0.91078 0.890303 0.239231
0.976135 0.891279 0.246372
0.976364 0.891279 0.246403
0.329351 0.891524 0.232807
0.329351 0.891524 0.232807
0.329351 0.891524 0.232807
0.331273 0.891524 0.232731
0.582055 0.890944 0.227207
0.774441 0.889662 0.230137
0.911086 0.890303 0.239261
0.974899 0.891234 0.246235
0.976364 0.891279 0.246403
0.00454719 0.0276493 0.0762341
0.0142672 0.0270848 0.072343
0.134005 0.0253147 0.0645914
0.471656 0.0205234 0.0586404
0.75288 0.0206149 0.0624704
0.858076 0.0208133 0.0665904
0.858076 0.0208133 0.0665904
0.858076 0.0208133 0.0665904
0.858076 0.0208133 0.0665904
0.00560006 0.0380255 0.0746471
0.0104677 0.037171 0.0712596
0.141405 0.032639 0.0643778
0.495155 0.023209 0.0589151
0.761044 0.0211643 0.0628214
0.858045 0.0208286 0.0665904
0.858076 0.0208133 0.0665904
0.858076 0.0208133 0.0665904
0.858076 0.0208133 0.0665904
0.00909438 0.0825971 0.0760662
0.00975052 0.0878767 0.0729839
0.0576944 0.0895247 0.0664683
0.418936 0.069688 0.060441
0.740276 0.0457771 0.0644236
0.864195 0.0332952 0.0688182
0.861311 0.0271458 0.0678111
0.859113 0.0233463 0.0670329
0.858228 0.0211948 0.0666514
0.0167697 0.187625 0.0858167
0.0189822 0.207935 0.0842298
0.0315251 0.22266 0.0790265
0.281285 0.270649 0.0838788
0.719326 0.241505 0.066804
0.906966 0.201389 0.0724346
0.899428 0.144808 0.074403
0.889067 0.103853 0.073991
0.88275 0.0816052 0.0731975
0.0510109 0.383642 0.120348
0.0653849 0.430594 0.125017
0.0802472 0.465019 0.125536
0.26276 0.532357 0.141833
0.639857 0.579171 0.155337
0.918883 0.547311 0.123445
0.951415 0.531197 0.114229
0.948577 0.484276 0.0987716
0.945647 0.439277 0.0875257
0.153689 0.61944 0.168536
0.178027 0.65742 0.174243
0.200366 0.692348 0.180179
0.288884 0.721111 0.186587
0.597421 0.751003 0.192187
0.834897 0.766567 0.204196
0.965362 0.747158 0.199878
0.964538 0.73489 0.195193
0.964645 0.736522 0.195804
0.244205 0.762036 0.198596
0.264881 0.792569 0.205493
0.285801 0.823468 0.21416
0.326482 0.843091 0.218875
0.597955 0.862608 0.219455
0.797345 0.875456 0.227207
0.951461 0.883894 0.241566
0.975052 0.876539 0.241947
0.974807 0.873152 0.240986
0.308858 0.858427 0.22414
0.32224 0.879728 0.22974
0.328679 0.890394 0.232517
0.333776 0.891508 0.232639
0.599557 0.890898 0.227222
0.786648 0.889525 0.230564
0.926635 0.890517 0.240879
0.976333 0.891279 0.246403
0.976364 0.891279 0.246403
0.32932 0.891478 0.232792
0.329351 0.891524 0.232807
0.329351 0.891524 0.232807
0.331914 0.891524 0.2327
0.616754 0.890929 0.227314
0.801648 0.889448 0.231205
0.925856 0.890517 0.240818
0.976028 0.891279 0.246357
0.976364 0.891279 0.246403
0.00593576 0.0283818 0.144106
0.0113832 0.0278019 0.140307
0.0940871 0.0277867 0.127245
0.46392 0.0214542 0.0945144
0.759716 0.0206455 0.0728313
0.858076 0.0208133 0.0669108
0.858076 0.0208133 0.0665904
0.858076 0.0208133 0.0665904
0.858076 0.0208133 0.0665904
0.00714122 0.0422065 0.145281
0.00886549 0.041062 0.140917
0.095079 0.0366522 0.125704
0.474708 0.0242466 0.0899214
0.758999 0.0212711 0.0719158
0.858045 0.0208286 0.0669261
0.858076 0.0208133 0.0665904
0.858076 0.0208133 0.0665904
0.858076 0.0208133 0.0665904
0.0101625 0.0921187 0.140734
0.0104982 0.0972152 0.138811
0.0566873 0.096437 0.118959
0.419989 0.0741894 0.0809796
0.724178 0.0509346 0.0671244
0.864729 0.0366369 0.0691844
0.861769 0.0278935 0.0679484
0.859174 0.0234531 0.0670481
0.858228 0.0211948 0.0666514
0.0179904 0.210315 0.150408
0.0200961 0.233143 0.157595
0.0343023 0.239857 0.136477
0.325399 0.283192 0.109926
0.726116 0.247349 0.069337
0.906096 0.195178 0.0728008
0.900267 0.148028 0.0742657
0.890333 0.108949 0.074052
0.884062 0.0864424 0.0734417
0.0479438 0.42417 0.201892
0.059205 0.470436 0.218448
0.075349 0.495338 0.194476
0.32491 0.548638 0.171435
0.669932 0.57641 0.155352
0.919417 0.548394 0.123949
0.950515 0.515816 0.108873
0.94725 0.462409 0.0930343
0.944778 0.42652 0.0848096
0.136355 0.651102 0.264424
0.16228 0.686839 0.266499
0.194644 0.712001 0.233906
0.326711 0.727535 0.197436
0.633326 0.748775 0.192584
0.852689 0.76321 0.204288
0.965057 0.742901 0.198245
0.964584 0.735439 0.195392
0.963928 0.726329 0.191852
0.228168 0.785534 0.292348
0.249485 0.811673 0.287999
0.281559 0.834653 0.248814
0.334127 0.847105 0.221836
0.636088 0.86154 0.219242
0.817227 0.872663 0.22742
0.960983 0.880934 0.241688
0.974701 0.872206 0.240681
0.97467 0.871748 0.240574
0.287907 0.874434 0.310643
0.305058 0.890288 0.295644
0.322362 0.892912 0.255253
0.333639 0.891539 0.232853
0.628794 0.890883 0.227222
0.806745 0.889418 0.231418
0.935622 0.890623 0.241871
0.976364 0.891279 0.246403
0.976364 0.891279 0.246403
0.299809 0.899107 0.328664
0.304738 0.897932 0.312779
0.318303 0.894652 0.269184
0.330022 0.891661 0.234272
0.630762 0.890898 0.227329
0.821225 0.889342 0.232029
0.933501 0.890639 0.241642
0.976287 0.891279 0.246387
0.976364 0.891279 0.246403
0.00939956 0.0294652 0.310262
0.0112459 0.0287327 0.315999
0.0641642 0.0292973 0.318105
0.351492 0.0356603 0.316213
0.697505 0.0413367 0.284062
0.843168 0.0274205 0.202502
0.859251 0.0214694 0.136004
0.859342 0.0209049 0.0966201
0.858595 0.020798 0.0746929
0.0109102 0.0493782 0.327474
0.0110628 0.0481727 0.331304
0.0616007 0.0406653 0.327062
0.355581 0.04094 0.314519
0.70013 0.0410315 0.275273
0.844083 0.0273747 0.193378
0.858793 0.0215152 0.12842
0.859419 0.0209049 0.0962081
0.858732 0.020798 0.0785534
0.0136568 0.108736 0.323217
0.0140841 0.117189 0.326802
0.0373541 0.111925 0.306416
0.313024 0.113451 0.27985
0.687678 0.0829023 0.217197
0.864256 0.040528 0.144503
0.862821 0.0273747 0.0976272
0.859556 0.0227817 0.0765087
0.858274 0.0210574 0.0682689
0.0208591 0.243992 0.3205
0.0231785 0.27155 0.341222
0.0257877 0.277195 0.329137
0.285252 0.335851 0.316915
0.717311 0.294972 0.195438
0.903731 0.231769 0.124514
0.906706 0.173907 0.0873579
0.895659 0.129793 0.0762341
0.888792 0.103609 0.0744182
0.045182 0.473243 0.383536
0.0521706 0.51838 0.422812
0.0592508 0.545373 0.422583
0.262562 0.589761 0.386511
0.675532 0.605432 0.307637
0.917693 0.566079 0.181689
0.95111 0.520943 0.123476
0.948455 0.47921 0.0983749
0.946624 0.450538 0.0902266
0.118853 0.685191 0.462959
0.140352 0.71664 0.490059
0.1608 0.743633 0.484291
0.244358 0.758022 0.420996
0.648585 0.768841 0.349126
0.861723 0.768795 0.255009
0.965805 0.748486 0.218997
0.964218 0.730114 0.193378
0.963256 0.716991 0.188296
0.208362 0.811673 0.508843
0.223468 0.836469 0.529076
0.240208 0.861158 0.512749
0.266804 0.872267 0.436088
0.637903 0.875593 0.34905
0.828336 0.879408 0.286107
0.961089 0.878721 0.243778
0.974731 0.872023 0.24416
0.974578 0.870893 0.240299
0.257679 0.893217 0.547585
0.263386 0.9028 0.553201
0.267628 0.906416 0.528786
0.275654 0.904814 0.453178
0.601526 0.900603 0.356893
0.818402 0.894545 0.298482
0.938216 0.891783 0.256291
0.976364 0.891279 0.246403
0.976425 0.8916 0.25037
0.264652 0.906996 0.578988
0.264408 0.907073 0.58471
0.265354 0.906905 0.563455
0.270848 0.905821 0.493172
0.581628 0.903532 0.396582
0.825483 0.897353 0.338018
0.937682 0.896422 0.318822
0.976745 0.89366 0.278752
0.976455 0.891768 0.252735
0.0123598 0.03093 0.53431
0.0131228 0.0308995 0.5505
0.0580911 0.0314031 0.571817
0.305745 0.0407111 0.604044
0.647135 0.0647135 0.619898
0.770016 0.0757916 0.583917
0.768338 0.0715648 0.496605
0.780499 0.0612039 0.396811
0.803021 0.0475776 0.315343
0.0142977 0.0557565 0.559808
0.0146181 0.0583047 0.570672
0.0487831 0.0479438 0.579324
0.301534 0.0448768 0.599039
0.644358 0.0644541 0.611048
0.76965 0.0752575 0.571221
0.767712 0.071458 0.491447
0.775967 0.0636454 0.410376
0.791028 0.0540627 0.350729
0.0188602 0.129641 0.576318
0.0197757 0.142641 0.582879
0.0280308 0.136278 0.567636
0.236912 0.130007 0.570825
0.605707 0.136156 0.573114
0.779614 0.119158 0.526467
0.781201 0.0817121 0.427375
0.794995 0.0556191 0.342535
0.812039 0.0426032 0.286778
0.0293126 0.287526 0.581415
0.0320287 0.319036 0.602564
0.0332341 0.334722 0.601785
0.174426 0.373587 0.609369
0.608942 0.408652 0.609735
0.842725 0.366339 0.540413
0.867399 0.279942 0.420325
0.87364 0.199542 0.310445
0.876799 0.15555 0.253803
0.0507057 0.519524 0.620157
0.057969 0.558663 0.649836
0.0653391 0.588907 0.662287
0.163607 0.611658 0.65124
0.620996 0.650202 0.635737
0.887358 0.628367 0.52372
0.949859 0.589364 0.394018
0.951339 0.546166 0.29601
0.95082 0.519005 0.24828
0.125978 0.71014 0.659724
0.148028 0.739681 0.687373
0.169406 0.766674 0.698421
0.192737 0.775433 0.677226
0.596963 0.799496 0.650752
0.840177 0.799069 0.588098
0.960845 0.781262 0.49041
0.962386 0.759991 0.429892
0.962844 0.749462 0.399969
0.214603 0.831159 0.692576
0.228489 0.854047 0.716243
0.241596 0.876188 0.723674
0.249332 0.888151 0.698405
0.555001 0.900389 0.660853
0.819867 0.901335 0.608804
0.961089 0.900999 0.523995
0.973617 0.89218 0.511589
0.975097 0.886702 0.437324
0.256458 0.901717 0.72726
0.259556 0.907729 0.742199
0.260044 0.908598 0.742809
0.260655 0.908263 0.718273
0.494209 0.916808 0.674647
0.804013 0.914519 0.614664
0.93254 0.911925 0.576455
0.976349 0.907652 0.494179
0.974792 0.91075 0.551919
0.25977 0.908766 0.756954
0.259617 0.908934 0.769711
0.259556 0.908873 0.767117
0.260166 0.908537 0.73904
0.476631 0.916625 0.698543
0.797925 0.916457 0.649958
0.931228 0.915022 0.637751
0.972274 0.913802 0.611994
0.97464 0.910887 0.555261
0.0150759 0.0331121 0.718532
0.0151675 0.032929 0.721736
0.0515908 0.033875 0.73254
0.265446 0.0451362 0.769329
0.638239 0.0725567 0.822461
0.780163 0.087068 0.819654
0.777874 0.0844282 0.770138
0.774929 0.0814984 0.708721
0.772564 0.0789502 0.652018
0.0168154 0.050782 0.727825
0.0180667 0.0628061 0.736446
0.0364538 0.0549172 0.735759
0.249195 0.0479286 0.765698
0.630243 0.071397 0.815015
0.779538 0.0865492 0.810407
0.777737 0.0842603 0.76614
0.775402 0.0818341 0.718166
0.773465 0.0801099 0.677302
0.024155 0.138369 0.75848
0.0260777 0.161715 0.767102
0.0274968 0.160784 0.761715
0.185031 0.138628 0.765652
0.584375 0.143908 0.79881
0.785077 0.129656 0.78294
0.779385 0.0950484 0.730037
0.774319 0.0822919 0.683299
0.772381 0.0789044 0.64979
0.0381018 0.322103 0.79147
0.0414435 0.360235 0.811231
0.0433509 0.385657 0.812284
0.130159 0.397406 0.807309
0.569039 0.436286 0.829419
0.820447 0.404517 0.809369
0.840574 0.341665 0.764523
0.827039 0.282032 0.712352
0.818112 0.248264 0.6757
0.0595102 0.551064 0.814252
0.066804 0.588708 0.833509
0.0773022 0.622019 0.842283
0.117678 0.627878 0.828763
0.563806 0.670924 0.83357
0.829145 0.663828 0.808835
0.903014 0.642206 0.77232
0.901228 0.616617 0.733043
0.90103 0.599832 0.708919
0.14139 0.729061 0.822248
0.163729 0.757046 0.839933
0.185183 0.785199 0.848569
0.190707 0.793988 0.838575
0.537118 0.812039 0.829267
0.820188 0.81387 0.805722
0.941176 0.803784 0.758724
0.944289 0.791913 0.715373
0.945647 0.785977 0.693431
0.225452 0.846067 0.833005
0.239933 0.868757 0.850996
0.251347 0.889754 0.861036
0.257618 0.902968 0.853483
0.486778 0.908949 0.839857
0.796353 0.912001 0.813092
0.944839 0.913054 0.782071
0.959533 0.905516 0.748348
0.959381 0.903975 0.749508
0.260105 0.90808 0.850736
0.262013 0.910384 0.86659
0.262531 0.910506 0.874449
0.262089 0.910445 0.868925
0.423392 0.916533 0.847944
0.767727 0.924849 0.822385
0.926757 0.922606 0.801846
0.962142 0.921386 0.769039
0.961166 0.922103 0.782757
0.262623 0.910521 0.876173
0.263798 0.910765 0.890776
0.264149 0.910826 0.896208
0.263157 0.910689 0.884749
0.412161 0.916243 0.861189
0.760784 0.925551 0.841321
0.921752 0.923491 0.823987
0.958053 0.923613 0.82031
0.960433 0.922545 0.793713
0.0151675 0.03299 0.729015
0.0151675 0.0328832 0.728985
0.0392309 0.0335241 0.731838
0.20531 0.0415961 0.762585
0.606851 0.0695964 0.824323
0.781109 0.0887617 0.852293
0.781857 0.0888533 0.85243
0.781842 0.088838 0.852247
0.781338 0.0883803 0.844282
0.016144 0.0424811 0.732937
0.017258 0.0534676 0.737575
0.0244907 0.0564736 0.739559
0.188312 0.0435798 0.760128
0.593347 0.0683757 0.82208
0.779538 0.0885634 0.852003
0.781857 0.0888533 0.852415
0.781811 0.0888075 0.851606
0.781613 0.0886091 0.848096
0.0229191 0.1187 0.76379
0.0256809 0.151675 0.776486
0.0272068 0.168978 0.783429
0.128252 0.142626 0.788586
0.539834 0.135607 0.83653
0.781262 0.126787 0.862486
0.785412 0.100755 0.855787
0.781979 0.0898909 0.848356
0.781186 0.0881819 0.840528
0.0402228 0.325597 0.844862
0.0438544 0.368566 0.860365
0.0472419 0.407385 0.87306
0.0967117 0.405158 0.87895
0.522866 0.444907 0.920027
0.807248 0.408896 0.925887
0.847395 0.356329 0.915663
0.835782 0.299001 0.89424
0.827909 0.264958 0.876341
0.0648051 0.566217 0.91635
0.0742046 0.602304 0.924361
0.0876936 0.639628 0.931746
0.0969711 0.644755 0.933532
0.512032 0.681163 0.949325
0.805173 0.672602 0.947921
0.899031 0.650523 0.93666
0.894255 0.623636 0.919493
0.891402 0.607553 0.907073
0.158129 0.74049 0.94052
0.182239 0.768536 0.947066
0.204868 0.798062 0.950088
0.213993 0.811521 0.954055
0.475196 0.82092 0.949004
0.788525 0.825467 0.947753
0.924514 0.818265 0.929702
0.92549 0.806577 0.909163
0.925002 0.801419 0.899214
0.239475 0.854932 0.945022
0.252338 0.876158 0.953063
0.263966 0.896605 0.957641
0.27013 0.908186 0.958511
0.417639 0.913085 0.951659
0.7673 0.920302 0.945861
0.933608 0.917082 0.927886
0.949905 0.913451 0.908522
0.950469 0.913054 0.900175
0.270405 0.911131 0.949645
0.271672 0.911788 0.95613
0.27245 0.911894 0.9617
0.272206 0.911849 0.959731
0.357839 0.915343 0.95465
0.741222 0.927398 0.947356
0.921477 0.927977 0.932342
0.953689 0.927581 0.919432
0.954177 0.927138 0.909041
0.271992 0.911833 0.958587
0.272953 0.911971 0.965072
0.273014 0.911971 0.965484
0.272892 0.911955 0.964614
0.349676 0.915053 0.958587
0.738643 0.927352 0.954131
0.911467 0.928527 0.942763
0.952407 0.928466 0.941161
0.953292 0.927886 0.927169
0.0151675 0.0329137 0.729
0.0151675 0.0328832 0.728985
0.0276951 0.0332494 0.730373
0.158572 0.0388952 0.753719
0.54226 0.0634623 0.81326
0.777874 0.0883497 0.851698
0.781857 0.0888533 0.85243
0.781857 0.0888533 0.85243
0.781857 0.0888533 0.85243
0.0162203 0.0433661 0.733303
0.0165408 0.0462501 0.734554
0.0189212 0.0559701 0.738811
0.134951 0.0419928 0.750729
0.52813 0.0626688 0.811261
0.775036 0.088014 0.851194
0.781857 0.0888533 0.85243
0.781857 0.0888533 0.85243
0.781857 0.0888533 0.85243
0.021149 0.0971542 0.755444
0.0241245 0.133196 0.769223
0.027039 0.167651 0.782849
0.0891432 0.145937 0.783734
0.467887 0.131975 0.827237
0.763729 0.114977 0.857084
0.784482 0.0976577 0.85507
0.782101 0.0896925 0.852689
0.781857 0.0888533 0.85243
0.0388342 0.308171 0.838407
0.043122 0.358709 0.856626
0.0474098 0.408743 0.873625
0.0686503 0.402884 0.874357
0.450919 0.447715 0.917357
0.782101 0.40116 0.924971
0.846021 0.34786 0.920119
0.836316 0.29778 0.910475
0.829404 0.265263 0.903059
0.0647593 0.564324 0.91693
0.0739605 0.605127 0.92578
0.0899367 0.644739 0.933425
0.0952468 0.653498 0.935088
0.441505 0.683604 0.952697
0.780316 0.675059 0.958114
0.899138 0.650156 0.95877
0.894743 0.624231 0.956268
0.891981 0.607919 0.954742
0.160327 0.741955 0.948074
0.18407 0.770657 0.951568
0.207568 0.801862 0.955474
0.219287 0.81915 0.957794
0.403449 0.825467 0.962676
0.761257 0.830961 0.974762
0.920195 0.821653 0.97705
0.924453 0.809232 0.975647
0.923583 0.802747 0.974655
0.243107 0.857862 0.962219
0.25536 0.879194 0.964385
0.267155 0.900572 0.966491
0.271504 0.908629 0.967224
0.35697 0.912444 0.970031
0.738003 0.922194 0.980209
0.921279 0.920882 0.986267
0.947555 0.919875 0.987793
0.946578 0.916136 0.985946
0.273304 0.911986 0.96762
0.27332 0.912016 0.96762
0.27332 0.912016 0.96762
0.27332 0.912016 0.96762
0.298177 0.913207 0.968521
0.714412 0.926833 0.980117
0.906294 0.930129 0.985611
0.950713 0.930495 0.987884
0.950759 0.930465 0.98677
0.27332 0.912016 0.96762
0.27332 0.912016 0.96762
0.27332 0.912016 0.96762
0.27332 0.912016 0.96762
0.304372 0.913451 0.968719
0.715129 0.926848 0.980209
0.899596 0.930175 0.985367
0.950759 0.930434 0.986572
0.950759 0.930434 0.986389
0.0151675 0.0329137 0.729
0.0151675 0.0328832 0.728985
0.0253147 0.0331884 0.730083
0.145159 0.0381323 0.75108
0.502037 0.060441 0.806973
0.770413 0.0874189 0.850324
0.781857 0.0888533 0.85243
0.781857 0.0888533 0.85243
0.781857 0.0888533 0.85243
0.0161593 0.042771 0.733059
0.0164034 0.0449683 0.73402
0.018143 0.0547494 0.738247
0.117098 0.0420233 0.7476
0.482338 0.0591287 0.804105
0.766842 0.0870375 0.84979
0.781857 0.0888533 0.85243
0.781857 0.0888533 0.85243
0.781857 0.0888533 0.85243
0.0205844 0.0903334 0.752728
0.0232853 0.123232 0.765423
0.0265965 0.16257 0.780819
0.0722667 0.14612 0.78114
0.407263 0.132235 0.820768
0.73669 0.10959 0.852384
0.783673 0.0949416 0.854261
0.781949 0.0891432 0.852522
0.781857 0.0888533 0.85243
0.0373388 0.290013 0.831601
0.0419318 0.344366 0.851514
0.0468452 0.401999 0.871183
0.0552377 0.401831 0.872389
0.374792 0.451087 0.914672
0.752194 0.403357 0.924071
0.844373 0.338582 0.9187
0.835538 0.293858 0.90959
0.829801 0.268482 0.903304
0.0645609 0.561944 0.916274
0.0738689 0.604364 0.925673
0.088716 0.646693 0.933913
0.0971084 0.659586 0.936126
0.370977 0.683696 0.950759
0.753353 0.678889 0.957992
0.898558 0.648585 0.958618
0.894499 0.622721 0.956115
0.892332 0.610071 0.955001
0.161151 0.743069 0.948196
0.185779 0.772854 0.951827
0.209552 0.805035 0.955962
0.222141 0.823896 0.958328
0.346075 0.827466 0.961715
0.734478 0.833982 0.974289
0.914153 0.822919 0.977142
0.924498 0.809293 0.975601
0.92369 0.803708 0.974945
0.243427 0.858656 0.962264
0.256214 0.880735 0.964508
0.267903 0.901976 0.966522
0.272129 0.909789 0.967346
0.317159 0.911772 0.968887
0.711437 0.922194 0.979599
0.910216 0.922286 0.986221
0.947448 0.919402 0.988022
0.946349 0.91548 0.987793
0.273014 0.911452 0.967544
0.27332 0.912016 0.96762
0.27332 0.912016 0.96762
0.27332 0.912016 0.96762
0.282322 0.91249 0.967987
0.689342 0.925933 0.979431
0.893477 0.930068 0.98584
0.950607 0.93051 0.988571
0.950698 0.93051 0.988571
0.27332 0.912016 0.96762
0.27332 0.912016 0.96762
0.27332 0.912016 0.96762
0.27332 0.912016 0.96762
0.28777 0.912734 0.968154
0.69276 0.926085 0.979553
0.888823 0.930114 0.985718
0.950698 0.93051 0.988571
0.950698 0.93051 0.988571
