LUT预设1/iPhone专用lut合集3/iPhone合集3标准版（log）/FAKE胶片复古.cube
TITLE "Generated by Resolve"
LUT_3D_SIZE 33
0.00422675 0.0272068 0.0628672
0.00509651 0.0271305 0.0626688
0.00691234 0.0270237 0.0625162
0.0104219 0.026978 0.0623636
0.0165866 0.0270085 0.0623026
0.026566 0.027039 0.062211
0.045716 0.0269322 0.062089
0.0827955 0.0263676 0.0618296
0.139788 0.0250553 0.0612497
0.215381 0.0229648 0.0604868
0.298009 0.0214084 0.0593881
0.382483 0.020737 0.0585794
0.465934 0.0205234 0.0584573
0.543969 0.0204623 0.058854
0.615702 0.0204929 0.0595407
0.682704 0.0205386 0.0606241
0.744396 0.0205844 0.062211
0.801175 0.0206149 0.0641337
0.8392 0.0206912 0.0656748
0.854902 0.0207828 0.0664073
0.858076 0.0208133 0.0665904
0.858076 0.0208133 0.0665904
0.858076 0.0208133 0.0665904
0.858076 0.0208133 0.0665904
0.858076 0.0208133 0.0665904
0.858076 0.0208133 0.0665904
0.858076 0.0208133 0.0665904
0.858076 0.0208133 0.0665904
0.858076 0.0208133 0.0665904
0.858076 0.0208133 0.0665904
0.858076 0.0208133 0.0665904
0.858076 0.0208133 0.0665904
0.858076 0.0208133 0.0665904
0.00428778 0.0280003 0.0627909
0.004654 0.0277256 0.0624857
0.00579843 0.0273747 0.0621958
0.00909438 0.0271458 0.0620737
0.0153658 0.0271 0.0620584
0.0252384 0.0271153 0.0620584
0.0460517 0.0269932 0.0620432
0.0874342 0.0262913 0.0617685
0.149645 0.0247807 0.0611582
0.229175 0.0226596 0.0603647
0.314794 0.0212558 0.0591745
0.401358 0.020737 0.0584878
0.485237 0.0205234 0.0585489
0.561212 0.0204776 0.0590066
0.630808 0.0205234 0.0597848
0.695842 0.0205539 0.0609445
0.755535 0.0205997 0.0625467
0.81062 0.0206149 0.0644694
0.843824 0.0207218 0.0658885
0.855604 0.020798 0.066453
0.858076 0.0208133 0.0665904
0.858076 0.0208133 0.0665904
0.858076 0.0208133 0.0665904
0.858076 0.0208133 0.0665904
0.858076 0.0208133 0.0665904
0.858076 0.0208133 0.0665904
0.858076 0.0208133 0.0665904
0.858076 0.0208133 0.0665904
0.858076 0.0208133 0.0665904
0.858076 0.0208133 0.0665904
0.858076 0.0208133 0.0665904
0.858076 0.0208133 0.0665904
0.858076 0.0208133 0.0665904
0.00442512 0.029221 0.0625925
0.00448615 0.0288853 0.0622416
0.00486763 0.028748 0.0619821
0.00721752 0.0285039 0.0618448
0.0129702 0.0285801 0.0619364
0.0227054 0.0285649 0.0620432
0.0441596 0.028275 0.062089
0.0881208 0.0272374 0.061799
0.154025 0.0253758 0.0611582
0.236759 0.0231327 0.0602731
0.326268 0.0214847 0.0590829
0.415503 0.0207828 0.0583963
0.498482 0.0205539 0.0585946
0.573449 0.0205081 0.059144
0.642069 0.0205539 0.0599985
0.705699 0.0205844 0.0612497
0.764996 0.0206302 0.0629129
0.815808 0.0206455 0.0646982
0.847379 0.0207523 0.0660716
0.857282 0.0208133 0.0665446
0.858061 0.0208133 0.0665904
0.858076 0.0208133 0.0665904
0.858076 0.0208133 0.0665904
0.858076 0.0208133 0.0665904
0.858076 0.0208133 0.0665904
0.858076 0.0208133 0.0665904
0.858076 0.0208133 0.0665904
0.858076 0.0208133 0.0665904
0.858076 0.0208133 0.0665904
0.858076 0.0208133 0.0665904
0.858076 0.0208133 0.0665904
0.858076 0.0208133 0.0665904
0.858076 0.0208133 0.0665904
0.00476081 0.032166 0.062623
0.00474556 0.0316625 0.0622721
0.00489815 0.0316014 0.062089
0.0062562 0.0315709 0.0620127
0.0110781 0.0314794 0.0621042
0.0193332 0.03122 0.0621958
0.0389868 0.0305028 0.0622263
0.081529 0.0290532 0.0619211
0.148989 0.0268559 0.0612802
0.235904 0.0243839 0.0603037
0.328023 0.0225834 0.059144
0.418448 0.0216068 0.0584878
0.501534 0.0212253 0.0586404
0.576806 0.021088 0.0592203
0.645167 0.0209049 0.06009
0.708339 0.020737 0.061326
0.76672 0.0206455 0.0629892
0.815488 0.020676 0.0647593
0.845609 0.0207675 0.0660258
0.856764 0.0208133 0.0665293
0.858076 0.0208133 0.0665904
0.858076 0.0208133 0.0665904
0.858076 0.0208133 0.0665904
0.858076 0.0208133 0.0665904
0.858076 0.0208133 0.0665904
0.858076 0.0208133 0.0665904
0.858076 0.0208133 0.0665904
0.858076 0.0208133 0.0665904
0.858076 0.0208133 0.0665904
0.858076 0.0208133 0.0665904
0.858076 0.0208133 0.0665904
0.858076 0.0208133 0.0665904
0.858076 0.0208133 0.0665904
0.00517281 0.0358892 0.062562
0.00512703 0.0353552 0.0623026
0.0052491 0.035462 0.0622721
0.00605783 0.0358587 0.0622873
0.00917067 0.0361028 0.0623484
0.0165408 0.0357519 0.0624399
0.0328222 0.0350652 0.0624704
0.0663767 0.0339666 0.0622263
0.126406 0.0319829 0.0616617
0.213519 0.0289616 0.0607156
0.31133 0.0258488 0.0594644
0.406134 0.0238804 0.0587167
0.49337 0.0228733 0.0587625
0.571496 0.0222019 0.0592813
0.641733 0.0215457 0.06009
0.705547 0.0210117 0.061265
0.764248 0.0208743 0.0629129
0.813825 0.0209506 0.064744
0.844419 0.0209964 0.0660105
0.856031 0.0209354 0.0665141
0.858061 0.0208438 0.0665904
0.858076 0.0208133 0.0665904
0.858076 0.0208133 0.0665904
0.858076 0.0208133 0.0665904
0.858076 0.0208133 0.0665904
0.858076 0.0208133 0.0665904
0.858076 0.0208133 0.0665904
0.858076 0.0208133 0.0665904
0.858076 0.0208133 0.0665904
0.858076 0.0208133 0.0665904
0.858076 0.0208133 0.0665904
0.858076 0.0208133 0.0665904
0.858076 0.0208133 0.0665904
0.00581369 0.0417639 0.0630808
0.00579843 0.0412604 0.0628977
0.00588998 0.0415808 0.0628824
0.00643931 0.0423743 0.0629129
0.00791943 0.0431373 0.0628977
0.0127871 0.0432593 0.0628824
0.0263981 0.0424353 0.0628214
0.0529335 0.0411383 0.0625772
0.101137 0.0392309 0.0620737
0.177462 0.0362402 0.0612345
0.276417 0.0320134 0.0599985
0.379217 0.0286412 0.0590677
0.473671 0.0268101 0.0590372
0.557626 0.0254368 0.0594797
0.631495 0.0242313 0.0601968
0.697307 0.0233005 0.0612802
0.758068 0.0227207 0.0628672
0.811078 0.0222324 0.0647746
0.845197 0.0217136 0.0661479
0.856641 0.02121 0.0665904
0.858045 0.0209201 0.0666056
0.858076 0.0208286 0.0665904
0.858076 0.0208133 0.0665904
0.858076 0.0208133 0.0665904
0.858076 0.0208133 0.0665904
0.858076 0.0208133 0.0665904
0.858076 0.0208133 0.0665904
0.858076 0.0208133 0.0665904
0.858076 0.0208133 0.0665904
0.858076 0.0208133 0.0665904
0.858076 0.0208133 0.0665904
0.858076 0.0208133 0.0665904
0.858076 0.0208133 0.0665904
0.0065919 0.049897 0.0640116
0.0065919 0.0497444 0.063798
0.00666819 0.0503853 0.0637064
0.00703441 0.0515297 0.0636606
0.00796521 0.0526894 0.0635843
0.0108339 0.0534218 0.0634775
0.0188449 0.0534829 0.0633555
0.0396429 0.0523537 0.0630808
0.0853742 0.0499428 0.0624247
0.151629 0.0470283 0.0615702
0.238041 0.0428473 0.0605325
0.339513 0.0379034 0.0595712
0.442878 0.0342412 0.0594186
0.536141 0.0312505 0.0597848
0.615991 0.0288701 0.0603799
0.684901 0.0271763 0.0613718
0.747753 0.0260319 0.0629282
0.802609 0.0250553 0.0648051
0.841276 0.0242008 0.0663615
0.857099 0.0234073 0.0669718
0.858885 0.0227665 0.0669566
0.85864 0.0223239 0.0668498
0.858427 0.0218662 0.0667582
0.858274 0.0214389 0.0666819
0.858167 0.0210727 0.0666361
0.858091 0.0208743 0.0666056
0.858076 0.0208133 0.0665904
0.858076 0.0208133 0.0665904
0.858076 0.0208133 0.0665904
0.858076 0.0208133 0.0665904
0.858076 0.0208133 0.0665904
0.858076 0.0208133 0.0665904
0.858076 0.0208133 0.0665904
0.0075227 0.061326 0.0644541
0.00753796 0.0616312 0.064271
0.00762951 0.0626993 0.0641642
0.00788891 0.0640726 0.0641031
0.00846876 0.0658274 0.0640421
0.0101778 0.0672618 0.0639658
0.0146334 0.0679484 0.0638743
0.0261845 0.067689 0.0637064
0.0592355 0.0656443 0.0631723
0.128145 0.0618906 0.0620279
0.214939 0.0572061 0.0608377
0.306035 0.052491 0.0600595
0.404517 0.048249 0.0598917
0.50454 0.0441901 0.0602731
0.592889 0.0400092 0.0608225
0.667597 0.0357366 0.0616922
0.73402 0.0322576 0.0631266
0.793088 0.0298314 0.0650492
0.836606 0.0286107 0.0668193
0.856809 0.0274815 0.067628
0.860746 0.0264439 0.0676432
0.860243 0.0254978 0.0674449
0.85977 0.0246128 0.067277
0.859358 0.0236973 0.0671092
0.858976 0.0228428 0.0669718
0.858686 0.0222171 0.0668498
0.858457 0.0217746 0.0667582
0.858305 0.0214847 0.0666972
0.858213 0.0212558 0.0666514
0.858152 0.0210727 0.0666209
0.858122 0.0209354 0.0666056
0.858091 0.0208591 0.0665904
0.858076 0.0208286 0.0665904
0.00863661 0.076173 0.0647288
0.00868238 0.0767224 0.0645762
0.00877394 0.0780041 0.0644694
0.00894179 0.0798047 0.0644388
0.00929274 0.0825666 0.0644846
0.0102693 0.0851606 0.0645304
0.0129091 0.0867475 0.0645304
0.0195621 0.0871901 0.0644846
0.0375525 0.0866407 0.064271
0.0884871 0.0839399 0.0633249
0.181064 0.0779583 0.0615549
0.285588 0.071519 0.0604105
0.382345 0.0668193 0.0602579
0.474952 0.0633097 0.0606546
0.563333 0.0594949 0.0613107
0.644495 0.053727 0.0622263
0.716136 0.0470893 0.0637217
0.779217 0.0415045 0.0657359
0.828138 0.0375219 0.0676127
0.854856 0.0345617 0.0685893
0.863127 0.0327306 0.0687266
0.86363 0.0313573 0.068513
0.862821 0.029984 0.0682841
0.862058 0.0285496 0.0680552
0.861311 0.0271763 0.0678111
0.860624 0.0259861 0.0675669
0.860014 0.0250095 0.0673533
0.85951 0.0241703 0.0671855
0.859129 0.0234379 0.0670329
0.858839 0.0227207 0.0669108
0.858579 0.0220645 0.066804
0.858335 0.0214694 0.0667124
0.858198 0.021149 0.0666514
0.0099031 0.094789 0.0658579
0.00996414 0.0957351 0.0657511
0.0100862 0.0975509 0.0656596
0.0102235 0.0996414 0.0655375
0.0104677 0.102663 0.0655375
0.0110323 0.105928 0.0655985
0.0124971 0.108827 0.0656901
0.0167086 0.110719 0.0657054
0.0277867 0.111574 0.0656748
0.0581674 0.111696 0.0653544
0.129473 0.108644 0.0638285
0.243946 0.100923 0.0615396
0.363134 0.0928206 0.0606088
0.463493 0.0880903 0.060914
0.546059 0.0856031 0.0615702
0.620951 0.0818494 0.0625315
0.694636 0.0750439 0.06421
0.762707 0.0670481 0.0664683
0.819364 0.0596628 0.0687419
0.856703 0.0530861 0.0703136
0.869932 0.0476234 0.0706493
0.870024 0.043534 0.0702983
0.868528 0.0404517 0.0699168
0.867155 0.0378271 0.0695506
0.865888 0.0355383 0.0691844
0.864698 0.0334325 0.0688334
0.863569 0.0314641 0.0684825
0.862638 0.0298161 0.0681926
0.861875 0.0283665 0.0679789
0.86125 0.0271153 0.0677806
0.860624 0.0259251 0.0675822
0.860151 0.0250706 0.0674296
0.859785 0.0245212 0.0673075
0.0113527 0.116686 0.0673533
0.0114595 0.118288 0.067277
0.0116579 0.121141 0.0672313
0.0118563 0.124147 0.0671702
0.0120851 0.127596 0.0671855
0.0124514 0.131243 0.0672313
0.013138 0.134707 0.0673228
0.0158389 0.138384 0.0675517
0.0227054 0.140856 0.0677043
0.0442969 0.143496 0.0678874
0.0910658 0.146044 0.0675822
0.183398 0.143954 0.065568
0.3196 0.133333 0.0623178
0.445777 0.123888 0.061265
0.543481 0.119051 0.0616464
0.619867 0.116854 0.0624704
0.685771 0.113741 0.0639506
0.749493 0.107652 0.0662852
0.809018 0.0992447 0.0691234
0.856489 0.0900282 0.0717174
0.879179 0.0805371 0.0729686
0.879896 0.0716716 0.072694
0.877668 0.064271 0.0722057
0.875563 0.0582437 0.0716869
0.873671 0.0533761 0.0711986
0.871885 0.0489204 0.0707408
0.870176 0.0449378 0.0702983
0.868742 0.0417029 0.0699321
0.867491 0.038819 0.0696574
0.866377 0.036408 0.0693523
0.865339 0.0343175 0.0690623
0.864485 0.0327001 0.0688182
0.863828 0.0315404 0.0686046
0.0130617 0.142046 0.0686961
0.0132601 0.144411 0.0687114
0.0136263 0.148669 0.068925
0.0139773 0.153079 0.0691691
0.0143587 0.157839 0.0694285
0.014725 0.162493 0.0696574
0.0149996 0.165896 0.0697337
0.0166629 0.170474 0.0701305
0.0204776 0.174731 0.0706951
0.0362402 0.179706 0.071397
0.0723278 0.186435 0.0721752
0.140444 0.193744 0.0724956
0.252354 0.195132 0.0704356
0.406897 0.18233 0.0645304
0.534478 0.171817 0.0625315
0.625025 0.16672 0.0626078
0.695033 0.1617 0.0635691
0.753994 0.157565 0.0654459
0.80621 0.153246 0.0677958
0.856275 0.145296 0.0709544
0.888365 0.134279 0.0736706
0.893538 0.121492 0.0743725
0.890471 0.109407 0.0742504
0.887648 0.0986801 0.0738689
0.88513 0.0895247 0.0734874
0.882704 0.0806744 0.0730907
0.88043 0.0731975 0.0726482
0.878294 0.0663767 0.0722515
0.876402 0.0605173 0.07187
0.874678 0.0555581 0.0714733
0.873228 0.051606 0.0711223
0.872053 0.0487373 0.0708171
0.871092 0.04654 0.0705577
0.0154421 0.172076 0.0711376
0.0157168 0.175296 0.0712291
0.0162203 0.180636 0.0715801
0.016907 0.186725 0.0721752
0.0176242 0.193042 0.0728161
0.0183108 0.199374 0.0734264
0.0187076 0.204166 0.0738384
0.0196384 0.20853 0.0741741
0.022385 0.214038 0.0750286
0.0336614 0.221241 0.0763867
0.0641794 0.231647 0.0781872
0.123827 0.245319 0.0804761
0.216739 0.259236 0.0827802
0.344091 0.264912 0.0813306
0.497368 0.255207 0.0733654
0.618799 0.242008 0.0679179
0.701396 0.231083 0.0661784
0.765316 0.223178 0.0661936
0.816892 0.218753 0.067155
0.861662 0.213428 0.0690929
0.896071 0.205249 0.0715343
0.909422 0.192844 0.073167
0.908034 0.178561 0.0738842
0.904128 0.163439 0.0742351
0.900572 0.149493 0.074403
0.897337 0.136568 0.0744488
0.894286 0.124285 0.0743572
0.891539 0.113268 0.0742351
0.888975 0.103334 0.074052
0.886748 0.0950027 0.0738384
0.884993 0.0888685 0.0735637
0.883452 0.0836652 0.0733043
0.882124 0.0794385 0.0730755
0.0190585 0.207874 0.0758679
0.0194553 0.211872 0.0759289
0.0200351 0.217853 0.0761425
0.0211032 0.225422 0.0769055
0.0224308 0.233692 0.0779736
0.0238193 0.242542 0.0791485
0.0249027 0.249775 0.0801251
0.0259251 0.256016 0.0809491
0.0277256 0.261601 0.0817731
0.0359655 0.270207 0.0836652
0.06215 0.283314 0.0865339
0.116503 0.301686 0.0903792
0.202518 0.32256 0.0951095
0.311681 0.339971 0.0987259
0.444877 0.34583 0.0962387
0.583062 0.338216 0.0880751
0.692363 0.322896 0.0795148
0.769177 0.309636 0.0742351
0.827451 0.29929 0.0714275
0.873793 0.292134 0.0704967
0.907652 0.286397 0.0706035
0.925063 0.278599 0.0710765
0.927474 0.267323 0.0717174
0.924285 0.252201 0.0722057
0.920623 0.235203 0.0726024
0.91696 0.218051 0.0729839
0.913466 0.201984 0.0733501
0.91014 0.187045 0.0737163
0.90695 0.17348 0.0740215
0.904128 0.162432 0.0741741
0.901671 0.152834 0.0742809
0.899489 0.144396 0.0743114
0.897704 0.137514 0.0742809
0.0247959 0.249714 0.0817731
0.0256657 0.255528 0.0823072
0.0269322 0.263859 0.0831464
0.0281987 0.272297 0.084062
0.0299382 0.282124 0.0855573
0.0321813 0.293584 0.0876173
0.0341955 0.303807 0.0894942
0.0358587 0.312123 0.0910201
0.0380102 0.320073 0.0924239
0.0433967 0.328878 0.0942855
0.0647288 0.342855 0.0976883
0.113817 0.363516 0.102632
0.192523 0.387945 0.108522
0.294331 0.41091 0.114427
0.411948 0.426612 0.117769
0.538369 0.430747 0.115175
0.658595 0.422385 0.106401
0.755291 0.407218 0.0953384
0.826459 0.392844 0.0863203
0.879881 0.381186 0.0805524
0.916899 0.373022 0.0771496
0.935302 0.367773 0.0750744
0.939696 0.361685 0.0742962
0.939071 0.352514 0.0739757
0.93753 0.339406 0.073167
0.935637 0.323049 0.072343
0.933471 0.304814 0.0716106
0.930861 0.286763 0.0712444
0.927657 0.269566 0.0713817
0.924575 0.253971 0.0715801
0.921889 0.240696 0.0717937
0.919554 0.22948 0.0720226
0.917693 0.220432 0.072221
0.0334783 0.299962 0.0895857
0.0348211 0.307134 0.0907607
0.0368658 0.317876 0.0925612
0.0389258 0.328817 0.0944228
0.0411536 0.340414 0.0964523
0.0443275 0.353277 0.0990616
0.0478981 0.365072 0.101732
0.0509194 0.375479 0.104082
0.0536812 0.385061 0.106157
0.0581674 0.395224 0.10837
0.0740826 0.408011 0.111543
0.116777 0.427817 0.11664
0.189868 0.45301 0.122942
0.287007 0.477974 0.12932
0.398108 0.496742 0.134615
0.509468 0.506737 0.13727
0.617288 0.509621 0.135393
0.7196 0.501762 0.126757
0.806683 0.4869 0.113954
0.871931 0.472953 0.1028
0.916014 0.462867 0.0955062
0.939773 0.454856 0.0906386
0.946517 0.44799 0.0880598
0.946334 0.44358 0.0872663
0.946075 0.439597 0.0865187
0.94548 0.431266 0.0849775
0.944488 0.418296 0.0826581
0.943145 0.402441 0.0801556
0.941558 0.385351 0.077821
0.93991 0.368231 0.0756695
0.938277 0.352529 0.0741741
0.936706 0.338537 0.073167
0.935347 0.327108 0.0726482
0.0457771 0.357504 0.100618
0.0481727 0.366278 0.102403
0.0515908 0.378561 0.104906
0.0552529 0.391791 0.107698
0.0588998 0.405219 0.110582
0.063035 0.41912 0.11368
0.0676585 0.431769 0.116701
0.07187 0.442329 0.11928
0.0757153 0.452796 0.121782
0.0806744 0.463828 0.124376
0.0932326 0.475898 0.127367
0.127794 0.492592 0.131777
0.193668 0.515755 0.137728
0.285969 0.539971 0.143709
0.391943 0.558068 0.148348
0.495613 0.568536 0.151827
0.590326 0.576181 0.154528
0.679606 0.578485 0.154086
0.769329 0.570748 0.146792
0.849363 0.557565 0.134325
0.906554 0.545724 0.124025
0.940047 0.536843 0.117205
0.950576 0.528801 0.113115
0.950973 0.523125 0.111055
0.950774 0.519905 0.11017
0.950622 0.517998 0.109789
0.950332 0.513771 0.108385
0.949844 0.505745 0.105699
0.949142 0.494148 0.101991
0.948348 0.480919 0.098024
0.947463 0.466987 0.094316
0.946609 0.4542 0.0912795
0.945861 0.443244 0.0889143
0.0633707 0.42089 0.114656
0.066804 0.429938 0.116701
0.0719158 0.443244 0.119692
0.0771801 0.456977 0.122835
0.0825666 0.471199 0.126192
0.0880751 0.48571 0.129671
0.0934462 0.49865 0.132815
0.0986648 0.5093 0.135454
0.103426 0.51931 0.137942
0.108873 0.529809 0.140536
0.119768 0.541711 0.143526
0.146639 0.555505 0.147097
0.202472 0.574426 0.151919
0.287236 0.595376 0.156893
0.38555 0.611734 0.160281
0.483482 0.621714 0.162921
0.57406 0.629633 0.16611
0.655467 0.635294 0.169024
0.7337 0.635676 0.169848
0.813016 0.628763 0.164446
0.885756 0.616693 0.153903
0.933989 0.607004 0.145846
0.953079 0.599268 0.140856
0.955154 0.593271 0.138186
0.954849 0.588205 0.136217
0.954665 0.585199 0.135042
0.954604 0.584268 0.134646
0.954482 0.582208 0.133852
0.954192 0.577066 0.131853
0.953765 0.569818 0.12903
0.953185 0.560235 0.125414
0.952605 0.550774 0.121935
0.952087 0.542382 0.118914
0.0869154 0.485405 0.130068
0.0911421 0.494316 0.132158
0.0973373 0.507134 0.13518
0.103883 0.5205 0.138384
0.11075 0.534615 0.141802
0.117494 0.548669 0.145266
0.123812 0.5617 0.148486
0.129366 0.571832 0.150973
0.134508 0.580926 0.153216
0.140002 0.590417 0.155581
0.14844 0.600961 0.158251
0.168963 0.612634 0.161151
0.214893 0.627268 0.164706
0.290425 0.643748 0.168276
0.380468 0.657633 0.170657
0.474601 0.666804 0.172457
0.564157 0.673869 0.175006
0.643 0.679026 0.177691
0.713924 0.682994 0.180774
0.780667 0.68452 0.183017
0.850797 0.679454 0.180301
0.915724 0.669734 0.172717
0.953948 0.659785 0.165774
0.959014 0.653574 0.16286
0.958648 0.647944 0.160601
0.958373 0.643824 0.158877
0.958175 0.641016 0.157687
0.958068 0.6392 0.156939
0.957992 0.637964 0.15642
0.9579 0.636423 0.15581
0.957656 0.632364 0.154177
0.957336 0.627451 0.152209
0.957031 0.622461 0.150195
0.115496 0.546319 0.144762
0.119921 0.554833 0.146822
0.126467 0.56701 0.149798
0.133501 0.579385 0.15288
0.140887 0.592386 0.1561
0.148013 0.605005 0.159228
0.154971 0.61738 0.16228
0.160815 0.627466 0.164721
0.165957 0.635904 0.16672
0.171084 0.644312 0.168734
0.176913 0.653147 0.170916
0.191455 0.66247 0.17319
0.228061 0.673518 0.175708
0.293507 0.686244 0.178256
0.378637 0.69836 0.180179
0.468696 0.707164 0.181506
0.555611 0.713649 0.183429
0.631693 0.718212 0.185489
0.700313 0.722881 0.188235
0.7626 0.726619 0.191653
0.822614 0.727474 0.194324
0.885664 0.723186 0.193774
0.940764 0.715175 0.188602
0.962081 0.707134 0.184497
0.962158 0.700465 0.181872
0.961776 0.695521 0.179889
0.961471 0.691112 0.178073
0.961273 0.688014 0.176806
0.961212 0.686656 0.176242
0.961227 0.686519 0.176196
0.961227 0.686488 0.176196
0.961196 0.686046 0.176028
0.961105 0.68481 0.17554
0.144701 0.599664 0.157977
0.149096 0.607385 0.159884
0.155764 0.618997 0.162737
0.162676 0.630655 0.165545
0.169558 0.641978 0.168231
0.176593 0.653574 0.170977
0.183261 0.664591 0.173602
0.18967 0.675196 0.176135
0.194949 0.68368 0.178134
0.199405 0.690806 0.179812
0.203937 0.698116 0.181537
0.212039 0.705333 0.183291
0.242267 0.714488 0.185321
0.30045 0.724758 0.18735
0.380682 0.734951 0.188724
0.467521 0.743084 0.189868
0.549386 0.749035 0.191333
0.623468 0.753597 0.193164
0.690135 0.758038 0.195377
0.751095 0.762005 0.198398
0.806806 0.76524 0.202197
0.861524 0.765621 0.20502
0.916014 0.763272 0.205737
0.956512 0.755703 0.203037
0.964965 0.747707 0.200076
0.964965 0.74136 0.197665
0.964614 0.73637 0.195727
0.96437 0.732738 0.194339
0.964218 0.730312 0.193408
0.964157 0.729366 0.193057
0.964202 0.729992 0.193301
0.964309 0.731746 0.193988
0.964431 0.733501 0.194675
0.171954 0.645884 0.169131
0.175906 0.652491 0.170703
0.182406 0.663249 0.173281
0.189364 0.674662 0.175998
0.195712 0.684932 0.178408
0.202258 0.695445 0.180896
0.208362 0.705242 0.1832
0.214328 0.71487 0.185443
0.219486 0.723033 0.187427
0.223499 0.729259 0.188998
0.227481 0.735546 0.190539
0.232105 0.742596 0.192203
0.255085 0.750484 0.19411
0.308507 0.759014 0.195666
0.384787 0.767559 0.196551
0.467781 0.775219 0.197375
0.547372 0.781003 0.198718
0.618341 0.785351 0.200381
0.681819 0.789715 0.202243
0.74023 0.793805 0.204868
0.794491 0.797574 0.208453
0.846036 0.800458 0.212207
0.894301 0.801907 0.21529
0.939803 0.798611 0.216587
0.964828 0.791501 0.215778
0.967895 0.783795 0.213336
0.967559 0.777737 0.21117
0.967239 0.773632 0.20972
0.967041 0.771008 0.208774
0.966964 0.769711 0.208301
0.966964 0.769772 0.208362
0.967056 0.771191 0.208911
0.967239 0.773571 0.209827
0.196231 0.685664 0.178561
0.199847 0.691524 0.17995
0.205859 0.701213 0.182223
0.212192 0.711406 0.184634
0.218738 0.721874 0.187121
0.224781 0.731273 0.189471
0.230655 0.740444 0.19176
0.236179 0.749081 0.193896
0.241123 0.756878 0.195804
0.245335 0.763149 0.197513
0.249454 0.769314 0.199176
0.2542 0.775708 0.200809
0.269581 0.782162 0.202365
0.316289 0.789349 0.203494
0.386282 0.796841 0.204074
0.467414 0.804196 0.204456
0.546578 0.809979 0.205722
0.614878 0.81445 0.207309
0.675181 0.818753 0.208911
0.731212 0.822766 0.211246
0.784375 0.82649 0.214389
0.834119 0.83035 0.218143
0.879866 0.833143 0.221942
0.922347 0.833646 0.225162
0.95761 0.830915 0.227314
0.969787 0.824948 0.226688
0.970474 0.817792 0.224598
0.970016 0.812177 0.222858
0.969772 0.808896 0.22179
0.96968 0.807309 0.221302
0.96965 0.806806 0.221195
0.969711 0.807324 0.221454
0.969818 0.808652 0.221988
0.218036 0.720684 0.186877
0.221378 0.725933 0.188159
0.227085 0.734844 0.190372
0.233082 0.744213 0.192706
0.239399 0.75407 0.195148
0.245594 0.763638 0.197589
0.251438 0.772396 0.199969
0.256855 0.780499 0.202167
0.261753 0.787884 0.20412
0.266377 0.794781 0.206012
0.270191 0.800412 0.20763
0.274571 0.805966 0.209186
0.288518 0.811795 0.210559
0.329015 0.818112 0.211368
0.394339 0.824613 0.211521
0.471305 0.831205 0.211734
0.546899 0.836591 0.21268
0.612345 0.841154 0.213977
0.670985 0.845426 0.215518
0.72575 0.84947 0.21767
0.77702 0.853086 0.220493
0.82446 0.856855 0.223911
0.869398 0.859998 0.227771
0.909972 0.862013 0.231571
0.946532 0.863462 0.23534
0.969009 0.86128 0.237018
0.973175 0.855985 0.23595
0.972824 0.849378 0.233982
0.972427 0.844694 0.232547
0.972244 0.842191 0.231815
0.972213 0.841398 0.231617
0.972198 0.841138 0.231586
0.972244 0.841428 0.231724
0.237934 0.751812 0.194568
0.241154 0.756771 0.195834
0.246738 0.765316 0.198062
0.252735 0.774319 0.200488
0.259007 0.783734 0.203037
0.265049 0.792813 0.205493
0.270924 0.801526 0.207904
0.276326 0.809476 0.210163
0.281254 0.816739 0.212238
0.285786 0.823438 0.21416
0.289219 0.828672 0.215641
0.292653 0.833753 0.217075
0.304906 0.838956 0.218311
0.341894 0.844724 0.21883
0.405631 0.850416 0.218463
0.477623 0.855985 0.218479
0.54818 0.86125 0.219196
0.611749 0.865446 0.220279
0.669001 0.869673 0.221866
0.721599 0.873701 0.224002
0.770123 0.875441 0.226078
0.815991 0.876707 0.228519
0.860502 0.879713 0.232074
0.900832 0.883604 0.2365
0.936034 0.884672 0.240192
0.963897 0.882902 0.242603
0.973877 0.880552 0.243015
0.975097 0.877867 0.242344
0.97496 0.875563 0.241642
0.974838 0.87396 0.241184
0.974792 0.873091 0.24094
0.974716 0.87219 0.240681
0.974655 0.87158 0.240513
0.256825 0.780468 0.202136
0.2598 0.784939 0.203342
0.265324 0.79321 0.2056
0.271382 0.802197 0.208103
0.277333 0.810987 0.21059
0.283024 0.819409 0.212985
0.288792 0.827878 0.215412
0.294163 0.83592 0.2177
0.298695 0.842832 0.219638
0.302663 0.848905 0.221347
0.306188 0.854276 0.222873
0.308904 0.858564 0.224018
0.31577 0.862867 0.225025
0.347875 0.868055 0.225315
0.408316 0.872007 0.224475
0.479805 0.875837 0.223972
0.55024 0.880812 0.224537
0.613993 0.884794 0.225498
0.668421 0.885466 0.226123
0.717754 0.885573 0.227161
0.764981 0.886702 0.228962
0.810132 0.887144 0.230976
0.853101 0.887892 0.23357
0.89221 0.889296 0.237125
0.926711 0.889876 0.240696
0.956527 0.889586 0.243748
0.972519 0.889326 0.245411
0.975952 0.889067 0.245701
0.976135 0.888716 0.245624
0.976089 0.888212 0.245457
0.976028 0.88748 0.245243
0.975952 0.886717 0.245014
