LUT预设1/iPhone专用lut合集3/iPhone合集3标准版（log）/FAKE胶片复古.cube
TITLE "Generated by Resolve"
LUT_3D_SIZE 5
0.00422675 0.0272068 0.0628672
0.139788 0.0250553 0.0612497
0.744396 0.0205844 0.062211
0.858076 0.0208133 0.0665904
0.858076 0.0208133 0.0665904
0.00863661 0.076173 0.0647288
0.0375525 0.0866407 0.064271
0.716136 0.0470893 0.0637217
0.861311 0.0271763 0.0678111
0.858198 0.021149 0.0666514
0.0457771 0.357504 0.100618
0.0757153 0.452796 0.121782
0.590326 0.576181 0.154528
0.950774 0.519905 0.11017
0.945861 0.443244 0.0889143
0.237934 0.751812 0.194568
0.281254 0.816739 0.212238
0.54818 0.86125 0.219196
0.936034 0.884672 0.240192
0.974655 0.87158 0.240513
0.329351 0.891524 0.232807
0.329351 0.891524 0.232807
0.582055 0.890944 0.227207
0.911086 0.890303 0.239261
0.976364 0.891279 0.246403
0.00593576 0.0283818 0.144106
0.0940871 0.0277867 0.127245
0.759716 0.0206455 0.0728313
0.858076 0.0208133 0.0665904
0.858076 0.0208133 0.0665904
0.0101625 0.0921187 0.140734
0.0566873 0.096437 0.118959
0.724178 0.0509346 0.0671244
0.861769 0.0278935 0.0679484
0.858228 0.0211948 0.0666514
0.0479438 0.42417 0.201892
0.075349 0.495338 0.194476
0.669932 0.57641 0.155352
0.950515 0.515816 0.108873
0.944778 0.42652 0.0848096
0.228168 0.785534 0.292348
0.281559 0.834653 0.248814
0.636088 0.86154 0.219242
0.960983 0.880934 0.241688
0.97467 0.871748 0.240574
0.299809 0.899107 0.328664
0.318303 0.894652 0.269184
0.630762 0.890898 0.227329
0.933501 0.890639 0.241642
0.976364 0.891279 0.246403
0.0123598 0.03093 0.53431
0.0580911 0.0314031 0.571817
0.647135 0.0647135 0.619898
0.768338 0.0715648 0.496605
0.803021 0.0475776 0.315343
0.0188602 0.129641 0.576318
0.0280308 0.136278 0.567636
0.605707 0.136156 0.573114
0.781201 0.0817121 0.427375
0.812039 0.0426032 0.286778
0.0507057 0.519524 0.620157
0.0653391 0.588907 0.662287
0.620996 0.650202 0.635737
0.949859 0.589364 0.394018
0.95082 0.519005 0.24828
0.214603 0.831159 0.692576
0.241596 0.876188 0.723674
0.555001 0.900389 0.660853
0.961089 0.900999 0.523995
0.975097 0.886702 0.437324
0.25977 0.908766 0.756954
0.259556 0.908873 0.767117
0.476631 0.916625 0.698543
0.931228 0.915022 0.637751
0.97464 0.910887 0.555261
0.0151675 0.03299 0.729015
0.0392309 0.0335241 0.731838
0.606851 0.0695964 0.824323
0.781857 0.0888533 0.85243
0.781338 0.0883803 0.844282
0.0229191 0.1187 0.76379
0.0272068 0.168978 0.783429
0.539834 0.135607 0.83653
0.785412 0.100755 0.855787
0.781186 0.0881819 0.840528
0.0648051 0.566217 0.91635
0.0876936 0.639628 0.931746
0.512032 0.681163 0.949325
0.899031 0.650523 0.93666
0.891402 0.607553 0.907073
0.239475 0.854932 0.945022
0.263966 0.896605 0.957641
0.417639 0.913085 0.951659
0.933608 0.917082 0.927886
0.950469 0.913054 0.900175
0.271992 0.911833 0.958587
0.273014 0.911971 0.965484
0.349676 0.915053 0.958587
0.911467 0.928527 0.942763
0.953292 0.927886 0.927169
0.0151675 0.0329137 0.729
0.0253147 0.0331884 0.730083
0.502037 0.060441 0.806973
0.781857 0.0888533 0.85243
0.781857 0.0888533 0.85243
0.0205844 0.0903334 0.752728
0.0265965 0.16257 0.780819
0.407263 0.132235 0.820768
0.783673 0.0949416 0.854261
0.781857 0.0888533 0.85243
0.0645609 0.561944 0.916274
0.088716 0.646693 0.933913
0.370977 0.683696 0.950759
0.898558 0.648585 0.958618
0.892332 0.610071 0.955001
0.243427 0.858656 0.962264
0.267903 0.901976 0.966522
0.317159 0.911772 0.968887
0.910216 0.922286 0.986221
0.946349 0.91548 0.987793
0.27332 0.912016 0.96762
0.27332 0.912016 0.96762
0.28777 0.912734 0.968154
0.888823 0.930114 0.985718
0.950698 0.93051 0.988571
