LUT预设1/iPhone专用lut合集3/iPhone合集3标准版（log）/FAKE胶片1980.cube
TITLE "Generated by Resolve"
LUT_3D_SIZE 33
0 0.0437476 0.0573281
0 0.0438087 0.0573434
0 0.0436713 0.057084
0 0.0432898 0.0565347
0.00257877 0.0424048 0.0547646
0.00683604 0.0413367 0.0524758
0.0148165 0.0402075 0.0495918
0.0260471 0.0399634 0.0467536
0.0446021 0.0413825 0.0441901
0.0701457 0.0437018 0.0419776
0.0998245 0.0453956 0.0401617
0.128893 0.0460212 0.0390936
0.161685 0.0476539 0.0383764
0.202792 0.0506142 0.0375219
0.243839 0.0535286 0.0366217
0.27538 0.0547951 0.035996
0.301442 0.0554971 0.0350805
0.323796 0.0563363 0.0341039
0.33875 0.0565499 0.0333715
0.344915 0.0558175 0.0333562
0.346563 0.0554513 0.0334173
0.346777 0.0554055 0.0334325
0.346777 0.0554055 0.0334325
0.346777 0.0554055 0.0334325
0.346777 0.0554055 0.0334325
0.346777 0.0554055 0.0334325
0.346777 0.0554055 0.0334325
0.346777 0.0554055 0.0334325
0.346777 0.0554055 0.0334325
0.346777 0.0554055 0.0334325
0.346777 0.0554055 0.0334325
0.346777 0.0554055 0.0334325
0.346777 0.0554055 0.0334325
0 0.0443885 0.0577554
0 0.0445869 0.0578012
0 0.0445563 0.0575418
0 0.0442817 0.0570077
0.002533 0.0432746 0.0551156
0.00735485 0.0420539 0.0526436
0.0157473 0.0407263 0.0495613
0.0274662 0.0405127 0.0466468
0.0476387 0.042237 0.0441138
0.0739147 0.0443885 0.0418708
0.103868 0.0457465 0.0400854
0.133791 0.0464637 0.0390021
0.168109 0.048249 0.0382391
0.209247 0.0511635 0.0373693
0.248676 0.0537423 0.0365454
0.2795 0.054902 0.0358587
0.305287 0.0556649 0.0349279
0.32665 0.0564431 0.0339513
0.340063 0.0564126 0.0333715
0.345296 0.0557259 0.0333715
0.346624 0.055436 0.0334173
0.346777 0.0554055 0.0334325
0.346777 0.0554055 0.0334325
0.346777 0.0554055 0.0334325
0.346777 0.0554055 0.0334325
0.346777 0.0554055 0.0334325
0.346777 0.0554055 0.0334325
0.346777 0.0554055 0.0334325
0.346777 0.0554055 0.0334325
0.346777 0.0554055 0.0334325
0.346777 0.0554055 0.0334325
0.346777 0.0554055 0.0334325
0.346777 0.0554055 0.0334325
0 0.0462196 0.0585489
0 0.0463111 0.0585489
0 0.046479 0.0584268
0 0.0465095 0.057969
0.00233463 0.0459144 0.0564584
0.00807202 0.0446174 0.0538491
0.0186923 0.0431983 0.0502785
0.0336309 0.0434272 0.0470436
0.054902 0.0451514 0.0443427
0.080827 0.0465705 0.0419165
0.109468 0.0469825 0.0400397
0.139162 0.0473793 0.0389258
0.174472 0.0490883 0.0381018
0.215381 0.0518807 0.0372168
0.252583 0.0540475 0.0364996
0.281987 0.0549935 0.0357671
0.307729 0.0557717 0.0348669
0.329076 0.0566567 0.0337835
0.341405 0.0563058 0.033341
0.345754 0.0556497 0.0333867
0.346685 0.0554208 0.0334325
0.346777 0.0554055 0.0334325
0.346777 0.0554055 0.0334325
0.346777 0.0554055 0.0334325
0.346777 0.0554055 0.0334325
0.346777 0.0554055 0.0334325
0.346777 0.0554055 0.0334325
0.346777 0.0554055 0.0334325
0.346777 0.0554055 0.0334325
0.346777 0.0554055 0.0334325
0.346777 0.0554055 0.0334325
0.346777 0.0554055 0.0334325
0.346777 0.0554055 0.0334325
0 0.0487831 0.059556
0 0.0490425 0.0596017
0 0.0496834 0.0595712
0 0.0504311 0.0594034
0.00204471 0.0504616 0.0580453
0.0074464 0.0507057 0.0562753
0.0219883 0.0498054 0.0530556
0.0421607 0.0496529 0.0494392
0.066041 0.0509957 0.0459144
0.0930648 0.0514839 0.0426795
0.121431 0.0506447 0.0402228
0.150515 0.0499733 0.0387884
0.186099 0.0510872 0.0378576
0.22649 0.0534676 0.0369573
0.261799 0.0551003 0.0363165
0.289921 0.0558328 0.0355688
0.314199 0.0565347 0.034699
0.334295 0.0573281 0.0335699
0.344289 0.0565042 0.0332952
0.346883 0.0556649 0.0333867
0.347189 0.0554665 0.0334173
0.347112 0.0554513 0.0334173
0.347005 0.055436 0.0334325
0.346899 0.0554208 0.0334325
0.346853 0.0554208 0.0334325
0.346838 0.0554055 0.0334325
0.346822 0.0554055 0.0334325
0.346792 0.0554055 0.0334325
0.346777 0.0554055 0.0334325
0.346777 0.0554055 0.0334325
0.346777 0.0554055 0.0334325
0.346777 0.0554055 0.0334325
0.346777 0.0554055 0.0334325
0 0.0540322 0.0613565
0 0.0542763 0.0614023
0 0.0550088 0.0612802
0 0.0559548 0.0611734
0.0010071 0.0577707 0.0605325
0.00819409 0.0594644 0.0589303
0.0280156 0.0597543 0.0569314
0.0503395 0.0601816 0.0544442
0.0797742 0.0607919 0.0498207
0.111177 0.0603037 0.04477
0.141146 0.057847 0.0409247
0.170687 0.0554208 0.0386664
0.205447 0.0552377 0.0374762
0.24419 0.0565652 0.0365759
0.277729 0.0574044 0.035935
0.303014 0.0577401 0.0352178
0.323919 0.0580301 0.0344244
0.341482 0.05832 0.0334783
0.349874 0.0573281 0.0332036
0.351644 0.0563516 0.0332952
0.351232 0.0559854 0.0333562
0.350256 0.0558328 0.0333715
0.349065 0.0556802 0.0333867
0.348104 0.0555734 0.0334173
0.347723 0.0555276 0.0334173
0.347555 0.0554971 0.0334173
0.347326 0.0554818 0.0334173
0.347097 0.0554513 0.0334325
0.346944 0.055436 0.0334325
0.346883 0.0554208 0.0334325
0.346853 0.0554208 0.0334325
0.346853 0.0554208 0.0334325
0.346838 0.0554055 0.0334325
0 0.0613107 0.0633555
0 0.0618296 0.0634928
0 0.0626383 0.0635538
0 0.0636454 0.0636606
0.000289921 0.0662547 0.0634928
0.00181582 0.0699626 0.0633097
0.0233921 0.0758984 0.0626535
0.0604105 0.076585 0.0608377
0.0960708 0.0777142 0.0577707
0.138857 0.0775464 0.0513771
0.18114 0.074876 0.0439612
0.218814 0.0706645 0.0391089
0.252995 0.0670024 0.0368048
0.283925 0.0645914 0.0357519
0.309133 0.0628977 0.0351415
0.326833 0.0616007 0.0346075
0.341039 0.0608377 0.0339666
0.356283 0.0605783 0.0332494
0.364508 0.0595712 0.0329595
0.365637 0.05832 0.0330358
0.363119 0.0575265 0.0331426
0.359548 0.0569924 0.0332189
0.355642 0.0565194 0.0332799
0.352697 0.0561532 0.0333257
0.351415 0.0559854 0.0333562
0.350591 0.0558785 0.0333715
0.349523 0.0557412 0.0333867
0.348608 0.0556344 0.033402
0.348028 0.0555581 0.0334173
0.347723 0.0555276 0.0334173
0.347555 0.0554971 0.0334173
0.347478 0.0554818 0.0334173
0.34728 0.0554665 0.0334173
0 0.0703441 0.0659037
0 0.071046 0.0661631
0 0.0717327 0.0662852
0 0.0726024 0.0664073
0 0.0755322 0.066865
0.000885023 0.0788739 0.0674144
0.0106966 0.0859541 0.0686351
0.043534 0.0942245 0.0690318
0.10399 0.0982986 0.0657664
0.160266 0.0998093 0.0606546
0.211154 0.100618 0.0542153
0.263676 0.0964675 0.0450141
0.308827 0.0888838 0.0384375
0.343481 0.0806592 0.035172
0.366415 0.0752117 0.0339055
0.381231 0.0722057 0.0331579
0.390204 0.0703746 0.032639
0.396124 0.0686198 0.0323033
0.397208 0.0662547 0.0322271
0.393729 0.0636301 0.0324102
0.388159 0.0617075 0.0326238
0.382834 0.0605325 0.0327764
0.378256 0.0597848 0.0328679
0.373724 0.0590982 0.0329442
0.369039 0.0583658 0.0330358
0.364477 0.0576638 0.0331273
0.360342 0.0570993 0.0332036
0.357061 0.056672 0.0332647
0.35491 0.0564126 0.0332952
0.353262 0.056199 0.0333104
0.352285 0.0560464 0.033341
0.352117 0.0560159 0.033341
0.351995 0.0560006 0.033341
0 0.0810864 0.0693065
0 0.0818647 0.0694438
0 0.082475 0.0694133
0 0.0833906 0.0697337
0 0.085771 0.071046
0.000534066 0.0887922 0.0723888
0.00302129 0.0954147 0.0745251
0.0235142 0.105913 0.0764324
0.0738689 0.119265 0.0769665
0.165133 0.127047 0.0725872
0.238651 0.128588 0.0653391
0.296208 0.128191 0.0572976
0.349355 0.122881 0.0477913
0.393835 0.111376 0.0393225
0.424155 0.099733 0.0347143
0.440803 0.0912795 0.0327001
0.446418 0.0850385 0.031693
0.446494 0.0805676 0.0313115
0.442832 0.0769818 0.0313115
0.437018 0.0738384 0.0314336
0.429938 0.0714733 0.031632
0.423072 0.0697185 0.0317998
0.415763 0.0679332 0.0319677
0.408331 0.0661479 0.0321355
0.400992 0.0644694 0.0323186
0.39443 0.0630655 0.0324865
0.389029 0.0619821 0.0325933
0.384039 0.0610208 0.0327153
0.378897 0.0600595 0.0328374
0.373388 0.0590524 0.0329595
0.36965 0.0583658 0.0330358
0.369131 0.0582437 0.033051
0.368811 0.0581979 0.0330663
0 0.0934462 0.0751812
0 0.0945296 0.0757458
0 0.0953078 0.0760662
0 0.0961776 0.0764324
0 0.0977493 0.0771649
0 0.100893 0.0784009
0 0.106096 0.080293
0.0128023 0.116411 0.0830243
0.043946 0.131685 0.0859998
0.115709 0.151675 0.0872206
0.234287 0.162921 0.0813153
0.320974 0.163058 0.0715343
0.381872 0.158709 0.0611429
0.427955 0.151888 0.0516823
0.467842 0.137758 0.0417487
0.494652 0.122133 0.0354772
0.505364 0.108431 0.0323186
0.504814 0.0987259 0.0310369
0.499138 0.0925307 0.0306706
0.49073 0.0887007 0.0306706
0.481987 0.0859541 0.0307774
0.473472 0.0834516 0.0308843
0.464622 0.0808423 0.0310063
0.456107 0.0783703 0.0311284
0.448249 0.0762493 0.031281
0.440726 0.0743114 0.0314336
0.432898 0.0722667 0.0315862
0.42501 0.0701762 0.0317388
0.417105 0.0681621 0.0319066
0.41004 0.0664683 0.0320745
0.405661 0.0654765 0.0321965
0.405417 0.0654154 0.0321965
0.404822 0.0653086 0.0322118
0 0.107942 0.0821393
0 0.10927 0.0827192
0 0.110338 0.0831311
0 0.11133 0.0835279
0 0.112612 0.084062
0 0.115297 0.0850538
0 0.11873 0.086183
0.0047303 0.128161 0.0894179
0.0257267 0.143633 0.0937057
0.0760662 0.166384 0.0980087
0.167254 0.192508 0.098558
0.306889 0.206973 0.0907301
0.402396 0.203464 0.0794385
0.461524 0.193088 0.0666972
0.502632 0.183185 0.0569162
0.535103 0.169177 0.0473182
0.556008 0.149432 0.038819
0.563073 0.130236 0.033753
0.560281 0.116228 0.031342
0.551537 0.108125 0.0304723
0.541466 0.10396 0.0303349
0.532113 0.101061 0.0303502
0.523125 0.0983139 0.0304112
0.514199 0.0955673 0.0304723
0.505821 0.093019 0.0305486
0.497276 0.090425 0.0306096
0.488594 0.0878157 0.0306859
0.479545 0.0851301 0.0307927
0.47126 0.0827192 0.0308995
0.46392 0.0806592 0.0310063
0.459007 0.0792859 0.0310826
0.458701 0.0792096 0.0310979
0.457694 0.0789654 0.0311131
0 0.124758 0.0891432
0 0.12665 0.0897993
0 0.128145 0.0903182
0 0.129412 0.0907301
0 0.130602 0.0911116
0 0.132784 0.0916152
3.0518e-05 0.135882 0.0925002
0 0.144335 0.0958267
0.0162203 0.158877 0.100328
0.0533455 0.180377 0.105348
0.122591 0.2103 0.109545
0.232273 0.243671 0.108644
0.383398 0.258747 0.101289
0.480949 0.249134 0.0898146
0.538537 0.234012 0.0776379
0.575387 0.219928 0.0667582
0.6 0.204715 0.0565805
0.614725 0.181994 0.0457313
0.619348 0.157198 0.0372931
0.613977 0.139055 0.0329137
0.604303 0.129702 0.0313573
0.594247 0.12462 0.0308843
0.585122 0.120714 0.0306706
0.576638 0.116976 0.0305028
0.568078 0.113207 0.0303502
0.559838 0.109941 0.0302739
0.551141 0.107088 0.0302739
0.542504 0.104402 0.0303044
0.533867 0.101717 0.0303502
0.525948 0.0991989 0.0303807
0.520455 0.0973983 0.030396
0.519905 0.0972 0.030396
0.518959 0.0968643 0.030396
0 0.145342 0.0966354
0 0.147936 0.0974289
0 0.149859 0.0979629
0 0.151492 0.0983597
0 0.152911 0.0986648
0 0.155077 0.0990158
0 0.159045 0.100053
0 0.164691 0.101534
0.00823987 0.177493 0.105409
0.0345922 0.196963 0.110857
0.0948959 0.22771 0.118608
0.184421 0.265599 0.122789
0.306264 0.301213 0.123445
0.455543 0.315221 0.117082
0.558389 0.301885 0.106966
0.616541 0.282139 0.0950179
0.646586 0.261097 0.0814374
0.664149 0.243717 0.0701305
0.672938 0.221424 0.0571145
0.673655 0.194949 0.0449378
0.669322 0.175906 0.0382391
0.66247 0.164462 0.0351873
0.65391 0.156497 0.0336919
0.644617 0.149966 0.0328374
0.635294 0.144549 0.0322881
0.626108 0.140002 0.0319524
0.617014 0.13579 0.0316625
0.607858 0.13135 0.031342
0.598901 0.126818 0.0310216
0.590326 0.122484 0.0307317
0.584253 0.119417 0.0305638
0.583078 0.11873 0.030518
0.581979 0.118074 0.030457
0 0.170825 0.104204
0 0.173953 0.105135
0 0.176455 0.105821
0 0.17847 0.10634
0 0.180728 0.106889
0 0.182757 0.107301
0 0.186328 0.107927
0.000381476 0.191897 0.109209
0.00263981 0.202625 0.1122
0.0268406 0.221424 0.118853
0.0755322 0.249577 0.128359
0.152697 0.285786 0.138399
0.256855 0.325444 0.144915
0.3785 0.362325 0.146548
0.526711 0.377035 0.141924
0.637476 0.358633 0.130434
0.690455 0.335332 0.117601
0.716167 0.310796 0.102388
0.728786 0.289036 0.0877852
0.735988 0.269627 0.0742199
0.738582 0.248554 0.0617227
0.736461 0.230015 0.0522927
0.729397 0.216434 0.0468299
0.719753 0.206744 0.044007
0.70956 0.198672 0.0421149
0.699168 0.190631 0.0402838
0.688823 0.182406 0.0384527
0.678843 0.174395 0.0368505
0.668986 0.167056 0.0355535
0.659495 0.160708 0.0346227
0.652033 0.156024 0.0339971
0.650309 0.154986 0.033875
0.649104 0.15407 0.0336919
0 0.201343 0.113466
0 0.204913 0.115023
0 0.20795 0.116274
0 0.211017 0.117494
0 0.21416 0.118685
0 0.216236 0.119448
0 0.219593 0.120195
0.00106813 0.225818 0.122026
0.00291447 0.233585 0.124346
0.0209659 0.250431 0.131106
0.0571298 0.274434 0.141268
0.119005 0.306203 0.154299
0.213779 0.344991 0.167376
0.325002 0.386175 0.174594
0.450889 0.423957 0.178576
0.600656 0.438941 0.173068
0.713664 0.421317 0.159197
0.764096 0.395636 0.143938
0.787335 0.367956 0.126589
0.799298 0.346181 0.11162
0.808026 0.331228 0.100435
0.812497 0.316762 0.0899977
0.810361 0.302724 0.0809491
0.802045 0.289631 0.0741741
0.791531 0.277775 0.0689555
0.780041 0.265385 0.0637827
0.768841 0.25333 0.0590372
0.757259 0.241398 0.0547799
0.745892 0.231052 0.0514992
0.735088 0.221729 0.0487373
0.726223 0.214023 0.0464942
0.72369 0.21178 0.0458228
0.722393 0.210559 0.0454719
0.000366217 0.236423 0.127977
0.000823987 0.240269 0.129595
0.00115969 0.24387 0.13109
0.00138857 0.247532 0.132647
0.00141909 0.250874 0.134066
0.00125124 0.253346 0.135103
0.0012665 0.255985 0.13608
0.00317388 0.260975 0.137453
0.00781262 0.268849 0.140154
0.0159762 0.280568 0.144564
0.0438392 0.301885 0.154711
0.0941024 0.329702 0.168353
0.174975 0.365393 0.185046
0.287236 0.406516 0.198795
0.406729 0.447822 0.206897
0.526024 0.484245 0.210697
0.675319 0.504479 0.207446
0.790112 0.490852 0.192584
0.837461 0.46598 0.176165
0.860258 0.441596 0.160174
0.870939 0.419562 0.145769
0.878111 0.407736 0.137011
0.882506 0.399588 0.130098
0.881331 0.389105 0.122194
0.875364 0.377218 0.114672
0.865324 0.362951 0.107225
0.853742 0.348287 0.100359
0.841505 0.3337 0.0937972
0.82945 0.319875 0.087602
0.817441 0.306264 0.0814374
0.807553 0.294972 0.0762493
0.803433 0.290303 0.0741131
0.801953 0.288701 0.0734264
0.004654 0.273793 0.14345
0.00569161 0.278141 0.144854
0.00671397 0.28246 0.146319
0.00761425 0.286473 0.147738
0.00827039 0.289677 0.148989
0.0087129 0.292195 0.150118
0.0093843 0.294682 0.150744
0.0105592 0.298085 0.151369
0.0143587 0.305211 0.153338
0.0225681 0.315618 0.157137
0.0367132 0.330343 0.163714
0.0766766 0.356008 0.178653
0.14847 0.389364 0.19675
0.251972 0.429129 0.215183
0.369116 0.471153 0.229816
0.479545 0.511421 0.238956
0.612543 0.551522 0.245762
0.763317 0.57528 0.246067
0.862364 0.56582 0.234745
0.902815 0.543221 0.219913
0.92137 0.520958 0.204822
0.929747 0.502159 0.190936
0.9337 0.489525 0.180407
0.936706 0.484245 0.174731
0.936706 0.478599 0.16994
0.93315 0.470314 0.164965
0.925917 0.457176 0.1579
0.916884 0.441215 0.149172
0.907485 0.425025 0.140093
0.898009 0.40914 0.131014
0.88867 0.394247 0.122637
0.883909 0.387152 0.118761
0.882536 0.385382 0.117861
0.0140536 0.312612 0.155856
0.0154574 0.317586 0.156954
0.0168154 0.322667 0.158114
0.0179599 0.327138 0.159197
0.0187228 0.330068 0.160021
0.0204776 0.332921 0.161044
0.0226596 0.335729 0.16202
0.0246433 0.338628 0.162875
0.0278325 0.343648 0.164141
0.035523 0.35314 0.167773
0.0497444 0.366308 0.174472
0.0763714 0.386496 0.187228
0.141634 0.418235 0.206424
0.234195 0.455665 0.227131
0.343481 0.496574 0.246509
0.463203 0.539559 0.262669
0.587518 0.581964 0.275669
0.711604 0.618997 0.287907
0.835355 0.642954 0.297124
0.918669 0.637156 0.291585
0.950607 0.617792 0.276371
0.96434 0.599176 0.259785
0.969268 0.581918 0.244419
0.970092 0.570718 0.235248
0.970581 0.56759 0.232959
0.970947 0.56701 0.232441
0.969406 0.561578 0.228275
0.966033 0.550988 0.220111
0.961563 0.536507 0.208499
0.956344 0.520821 0.196475
0.950301 0.505058 0.185657
0.946441 0.496223 0.180072
0.94519 0.493843 0.178729
0.0306401 0.354788 0.167193
0.0352026 0.361578 0.169436
0.0390478 0.367559 0.171328
0.0419928 0.372488 0.172793
0.0444495 0.375921 0.173922
0.0471351 0.378515 0.175036
0.0491035 0.380514 0.17586
0.0512551 0.383047 0.176715
0.0544137 0.386877 0.177951
0.0606546 0.393881 0.180423
0.0762341 0.406836 0.187472
0.105043 0.425666 0.199023
0.151873 0.45156 0.216632
0.236728 0.487526 0.239338
0.340108 0.527077 0.262257
0.455985 0.56936 0.284932
0.570275 0.609781 0.305089
0.682048 0.647608 0.324056
0.792355 0.681865 0.34403
0.895994 0.704799 0.361242
0.957732 0.700725 0.358282
0.98024 0.682689 0.339956
0.988235 0.665293 0.322606
0.989975 0.652491 0.310796
0.989822 0.645228 0.30396
0.989944 0.643275 0.301396
0.990082 0.643702 0.301656
0.989746 0.641993 0.299962
0.988525 0.63537 0.293172
0.98613 0.624857 0.283253
0.982696 0.61117 0.271015
0.980346 0.602243 0.263279
0.979583 0.599283 0.260624
0.0650645 0.402335 0.183688
0.0712749 0.409384 0.186374
0.076173 0.415106 0.188495
0.0800488 0.419837 0.190204
0.0841993 0.423606 0.191928
0.0860609 0.425284 0.192691
0.0871901 0.426398 0.193164
0.0886702 0.428046 0.193683
0.091783 0.430991 0.194461
0.0991989 0.437171 0.196612
0.113451 0.448142 0.201312
0.147112 0.468147 0.214847
0.198047 0.493751 0.232166
0.268482 0.525185 0.253788
0.363241 0.562234 0.278904
0.464637 0.600961 0.305425
0.568475 0.638636 0.331624
0.672496 0.67454 0.357397
0.771954 0.707912 0.38352
0.857954 0.736156 0.410407
0.933837 0.753933 0.430488
0.981689 0.749218 0.425559
0.996521 0.732448 0.405325
0.999344 0.721492 0.392432
0.999527 0.714473 0.383474
1 0.710918 0.377859
1 0.708949 0.375509
0.999786 0.708354 0.375387
0.999207 0.707301 0.375113
0.998291 0.70341 0.371191
0.997314 0.696666 0.363348
0.996536 0.690379 0.355795
0.996262 0.687922 0.352819
0.110689 0.450355 0.20351
0.117968 0.457328 0.206592
0.123323 0.462654 0.20885
0.128985 0.467353 0.211063
0.132815 0.470466 0.21265
0.134005 0.471824 0.213336
0.134722 0.472572 0.213703
0.135531 0.473289 0.213931
0.139025 0.475395 0.214206
0.150759 0.482414 0.216464
0.173083 0.494881 0.222278
0.208438 0.513207 0.232898
0.262898 0.53904 0.251209
0.328817 0.567803 0.272328
0.404623 0.599649 0.296757
0.488655 0.634012 0.324956
0.578088 0.667597 0.355428
0.671351 0.700481 0.387594
0.759716 0.730922 0.419455
0.836179 0.757382 0.44979
0.903716 0.778393 0.475975
0.962249 0.788708 0.490242
0.995392 0.783139 0.484718
1 0.773983 0.472847
1 0.768597 0.464942
1 0.764355 0.457954
1 0.760174 0.45124
1 0.756527 0.44622
1 0.755062 0.444938
1 0.755169 0.445808
1 0.754879 0.445533
1 0.753689 0.443427
1 0.753597 0.443107
0.170657 0.500298 0.227268
0.178851 0.506783 0.230442
0.185809 0.512276 0.233097
0.197147 0.517906 0.235767
0.20325 0.520806 0.23714
0.206943 0.522362 0.237858
0.209064 0.523018 0.238117
0.210239 0.523278 0.238117
0.213107 0.524575 0.238209
0.227802 0.531487 0.239796
0.25774 0.545357 0.245762
0.298589 0.564202 0.256962
0.345098 0.586191 0.272435
0.403708 0.612512 0.293584
0.467506 0.640482 0.31809
0.534844 0.669032 0.345754
0.608698 0.698192 0.378256
0.687526 0.726558 0.413916
0.760754 0.752255 0.4477
0.826764 0.775219 0.479164
0.886336 0.794705 0.506416
0.937423 0.808454 0.526284
0.98027 0.813336 0.536019
1 0.80975 0.537331
1 0.806241 0.534524
1 0.802731 0.528786
1 0.798901 0.521996
1 0.795331 0.515526
1 0.793133 0.511559
1 0.792355 0.510124
1 0.793133 0.511513
1 0.794965 0.514794
1 0.797345 0.519112
0.265751 0.555093 0.253819
0.280476 0.562768 0.257496
0.292912 0.568811 0.260273
0.30425 0.573556 0.262348
0.308949 0.57525 0.26305
0.31191 0.576226 0.263432
0.312184 0.576074 0.263325
0.312352 0.576013 0.263188
0.316335 0.577737 0.263508
0.329015 0.5832 0.264927
0.359228 0.596139 0.270024
0.399207 0.61442 0.281727
0.443839 0.635081 0.297307
0.491386 0.657176 0.316274
0.544121 0.680613 0.340307
0.598383 0.70367 0.367315
0.654521 0.726757 0.39791
0.712367 0.74902 0.431937
0.769223 0.769589 0.46537
0.823209 0.788602 0.496498
0.873823 0.805219 0.523171
0.919524 0.818158 0.543297
0.961288 0.826719 0.557763
0.992203 0.829892 0.569421
1 0.829297 0.578363
1 0.827665 0.578393
1 0.825116 0.573754
1 0.822446 0.568399
1 0.820523 0.564492
1 0.81944 0.562264
1 0.819272 0.561898
1 0.8206 0.564523
1 0.823026 0.56936
0.37911 0.608118 0.278218
0.394675 0.614984 0.2813
0.403983 0.618936 0.283055
0.409171 0.621027 0.283955
0.41181 0.622141 0.284413
0.412299 0.622354 0.284489
0.412161 0.622339 0.284489
0.41239 0.622522 0.284535
0.416403 0.624292 0.285039
0.43061 0.630442 0.287434
0.455665 0.641123 0.292576
0.493446 0.657542 0.302602
0.535256 0.676249 0.318807
0.576257 0.694652 0.337346
0.616861 0.713039 0.358419
0.657938 0.731151 0.383703
0.698299 0.74876 0.411872
0.737881 0.765438 0.44242
0.780468 0.782025 0.474983
0.822644 0.797131 0.503853
0.863584 0.810437 0.528252
0.904967 0.821744 0.54789
0.946914 0.83093 0.563653
0.980652 0.836683 0.576959
0.997833 0.838651 0.590295
1 0.838682 0.6
1 0.838178 0.600748
1 0.836988 0.598337
1 0.836164 0.596567
1 0.83566 0.595438
1 0.835126 0.594324
1 0.834974 0.594003
1 0.835584 0.595331
0.464469 0.645396 0.294774
0.474479 0.64979 0.296712
0.479912 0.652094 0.297719
0.482002 0.652857 0.298054
0.483879 0.653544 0.298344
0.484901 0.65391 0.298512
0.48603 0.654383 0.298711
0.487663 0.655131 0.299031
0.491676 0.656855 0.299672
0.505409 0.662425 0.302022
0.530694 0.672663 0.307744
0.563989 0.686519 0.31754
0.600977 0.702556 0.331823
0.635416 0.718303 0.350408
0.668498 0.733639 0.370886
0.699596 0.748577 0.393469
0.728878 0.762676 0.420203
0.758007 0.776165 0.448432
0.788174 0.789136 0.477577
0.821057 0.801541 0.505028
0.856352 0.812528 0.527947
0.89546 0.822461 0.547173
0.936568 0.830976 0.562737
0.971679 0.836942 0.575799
0.993744 0.840162 0.589334
1 0.841535 0.602441
1 0.841993 0.60885
1 0.84184 0.608942
1 0.841611 0.608392
1 0.841367 0.607858
1 0.841016 0.607065
1 0.840711 0.606378
1 0.840665 0.606317
0.513909 0.665827 0.303731
0.519509 0.668086 0.304707
0.522469 0.669291 0.305226
0.522667 0.669367 0.305257
0.522942 0.669474 0.305303
0.523598 0.669718 0.305409
0.524636 0.670115 0.305577
0.526513 0.670848 0.305882
0.529946 0.672145 0.306386
0.540368 0.676097 0.307958
0.56408 0.685466 0.313176
0.596567 0.698909 0.323507
0.63122 0.713863 0.337575
0.664637 0.72903 0.355016
0.692439 0.742733 0.375601
0.718288 0.755795 0.397513
0.742077 0.768444 0.421729
0.764782 0.780041 0.448631
0.789303 0.79115 0.475517
0.81706 0.802014 0.501945
0.848997 0.812131 0.52546
0.885695 0.821103 0.544045
0.924697 0.829084 0.559213
0.960952 0.835431 0.572351
0.988006 0.839475 0.585504
0.999283 0.841306 0.598169
1 0.842145 0.607584
1 0.84239 0.610178
1 0.84239 0.610254
1 0.842359 0.610178
1 0.842268 0.609949
1 0.842191 0.609766
1 0.842161 0.609705
0.531395 0.672755 0.306737
0.53286 0.67332 0.306966
0.534142 0.673808 0.307179
0.534157 0.673823 0.307195
0.534173 0.673823 0.307195
0.534173 0.673823 0.307195
0.534173 0.673823 0.307195
0.534264 0.673854 0.307195
0.535943 0.674479 0.307408
0.543587 0.677378 0.308614
0.56321 0.684932 0.312215
0.600031 0.699825 0.322499
0.636286 0.715511 0.337743
0.668849 0.730358 0.35523
0.696742 0.743969 0.374411
0.719219 0.755993 0.396384
0.740658 0.767575 0.41976
0.760983 0.778668 0.445106
0.785138 0.789517 0.471687
0.812009 0.800046 0.497154
0.842451 0.810162 0.520928
0.876844 0.819318 0.540841
0.915053 0.827314 0.555932
0.952804 0.834211 0.568933
0.981796 0.838697 0.581094
0.996597 0.840864 0.593286
1 0.841825 0.604013
1 0.842298 0.609384
1 0.84239 0.610254
1 0.84239 0.610254
1 0.84239 0.610254
1 0.84239 0.610254
1 0.84239 0.610254
0.534142 0.673808 0.307195
0.534157 0.673823 0.307195
0.534173 0.673823 0.307195
0.534173 0.673823 0.307195
0.534173 0.673823 0.307195
0.534173 0.673823 0.307195
0.534173 0.673823 0.307195
0.534203 0.673838 0.307195
0.535485 0.674296 0.307332
0.543404 0.677287 0.308522
0.562631 0.684794 0.312535
0.593484 0.6972 0.320653
0.631815 0.713405 0.335134
0.664652 0.728496 0.353155
0.693278 0.742367 0.372641
0.717464 0.754955 0.393729
0.738109 0.766155 0.41706
0.758953 0.777035 0.441245
0.780774 0.787778 0.467308
0.806912 0.798108 0.49247
0.836484 0.808103 0.51603
0.869398 0.817349 0.536553
0.905943 0.82562 0.552834
0.943877 0.832685 0.565637
0.97406 0.837461 0.577401
0.993301 0.840238 0.589929
1 0.841566 0.601251
1 0.842191 0.608133
1 0.84239 0.610193
1 0.84239 0.610254
1 0.84239 0.610254
1 0.84239 0.610254
1 0.84239 0.610254
0.534173 0.673823 0.307195
0.534173 0.673823 0.307195
0.534173 0.673823 0.307195
0.534173 0.673823 0.307195
0.534173 0.673823 0.307195
0.534173 0.673823 0.307195
0.534173 0.673823 0.307195
0.534173 0.673823 0.307195
0.534874 0.674083 0.307256
