LUT预设1/iPhone专用lut合集3/iPhone合集3标准版（log）/FAKE理光负片（暖）.cube
TITLE "Generated by Resolve"
LUT_3D_SIZE 9
0.00428778 0.0267491 0.0616312
0.0842298 0.0263218 0.0617533
0.402533 0.0207065 0.0584726
0.687236 0.0205386 0.0607919
0.855009 0.020798 0.066453
0.858076 0.0208133 0.0665904
0.858076 0.0208133 0.0665904
0.858076 0.0208133 0.0665904
0.858076 0.0208133 0.0665904
0.00584421 0.0417639 0.0625925
0.011902 0.035584 0.0623331
0.213779 0.0252537 0.0606088
0.564019 0.0205081 0.0590372
0.810208 0.0206455 0.0645151
0.858076 0.0208133 0.0665904
0.858076 0.0208133 0.0665904
0.858076 0.0208133 0.0665904
0.858076 0.0208133 0.0665904
0.0126192 0.135027 0.0671702
0.0118257 0.123095 0.0664378
0.0485695 0.114061 0.0656443
0.419806 0.0785992 0.0605478
0.72256 0.0529335 0.0640879
0.862959 0.0302892 0.0683604
0.859129 0.0231937 0.0670481
0.858106 0.0209049 0.0666056
0.858076 0.0208133 0.0665904
0.056733 0.397681 0.108766
0.0521096 0.379339 0.104906
0.0527962 0.378332 0.104906
0.223316 0.370916 0.105211
0.718914 0.328222 0.0797894
0.898375 0.273823 0.0712902
0.907256 0.177798 0.0737774
0.885359 0.092134 0.0733501
0.871885 0.0498817 0.0707561
0.197681 0.687999 0.179202
0.19144 0.677791 0.176745
0.196414 0.686015 0.178668
0.205798 0.672633 0.175601
0.498604 0.644907 0.168185
0.872663 0.60885 0.151843
0.953109 0.559243 0.124895
0.950088 0.508522 0.106844
0.943587 0.404379 0.0800183
0.303624 0.85034 0.221698
0.300282 0.845228 0.220279
0.302785 0.848859 0.221347
0.305531 0.8533 0.222553
0.386191 0.833402 0.214145
0.67187 0.796262 0.203693
0.947036 0.770397 0.208103
0.964019 0.727901 0.192508
0.962493 0.705196 0.183703
0.329351 0.891524 0.232807
0.329351 0.891524 0.232807
0.329351 0.891524 0.232807
0.329351 0.891524 0.232807
0.329381 0.891524 0.232807
0.537224 0.89099 0.227512
0.778164 0.887251 0.229679
0.973602 0.880095 0.242863
0.973098 0.85304 0.234958
0.329351 0.891524 0.232807
0.329351 0.891524 0.232807
0.329351 0.891524 0.232807
0.329351 0.891524 0.232807
0.329351 0.891524 0.232807
0.33489 0.891508 0.232578
0.645274 0.890806 0.227512
0.847791 0.88954 0.233799
0.976226 0.891279 0.246387
0.329351 0.891524 0.232807
0.329351 0.891524 0.232807
0.329351 0.891524 0.232807
0.329351 0.891524 0.232807
0.329351 0.891524 0.232807
0.329351 0.891524 0.232807
0.435859 0.891203 0.229404
0.750942 0.889952 0.229435
0.913558 0.890349 0.239567
0.00485237 0.0272068 0.0935683
0.0571603 0.0271458 0.0804608
0.35996 0.021088 0.0666056
0.660716 0.0205539 0.0622568
0.851682 0.0207828 0.0663005
0.858076 0.0208133 0.0665904
0.858076 0.0208133 0.0665904
0.858076 0.0208133 0.0665904
0.858076 0.0208133 0.0665904
0.00560006 0.0383001 0.0695048
0.0148013 0.030869 0.0634318
0.232013 0.0234379 0.0604715
0.559396 0.0204929 0.0590219
0.803937 0.0206455 0.0642863
0.858076 0.0208133 0.0665904
0.858076 0.0208133 0.0665904
0.858076 0.0208133 0.0665904
0.858076 0.0208133 0.0665904
0.0120546 0.126894 0.0667277
0.0107881 0.107408 0.0654765
0.0723888 0.0975662 0.064332
0.439994 0.0666819 0.0604562
0.747158 0.0394446 0.0641642
0.861173 0.0268864 0.0677195
0.85861 0.0221103 0.0668345
0.858076 0.0208286 0.0665904
0.858076 0.0208133 0.0665904
0.0526131 0.383093 0.105531
0.0455177 0.353017 0.0993057
0.0466621 0.32575 0.0943465
0.287114 0.346792 0.0998093
0.72192 0.298207 0.0738231
0.902556 0.229435 0.0723278
0.896468 0.132967 0.0739452
0.878492 0.0694438 0.0721294
0.867964 0.0401312 0.0697948
0.192737 0.679973 0.17731
0.183505 0.66482 0.173663
0.179126 0.657603 0.171893
0.230076 0.642557 0.168368
0.550423 0.626459 0.165118
0.88658 0.585992 0.141756
0.952392 0.546914 0.120226
0.947326 0.461173 0.0925612
0.93756 0.344793 0.0750896
0.30042 0.845502 0.220356
0.295567 0.838163 0.218296
0.294026 0.835691 0.217624
0.293294 0.83473 0.217365
0.440986 0.812696 0.207279
0.706355 0.781323 0.201144
0.957794 0.753063 0.202045
0.963317 0.717815 0.188602
0.961776 0.694484 0.179431
0.329351 0.891524 0.232807
0.329351 0.891524 0.232807
0.329351 0.891524 0.232807
0.329351 0.891524 0.232807
0.330556 0.891524 0.232761
0.597208 0.890272 0.22707
0.807523 0.88333 0.229969
0.974517 0.871611 0.240467
0.97232 0.842695 0.231998
0.329351 0.891524 0.232807
0.329351 0.891524 0.232807
0.329351 0.891524 0.232807
0.329351 0.891524 0.232807
0.329351 0.891524 0.232807
0.367559 0.891478 0.231479
0.690455 0.890578 0.228
0.872801 0.889815 0.235752
0.976364 0.891279 0.246403
0.329351 0.891524 0.232807
0.329351 0.891524 0.232807
0.329351 0.891524 0.232807
0.329351 0.891524 0.232807
0.329351 0.891524 0.232807
0.329351 0.891524 0.232807
0.49572 0.891066 0.228214
0.780056 0.889616 0.230335
0.932387 0.890578 0.241535
0.00836194 0.028275 0.256992
0.0363775 0.0284123 0.200839
0.250935 0.0275883 0.155657
0.581277 0.0217746 0.120119
0.822736 0.0208591 0.102266
0.858976 0.020798 0.0827344
0.858442 0.020798 0.0722667
0.858167 0.0208133 0.0679179
0.858076 0.0208133 0.0665904
0.00772107 0.0381781 0.189456
0.0103914 0.0307622 0.152163
0.159792 0.027451 0.115404
0.515831 0.0209964 0.0879988
0.781704 0.0206607 0.0785382
0.858351 0.020798 0.0708782
0.858076 0.0208133 0.0666361
0.858076 0.0208133 0.0665904
0.858076 0.0208133 0.0665904
0.01178 0.119448 0.137423
0.0104677 0.099855 0.118059
0.0810101 0.0856184 0.094789
0.442725 0.0560769 0.0708629
0.733776 0.0356298 0.0668498
0.860517 0.0257725 0.0681163
0.858473 0.0217594 0.0667887
0.858076 0.0208286 0.0665904
0.858076 0.0208133 0.0665904
0.0424964 0.360433 0.134493
0.0358129 0.319295 0.11458
0.0554208 0.2916 0.0991379
0.342977 0.31162 0.0935378
0.720058 0.259678 0.0694591
0.898177 0.176486 0.0726635
0.888762 0.104067 0.0735485
0.874754 0.0573587 0.0713817
0.865904 0.0353094 0.0692454
0.17911 0.661295 0.178759
0.165728 0.638025 0.170962
0.156649 0.620203 0.163668
0.283833 0.618082 0.162615
0.608759 0.608515 0.162158
0.88809 0.567285 0.134279
0.950011 0.50634 0.105592
0.941939 0.390829 0.0800946
0.930114 0.283833 0.0722667
0.291325 0.831754 0.216541
0.283833 0.820615 0.213306
0.279622 0.814404 0.211551
0.278187 0.806256 0.209201
0.498802 0.796048 0.20238
0.743587 0.765896 0.199069
0.960235 0.736507 0.19588
0.962783 0.710231 0.185657
0.959594 0.662287 0.166445
0.329351 0.891524 0.232807
0.329351 0.891524 0.232807
0.32932 0.891478 0.232792
0.329168 0.891218 0.232731
0.361608 0.891478 0.231632
0.643122 0.888243 0.226703
0.83624 0.87602 0.229541
0.973602 0.859297 0.236866
0.971633 0.833341 0.229358
0.329351 0.891524 0.232807
0.329351 0.891524 0.232807
0.329351 0.891524 0.232807
0.329351 0.891524 0.232807
0.329351 0.891524 0.232807
0.428367 0.891295 0.229709
0.72871 0.890196 0.22884
0.897871 0.89012 0.237995
0.976364 0.891264 0.246403
0.329351 0.891524 0.232807
0.329351 0.891524 0.232807
0.329351 0.891524 0.232807
0.329351 0.891524 0.232807
0.329351 0.891524 0.232807
0.331701 0.891524 0.232715
0.555459 0.890959 0.227451
0.809247 0.889387 0.231495
0.948821 0.890822 0.243336
0.0119173 0.0298772 0.501686
0.0334936 0.0298924 0.463981
0.181537 0.0318303 0.393515
0.459998 0.0407721 0.330755
0.727214 0.039826 0.275578
0.839216 0.0294499 0.214496
0.853101 0.0235599 0.166186
0.858808 0.0216373 0.13225
0.86041 0.0208591 0.112856
0.01178 0.0396429 0.429191
0.0116121 0.0318303 0.388357
0.090135 0.0303655 0.332738
0.379812 0.0350958 0.281193
0.691768 0.033341 0.23505
0.847929 0.0253605 0.184604
0.858351 0.0217288 0.13492
0.859724 0.0208133 0.0999008
0.858946 0.0208133 0.0813611
0.0154116 0.128618 0.381598
0.0138399 0.105425 0.344991
0.0549325 0.0901045 0.305364
0.322103 0.0847028 0.264118
0.666697 0.0597086 0.215137
0.853223 0.0306401 0.162509
0.860441 0.0219883 0.112795
0.85919 0.0207675 0.0839857
0.858335 0.020798 0.0706645
0.0325322 0.374365 0.380346
0.0276951 0.325231 0.34493
0.0390784 0.287388 0.304799
0.312825 0.313161 0.274479
0.702007 0.242084 0.176822
0.88632 0.158801 0.126543
0.885435 0.0905165 0.0868849
0.872236 0.0499123 0.0720531
0.864149 0.0320897 0.0687419
0.117311 0.6701 0.388128
0.102388 0.638682 0.370825
0.0928359 0.608087 0.334432
0.299962 0.61059 0.295018
0.648814 0.592554 0.224537
0.889464 0.534874 0.132296
0.945754 0.436728 0.0893721
0.936355 0.330724 0.0731518
0.923018 0.243015 0.071931
0.251469 0.835157 0.33637
0.242054 0.818875 0.329366
0.240024 0.804578 0.302388
0.276646 0.785946 0.256046
0.556039 0.777203 0.231952
0.781186 0.749294 0.2
0.959411 0.718181 0.188968
0.960616 0.678416 0.173037
0.956512 0.614649 0.146883
0.317571 0.89482 0.271885
0.317601 0.894652 0.271153
0.321538 0.893095 0.257679
0.326482 0.8907 0.24004
0.455131 0.889281 0.229145
0.688579 0.882811 0.22594
0.864225 0.864591 0.228519
0.972229 0.841703 0.231739
0.97081 0.82208 0.226047
0.327703 0.891997 0.238392
0.328801 0.891707 0.234882
0.328923 0.891676 0.23444
0.329305 0.891539 0.232975
0.337926 0.891508 0.232471
0.528542 0.891005 0.227665
0.763561 0.889815 0.229831
0.920165 0.890425 0.240253
0.976333 0.890974 0.246311
0.32932 0.891539 0.232914
0.329351 0.891524 0.232807
0.329351 0.891524 0.232807
0.329351 0.891524 0.232807
0.329351 0.891524 0.232807
0.380926 0.891432 0.231037
0.622278 0.890913 0.227283
0.838041 0.889464 0.233066
0.960555 0.891005 0.244602
0.0148318 0.0324865 0.705516
0.0269169 0.0326848 0.70248
0.152697 0.0361486 0.669993
0.456413 0.0491035 0.617548
0.684901 0.0666056 0.563546
0.768673 0.0710613 0.491035
0.777539 0.0628977 0.408927
0.795727 0.0517739 0.336858
0.813794 0.041825 0.282872
0.0148775 0.0419165 0.660655
0.0140536 0.0350347 0.63592
0.0715801 0.0328985 0.608072
0.336095 0.0412146 0.572473
0.620798 0.0593881 0.530159
0.768933 0.0697032 0.474601
0.780468 0.060853 0.387762
0.808499 0.0444495 0.297368
0.83534 0.0310063 0.224659
0.0214237 0.140917 0.654231
0.0190127 0.118044 0.614252
0.0436103 0.0992905 0.580728
0.246921 0.0936294 0.556268
0.57435 0.101259 0.521691
0.76875 0.0948501 0.462654
0.7906 0.0619974 0.364004
0.817945 0.0396735 0.271412
0.844312 0.0272526 0.196735
0.0402838 0.40119 0.682643
0.0359655 0.355367 0.649577
0.0393683 0.311681 0.609949
0.201495 0.332433 0.611154
0.585397 0.338216 0.588846
0.80853 0.286336 0.50782
0.843687 0.183505 0.370031
0.852216 0.089601 0.244923
0.858381 0.03682 0.162493
0.0991226 0.672801 0.674144
0.0846418 0.644175 0.660304
0.072755 0.612833 0.640711
0.206363 0.614267 0.629587
0.598947 0.621225 0.592554
0.865538 0.56434 0.47332
0.938277 0.464866 0.323323
0.933242 0.332082 0.182025
0.916869 0.222492 0.113024
0.22092 0.838849 0.625284
0.210132 0.821332 0.618082
0.199008 0.803967 0.607263
0.226841 0.785687 0.581521
0.548898 0.78323 0.551141
0.796078 0.758938 0.454292
0.958282 0.711788 0.2981
0.958648 0.642161 0.204196
0.954253 0.575204 0.140902
0.265965 0.906569 0.547509
0.26569 0.906218 0.552636
0.265232 0.905501 0.5505
0.266529 0.903639 0.521355
0.468071 0.898497 0.468681
0.713649 0.886748 0.425345
0.890669 0.85771 0.308354
0.971496 0.827893 0.251392
0.96875 0.7944 0.217487
0.275578 0.904936 0.44126
0.274876 0.905074 0.452033
0.276188 0.904738 0.449042
0.281956 0.903426 0.415732
0.33051 0.901442 0.365225
0.613504 0.897368 0.313588
0.798733 0.893294 0.279316
0.940826 0.891051 0.246891
0.976272 0.890196 0.246326
0.293629 0.900649 0.354849
0.292241 0.900999 0.359335
0.294118 0.900526 0.353262
0.301671 0.89868 0.325551
0.312551 0.895994 0.288365
0.471977 0.893645 0.259113
0.692653 0.891371 0.238102
0.867887 0.88986 0.236622
0.969177 0.891157 0.245594
0.0151675 0.0328832 0.728985
0.0174868 0.0329595 0.729229
0.110918 0.036347 0.744381
0.447272 0.0566262 0.798001
0.708904 0.0784619 0.801633
0.775982 0.0825818 0.731655
0.772686 0.0791943 0.657176
0.769985 0.0759747 0.587045
0.767514 0.0732586 0.522805
0.0160678 0.0418555 0.732692
0.0154726 0.0358587 0.73019
0.051133 0.0347143 0.733898
0.294774 0.0468299 0.772351
0.631556 0.0699168 0.781247
0.774197 0.082002 0.724239
0.772396 0.0788891 0.651392
0.769848 0.0756085 0.579248
0.76701 0.0719615 0.49659
0.0249943 0.143786 0.773373
0.0235294 0.126268 0.766033
0.0324407 0.109087 0.759487
0.187381 0.0970169 0.770169
0.560311 0.105592 0.772625
0.767315 0.108125 0.719966
0.775708 0.0920119 0.639933
0.769818 0.0769665 0.559014
0.767987 0.0705272 0.475059
0.0478523 0.417502 0.870207
0.0443732 0.379477 0.852781
0.0414893 0.340352 0.828717
0.14992 0.339742 0.825711
0.545037 0.35256 0.823575
0.787076 0.328618 0.768444
0.823941 0.271305 0.688411
0.802152 0.192142 0.582589
0.785672 0.121401 0.471
0.107073 0.678843 0.884825
0.0932784 0.654459 0.876631
0.0813764 0.628046 0.864332
0.175616 0.618616 0.85156
0.546242 0.628565 0.839887
0.794507 0.604166 0.79173
0.8851 0.555947 0.727306
0.873411 0.467735 0.641199
0.861906 0.349065 0.524804
0.220325 0.837644 0.833738
0.209262 0.821103 0.826688
0.197543 0.804211 0.820035
0.214237 0.783322 0.806317
0.518685 0.782574 0.798032
0.772351 0.768551 0.759701
0.936126 0.731655 0.688106
0.943252 0.67541 0.586313
0.948119 0.605081 0.444831
0.25919 0.908583 0.772824
0.259144 0.90811 0.77113
0.258732 0.907301 0.770184
0.257206 0.90367 0.75993
0.447669 0.898482 0.749966
0.715282 0.889143 0.72929
0.895888 0.869032 0.663417
0.965133 0.834699 0.530678
0.965393 0.781125 0.409384
0.261265 0.908034 0.696956
0.261097 0.90808 0.700069
0.261021 0.90811 0.703166
0.261341 0.908003 0.694316
0.3131 0.910399 0.679957
0.615808 0.918532 0.65626
0.811475 0.914656 0.619074
0.956008 0.907942 0.504509
0.977172 0.900786 0.4103
0.262882 0.907301 0.629984
0.262715 0.907439 0.636225
0.262577 0.907485 0.639902
0.262837 0.907408 0.629816
0.264622 0.907271 0.606531
0.472099 0.913405 0.569162
0.731456 0.909941 0.521843
0.889708 0.905257 0.456962
0.975311 0.896574 0.31841
0.0151675 0.0328832 0.728985
0.0153201 0.0328832 0.729
0.0702983 0.0345922 0.736782
0.370565 0.0517891 0.787884
0.708202 0.0803693 0.840543
0.781826 0.088838 0.852049
0.780972 0.0879377 0.835554
0.778653 0.0852827 0.785351
0.775738 0.0822919 0.726223
0.0157321 0.0386816 0.731319
0.0153658 0.0349432 0.729793
0.030869 0.0335699 0.7308
0.208347 0.041825 0.762417
0.609522 0.0700084 0.82472
0.779583 0.0885176 0.851057
0.780972 0.0879072 0.834592
0.778561 0.0852064 0.784726
0.775631 0.0820478 0.722805
0.0242618 0.134905 0.76994
0.0231174 0.12105 0.764584
0.0230411 0.107347 0.759396
0.119417 0.0888533 0.76582
0.508263 0.0962692 0.819898
0.767132 0.104891 0.853773
0.78323 0.0964828 0.829984
0.778881 0.087953 0.771481
0.774777 0.0813153 0.705333
0.0467994 0.402487 0.871458
0.0440986 0.370336 0.860471
0.041825 0.342901 0.850828
0.100542 0.321874 0.852399
0.463584 0.343633 0.89305
0.774945 0.321767 0.907973
0.832227 0.286534 0.873503
0.818448 0.235615 0.800946
0.79913 0.168627 0.717174
0.107439 0.676555 0.939086
0.0953536 0.654688 0.935225
0.0851148 0.632136 0.930968
0.130175 0.615381 0.932204
0.471733 0.629496 0.947158
0.766613 0.604089 0.944015
0.884947 0.571694 0.904265
0.875303 0.521508 0.841321
0.858579 0.435492 0.774166
0.230472 0.837491 0.957473
0.2215 0.82324 0.955444
0.21239 0.809369 0.954055
0.215763 0.789944 0.951507
0.486625 0.785504 0.952804
0.749187 0.770993 0.940108
0.907759 0.746807 0.900679
0.912673 0.709072 0.842512
0.90573 0.656001 0.782162
0.268605 0.911009 0.935286
0.268086 0.91046 0.933425
0.267659 0.909712 0.932921
0.263615 0.902876 0.925628
0.433158 0.896483 0.918791
0.708309 0.88751 0.907271
0.89247 0.870176 0.873289
0.941573 0.838254 0.815335
0.942428 0.795758 0.740658
0.262577 0.910491 0.873487
0.262562 0.910475 0.87216
0.262501 0.910445 0.871458
0.261967 0.910338 0.8645
0.311101 0.912535 0.858122
0.621576 0.922576 0.856016
0.831815 0.925383 0.840558
0.953674 0.921248 0.79028
0.965606 0.911406 0.699565
0.259953 0.909575 0.816434
0.26006 0.90959 0.816281
0.260044 0.909621 0.818097
0.259754 0.909545 0.813718
0.260563 0.909483 0.805402
0.486549 0.918151 0.800275
0.749569 0.923232 0.782528
0.902068 0.920501 0.753933
0.969055 0.916487 0.667216
0.0151675 0.0328832 0.728985
0.0151675 0.0328832 0.728985
0.0418402 0.0335393 0.732082
0.255421 0.0446479 0.77026
0.668681 0.0760967 0.834348
0.781857 0.0888533 0.85243
0.781857 0.0888533 0.85243
0.781857 0.0888533 0.85243
0.781826 0.0888228 0.851896
0.0156252 0.0375372 0.730877
0.0152743 0.0340887 0.729473
0.0211032 0.0330816 0.729595
0.13286 0.0374914 0.748791
0.53817 0.0635691 0.812955
0.777798 0.088365 0.851698
0.781857 0.0888533 0.85243
0.781857 0.0888533 0.85243
0.781735 0.0887312 0.850172
0.0236057 0.127138 0.766918
0.0227054 0.115908 0.762661
0.0218357 0.10486 0.758404
0.0764172 0.0853132 0.75758
0.402808 0.0845655 0.803372
0.747295 0.0948348 0.849485
0.782834 0.0921798 0.853422
0.78204 0.0894484 0.852613
0.781552 0.0885481 0.846571
0.0454414 0.386007 0.866239
0.0430152 0.357671 0.856275
0.0413977 0.338857 0.8495
0.0628672 0.30428 0.840314
0.326497 0.323095 0.877043
0.730373 0.298711 0.901564
0.827893 0.259922 0.901259
0.821271 0.231495 0.89398
0.812146 0.196719 0.874327
0.1019 0.669627 0.937972
0.0910201 0.64802 0.934005
0.0823835 0.628946 0.930404
0.0892805 0.603632 0.926787
0.345876 0.619364 0.942351
0.714488 0.59826 0.949218
0.882704 0.558312 0.949783
0.877348 0.523186 0.945327
0.8692 0.478019 0.923445
0.229038 0.834623 0.959655
0.220951 0.821942 0.958114
0.212696 0.809247 0.956542
0.202823 0.789532 0.954055
0.423804 0.784634 0.960342
0.708644 0.771374 0.967742
0.897337 0.744808 0.967376
0.91075 0.717449 0.961715
0.90483 0.68423 0.933974
0.273121 0.911635 0.96759
0.272831 0.911131 0.967529
0.271839 0.909239 0.9673
0.26891 0.903685 0.966705
0.411673 0.899443 0.969894
0.685283 0.888548 0.975616
0.877699 0.870604 0.979538
0.930648 0.847593 0.969223
0.926467 0.816693 0.93022
0.273304 0.912016 0.967498
0.27332 0.912016 0.96762
0.27332 0.912016 0.967605
0.273121 0.911986 0.966201
0.309117 0.913664 0.965652
0.614679 0.923186 0.971084
0.838209 0.929152 0.971664
0.948943 0.927275 0.955352
0.950469 0.914748 0.908232
0.271382 0.911772 0.95462
0.271122 0.911727 0.952758
0.270985 0.911711 0.951827
0.270359 0.911635 0.947326
0.270512 0.911589 0.941482
0.490379 0.919219 0.940764
0.761044 0.927794 0.938155
0.924666 0.927749 0.925994
0.95552 0.926162 0.884489
0.0151675 0.0328832 0.728985
0.0151675 0.0328832 0.728985
0.0277867 0.0332799 0.730327
0.160357 0.0390173 0.753841
0.587228 0.0679789 0.820935
0.781857 0.0888533 0.85243
0.781857 0.0888533 0.85243
0.781857 0.0888533 0.85243
0.781857 0.0888533 0.85243
0.0155489 0.0367285 0.730541
0.0153353 0.0345922 0.729656
0.0174411 0.0333867 0.729381
0.0878614 0.0352941 0.739956
0.425544 0.0551919 0.795621
0.765881 0.0869459 0.849729
0.781857 0.0888533 0.85243
0.781857 0.0888533 0.85243
0.781857 0.0888533 0.85243
0.0233616 0.124086 0.765835
0.0225376 0.113954 0.761929
0.0217441 0.104265 0.75816
0.0506142 0.0845808 0.75378
0.274144 0.0766461 0.784848
0.693004 0.086717 0.840543
0.782086 0.0896468 0.852659
0.781857 0.0888533 0.85243
0.781857 0.0888533 0.85243
0.0444495 0.375631 0.862913
0.0423133 0.350805 0.854093
0.0411231 0.336416 0.848814
0.0442206 0.299214 0.835828
0.193256 0.303136 0.858564
0.651652 0.289342 0.892851
0.821942 0.234257 0.89485
0.812207 0.194858 0.884199
0.80795 0.178653 0.879591
0.0962692 0.663844 0.936996
0.0867933 0.642832 0.93312
0.0812238 0.627802 0.930266
0.0742809 0.601892 0.925185
0.2112 0.605814 0.935653
0.634745 0.599344 0.947951
0.872114 0.5449 0.947951
0.871962 0.492561 0.942046
0.867628 0.467308 0.938659
0.228244 0.833219 0.959533
0.220615 0.820996 0.958083
0.213016 0.809232 0.956512
0.200458 0.790402 0.953872
0.339712 0.782025 0.957824
0.641047 0.772625 0.966339
0.869322 0.74197 0.966415
0.909178 0.708309 0.964279
0.905821 0.688762 0.962371
0.273075 0.911559 0.967559
0.272755 0.910948 0.967483
0.272343 0.910185 0.967391
0.271397 0.908415 0.967254
0.376928 0.902174 0.969406
0.646769 0.89134 0.974624
0.84651 0.871763 0.979492
0.930205 0.846647 0.980484
0.926833 0.82652 0.97789
0.27332 0.912016 0.96762
0.27332 0.912016 0.96762
0.27332 0.912016 0.96762
0.27332 0.912016 0.96762
0.298451 0.913207 0.968536
0.596902 0.922591 0.976501
0.821286 0.928985 0.983124
0.946944 0.92845 0.988312
0.947921 0.921111 0.987945
0.27332 0.912016 0.96762
0.27332 0.912016 0.96762
0.27332 0.912016 0.96762
0.27332 0.912016 0.96762
0.273793 0.912047 0.967636
0.476005 0.919142 0.973449
0.757839 0.928115 0.981399
0.932235 0.930312 0.987427
0.950729 0.930465 0.987503
