LUT预设1/iPhone专用lut合集3/iPhone合集3标准版（log）/FAKE理光负片（暖）.cube
TITLE "Generated by Resolve"
LUT_3D_SIZE 33
0.00428778 0.0267491 0.0616312
0.00956741 0.0268559 0.0617227
0.0204013 0.0269627 0.0618601
0.041474 0.0269474 0.0619669
0.0842298 0.0263218 0.0617533
0.151888 0.0247044 0.0611582
0.232914 0.0226749 0.0602579
0.317998 0.0212863 0.059144
0.402533 0.0207065 0.0584726
0.483574 0.0205386 0.0585336
0.55729 0.0205081 0.0590066
0.624964 0.0205081 0.0597238
0.687236 0.0205386 0.0607919
0.745708 0.0205844 0.0623026
0.79884 0.0206455 0.0641031
0.837598 0.020737 0.0656748
0.855009 0.020798 0.066453
0.858045 0.0208133 0.0665904
0.858076 0.0208133 0.0665904
0.858076 0.0208133 0.0665904
0.858076 0.0208133 0.0665904
0.858076 0.0208133 0.0665904
0.858076 0.0208133 0.0665904
0.858076 0.0208133 0.0665904
0.858076 0.0208133 0.0665904
0.858076 0.0208133 0.0665904
0.858076 0.0208133 0.0665904
0.858076 0.0208133 0.0665904
0.858076 0.0208133 0.0665904
0.858076 0.0208133 0.0665904
0.858076 0.0208133 0.0665904
0.858076 0.0208133 0.0665904
0.858076 0.0208133 0.0665904
0.00418097 0.0267491 0.0615854
0.00546273 0.0267643 0.0616007
0.0114443 0.0268559 0.0617227
0.0246891 0.026978 0.0618906
0.0533608 0.0268101 0.0619364
0.10724 0.0258183 0.0615702
0.182132 0.0239261 0.0608377
0.26598 0.0220645 0.0598154
0.350042 0.0209964 0.058854
0.431998 0.0206149 0.0584573
0.508156 0.0205234 0.0586709
0.578607 0.0205386 0.0592355
0.643809 0.0205539 0.0600595
0.704982 0.0205539 0.0611887
0.763287 0.0205692 0.0628214
0.815503 0.020676 0.0647746
0.84799 0.0207828 0.0661479
0.857588 0.0208133 0.0665599
0.858061 0.0208133 0.0665904
0.858076 0.0208133 0.0665904
0.858076 0.0208133 0.0665904
0.858076 0.0208133 0.0665904
0.858076 0.0208133 0.0665904
0.858076 0.0208133 0.0665904
0.858076 0.0208133 0.0665904
0.858076 0.0208133 0.0665904
0.858076 0.0208133 0.0665904
0.858076 0.0208133 0.0665904
0.858076 0.0208133 0.0665904
0.858076 0.0208133 0.0665904
0.858076 0.0208133 0.0665904
0.858076 0.0208133 0.0665904
0.858076 0.0208133 0.0665904
0.00421149 0.0272984 0.0616159
0.0043183 0.0268101 0.0615854
0.00598154 0.026978 0.0616312
0.0144961 0.0269322 0.0617838
0.030808 0.026978 0.0619516
0.0702525 0.0265507 0.0618601
0.1355 0.0251316 0.061326
0.215839 0.0231174 0.0604562
0.299596 0.0215305 0.0594034
0.383185 0.0207828 0.0586099
0.464042 0.0205692 0.0584878
0.538796 0.0205234 0.0588693
0.608026 0.0205081 0.0595102
0.67248 0.0205081 0.0604562
0.733364 0.0205234 0.0618906
0.790753 0.0205997 0.0637827
0.833783 0.0207065 0.0654917
0.853697 0.0207828 0.0663767
0.85774 0.0208133 0.0665751
0.858076 0.0208133 0.0665904
0.858076 0.0208133 0.0665904
0.858076 0.0208133 0.0665904
0.858076 0.0208133 0.0665904
0.858076 0.0208133 0.0665904
0.858076 0.0208133 0.0665904
0.858076 0.0208133 0.0665904
0.858076 0.0208133 0.0665904
0.858076 0.0208133 0.0665904
0.858076 0.0208133 0.0665904
0.858076 0.0208133 0.0665904
0.858076 0.0208133 0.0665904
0.858076 0.0208133 0.0665904
0.858076 0.0208133 0.0665904
0.00485237 0.03299 0.0619974
0.00460822 0.0308385 0.0618296
0.00486763 0.0301518 0.061799
0.0077821 0.0297398 0.0618448
0.0201114 0.0282444 0.0619516
0.0425422 0.0275425 0.0619974
0.0919966 0.0265354 0.061738
0.170886 0.0243229 0.0609293
0.259876 0.0221408 0.0599069
0.348028 0.0209812 0.0588846
0.432853 0.0206149 0.0584421
0.512489 0.0205081 0.0586862
0.584817 0.0204776 0.0592355
0.651377 0.0204929 0.06009
0.714015 0.0205234 0.061387
0.773098 0.0205692 0.0631571
0.821714 0.0206455 0.0649729
0.848966 0.0207523 0.0661326
0.857084 0.0208133 0.0665293
0.858076 0.0208133 0.0665904
0.858076 0.0208133 0.0665904
0.858076 0.0208133 0.0665904
0.858076 0.0208133 0.0665904
0.858076 0.0208133 0.0665904
0.858076 0.0208133 0.0665904
0.858076 0.0208133 0.0665904
0.858076 0.0208133 0.0665904
0.858076 0.0208133 0.0665904
0.858076 0.0208133 0.0665904
0.858076 0.0208133 0.0665904
0.858076 0.0208133 0.0665904
0.858076 0.0208133 0.0665904
0.858076 0.0208133 0.0665904
0.00584421 0.0417639 0.0625925
0.00541695 0.0376287 0.0623484
0.0052491 0.0359197 0.0621958
0.00584421 0.0361639 0.0622263
0.011902 0.035584 0.0623331
0.0283055 0.0330968 0.0623636
0.0663615 0.0309758 0.06215
0.126116 0.0288243 0.0615091
0.213779 0.0252537 0.0606088
0.309804 0.0225071 0.0593423
0.401541 0.0212558 0.0585641
0.487312 0.0206912 0.0585641
0.564019 0.0205081 0.0590372
0.633265 0.0205234 0.0598459
0.697704 0.0205539 0.0610361
0.757885 0.0205844 0.0626841
0.810208 0.0206455 0.0645151
0.843656 0.0207218 0.0658885
0.856077 0.020798 0.0664836
0.858076 0.0208133 0.0665904
0.858076 0.0208133 0.0665904
0.858076 0.0208133 0.0665904
0.858076 0.0208133 0.0665904
0.858076 0.0208133 0.0665904
0.858076 0.0208133 0.0665904
0.858076 0.0208133 0.0665904
0.858076 0.0208133 0.0665904
0.858076 0.0208133 0.0665904
0.858076 0.0208133 0.0665904
0.858076 0.0208133 0.0665904
0.858076 0.0208133 0.0665904
0.858076 0.0208133 0.0665904
0.858076 0.0208133 0.0665904
0.00701915 0.0550546 0.0632334
0.0065919 0.0501259 0.0630045
0.00633249 0.0471504 0.0628519
0.00633249 0.0460975 0.0628214
0.00860609 0.0471656 0.0629129
0.0171206 0.0463569 0.0629435
0.043061 0.0425574 0.0626841
0.0940871 0.038529 0.0620737
0.166659 0.03505 0.0613413
0.251942 0.0312505 0.0602731
0.348486 0.0272984 0.0591897
0.445335 0.0242618 0.0587472
0.531807 0.0226291 0.0589761
0.607004 0.0218357 0.0596323
0.675364 0.0212711 0.0606699
0.738506 0.0208438 0.0621347
0.794965 0.020676 0.0639811
0.835782 0.0207218 0.0655985
0.854276 0.020798 0.0664073
0.858076 0.0208133 0.0665904
0.858076 0.0208133 0.0665904
0.858076 0.0208133 0.0665904
0.858076 0.0208133 0.0665904
0.858076 0.0208133 0.0665904
0.858076 0.0208133 0.0665904
0.858076 0.0208133 0.0665904
0.858076 0.0208133 0.0665904
0.858076 0.0208133 0.0665904
0.858076 0.0208133 0.0665904
0.858076 0.0208133 0.0665904
0.858076 0.0208133 0.0665904
0.858076 0.0208133 0.0665904
0.858076 0.0208133 0.0665904
0.00849927 0.0743877 0.0639658
0.00808728 0.0688487 0.0637522
0.00784314 0.0656443 0.0636454
0.00776684 0.0644694 0.0635996
0.00834669 0.0638437 0.0635843
0.0115663 0.0640879 0.0636149
0.024094 0.0625925 0.0634928
0.0614786 0.0578775 0.0629129
0.128939 0.0513771 0.0619059
0.211566 0.0453651 0.0608377
0.298497 0.04065 0.0599222
0.391379 0.0361639 0.0594492
0.485176 0.0320439 0.0594949
0.57023 0.0285801 0.0598764
0.644984 0.025864 0.0605478
0.712779 0.024033 0.0617075
0.774075 0.0229801 0.0634775
0.824186 0.0222782 0.0653239
0.85153 0.0216678 0.0664225
0.858167 0.0211643 0.0666514
0.858106 0.0208896 0.0666056
0.858076 0.0208133 0.0665904
0.858076 0.0208133 0.0665904
0.858076 0.0208133 0.0665904
0.858076 0.0208133 0.0665904
0.858076 0.0208133 0.0665904
0.858076 0.0208133 0.0665904
0.858076 0.0208133 0.0665904
0.858076 0.0208133 0.0665904
0.858076 0.0208133 0.0665904
0.858076 0.0208133 0.0665904
0.858076 0.0208133 0.0665904
0.858076 0.0208133 0.0665904
0.0103151 0.100496 0.0650797
0.0099031 0.0942245 0.0648051
0.00967422 0.0909743 0.0646677
0.00959792 0.0899977 0.0646372
0.00961318 0.088304 0.0645609
0.0104524 0.0875868 0.0645151
0.0150149 0.0862287 0.0644388
0.0336461 0.0847639 0.0642405
0.0847028 0.0794385 0.0633555
0.172915 0.0696117 0.0615549
0.265095 0.0614633 0.0604105
0.355261 0.0556191 0.060029
0.442344 0.051133 0.0601511
0.528359 0.0462806 0.0605173
0.609567 0.0404669 0.0610361
0.682841 0.0349432 0.0619516
0.748867 0.0307012 0.0634623
0.807538 0.0279393 0.0654307
0.845899 0.0260166 0.066865
0.858488 0.0244602 0.0672313
0.859144 0.0232853 0.0670481
0.858686 0.0224308 0.066865
0.858381 0.0217594 0.066743
0.858198 0.02121 0.0666514
0.858106 0.0209049 0.0666056
0.858076 0.0208133 0.0665904
0.858076 0.0208133 0.0665904
0.858076 0.0208133 0.0665904
0.858076 0.0208133 0.0665904
0.858076 0.0208133 0.0665904
0.858076 0.0208133 0.0665904
0.858076 0.0208133 0.0665904
0.858076 0.0208133 0.0665904
0.0126192 0.135027 0.0671702
0.0121309 0.127672 0.0666819
0.0118715 0.12401 0.066453
0.0117952 0.123049 0.0664073
0.0118257 0.123095 0.0664378
0.0118257 0.121141 0.0663005
0.0132448 0.11725 0.066041
0.0209659 0.114855 0.0659037
0.0485695 0.114061 0.0656443
0.117189 0.109209 0.0643931
0.226291 0.0969711 0.0618143
0.329122 0.0858167 0.0605478
0.419806 0.0785992 0.0605478
0.502419 0.0741588 0.0610056
0.579843 0.0691539 0.0616159
0.653376 0.0617075 0.062562
0.72256 0.0529335 0.0640879
0.786282 0.0447547 0.0661021
0.83473 0.0380255 0.0678721
0.858366 0.0333867 0.0685893
0.862959 0.0302892 0.0683604
0.861723 0.0278935 0.0679179
0.860639 0.0260166 0.0675822
0.8598 0.0244297 0.0672923
0.859129 0.0231937 0.0670481
0.858671 0.0223392 0.0668498
0.858381 0.0217136 0.066743
0.858198 0.02121 0.0666514
0.858106 0.0209049 0.0666056
0.858076 0.0208133 0.0665904
0.858076 0.0208133 0.0665904
0.858076 0.0208133 0.0665904
0.858076 0.0208133 0.0665904
0.0163577 0.18027 0.0711376
0.01561 0.171664 0.0703136
0.0152132 0.167056 0.0699016
0.0151522 0.166186 0.0698405
0.0153048 0.167758 0.0700236
0.0153048 0.167391 0.0700236
0.0154421 0.16321 0.0696574
0.0186923 0.155154 0.068925
0.0315709 0.153277 0.0687572
0.0709087 0.154818 0.0687114
0.16405 0.152041 0.067277
0.289967 0.139315 0.0641184
0.402991 0.124102 0.0618448
0.493858 0.114855 0.0614023
0.57055 0.109377 0.0618601
0.638758 0.10367 0.0628061
0.703731 0.0950942 0.0644236
0.766094 0.0833906 0.0666819
0.820981 0.0710307 0.0690166
0.857725 0.0597543 0.0705577
0.870344 0.0501869 0.0707408
0.869505 0.0428321 0.0701305
0.867018 0.0375067 0.0694743
0.864912 0.033341 0.0688945
0.863096 0.0301518 0.0683452
0.861601 0.0276646 0.0678569
0.860456 0.0256962 0.0675059
0.859648 0.0241093 0.067216
0.859037 0.0229038 0.0669871
0.858625 0.0221408 0.0668345
0.858381 0.0216526 0.0667277
0.858244 0.0213016 0.0666667
0.858152 0.0210422 0.0666361
0.0235599 0.239109 0.0786603
0.0222324 0.228962 0.0772717
0.0215152 0.223362 0.0765393
0.0213626 0.222065 0.0764019
0.0216831 0.224262 0.0767224
0.0220798 0.226825 0.0771191
0.0218662 0.224613 0.0768444
0.0224918 0.215885 0.0757763
0.0282597 0.206622 0.0746014
0.0493629 0.205447 0.0746166
0.107134 0.211734 0.0753643
0.223316 0.212741 0.0744182
0.366476 0.20119 0.0704356
0.485573 0.182971 0.0656138
0.574243 0.169146 0.0633249
0.643793 0.160143 0.0631418
0.703532 0.152483 0.06421
0.759045 0.143236 0.0661479
0.812039 0.130694 0.0686809
0.855909 0.115572 0.0712902
0.878859 0.0989548 0.0728466
0.882216 0.0828717 0.0729381
0.878813 0.0691997 0.072343
0.875166 0.057969 0.0715953
0.871977 0.0494392 0.0707713
0.869108 0.0425269 0.0700084
0.866575 0.0370336 0.069337
0.864546 0.0328832 0.0687877
0.862821 0.0296941 0.0682689
0.861418 0.0273594 0.0678111
0.860365 0.0256046 0.0674601
0.859617 0.0241855 0.0672007
0.859098 0.0230716 0.0670024
0.0361486 0.312505 0.0911116
0.0340429 0.301305 0.0891127
0.0328527 0.294804 0.0879683
0.0325475 0.29308 0.0876936
0.0330205 0.295628 0.0881819
0.0337072 0.29929 0.088838
0.0339666 0.300557 0.0890974
0.033875 0.297505 0.0886397
0.0342565 0.282795 0.086183
0.0456703 0.273075 0.0848707
0.0820935 0.273854 0.0852979
0.159899 0.285557 0.0875715
0.294987 0.292317 0.0876478
0.448417 0.281437 0.0818494
0.56788 0.261234 0.0739605
0.652003 0.242237 0.0687572
0.715496 0.22858 0.0665904
0.768048 0.218418 0.066392
0.815213 0.208743 0.0675822
0.857832 0.196277 0.06981
0.888212 0.178439 0.0721599
0.899245 0.157183 0.0735485
0.897002 0.134813 0.0739605
0.891524 0.113832 0.0738994
0.886473 0.0957046 0.073579
0.88191 0.0800641 0.0729992
0.877974 0.0673228 0.0721904
0.874434 0.0567178 0.071397
0.871351 0.0484474 0.0706188
0.868589 0.0419318 0.0698711
0.866285 0.0369116 0.0692302
0.864469 0.0331579 0.0687266
0.86305 0.0303197 0.0683299
0.056733 0.397681 0.108766
0.0535286 0.385687 0.106172
0.0518502 0.379034 0.104768
0.0513771 0.377005 0.104356
0.0521096 0.379339 0.104906
0.0532387 0.383413 0.105806
0.0542763 0.387076 0.106615
0.0548257 0.389044 0.107057
0.0527962 0.378332 0.104906
0.0558175 0.362814 0.101946
0.0810254 0.353475 0.100404
0.133333 0.356237 0.101305
0.223316 0.370916 0.105211
0.370291 0.379843 0.105577
0.52549 0.37052 0.0986801
0.640604 0.35021 0.0885023
0.718914 0.328222 0.0797894
0.777508 0.310704 0.0741894
0.825299 0.298146 0.0713207
0.865812 0.286992 0.0705882
0.898375 0.273823 0.0712902
0.91664 0.255421 0.0722057
0.918914 0.231846 0.072755
0.913527 0.20531 0.073228
0.907256 0.177798 0.0737774
0.901228 0.152361 0.0741131
0.895506 0.129442 0.0741283
0.890089 0.109071 0.0738842
0.885359 0.092134 0.0733501
0.881209 0.0780652 0.072694
0.877562 0.0664073 0.0720073
0.874479 0.0571603 0.0713512
0.871885 0.0498817 0.0707561
0.0877089 0.485084 0.129442
0.0833295 0.473594 0.12665
0.0810712 0.467384 0.12517
0.0802625 0.464881 0.12459
0.0814221 0.467475 0.125246
0.0828717 0.470909 0.126101
0.0844129 0.4748 0.127047
0.0855879 0.478019 0.12784
0.0847944 0.476188 0.127413
0.0819104 0.463737 0.124514
0.0938277 0.449653 0.121492
0.131746 0.439933 0.119585
0.195254 0.442435 0.120592
0.295659 0.455634 0.124392
0.443793 0.464271 0.125887
0.590539 0.456458 0.119524
0.69836 0.436759 0.10782
0.771634 0.414633 0.0958877
0.826459 0.395285 0.0867323
0.870314 0.380636 0.0810559
0.904738 0.369039 0.0778515
0.927398 0.35639 0.0758831
0.9355 0.338567 0.0744182
0.933791 0.315328 0.0734569
0.929335 0.287221 0.0728923
0.92401 0.25684 0.0727398
0.91812 0.226154 0.0730144
0.911971 0.19649 0.0734112
0.906096 0.170474 0.0736858
0.900221 0.147173 0.0739452
0.894926 0.126848 0.07393
0.890166 0.108965 0.0736858
0.886046 0.0937819 0.0733043
0.125902 0.564538 0.149279
0.120928 0.554635 0.146792
0.118074 0.548898 0.145342
0.11722 0.547112 0.144884
0.118303 0.549142 0.145403
0.119661 0.551766 0.146059
0.121202 0.554879 0.146822
0.122606 0.557931 0.147585
0.123629 0.560433 0.148196
0.12134 0.556069 0.147082
0.122118 0.545373 0.144503
0.142306 0.53109 0.141207
0.191836 0.521477 0.139101
0.267048 0.524468 0.140047
0.370184 0.532601 0.14258
0.508522 0.536995 0.144366
0.643534 0.52845 0.139025
0.743496 0.510826 0.127565
0.812406 0.490745 0.11458
0.863157 0.472511 0.103807
0.902602 0.457557 0.0960555
0.929351 0.44509 0.0906081
0.942061 0.433356 0.0867781
0.944381 0.418677 0.0837415
0.942794 0.398993 0.080766
0.940612 0.373968 0.0777142
0.937728 0.344091 0.0751507
0.934127 0.312535 0.0734569
0.929259 0.280522 0.0725719
0.923323 0.249607 0.0723735
0.91751 0.221546 0.0724956
0.911574 0.194934 0.0730755
0.906294 0.172244 0.0735485
0.16347 0.631785 0.16585
0.158709 0.623453 0.163775
0.156085 0.618814 0.162615
0.155337 0.617441 0.162264
0.156329 0.619074 0.162661
0.157549 0.621164 0.16318
0.158862 0.623453 0.163729
0.160464 0.626307 0.164431
0.162005 0.62916 0.165133
0.162356 0.629969 0.165331
0.160082 0.624918 0.164096
0.162997 0.61445 0.161563
0.196094 0.601343 0.158465
0.258015 0.5944 0.156832
0.339162 0.593164 0.156176
0.438651 0.594614 0.156802
0.563272 0.594491 0.158373
0.685115 0.587457 0.155184
0.779431 0.57229 0.145571
0.844388 0.554894 0.133883
0.891905 0.538262 0.123156
0.925765 0.52401 0.114687
0.944213 0.511788 0.108522
0.949447 0.501259 0.104417
0.94905 0.49044 0.101015
0.948211 0.475975 0.0968643
0.947021 0.456718 0.0920424
0.945434 0.432578 0.0867781
0.943374 0.404135 0.081529
0.94081 0.372473 0.0769513
0.937697 0.340459 0.07364
0.933577 0.309773 0.0722972
0.929046 0.281132 0.0718547
0.197681 0.687999 0.179202
0.193622 0.681361 0.177615
0.191333 0.677638 0.176715
0.190692 0.676585 0.176455
0.19144 0.677791 0.176745
0.192493 0.679515 0.177157
0.193683 0.681468 0.1776
0.194949 0.683543 0.178088
0.196414 0.686015 0.178668
0.197589 0.687938 0.179126
0.196994 0.686946 0.178912
0.194202 0.682353 0.177844
0.205798 0.672633 0.175601
0.251987 0.661173 0.172778
0.323644 0.651957 0.169909
0.406302 0.646876 0.16817
0.498604 0.644907 0.168185
0.607095 0.64303 0.169635
0.719676 0.636683 0.168521
0.810193 0.623957 0.161639
0.872663 0.60885 0.151843
0.916091 0.594522 0.142443
0.942504 0.581262 0.134676
0.95227 0.569421 0.129
0.953109 0.559243 0.124895
0.95259 0.550378 0.121523
0.951965 0.540246 0.117815
0.951141 0.526604 0.112963
0.950088 0.508522 0.106844
0.94876 0.485512 0.0996109
0.94728 0.460029 0.0922408
0.945602 0.432853 0.0854353
0.943587 0.404379 0.0800183
0.227619 0.735729 0.190585
0.224125 0.73019 0.189242
0.222324 0.727321 0.188556
0.221714 0.72636 0.188327
0.222507 0.727596 0.188617
0.223499 0.729183 0.189014
0.224445 0.730694 0.189364
0.225406 0.732219 0.189731
0.226474 0.733974 0.190127
0.227726 0.735927 0.1906
0.228229 0.736675 0.190829
0.22742 0.735332 0.190524
0.227466 0.730877 0.189471
0.250217 0.720745 0.186847
0.308659 0.709392 0.183627
0.385321 0.69894 0.180285
0.465354 0.692088 0.178225
0.549523 0.688609 0.178058
0.646601 0.685496 0.179294
0.750164 0.679774 0.180194
0.836591 0.669184 0.176104
0.89662 0.656107 0.168353
0.934783 0.642954 0.160327
0.952834 0.630152 0.153597
0.956695 0.61857 0.148486
0.95613 0.608759 0.144488
0.955627 0.600717 0.141222
0.955154 0.593149 0.138186
0.954574 0.583474 0.13434
0.953796 0.570626 0.12932
0.95285 0.554543 0.123125
0.95172 0.535561 0.116075
0.950454 0.514153 0.108431
0.255116 0.777966 0.201465
0.252003 0.77322 0.200214
0.250278 0.770596 0.199527
0.249836 0.769894 0.199344
0.250523 0.770962 0.199619
0.251286 0.772122 0.199924
0.252171 0.77351 0.20029
0.252934 0.774716 0.20058
0.253956 0.776318 0.200961
0.255055 0.777966 0.201404
0.255833 0.779065 0.201724
0.256153 0.779492 0.201877
0.255573 0.778546 0.201633
0.259968 0.772091 0.199832
0.295293 0.762539 0.196826
0.364828 0.75111 0.192966
0.44303 0.739895 0.189288
0.519997 0.732082 0.18732
0.595178 0.727596 0.18703
0.680613 0.723857 0.188174
0.776394 0.718837 0.190448
0.859022 0.709865 0.188952
0.917372 0.697704 0.182971
0.949508 0.685313 0.176364
0.959487 0.67335 0.170916
0.959594 0.66215 0.166339
0.958968 0.652613 0.162448
0.958434 0.644785 0.159243
0.958007 0.638178 0.156542
0.957549 0.631281 0.153704
0.957 0.622599 0.150134
0.956283 0.611139 0.145449
0.955398 0.596948 0.139696
0.28069 0.816052 0.212055
0.277806 0.811749 0.210849
0.276402 0.809659 0.210254
0.276097 0.809186 0.210117
0.276631 0.809979 0.210346
0.277241 0.81088 0.21059
0.277897 0.811856 0.210864
0.27866 0.812985 0.211154
0.279591 0.814389 0.211521
0.280507 0.815732 0.211887
0.281392 0.817014 0.212284
0.282109 0.818082 0.212589
0.28249 0.818647 0.212757
0.281254 0.815839 0.211963
0.287877 0.809354 0.209903
0.338094 0.800198 0.206043
0.416831 0.78819 0.201251
0.496605 0.776379 0.197498
0.56762 0.768353 0.195911
0.635584 0.763409 0.195605
0.712184 0.759167 0.196582
0.799939 0.754589 0.199557
0.879683 0.746777 0.200015
0.934691 0.735546 0.196063
0.958679 0.723476 0.19089
0.962844 0.71194 0.186328
0.962219 0.701106 0.182071
0.961547 0.691798 0.178347
0.960998 0.684001 0.175204
0.960586 0.677821 0.172702
0.96025 0.672526 0.170565
0.959838 0.666255 0.168032
0.959335 0.658442 0.164843
0.303624 0.85034 0.221698
0.301213 0.846677 0.220691
0.300038 0.844892 0.220188
0.299748 0.84445 0.220066
0.300282 0.845228 0.220279
0.300862 0.846082 0.220523
0.301625 0.847211 0.220859
0.302174 0.847974 0.221088
0.302785 0.848859 0.221347
0.30338 0.849836 0.221607
0.304158 0.851057 0.221942
0.304921 0.852293 0.222278
0.305531 0.8533 0.222553
0.305211 0.852857 0.222431
0.303151 0.84979 0.221561
0.322271 0.843366 0.219043
0.386191 0.833402 0.214145
0.469871 0.820691 0.20882
0.544091 0.809461 0.205646
0.60911 0.80148 0.204135
0.67187 0.796262 0.203693
0.741161 0.791928 0.20473
0.821714 0.787533 0.207919
0.897505 0.78085 0.209903
0.947036 0.770397 0.208103
0.96434 0.758282 0.204074
0.965362 0.747051 0.199878
0.96466 0.736904 0.195987
0.964019 0.727901 0.192508
0.963485 0.720211 0.189532
0.963104 0.714275 0.187228
0.962783 0.709453 0.185351
0.962493 0.705196 0.183703
0.320714 0.877272 0.229023
0.319295 0.874998 0.228428
0.318608 0.873869 0.228138
0.318532 0.873732 0.228107
0.318853 0.874235 0.228244
0.319326 0.874968 0.228443
0.319966 0.875944 0.228702
0.3205 0.876753 0.228946
0.320729 0.877104 0.229038
0.320897 0.877394 0.229129
0.321355 0.878187 0.229328
0.321904 0.879133 0.229587
0.322484 0.88014 0.229831
0.322637 0.880461 0.229908
0.322164 0.879698 0.229694
0.323888 0.87689 0.228809
0.357305 0.871199 0.22594
0.435554 0.86157 0.220829
0.518318 0.850233 0.216495
0.587884 0.839658 0.213535
0.647608 0.832029 0.211917
0.704753 0.826917 0.211612
0.767208 0.822324 0.212711
0.840513 0.817655 0.215717
0.913405 0.811566 0.218814
0.957092 0.802197 0.218936
0.968124 0.791058 0.216068
0.967742 0.780285 0.212253
0.967025 0.770367 0.208591
0.966415 0.761791 0.205402
0.965896 0.754406 0.20264
0.965499 0.748562 0.200443
0.965194 0.744274 0.19881
0.327871 0.889052 0.232151
0.32755 0.888533 0.232013
0.327474 0.888395 0.231983
0.327535 0.888487 0.232013
0.327764 0.888884 0.23212
0.328099 0.889433 0.232258
0.328527 0.890135 0.232441
0.328878 0.89073 0.232593
0.328847 0.8907 0.232593
0.328862 0.890715 0.232593
0.328893 0.890761 0.232609
0.328878 0.890745 0.232609
0.328878 0.890715 0.232593
0.328649 0.890333 0.232502
0.328481 0.890059 0.232425
0.32842 0.889586 0.232288
0.338476 0.888563 0.231601
0.389166 0.886076 0.229191
0.473518 0.881041 0.225696
0.556558 0.874189 0.222736
0.623819 0.866743 0.220661
0.679896 0.860334 0.219532
0.733227 0.855344 0.219501
0.791135 0.850629 0.220661
0.858534 0.845777 0.223575
0.925429 0.839948 0.227192
0.963226 0.831556 0.228122
0.970733 0.821134 0.225849
0.96997 0.810971 0.222705
0.969268 0.801877 0.219715
0.968658 0.793744 0.216922
0.96817 0.786709 0.21445
0.967773 0.781048 0.212436
0.329244 0.89134 0.232761
0.329213 0.891295 0.232746
0.329213 0.891279 0.232746
0.329213 0.891295 0.232746
0.329244 0.89134 0.232761
0.329274 0.891402 0.232776
0.32932 0.891463 0.232792
0.329351 0.891524 0.232807
0.329351 0.891524 0.232807
0.329351 0.891524 0.232807
0.329351 0.891524 0.232807
0.329351 0.891508 0.232807
0.329335 0.891508 0.232807
0.32932 0.891463 0.232792
0.329305 0.891432 0.232792
0.329274 0.891402 0.232776
0.330404 0.89131 0.2327
0.342321 0.891081 0.232212
0.411276 0.890455 0.229877
0.505226 0.889387 0.227543
0.588785 0.888426 0.226551
0.653544 0.886885 0.226368
0.706889 0.883162 0.2262
0.757626 0.878691 0.226535
0.812543 0.874464 0.227924
0.875212 0.870466 0.231052
0.936141 0.865522 0.234958
0.968154 0.858427 0.236088
0.9729 0.849454 0.234089
0.972168 0.84036 0.231418
0.971496 0.831968 0.228916
0.970932 0.824292 0.226612
0.970474 0.817823 0.224659
0.329351 0.891524 0.232807
0.329351 0.891524 0.232807
0.329351 0.891524 0.232807
0.329351 0.891524 0.232807
0.329351 0.891524 0.232807
0.329351 0.891524 0.232807
0.329351 0.891524 0.232807
0.329351 0.891524 0.232807
0.329351 0.891524 0.232807
0.329351 0.891524 0.232807
0.329351 0.891524 0.232807
0.329351 0.891524 0.232807
0.329351 0.891524 0.232807
0.329351 0.891524 0.232807
0.329351 0.891524 0.232807
0.329351 0.891524 0.232807
0.329381 0.891524 0.232807
0.330541 0.891524 0.232761
0.362188 0.891463 0.231586
0.441642 0.891279 0.229297
0.537224 0.89099 0.227512
0.61651 0.890837 0.227207
0.67686 0.890089 0.227573
0.728344 0.888701 0.228336
0.778164 0.887251 0.229679
0.831312 0.886259 0.232044
0.889982 0.886244 0.236408
0.946273 0.884962 0.241413
0.973602 0.880095 0.242863
0.974762 0.873243 0.24097
0.974151 0.866361 0.23888
0.973587 0.859648 0.236866
0.973098 0.85304 0.234958
0.329351 0.891524 0.232807
0.329351 0.891524 0.232807
0.329351 0.891524 0.232807
0.329351 0.891524 0.232807
0.329351 0.891524 0.232807
0.329351 0.891524 0.232807
0.329351 0.891524 0.232807
0.329351 0.891524 0.232807
0.329351 0.891524 0.232807
0.329351 0.891524 0.232807
0.329351 0.891524 0.232807
0.329351 0.891524 0.232807
0.329351 0.891524 0.232807
0.329351 0.891524 0.232807
0.329351 0.891524 0.232807
0.329351 0.891524 0.232807
0.329351 0.891524 0.232807
0.329351 0.891524 0.232807
0.336583 0.891508 0.232517
0.382528 0.891447 0.231006
0.472923 0.891112 0.228611
0.566812 0.890959 0.227375
0.640604 0.890883 0.22742
0.698039 0.890471 0.228122
0.748455 0.889845 0.229297
0.796658 0.889403 0.231022
0.84712 0.889525 0.23386
0.902937 0.88986 0.238499
0.952453 0.889586 0.243351
0.974777 0.888518 0.245411
0.975982 0.887144 0.245136
0.97583 0.885466 0.244633
0.975631 0.88304 0.243915
0.329351 0.891524 0.232807
0.329351 0.891524 0.232807
0.329351 0.891524 0.232807
0.329351 0.891524 0.232807
