LUT预设1/iPhone专用lut合集3/iPhone合集3标准版（log）/odd街头.cube
TITLE "Generated by Resolve"
LUT_3D_SIZE 9
0 0 0
0.0456245 0.00201419 0.000762951
0.299687 0.00956741 0.017792
0.772427 0.0656596 0.117311
0.962448 0.258045 0.375525
0.95877 0.374456 0.4486
0.95877 0.374456 0.4486
0.95877 0.374456 0.4486
0.95877 0.374456 0.4486
6.10361e-05 0.0138094 1.5259e-05
0.0104829 0.00703441 0.000137331
0.155749 0.00601205 0.00590524
0.579767 0.0271763 0.0545815
0.951766 0.160632 0.265217
0.958923 0.370123 0.446113
0.95877 0.374456 0.4486
0.95877 0.374456 0.4486
0.95877 0.374456 0.4486
0.000167849 0.0876936 0.00030518
0.000823987 0.062089 0.000656138
0.063035 0.0473793 7.62951e-05
0.352102 0.0504463 0.00917067
0.808438 0.11043 0.121859
0.960784 0.288396 0.386038
0.958801 0.375235 0.448142
0.95877 0.374456 0.4486
0.95877 0.374456 0.4486
0.000366217 0.29572 0.000595102
0.000320439 0.224308 0.000793469
0.00968948 0.169268 0.000198367
0.195575 0.158251 0.00015259
0.621012 0.19237 0.0169528
0.943252 0.333959 0.233356
0.957763 0.435431 0.419501
0.959045 0.416434 0.432151
0.958846 0.394202 0.440406
0.00988785 0.61001 0.00190738
0.00355535 0.532601 0.00030518
0.000518807 0.431022 0.000396735
0.100313 0.385901 0.000762951
0.449241 0.37937 0.00660716
0.831281 0.436881 0.0447395
0.95642 0.531319 0.300786
0.956008 0.520882 0.388464
0.957412 0.489113 0.404105
0.0319371 0.846098 0.0195926
0.0268711 0.799344 0.0155489
0.0197757 0.723827 0.00849927
0.0251011 0.662943 0.00485237
0.308309 0.637781 0.0172885
0.711803 0.635874 0.048188
0.942 0.67657 0.117281
0.952453 0.650584 0.292958
0.952987 0.616815 0.33106
0.0479286 0.965362 0.033875
0.0461433 0.95433 0.032166
0.0421302 0.916457 0.0280308
0.0347295 0.867002 0.022385
0.0984665 0.836088 0.0233768
0.56907 0.818936 0.0671702
0.876509 0.815366 0.120119
0.951904 0.794614 0.133928
0.950973 0.743862 0.183734
0.0478676 0.967224 0.0339208
0.0478676 0.967224 0.0339208
0.0478676 0.967224 0.0339208
0.0478676 0.967224 0.0339208
0.0480354 0.966049 0.0343023
0.266026 0.949798 0.0582284
0.764538 0.938415 0.14316
0.956497 0.920485 0.180117
0.954238 0.855665 0.152071
0.0478676 0.967224 0.0339208
0.0478676 0.967224 0.0339208
0.0478676 0.967224 0.0339208
0.0478676 0.967224 0.0339208
0.0478676 0.967224 0.0339208
0.0478676 0.967224 0.0339208
0.461784 0.963073 0.0912947
0.860838 0.968658 0.178729
0.963302 0.957977 0.199924
0.000564584 0.000183108 0.00570687
0.0356603 0.00138857 0.00259403
0.255558 0.00782788 0.0131991
0.710185 0.0473182 0.0888533
0.963699 0.222858 0.348791
0.95877 0.374456 0.4486
0.95877 0.374456 0.4486
0.95877 0.374456 0.4486
0.95877 0.374456 0.4486
0.000579843 0.0161135 0.012604
0.00556954 0.00677501 0.00611887
0.134234 0.00587472 0.00697337
0.519249 0.0221103 0.0430915
0.923369 0.133349 0.225711
0.959365 0.348852 0.432654
0.95877 0.374456 0.4486
0.95877 0.374456 0.4486
0.95877 0.374456 0.4486
0.00015259 0.102266 0.0191806
0.000350958 0.068452 0.00630198
0.0552834 0.0485389 0.00299077
0.332647 0.0510109 0.0115053
0.78352 0.107347 0.108919
0.961776 0.276265 0.372107
0.958999 0.376455 0.447608
0.95877 0.374456 0.4486
0.95877 0.374456 0.4486
6.10361e-05 0.332998 0.0115053
0.000244144 0.251469 0.00381476
0.00581369 0.179873 0.000961318
0.18854 0.162509 0.00201419
0.60441 0.192355 0.0241093
0.936019 0.328649 0.219791
0.957137 0.435142 0.413687
0.958373 0.418753 0.431724
0.959487 0.396246 0.439368
0.0118868 0.638209 0.00254826
0.00546273 0.561975 0.000915541
0.000442512 0.45481 0.00047303
0.0856336 0.398795 4.57771e-05
0.428077 0.385183 0.00462348
0.819852 0.435966 0.0664988
0.956497 0.53315 0.302876
0.956237 0.524193 0.38674
0.957717 0.492271 0.403311
0.0341802 0.8589 0.0214694
0.0282597 0.813565 0.0168154
0.020737 0.74023 0.0100404
0.020676 0.674083 0.00370794
0.28278 0.644282 0.0166171
0.693919 0.638727 0.0450294
0.938491 0.676173 0.148806
0.952132 0.656138 0.324025
0.952789 0.621195 0.334539
0.0480049 0.966644 0.0340734
0.0466773 0.957321 0.0328832
0.0429999 0.924163 0.0286564
0.036347 0.872602 0.0227817
0.0851301 0.840192 0.0229496
0.537575 0.822049 0.0607919
0.862013 0.816159 0.118303
0.951751 0.79913 0.159167
0.951537 0.747234 0.23978
0.0478676 0.967224 0.0339208
0.0478676 0.967224 0.0339208
0.0478676 0.967224 0.0339208
0.0478676 0.967224 0.0339208
0.0478981 0.967056 0.0339818
0.223285 0.952514 0.0536049
0.741848 0.938735 0.139635
0.952422 0.922515 0.180285
0.954894 0.857237 0.154101
0.0478676 0.967224 0.0339208
0.0478676 0.967224 0.0339208
0.0478676 0.967224 0.0339208
0.0478676 0.967224 0.0339208
0.0478676 0.967224 0.0339208
0.0478676 0.967224 0.0339208
0.419974 0.962982 0.0844892
0.842618 0.96849 0.173205
0.963455 0.961242 0.202655
0.000167849 0.000167849 0.0405127
0.0299992 0.000793469 0.0300145
0.242222 0.00491341 0.0388647
0.666407 0.0369726 0.084062
0.95581 0.187274 0.303517
0.95903 0.364401 0.442405
0.95877 0.374456 0.4486
0.95877 0.374456 0.4486
0.95877 0.374456 0.4486
6.10361e-05 0.0189822 0.0716106
0.00077821 0.00791943 0.0464942
0.116396 0.00337224 0.043183
0.458152 0.0148623 0.06598
0.866011 0.101488 0.185962
0.960098 0.30837 0.408927
0.95877 0.374456 0.4486
0.95877 0.374456 0.4486
0.95877 0.374456 0.4486
0.000350958 0.121218 0.121447
4.57771e-05 0.0807202 0.0767681
0.0437629 0.0518959 0.0525368
0.307576 0.0495308 0.0562448
0.733623 0.0930495 0.125566
0.962982 0.249546 0.350317
0.958633 0.379355 0.447532
0.95877 0.374456 0.4486
0.95877 0.374456 0.4486
0.0010071 0.380896 0.183078
0.000198367 0.299321 0.121981
0.00173953 0.204334 0.0678569
0.187366 0.171954 0.0586557
0.593774 0.194247 0.0906081
0.924544 0.315373 0.264042
0.957488 0.437018 0.428901
0.958373 0.427161 0.433356
0.957427 0.404486 0.438071
0.0199588 0.685252 0.198856
0.012604 0.616678 0.130526
0.00366217 0.498955 0.0667735
0.0771191 0.421088 0.0534524
0.422278 0.396521 0.0656138
0.819821 0.442741 0.160662
0.95555 0.537835 0.381109
0.9561 0.535348 0.430365
0.95729 0.500862 0.411902
0.0399176 0.884688 0.0903334
0.0339818 0.842725 0.0422065
0.0243839 0.770565 0.0220645
0.0201877 0.695598 0.0223087
0.27538 0.657481 0.0355077
0.688991 0.647868 0.0814984
0.938048 0.680446 0.252262
0.951949 0.665125 0.414435
0.952453 0.630732 0.399527
0.0479744 0.967102 0.0340124
0.0474556 0.963134 0.0335851
0.0449683 0.940291 0.031281
0.0377203 0.887114 0.0249485
0.0692149 0.848508 0.0228733
0.511345 0.828672 0.0583963
0.84416 0.820981 0.122667
0.953643 0.80618 0.264958
0.95285 0.755001 0.345785
0.0478676 0.967224 0.0339208
0.0478676 0.967224 0.0339208
0.0478676 0.967224 0.0339208
0.0478676 0.967224 0.0339208
0.0478676 0.967224 0.0339208
0.189624 0.954818 0.05037
0.715633 0.940429 0.134371
0.946044 0.925155 0.178729
0.955428 0.862043 0.192172
0.0478676 0.967224 0.0339208
0.0478676 0.967224 0.0339208
0.0478676 0.967224 0.0339208
0.0478676 0.967224 0.0339208
0.0478676 0.967224 0.0339208
0.0478676 0.967224 0.0339208
0.385229 0.962554 0.0796674
0.823224 0.967727 0.16994
0.963348 0.96434 0.203052
0.000564584 0.000137331 0.124804
0.0229801 1.5259e-05 0.104326
0.245762 0.000732433 0.11017
0.661601 0.0240482 0.166873
0.954055 0.160433 0.343282
0.959014 0.356359 0.452125
0.958831 0.374502 0.449729
0.95877 0.374456 0.4486
0.95877 0.374456 0.4486
0.000122072 0.0213931 0.190036
0.000213626 0.00654612 0.140963
0.108888 0.00205997 0.124712
0.445151 0.00750744 0.14696
0.840406 0.0749065 0.257023
0.961212 0.277363 0.441947
0.959609 0.376196 0.462272
0.958801 0.374472 0.448814
0.95877 0.374456 0.4486
0.00111391 0.140841 0.291386
0.000656138 0.094728 0.211856
0.0222171 0.0587472 0.152758
0.275257 0.0478065 0.15259
0.69398 0.078233 0.213077
0.961334 0.210224 0.402686
0.958526 0.386328 0.494957
0.959609 0.377997 0.469581
0.958846 0.374502 0.450629
0.0056611 0.408637 0.422309
0.0018616 0.33225 0.338842
0.00106813 0.238361 0.241932
0.16173 0.18883 0.195117
0.569451 0.193149 0.2112
0.90428 0.291463 0.344472
0.95848 0.438239 0.494987
0.958465 0.447425 0.495735
0.958312 0.422232 0.472953
0.0305333 0.70515 0.518441
0.0224155 0.644175 0.439216
0.0116426 0.546212 0.334508
0.0516976 0.453635 0.249638
0.416739 0.414862 0.228077
0.811994 0.447364 0.304921
0.956283 0.540688 0.475502
0.955505 0.553246 0.516472
0.956756 0.52285 0.489845
0.055375 0.894606 0.532509
0.0472725 0.859403 0.459281
0.0364233 0.798062 0.352117
0.0259403 0.721752 0.269032
0.259724 0.673793 0.244419
0.693004 0.657694 0.27126
0.945266 0.687999 0.411826
0.95349 0.676219 0.521813
0.952651 0.645182 0.498711
0.0614786 0.964416 0.343145
0.0562905 0.963149 0.275822
0.0523384 0.949523 0.188281
0.0436866 0.902129 0.144228
0.0493935 0.859052 0.151431
0.504402 0.835752 0.190585
0.850584 0.828565 0.284627
0.956786 0.812482 0.444923
0.95462 0.763851 0.477546
0.0517891 0.966674 0.114168
0.049424 0.966934 0.0653391
0.0480812 0.967163 0.0383001
0.0479133 0.967224 0.03505
0.0478676 0.967224 0.0339208
0.172885 0.953506 0.0462501
0.70396 0.938903 0.133364
0.940337 0.924132 0.234119
0.959487 0.868986 0.365484
0.0599374 0.965194 0.30753
0.0521096 0.966461 0.120684
0.0479744 0.967208 0.035462
0.0478676 0.967224 0.0339208
0.0478676 0.967224 0.0339208
0.0488441 0.967224 0.0340124
0.358053 0.963867 0.0742046
0.803632 0.967453 0.163561
0.96466 0.965118 0.203647
0.00144961 9.15541e-05 0.288594
0.0132601 0.000366217 0.249577
0.252857 0.000671397 0.245762
0.659998 0.00988785 0.295445
0.953597 0.132494 0.443854
0.959762 0.365225 0.525536
0.959228 0.385763 0.505425
0.959915 0.379263 0.473564
0.958968 0.37464 0.450202
0.00120546 0.0150759 0.38854
0.00138857 0.00318914 0.319417
0.105669 7.62951e-05 0.2757
0.449058 0.000457771 0.286931
0.837415 0.0491035 0.38117
0.9635 0.249302 0.521462
0.95964 0.393347 0.533532
0.959228 0.384573 0.502052
0.959625 0.378164 0.47277
0.00280766 0.167102 0.510521
0.00103761 0.111421 0.419318
0.00555428 0.0643473 0.322362
0.247761 0.0410163 0.313207
0.67425 0.0613718 0.354711
0.951843 0.173648 0.488762
0.959304 0.381964 0.557214
0.95903 0.397971 0.538216
0.959167 0.388235 0.510185
0.0111849 0.442634 0.644938
0.00531014 0.367193 0.564965
0.00270085 0.274723 0.454078
0.115496 0.212467 0.390188
0.530587 0.194186 0.385519
0.874098 0.263539 0.461646
0.95906 0.422705 0.571878
0.958541 0.469413 0.572335
0.95906 0.442191 0.546044
0.0383459 0.714641 0.732464
0.0301518 0.658183 0.673365
0.0200961 0.572854 0.589181
0.029221 0.487861 0.506981
0.38732 0.434104 0.446357
0.782162 0.44303 0.469657
0.954864 0.52929 0.578164
0.954314 0.5729 0.603677
0.954482 0.543282 0.57644
0.0639353 0.88397 0.761471
0.057023 0.859983 0.726375
0.0486305 0.811292 0.660075
0.0378271 0.746471 0.578408
0.181476 0.693584 0.509422
0.66891 0.668986 0.490776
0.942107 0.691035 0.566323
0.953552 0.688518 0.625879
0.953719 0.65951 0.600458
0.0817426 0.95996 0.695552
0.0795758 0.955932 0.671672
0.0704662 0.94023 0.62501
0.0592966 0.91104 0.56968
0.051606 0.871504 0.507256
0.475975 0.842771 0.493935
0.852735 0.837659 0.533486
0.960693 0.817761 0.608026
0.957504 0.771893 0.608103
0.073228 0.961746 0.555978
0.0691691 0.962982 0.494652
0.0654002 0.964111 0.429755
0.0631418 0.963958 0.36939
0.0596323 0.965087 0.342458
0.138735 0.94902 0.334966
0.69073 0.93518 0.395773
0.941817 0.925368 0.481727
0.963623 0.873442 0.557809
0.082887 0.960037 0.699657
0.0753948 0.9617 0.593103
0.0639353 0.964508 0.409964
0.0534829 0.966354 0.130892
0.0510262 0.967163 0.100175
0.052491 0.966506 0.146715
0.338903 0.963012 0.182864
0.788846 0.967178 0.241398
0.966018 0.965301 0.346441
0.00332647 6.10361e-05 0.513664
0.00254826 0.000198367 0.465049
0.260243 1.5259e-05 0.435706
0.663294 0.00077821 0.458686
0.954391 0.0909285 0.564462
0.960342 0.342 0.589502
0.959518 0.392493 0.569604
0.959396 0.397177 0.544762
0.95935 0.390051 0.517876
0.00315862 0.002121 0.622415
0.00239567 0.000167849 0.555016
0.101045 6.10361e-05 0.489647
0.468269 0.000198367 0.475257
0.835309 0.0215152 0.530938
0.96408 0.206409 0.618357
0.959808 0.382025 0.590249
0.959594 0.392981 0.566003
0.959609 0.394903 0.542702
0.00297551 0.169375 0.727855
0.00299077 0.110552 0.655009
0.00216678 0.056611 0.551583
0.235111 0.0277104 0.518242
0.659892 0.0370642 0.531731
0.946685 0.134356 0.60943
0.960479 0.349172 0.620035
0.960021 0.388067 0.595041
0.958938 0.391959 0.570489
0.0142824 0.466957 0.803296
0.00932326 0.395697 0.751049
0.00515755 0.300816 0.672206
0.0755932 0.229465 0.602701
0.486473 0.191363 0.584054
0.849973 0.235172 0.61326
0.959442 0.381292 0.660212
0.958251 0.469596 0.636088
0.959091 0.450721 0.608621
0.0426032 0.719722 0.869993
0.0363012 0.667781 0.828748
0.0256352 0.593164 0.765057
0.018204 0.518624 0.695109
0.316625 0.459831 0.650278
0.747204 0.438407 0.645838
0.953704 0.502937 0.687404
0.954421 0.58529 0.679194
0.955032 0.561822 0.652934
0.0651713 0.863401 0.882933
0.0605936 0.843519 0.860441
0.0551308 0.812619 0.826566
0.0448157 0.759823 0.774182
0.0860456 0.708721 0.721508
0.628031 0.676432 0.69424
0.922286 0.684489 0.707759
0.955871 0.698131 0.71722
0.95523 0.673808 0.690455
0.0899672 0.949248 0.850904
0.0849012 0.93753 0.83328
0.078996 0.921248 0.809842
0.0693065 0.898634 0.785809
0.0614939 0.872938 0.755917
0.386038 0.845716 0.715694
0.831525 0.8392 0.718898
0.963882 0.821775 0.733745
0.960281 0.778531 0.714
0.0887312 0.959167 0.786892
0.086305 0.95964 0.749111
0.0856641 0.959258 0.723842
0.082948 0.959716 0.705745
0.0815595 0.955444 0.691096
0.0961318 0.942321 0.651209
0.633219 0.929503 0.661021
0.927489 0.924224 0.685527
0.968505 0.876616 0.710002
0.0943465 0.95848 0.865644
0.0912032 0.958907 0.814282
0.0868086 0.959167 0.737911
0.0760662 0.96141 0.611032
0.0706645 0.963546 0.527001
0.0699016 0.962585 0.508385
0.276539 0.960479 0.524773
0.772976 0.970642 0.561944
0.96875 0.969467 0.604135
0.00332647 0.000228885 0.718944
0.0033875 0.000106813 0.682521
0.26421 7.62951e-05 0.641917
0.667369 0.00158694 0.630716
0.951141 0.0405432 0.679072
0.960769 0.297398 0.659327
0.959167 0.365682 0.625772
0.959381 0.37847 0.599664
0.959197 0.388937 0.577111
0.00517281 0.000183108 0.810559
0.00436408 0.000396735 0.764874
0.0852979 0.000259403 0.706355
0.486397 7.62951e-05 0.672374
0.836103 0.00798047 0.682811
0.965286 0.143328 0.716762
0.959991 0.349538 0.653376
0.959548 0.366644 0.624521
0.959991 0.378271 0.599695
0.00447089 0.124575 0.88513
0.00424201 0.072221 0.836057
0.00476081 0.0207675 0.768109
0.233509 0.00411994 0.722057
0.658747 0.00535592 0.710643
0.943191 0.0796521 0.734417
0.960754 0.30277 0.697749
0.959365 0.357778 0.657115
0.959014 0.365042 0.62826
0.0180972 0.459785 0.929351
0.0119478 0.391806 0.891814
0.00637827 0.298833 0.839185
0.0462501 0.225742 0.787106
0.435462 0.175982 0.755398
0.822995 0.189609 0.752712
0.961257 0.329274 0.763272
0.959136 0.443549 0.696239
0.95903 0.428199 0.665171
0.0432898 0.704677 0.953918
0.0387884 0.67158 0.934096
0.0311742 0.608804 0.88922
0.0213626 0.531533 0.836683
0.234638 0.469535 0.798962
0.700175 0.430564 0.785519
0.951186 0.466865 0.797665
0.95523 0.557519 0.739483
0.954955 0.545861 0.707759
0.0620127 0.832151 0.953796
0.058854 0.817212 0.947402
0.0551919 0.793301 0.923552
0.0492409 0.762402 0.891997
0.0445258 0.721752 0.854673
0.543709 0.685756 0.829541
0.892622 0.67393 0.828305
0.956069 0.683803 0.793484
0.955657 0.674662 0.754055
0.086656 0.919615 0.940749
0.0828107 0.909499 0.930144
0.0779126 0.895445 0.915709
0.0699931 0.877195 0.898299
0.0645151 0.857359 0.875471
0.23946 0.83682 0.84802
0.782483 0.827314 0.84097
0.965957 0.815122 0.83299
0.961349 0.78439 0.794797
0.098146 0.957656 0.908354
0.0957198 0.958434 0.883986
0.0941634 0.957687 0.871351
0.0904097 0.952285 0.860365
0.0869459 0.941756 0.849867
0.0817884 0.927962 0.829953
0.502434 0.915511 0.811505
0.899306 0.915099 0.818494
0.97113 0.878538 0.812589
0.100328 0.956069 0.930343
0.0993973 0.956802 0.920897
0.0955367 0.958236 0.882536
0.0919203 0.958465 0.822416
0.0879225 0.958984 0.775235
0.0873579 0.958633 0.75378
0.125917 0.959487 0.734493
0.722103 0.96968 0.755611
0.966125 0.969802 0.77496
0.00534066 0.000366217 0.854047
0.00434882 0.000167849 0.827131
0.258076 0.000457771 0.790188
0.675639 0.00248722 0.763607
0.94847 0.0124971 0.775982
0.962936 0.232334 0.726345
0.959869 0.330556 0.680262
0.959548 0.350668 0.652415
0.959472 0.365759 0.627207
0.00523384 4.57771e-05 0.9355
0.00537118 0.000137331 0.902892
0.0614023 0.000213626 0.858
0.493065 0.000228885 0.821408
0.834867 0.00819409 0.802686
0.970001 0.0661173 0.805707
0.96051 0.302617 0.71252
0.960632 0.32752 0.683116
0.960037 0.346654 0.657359
0.00518807 0.0382696 0.993179
0.00540169 0.0157473 0.964355
0.00543221 0.00178531 0.91957
0.220813 0.000274662 0.878004
0.660304 0.00259403 0.84828
0.940826 0.0198062 0.843839
0.96376 0.221973 0.77998
0.961746 0.30605 0.724254
0.95993 0.321736 0.692378
0.013077 0.386831 0.982315
0.0109865 0.337545 0.988144
0.0055848 0.240482 0.969635
0.0247501 0.166964 0.927535
0.391943 0.122362 0.89012
0.797772 0.114366 0.874144
0.962219 0.238163 0.866865
0.960418 0.399649 0.763638
0.960037 0.389944 0.731838
0.0366064 0.644587 0.961654
0.0339666 0.620691 0.963638
0.0301213 0.578759 0.965698
0.0229648 0.51606 0.950637
0.147433 0.454887 0.920882
0.645365 0.404791 0.899992
0.943725 0.412497 0.896757
0.956252 0.505394 0.811612
0.956817 0.509102 0.768917
0.0538796 0.781292 0.957458
0.0521859 0.770108 0.956573
0.0500801 0.754772 0.958328
0.0475166 0.734462 0.956481
0.0429541 0.705608 0.948913
0.429938 0.674891 0.929778
0.842313 0.645701 0.916228
0.956008 0.644709 0.874434
0.955032 0.645945 0.806516
0.0740978 0.881865 0.951308
0.0706951 0.869352 0.953109
0.0677043 0.857725 0.954376
0.0640421 0.846357 0.955169
0.0618601 0.835325 0.948638
0.124117 0.817151 0.934874
0.696788 0.804715 0.919081
0.957168 0.793439 0.914122
0.961929 0.770108 0.843961
0.0996109 0.955459 0.930953
0.0971542 0.948974 0.933639
0.0932326 0.938888 0.935805
0.0897383 0.92874 0.937896
0.0865187 0.917693 0.940063
0.0800946 0.904799 0.924392
0.352865 0.891539 0.906905
0.849165 0.894118 0.908019
0.973983 0.875441 0.887709
0.100328 0.955962 0.930877
0.100328 0.955962 0.930877
0.100328 0.955962 0.930877
0.100267 0.956725 0.926665
0.0971695 0.957809 0.898116
0.095613 0.958373 0.886397
0.0944686 0.956374 0.870802
0.606989 0.955016 0.8701
0.943496 0.960174 0.879652
0.00579843 0.000198367 0.958129
0.0055848 1.5259e-05 0.937102
0.237095 0.000198367 0.902831
0.675837 0.0037232 0.865629
0.94168 0.0132601 0.85362
0.965942 0.152605 0.79176
0.962646 0.284825 0.731167
0.959365 0.313802 0.701595
0.960906 0.334615 0.675898
0.00564584 0 0.997421
0.00556954 0.000106813 0.987884
0.0375372 0.00015259 0.961578
0.483146 0.000335698 0.925505
0.83209 0.00860609 0.893568
0.972244 0.0228733 0.883055
0.96286 0.237995 0.771115
0.961975 0.276814 0.739086
0.960769 0.305882 0.709957
0.00570687 0 0.997772
0.00570687 0 0.997772
0.00563058 0 0.995499
0.180911 0.000289921 0.98172
0.651469 0.00326543 0.949737
0.93608 0.0138857 0.928725
0.967071 0.11754 0.856901
0.963165 0.234592 0.787411
0.962921 0.261524 0.75642
0.00675975 0.220478 0.997177
0.00622568 0.176669 0.99884
0.00607309 0.100374 0.999771
0.0113069 0.047364 0.999069
0.361212 0.0166781 0.999512
0.784253 0.014023 0.982223
0.967865 0.106722 0.957061
0.96083 0.331487 0.827588
0.960891 0.331197 0.795911
0.025391 0.531609 0.969345
0.0222324 0.507668 0.971527
0.0196689 0.461509 0.974853
0.0159609 0.418631 0.97908
0.0789044 0.378256 0.979751
0.585901 0.321141 0.972457
0.912581 0.305776 0.970184
0.959228 0.415625 0.892714
0.957595 0.450156 0.831418
0.047013 0.727413 0.958831
0.0428626 0.702892 0.959274
0.0410163 0.685557 0.96083
0.0390173 0.666529 0.961639
0.0370947 0.641733 0.962615
0.3075 0.614404 0.961761
0.760418 0.584283 0.960952
0.954833 0.57171 0.952651
0.954803 0.59855 0.862455
0.0757458 0.888869 0.948531
0.0662089 0.855619 0.954879
0.0590829 0.815625 0.956008
0.0558633 0.801602 0.957763
0.0556344 0.789303 0.956191
0.0726787 0.776394 0.957977
0.571878 0.764111 0.954971
0.908736 0.750957 0.962707
0.960784 0.736171 0.902327
0.100099 0.955718 0.930785
0.0981765 0.952209 0.932174
0.0924697 0.936172 0.936706
0.0814984 0.905745 0.946487
0.0757 0.883436 0.950057
0.0721904 0.874098 0.95256
0.221958 0.863508 0.952636
0.769467 0.863355 0.959854
0.969375 0.852308 0.957671
0.100328 0.955962 0.930877
0.100328 0.955962 0.930877
0.100328 0.955962 0.930877
0.100328 0.955962 0.930877
0.100328 0.955962 0.930877
0.094667 0.945861 0.934813
0.0932631 0.935012 0.93814
0.473747 0.93167 0.945251
0.901274 0.938003 0.952911
