LUT预设1/iPhone专用lut合集3/iPhone合集3标准版（log）/odd街头.cube
TITLE "Generated by Resolve"
LUT_3D_SIZE 5
0 0 0
0.299687 0.00956741 0.017792
0.962448 0.258045 0.375525
0.95877 0.374456 0.4486
0.95877 0.374456 0.4486
0.000167849 0.0876936 0.00030518
0.063035 0.0473793 7.62951e-05
0.808438 0.11043 0.121859
0.958801 0.375235 0.448142
0.95877 0.374456 0.4486
0.00988785 0.61001 0.00190738
0.000518807 0.431022 0.000396735
0.449241 0.37937 0.00660716
0.95642 0.531319 0.300786
0.957412 0.489113 0.404105
0.0479286 0.965362 0.033875
0.0421302 0.916457 0.0280308
0.0984665 0.836088 0.0233768
0.876509 0.815366 0.120119
0.950973 0.743862 0.183734
0.0478676 0.967224 0.0339208
0.0478676 0.967224 0.0339208
0.0478676 0.967224 0.0339208
0.461784 0.963073 0.0912947
0.963302 0.957977 0.199924
0.000167849 0.000167849 0.0405127
0.242222 0.00491341 0.0388647
0.95581 0.187274 0.303517
0.95877 0.374456 0.4486
0.95877 0.374456 0.4486
0.000350958 0.121218 0.121447
0.0437629 0.0518959 0.0525368
0.733623 0.0930495 0.125566
0.958633 0.379355 0.447532
0.95877 0.374456 0.4486
0.0199588 0.685252 0.198856
0.00366217 0.498955 0.0667735
0.422278 0.396521 0.0656138
0.95555 0.537835 0.381109
0.95729 0.500862 0.411902
0.0479744 0.967102 0.0340124
0.0449683 0.940291 0.031281
0.0692149 0.848508 0.0228733
0.84416 0.820981 0.122667
0.95285 0.755001 0.345785
0.0478676 0.967224 0.0339208
0.0478676 0.967224 0.0339208
0.0478676 0.967224 0.0339208
0.385229 0.962554 0.0796674
0.963348 0.96434 0.203052
0.00144961 9.15541e-05 0.288594
0.252857 0.000671397 0.245762
0.953597 0.132494 0.443854
0.959228 0.385763 0.505425
0.958968 0.37464 0.450202
0.00280766 0.167102 0.510521
0.00555428 0.0643473 0.322362
0.67425 0.0613718 0.354711
0.959304 0.381964 0.557214
0.959167 0.388235 0.510185
0.0383459 0.714641 0.732464
0.0200961 0.572854 0.589181
0.38732 0.434104 0.446357
0.954864 0.52929 0.578164
0.954482 0.543282 0.57644
0.0817426 0.95996 0.695552
0.0704662 0.94023 0.62501
0.051606 0.871504 0.507256
0.852735 0.837659 0.533486
0.957504 0.771893 0.608103
0.082887 0.960037 0.699657
0.0639353 0.964508 0.409964
0.0510262 0.967163 0.100175
0.338903 0.963012 0.182864
0.966018 0.965301 0.346441
0.00332647 0.000228885 0.718944
0.26421 7.62951e-05 0.641917
0.951141 0.0405432 0.679072
0.959167 0.365682 0.625772
0.959197 0.388937 0.577111
0.00447089 0.124575 0.88513
0.00476081 0.0207675 0.768109
0.658747 0.00535592 0.710643
0.960754 0.30277 0.697749
0.959014 0.365042 0.62826
0.0432898 0.704677 0.953918
0.0311742 0.608804 0.88922
0.234638 0.469535 0.798962
0.951186 0.466865 0.797665
0.954955 0.545861 0.707759
0.086656 0.919615 0.940749
0.0779126 0.895445 0.915709
0.0645151 0.857359 0.875471
0.782483 0.827314 0.84097
0.961349 0.78439 0.794797
0.100328 0.956069 0.930343
0.0955367 0.958236 0.882536
0.0879225 0.958984 0.775235
0.125917 0.959487 0.734493
0.966125 0.969802 0.77496
0.00579843 0.000198367 0.958129
0.237095 0.000198367 0.902831
0.94168 0.0132601 0.85362
0.962646 0.284825 0.731167
0.960906 0.334615 0.675898
0.00570687 0 0.997772
0.00563058 0 0.995499
0.651469 0.00326543 0.949737
0.967071 0.11754 0.856901
0.962921 0.261524 0.75642
0.025391 0.531609 0.969345
0.0196689 0.461509 0.974853
0.0789044 0.378256 0.979751
0.912581 0.305776 0.970184
0.957595 0.450156 0.831418
0.0757458 0.888869 0.948531
0.0590829 0.815625 0.956008
0.0556344 0.789303 0.956191
0.571878 0.764111 0.954971
0.960784 0.736171 0.902327
0.100328 0.955962 0.930877
0.100328 0.955962 0.930877
0.100328 0.955962 0.930877
0.0932631 0.935012 0.93814
0.901274 0.938003 0.952911
