LUT预设1/iPhone专用lut合集3/iPhone合集3标准版（log）/odd街头.cube
TITLE "Generated by Resolve"
LUT_3D_SIZE 33
0 0 0
0.00205997 0.000289921 4.57771e-05
0.00576791 0.000823987 0.00015259
0.021149 0.00144961 0.000228885
0.0456245 0.00201419 0.000762951
0.0814221 0.00239567 0.00224308
0.136385 0.00386053 0.00552377
0.208026 0.00595102 0.0108034
0.299687 0.00956741 0.017792
0.411322 0.0153048 0.0274815
0.542885 0.023682 0.0473945
0.665003 0.0399786 0.0760204
0.772427 0.0656596 0.117311
0.863508 0.100862 0.172076
0.941085 0.147234 0.244785
0.958053 0.204395 0.322423
0.962448 0.258045 0.375525
0.960998 0.30898 0.409186
0.959075 0.359731 0.439445
0.958755 0.371923 0.446921
0.95877 0.374456 0.4486
0.95877 0.374456 0.4486
0.95877 0.374456 0.4486
0.95877 0.374456 0.4486
0.95877 0.374456 0.4486
0.95877 0.374456 0.4486
0.95877 0.374456 0.4486
0.95877 0.374456 0.4486
0.95877 0.374456 0.4486
0.95877 0.374456 0.4486
0.95877 0.374456 0.4486
0.95877 0.374456 0.4486
0.95877 0.374456 0.4486
0.000183108 0.000915541 0.000106813
0.00125124 0.000747692 0.000122072
0.00288396 0.000564584 0.000137331
0.0153811 0.00129702 0.000198367
0.0366674 0.00192264 0.000839246
0.0689708 0.00198367 0.00244144
0.118715 0.00344854 0.00445563
0.185031 0.00538643 0.00822461
0.271214 0.00816358 0.0144045
0.376654 0.0122988 0.0241093
0.502007 0.0205997 0.0406043
0.626139 0.0339055 0.0664073
0.739223 0.0559548 0.103044
0.836988 0.0876631 0.151781
0.917845 0.128954 0.218067
0.950683 0.183902 0.297536
0.963211 0.239094 0.359457
0.961685 0.291859 0.39968
0.959228 0.349981 0.433448
0.95874 0.368963 0.444953
0.95877 0.374456 0.4486
0.95877 0.374456 0.4486
0.95877 0.374456 0.4486
0.95877 0.374456 0.4486
0.95877 0.374456 0.4486
0.95877 0.374456 0.4486
0.95877 0.374456 0.4486
0.95877 0.374456 0.4486
0.95877 0.374456 0.4486
0.95877 0.374456 0.4486
0.95877 0.374456 0.4486
0.95877 0.374456 0.4486
0.95877 0.374456 0.4486
0.000503548 0.002533 0.000289921
0.000534066 0.00155642 0.000198367
0.000503548 0.000320439 4.57771e-05
0.0099794 0.00109865 0.00030518
0.0274815 0.00173953 0.00115969
0.0554208 0.00144961 0.00277714
0.099321 0.00296025 0.00332647
0.159792 0.00476081 0.00561532
0.240055 0.00683604 0.011017
0.337972 0.00943008 0.0204166
0.457252 0.0174258 0.0338293
0.582315 0.028397 0.0564736
0.701015 0.0469673 0.0885786
0.805585 0.0747845 0.130999
0.889403 0.112474 0.191989
0.940566 0.164187 0.269337
0.964477 0.218997 0.33785
0.962539 0.273075 0.388952
0.960037 0.327962 0.419806
0.959045 0.35874 0.438361
0.95877 0.374456 0.4486
0.95877 0.374456 0.4486
0.95877 0.374456 0.4486
0.95877 0.374456 0.4486
0.95877 0.374456 0.4486
0.95877 0.374456 0.4486
0.95877 0.374456 0.4486
0.95877 0.374456 0.4486
0.95877 0.374456 0.4486
0.95877 0.374456 0.4486
0.95877 0.374456 0.4486
0.95877 0.374456 0.4486
0.95877 0.374456 0.4486
0.000274662 0.00717174 0.00015259
0.000350958 0.00582895 7.62951e-05
0.000411994 0.00445563 1.5259e-05
0.00616464 0.00393683 0.00015259
0.0177615 0.00347906 0.000549325
0.040528 0.00282292 0.00141909
0.078706 0.00271611 0.00268559
0.129259 0.00364691 0.00483711
0.196902 0.00567636 0.00866712
0.287739 0.0081178 0.016083
0.397436 0.013962 0.0264897
0.51812 0.0226902 0.0440223
0.642771 0.0364538 0.0697337
0.756848 0.0587625 0.104295
0.847044 0.0930953 0.159747
0.919371 0.137957 0.229313
0.966308 0.190539 0.304234
0.963729 0.247089 0.370398
0.961135 0.299702 0.402747
0.959487 0.342504 0.428
0.958801 0.374136 0.448432
0.958785 0.37435 0.448554
0.95877 0.374456 0.4486
0.95877 0.374456 0.4486
0.95877 0.374456 0.4486
0.95877 0.374456 0.4486
0.95877 0.374456 0.4486
0.95877 0.374456 0.4486
0.95877 0.374456 0.4486
0.95877 0.374456 0.4486
0.95877 0.374456 0.4486
0.95877 0.374456 0.4486
0.95877 0.374456 0.4486
6.10361e-05 0.0138094 1.5259e-05
0.000381476 0.0121004 6.10361e-05
0.000762951 0.0104372 0.000106813
0.00331121 0.00865187 7.62951e-05
0.0104829 0.00703441 0.000137331
0.0283665 0.00581369 0.000396735
0.059556 0.00480659 0.00164797
0.100572 0.00469978 0.00343328
0.155749 0.00601205 0.00590524
0.240085 0.00808728 0.01178
0.338872 0.0115511 0.0200656
0.452888 0.0174716 0.0336767
0.579767 0.0271763 0.0545815
0.697856 0.0462959 0.0854658
0.798657 0.0745556 0.130663
0.884153 0.112505 0.190661
0.951766 0.160632 0.265217
0.960494 0.219928 0.341176
0.9617 0.273487 0.385473
0.959838 0.322667 0.41593
0.958923 0.370123 0.446113
0.958801 0.37377 0.448264
0.95877 0.374456 0.4486
0.95877 0.374456 0.4486
0.95877 0.374456 0.4486
0.95877 0.374456 0.4486
0.95877 0.374456 0.4486
0.95877 0.374456 0.4486
0.95877 0.374456 0.4486
0.95877 0.374456 0.4486
0.95877 0.374456 0.4486
0.95877 0.374456 0.4486
0.95877 0.374456 0.4486
7.62951e-05 0.0237888 0.000137331
0.000274662 0.0212863 0.000335698
0.000488289 0.0189212 0.00047303
0.000885023 0.0169375 0.000350958
0.00546273 0.014786 0.000244144
0.0175631 0.0120699 0.000137331
0.0419928 0.0112001 0.000335698
0.0736706 0.0107881 0.000900282
0.123674 0.00956741 0.00276188
0.194446 0.00979629 0.00695811
0.281407 0.0106661 0.0138857
0.38558 0.0128328 0.0247501
0.511467 0.0200198 0.0428779
0.63447 0.0352483 0.0690471
0.746197 0.0580911 0.104784
0.843473 0.0890516 0.153857
0.922988 0.132311 0.224155
0.952392 0.191363 0.306569
0.962707 0.246006 0.363989
0.960662 0.297551 0.401236
0.959106 0.351995 0.434699
0.958785 0.368872 0.445106
0.95877 0.374456 0.4486
0.95877 0.374456 0.4486
0.95877 0.374456 0.4486
0.95877 0.374456 0.4486
0.95877 0.374456 0.4486
0.95877 0.374456 0.4486
0.95877 0.374456 0.4486
0.95877 0.374456 0.4486
0.95877 0.374456 0.4486
0.95877 0.374456 0.4486
0.95877 0.374456 0.4486
0.000411994 0.041825 0.000213626
0.000564584 0.0372625 0.000457771
0.000518807 0.0332341 0.000518807
0.000167849 0.029221 0.00030518
0.00328069 0.0258488 0.000228885
0.0100252 0.0229038 0.000289921
0.0290074 0.021561 0.000167849
0.0542306 0.0204623 9.15541e-05
0.100587 0.018265 0.00102235
0.161486 0.0175631 0.00334173
0.237263 0.0180972 0.00787366
0.334462 0.0202792 0.0158694
0.45417 0.0261387 0.0309453
0.577966 0.037171 0.0522316
0.695232 0.0527962 0.0826276
0.801205 0.0740215 0.125582
0.884688 0.111238 0.189136
0.938643 0.162997 0.266743
0.964385 0.217716 0.335531
0.962203 0.271534 0.387106
0.959472 0.32607 0.418463
0.958755 0.358221 0.438132
0.95877 0.374456 0.4486
0.95877 0.374456 0.4486
0.95877 0.374456 0.4486
0.95877 0.374456 0.4486
0.95877 0.374456 0.4486
0.95877 0.374456 0.4486
0.95877 0.374456 0.4486
0.95877 0.374456 0.4486
0.95877 0.374456 0.4486
0.95877 0.374456 0.4486
0.95877 0.374456 0.4486
0.000595102 0.0628367 0.000259403
0.000747692 0.0563211 0.000534066
0.000564584 0.0508736 0.000457771
0.00015259 0.0442512 0.000183108
0.00161746 0.0396124 0.00030518
0.00408942 0.0365759 0.00062562
0.0191806 0.0343481 0.000411994
0.0387732 0.0322728 7.62951e-05
0.0808423 0.029633 4.57771e-05
0.133333 0.0284276 0.00077821
0.19826 0.0287022 0.00289921
0.289525 0.0312047 0.00831617
0.401877 0.0357671 0.0197147
0.522194 0.0437476 0.0364385
0.643824 0.0557412 0.061326
0.757229 0.072343 0.0982071
0.846342 0.105272 0.154925
0.917983 0.149599 0.2271
0.960723 0.199969 0.302647
0.962554 0.254215 0.37377
0.960281 0.302831 0.4038
0.959197 0.344915 0.430167
0.95877 0.374456 0.4486
0.95877 0.374456 0.4486
0.95877 0.374456 0.4486
0.95877 0.374456 0.4486
0.95877 0.374456 0.4486
0.95877 0.374456 0.4486
0.95877 0.374456 0.4486
0.95877 0.374456 0.4486
0.95877 0.374456 0.4486
0.95877 0.374456 0.4486
0.95877 0.374456 0.4486
0.000167849 0.0876936 0.00030518
0.000244144 0.0806287 0.000579843
0.000198367 0.0747692 0.000579843
0.000122072 0.0677806 0.000518807
0.000823987 0.062089 0.000656138
0.00183108 0.0570077 0.000885023
0.0137636 0.0533761 0.000503548
0.0303197 0.0501717 0.000183108
0.063035 0.0473793 7.62951e-05
0.108629 0.0459144 0.000381476
0.165698 0.0454108 0.00102235
0.248524 0.0464485 0.0019379
0.352102 0.0504463 0.00917067
0.467567 0.0568551 0.0216526
0.591516 0.0666361 0.0409094
0.710765 0.0836805 0.0730449
0.808438 0.11043 0.121859
0.892668 0.146548 0.187976
0.951553 0.191043 0.26627
0.961608 0.245029 0.351293
0.960784 0.288396 0.386038
0.959442 0.334905 0.418296
0.958495 0.373632 0.443793
0.958785 0.375799 0.446952
0.958801 0.375235 0.448142
0.95877 0.374456 0.4486
0.95877 0.374456 0.4486
0.95877 0.374456 0.4486
0.95877 0.374456 0.4486
0.95877 0.374456 0.4486
0.95877 0.374456 0.4486
0.95877 0.374456 0.4486
0.95877 0.374456 0.4486
0.000427253 0.124865 0.00030518
0.000366217 0.116533 0.00047303
0.000289921 0.108263 0.000396735
0.000198367 0.0982223 0.000350958
0.000396735 0.0895705 0.00047303
0.00138857 0.0812543 0.000595102
0.00802625 0.0760204 0.000350958
0.0218051 0.071809 0.00015259
0.0486152 0.0690013 4.57771e-05
0.0886397 0.0671092 0.000167849
0.139925 0.0660716 0.000381476
0.214618 0.0666514 0.000213626
0.308446 0.0694743 0.00328069
0.417548 0.0745403 0.0103151
0.538888 0.0825208 0.0232547
0.659586 0.0994125 0.0508125
0.764889 0.124025 0.0928054
0.854871 0.15642 0.148836
0.926558 0.197635 0.219135
0.957382 0.251133 0.305501
0.960845 0.291905 0.35819
0.959319 0.333349 0.399878
0.957748 0.371115 0.431495
0.958755 0.378347 0.442893
0.958831 0.377371 0.446967
0.958694 0.37586 0.448005
0.958709 0.375952 0.44799
0.958816 0.37583 0.448066
0.958907 0.375387 0.448234
0.958907 0.374624 0.448493
0.958816 0.374502 0.448569
0.95877 0.374456 0.4486
0.95877 0.374456 0.4486
0.000701915 0.170138 0.000427253
0.000579843 0.159655 0.000427253
0.000427253 0.148196 0.000244144
0.000320439 0.134279 6.10361e-05
0.000366217 0.121462 6.10361e-05
0.000823987 0.108843 4.57771e-05
0.00236515 0.101701 9.15541e-05
0.013901 0.0967117 0.000106813
0.035874 0.0937667 3.0518e-05
0.0710613 0.0914626 4.57771e-05
0.11812 0.0895552 0.000137331
0.184894 0.0900282 0.000244144
0.269108 0.0918135 0.000320439
0.371237 0.0958419 0.00231937
0.485924 0.102815 0.00939956
0.606928 0.118471 0.0300145
0.716808 0.140597 0.0633249
0.814176 0.170352 0.110445
0.896239 0.208804 0.171633
0.949615 0.261189 0.256764
0.960403 0.303243 0.324895
0.958755 0.341115 0.376715
0.957488 0.374624 0.411078
0.958587 0.394766 0.432471
0.95819 0.396765 0.4392
0.957748 0.392294 0.441016
0.958236 0.386938 0.443503
0.95903 0.3832 0.445106
0.959426 0.379202 0.446662
0.959411 0.375311 0.448112
0.958938 0.37467 0.448463
0.95877 0.374456 0.4486
0.95877 0.374456 0.4486
0.000701915 0.227832 0.000839246
0.00062562 0.214435 0.000671397
0.000457771 0.200046 0.000503548
0.000320439 0.18291 0.000427253
0.000274662 0.166537 0.000595102
0.000488289 0.151492 0.000518807
0.00109865 0.141176 0.000213626
0.00906386 0.133394 9.15541e-05
0.0214847 0.127092 1.5259e-05
0.0556191 0.123079 0.000106813
0.0972152 0.120546 0.000213626
0.15288 0.120119 0.000259403
0.225681 0.120836 0.000213626
0.32607 0.123552 0.000320439
0.436103 0.129091 0.00155642
0.554391 0.142351 0.0117189
0.669596 0.162325 0.0355077
0.773617 0.188983 0.0746777
0.860395 0.224567 0.127687
0.932601 0.272679 0.205707
0.957259 0.316701 0.283879
0.958511 0.353933 0.348562
0.957778 0.380987 0.386419
0.958465 0.409812 0.418082
0.9579 0.416373 0.430152
0.957412 0.411749 0.433433
0.958114 0.4047 0.436698
0.959106 0.400168 0.43856
0.959274 0.395544 0.440192
0.958618 0.390875 0.441749
0.958221 0.386877 0.444175
0.95845 0.38378 0.445319
0.959014 0.380926 0.445853
0.000366217 0.29572 0.000595102
0.000289921 0.280354 0.000671397
0.000198367 0.264485 0.000793469
0.000228885 0.24416 0.000808728
0.000320439 0.224308 0.000793469
0.000350958 0.205371 0.000595102
0.000411994 0.189807 0.000259403
0.00422675 0.178698 0.000213626
0.00968948 0.169268 0.000198367
0.0420386 0.163668 0.000167849
0.0782025 0.160525 0.00015259
0.128359 0.158785 0.000167849
0.195575 0.158251 0.00015259
0.28867 0.159426 9.15541e-05
0.392523 0.163577 3.0518e-05
0.504555 0.174304 0.00424201
0.621012 0.19237 0.0169528
0.72987 0.216251 0.0419471
0.819715 0.247974 0.0896468
0.897749 0.289265 0.154803
0.943252 0.333959 0.233356
0.959136 0.373663 0.311147
0.958968 0.393118 0.357198
0.958419 0.424277 0.399527
0.957763 0.435431 0.419501
0.957534 0.433249 0.426017
0.958083 0.426459 0.428763
0.959075 0.421714 0.430457
0.959045 0.416434 0.432151
0.957961 0.410452 0.434165
0.957534 0.403784 0.437613
0.957992 0.398627 0.439368
0.958846 0.394202 0.440406
0.000274662 0.369345 0.000534066
0.000167849 0.353338 0.000762951
6.10361e-05 0.33611 0.000976577
0.000198367 0.314244 0.000885023
0.000411994 0.291463 0.000671397
0.000381476 0.269215 0.000488289
0.000289921 0.247272 0.000335698
0.000320439 0.232013 0.000518807
0.00491341 0.220874 0.000518807
0.0285801 0.213046 0.000183108
0.0610208 0.207492 0
0.109895 0.203143 0
0.177401 0.201129 9.15541e-05
0.259571 0.201099 0.000183108
0.35375 0.204715 6.10361e-05
0.455985 0.21355 0.00114443
0.572137 0.228275 0.00619516
0.683696 0.247807 0.0186313
0.77557 0.274434 0.0547494
0.860059 0.310826 0.107225
0.923354 0.352987 0.178088
0.958816 0.394873 0.261311
0.958709 0.417914 0.323323
0.958114 0.44123 0.368673
0.957946 0.454734 0.399084
0.958099 0.458778 0.417395
0.957717 0.450736 0.420066
0.958785 0.444862 0.421393
0.959014 0.438529 0.423438
0.958038 0.431556 0.426474
0.957198 0.424552 0.428656
0.957488 0.419135 0.430442
0.958358 0.41471 0.432242
0.00077821 0.450553 0.000686656
0.000457771 0.433478 0.000579843
0.00015259 0.415442 0.00047303
0.000137331 0.392538 0.00047303
0.000137331 0.368566 0.000457771
0.000122072 0.343496 0.00030518
0.000106813 0.318486 0.000106813
0.000366217 0.298009 0.000259403
0.00401312 0.284092 0.000259403
0.01355 0.273548 0.00015259
0.042649 0.265644 9.15541e-05
0.0876478 0.259388 1.5259e-05
0.152789 0.256352 3.0518e-05
0.225742 0.255039 6.10361e-05
0.317861 0.257023 9.15541e-05
0.418448 0.262867 0.00129702
0.530602 0.272206 0.00416571
0.641093 0.287434 0.00939956
0.735424 0.307744 0.0272679
0.823606 0.338216 0.0656138
0.898116 0.374929 0.124437
0.955688 0.415122 0.204288
0.957656 0.443473 0.28072
0.957855 0.462425 0.333745
0.95761 0.475364 0.373068
0.957885 0.485451 0.404608
0.957778 0.478019 0.407919
0.958007 0.470939 0.410498
0.958053 0.463874 0.413413
0.958022 0.457008 0.416846
0.957382 0.449348 0.419211
0.957504 0.44329 0.421851
0.958022 0.438041 0.424765
0.00477607 0.532311 0.000534066
0.00396735 0.515496 0.000381476
0.00308232 0.497612 0.000274662
0.00202945 0.474861 0.000274662
0.00103761 0.450385 0.00030518
0.000808728 0.422644 0.000213626
0.000610361 0.395544 0.000106813
0.000518807 0.371008 0.000228885
0.0016022 0.354528 0.000259403
0.0037232 0.340475 0.000167849
0.0301213 0.330144 0.000198367
0.0633249 0.322728 0.00030518
0.126116 0.318944 0.000335698
0.193698 0.316289 0.000335698
0.284382 0.315908 0.00015259
0.383856 0.318349 0.00184634
0.489372 0.323735 0.005066
0.597757 0.335088 0.00991836
0.694469 0.351217 0.0199741
0.785977 0.374548 0.0399023
0.866758 0.403494 0.0747082
0.935363 0.439078 0.146197
0.954101 0.473259 0.231601
0.957702 0.491249 0.295933
0.956985 0.498604 0.341833
0.956954 0.512779 0.38732
0.957534 0.506325 0.393332
0.957198 0.498772 0.398215
0.957031 0.490944 0.401953
0.95787 0.483787 0.405386
0.957519 0.476219 0.408133
0.957534 0.469429 0.411521
0.957794 0.462974 0.415335
0.00988785 0.61001 0.00190738
0.00866712 0.594171 0.0016022
0.00721752 0.577234 0.00120546
0.00534066 0.556313 0.000686656
0.00355535 0.532601 0.00030518
0.0027924 0.504829 0.000259403
0.00198367 0.478035 0.000274662
0.000885023 0.45182 0.000427253
0.000518807 0.431022 0.000396735
0.00062562 0.412634 9.15541e-05
0.0174716 0.399237 0.000457771
0.0432288 0.391409 0.00077821
0.100313 0.385901 0.000762951
0.16524 0.381613 0.000656138
0.2533 0.378531 0.000442512
0.351049 0.377829 0.00297551
0.449241 0.37937 0.00660716
0.553796 0.387045 0.0112612
0.653696 0.398688 0.0178836
0.747662 0.41471 0.0283513
0.831281 0.436881 0.0447395
0.903868 0.468315 0.0951553
0.942916 0.50251 0.169055
0.956924 0.524193 0.242084
0.95642 0.531319 0.300786
0.955734 0.539376 0.351598
0.956039 0.535256 0.373693
0.955962 0.52874 0.384436
0.956008 0.520882 0.388464
0.957351 0.512001 0.392172
0.957458 0.50457 0.39559
0.957427 0.496971 0.399619
0.957412 0.489113 0.404105
0.0158236 0.683345 0.00523384
0.0146487 0.668894 0.00460822
0.0128939 0.653223 0.00337224
0.0107118 0.634012 0.00189212
0.0090486 0.612726 0.0009308
0.00810254 0.586542 0.00062562
0.00669871 0.560327 0.000335698
0.00483711 0.53373 0.000198367
0.0030518 0.510842 0.000183108
0.00242618 0.489982 0.00015259
0.00805676 0.475242 0.000244144
0.0306706 0.464881 0.000274662
0.075288 0.45568 0.000228885
0.140154 0.4495 0.000701915
0.223835 0.444831 0.00167849
0.320104 0.442603 0.0049897
0.416785 0.441398 0.00874342
0.521294 0.444389 0.013611
0.623789 0.451347 0.0205539
0.717083 0.461982 0.0281834
0.799313 0.479225 0.0359808
0.873304 0.505013 0.0590066
0.927062 0.533623 0.113313
0.955703 0.556252 0.184375
0.955459 0.565637 0.254948
0.95465 0.5691 0.307424
0.954696 0.566522 0.346166
0.954574 0.560845 0.367926
0.954376 0.552865 0.372808
0.955505 0.543709 0.377218
0.955673 0.535714 0.38143
0.955657 0.52781 0.385428
0.955749 0.519554 0.389166
0.0215152 0.743587 0.0104524
0.0202335 0.731609 0.00883497
0.0186007 0.717983 0.00747692
0.0166781 0.701289 0.0059205
0.0151675 0.682475 0.00453193
0.0138399 0.659922 0.00318914
0.0120089 0.636271 0.00254826
0.00972 0.610742 0.00227359
0.00740063 0.587198 0.00125124
0.00576791 0.565881 0.000457771
0.00572213 0.550408 0.000167849
0.021973 0.538399 0.000167849
0.0462348 0.52668 0.000381476
0.11223 0.520333 0.00129702
0.188968 0.514366 0.00248722
0.282963 0.510964 0.00636301
0.380377 0.508217 0.0107729
0.485344 0.508247 0.0164492
0.58999 0.511513 0.023209
0.686137 0.51751 0.0302739
0.769512 0.530022 0.038117
0.844068 0.547967 0.0504921
0.907546 0.56817 0.0788586
0.953948 0.588663 0.127352
0.953674 0.60238 0.203601
0.953384 0.602731 0.25864
0.953475 0.599344 0.310414
0.953414 0.593881 0.346502
0.95317 0.585351 0.354223
0.954147 0.576257 0.359258
0.954421 0.567712 0.364294
0.954452 0.559319 0.368902
0.954543 0.551034 0.372595
0.0268711 0.797864 0.0150759
0.0255741 0.787594 0.0134585
0.0241703 0.775525 0.0122225
0.0225223 0.761196 0.0107271
0.0211337 0.744717 0.00918593
0.0197299 0.726986 0.00747692
0.0177768 0.706386 0.00645457
0.0153506 0.68365 0.0059205
0.0134585 0.660136 0.00315862
0.0120851 0.639521 0.00122072
0.0112154 0.62417 0.000503548
0.0117494 0.609888 0.000823987
0.0187533 0.596857 0.00135805
0.0842603 0.589792 0.00231937
0.15108 0.584009 0.00407416
0.241535 0.57937 0.00820935
0.340948 0.574807 0.0132753
0.446601 0.571756 0.0195926
0.551904 0.571893 0.0265965
0.651499 0.57438 0.0339971
0.737758 0.581842 0.0421607
0.814603 0.593484 0.0504005
0.881743 0.606668 0.0656443
0.94052 0.623224 0.0935378
0.949264 0.640452 0.153887
0.952193 0.640558 0.206256
0.952697 0.634592 0.259297
0.95285 0.626917 0.308568
0.952956 0.617685 0.328588
0.953704 0.609079 0.33724
0.953902 0.600229 0.344121
0.953796 0.591257 0.350332
0.953643 0.5832 0.354665
0.0319371 0.846098 0.0195926
0.0307317 0.836637 0.018616
0.0295109 0.826261 0.0177005
0.0281071 0.814008 0.0166018
0.0268711 0.799344 0.0155489
0.0255589 0.783673 0.014374
0.0239719 0.765408 0.0123445
0.0219883 0.744518 0.0102235
0.0197757 0.723827 0.00849927
0.0179599 0.704814 0.00657664
0.016495 0.688731 0.00457771
0.0156252 0.675105 0.0047303
0.0251011 0.662943 0.00485237
0.0553445 0.655406 0.00529488
0.111498 0.648417 0.00740063
0.203784 0.642939 0.0115206
0.308309 0.637781 0.0172885
0.41738 0.633341 0.024094
0.519936 0.632715 0.0318761
0.623362 0.632959 0.040238
0.711803 0.635874 0.048188
0.787976 0.641657 0.0556191
0.855711 0.649821 0.0650492
0.918013 0.660441 0.0785229
0.942 0.67657 0.117281
0.951247 0.677699 0.157855
0.951949 0.670893 0.203586
0.951965 0.662272 0.258946
0.952453 0.650584 0.292958
0.952667 0.641657 0.307942
0.952514 0.633402 0.316411
0.952438 0.624949 0.324468
0.952987 0.616815 0.33106
0.0373999 0.888579 0.0242161
0.0362097 0.879637 0.0233921
0.0349126 0.869627 0.0224765
0.0335393 0.857969 0.0214542
0.0323186 0.845457 0.0205081
0.0310063 0.831617 0.0194095
0.0295567 0.815534 0.0171054
0.0278172 0.797696 0.014847
0.0257725 0.780087 0.0135653
0.0236057 0.763165 0.0117952
0.0215152 0.747295 0.00985733
0.0201114 0.734478 0.00936904
0.0248722 0.722438 0.00868238
0.0348211 0.714214 0.00817884
0.0874495 0.706828 0.0103151
0.16022 0.699428 0.0135958
0.264836 0.694759 0.0201114
0.376806 0.690227 0.0273747
0.478996 0.688792 0.035462
0.587488 0.686854 0.0438392
0.683406 0.686824 0.0510567
0.760174 0.688869 0.061738
0.830488 0.692821 0.0739147
0.892393 0.699672 0.0864271
0.932738 0.709926 0.102144
0.951049 0.712978 0.120165
0.951202 0.709133 0.146532
0.951003 0.699596 0.199725
0.951782 0.684871 0.24947
0.951736 0.674052 0.274495
0.95137 0.666056 0.284443
0.951629 0.658198 0.2934
0.952316 0.649943 0.30132
0.0430457 0.928283 0.0293584
0.0419928 0.91986 0.028397
0.0407721 0.910445 0.0272831
0.0393072 0.899901 0.0260929
0.0377356 0.888426 0.024918
0.0361181 0.875273 0.0235447
0.0346227 0.86128 0.021561
0.0330663 0.845792 0.0196231
0.0315099 0.830686 0.0183261
0.0290227 0.815671 0.0170748
0.0265354 0.801144 0.0157626
0.0253605 0.78854 0.0144198
0.024094 0.77763 0.0127413
0.0230106 0.768383 0.011017
0.0633249 0.760113 0.0130159
0.111254 0.752438 0.0155489
0.216281 0.748104 0.0221561
0.3205 0.74374 0.0289464
0.427146 0.740871 0.0373693
0.545617 0.736477 0.0467994
0.649393 0.734096 0.0557717
0.728786 0.734066 0.0679179
0.804456 0.735271 0.081117
0.868589 0.738796 0.0938277
0.919539 0.744915 0.105058
0.947784 0.748913 0.116518
0.951034 0.749325 0.128603
0.951034 0.737408 0.149783
0.951415 0.720989 0.197192
0.951247 0.707149 0.232792
0.950805 0.697887 0.246143
0.951812 0.690257 0.256138
0.95198 0.682277 0.265904
0.0482032 0.961013 0.0339055
0.047303 0.95404 0.0328832
0.0463569 0.9467 0.0317998
0.0448615 0.938628 0.030457
0.0429847 0.92929 0.0288701
0.0406958 0.916564 0.0273594
0.0386664 0.903639 0.0262608
0.0375067 0.889891 0.0250553
0.0371252 0.875212 0.0238956
0.0350195 0.860258 0.0223392
0.0326848 0.845914 0.0207523
0.0307774 0.83415 0.0196384
0.0290837 0.824186 0.0176242
0.0287327 0.814786 0.0157626
0.0413367 0.806058 0.0166781
0.075639 0.799008 0.0185702
0.16083 0.794415 0.0229191
0.260624 0.790219 0.0292515
0.385519 0.786313 0.0385595
0.505577 0.782193 0.0502785
0.61677 0.778744 0.0632792
0.696147 0.778164 0.0748302
0.777234 0.777188 0.0879377
0.843809 0.7776 0.101427
0.901122 0.780591 0.113313
0.939925 0.784237 0.122026
0.951339 0.787579 0.125841
0.951537 0.774517 0.127886
0.951431 0.757519 0.155642
0.95108 0.741115 0.186404
0.950942 0.728969 0.207752
0.951171 0.721263 0.215595
0.951431 0.713375 0.224872
0.0479286 0.965362 0.033875
0.0476692 0.963531 0.0336156
0.0473793 0.96141 0.0332952
0.0468452 0.958373 0.0328222
0.0461433 0.95433 0.032166
0.0452277 0.948058 0.031632
0.0441901 0.940703 0.0312047
0.0430762 0.929976 0.0298466
0.0421302 0.916457 0.0280308
0.0401923 0.901869 0.0266117
0.0382239 0.887953 0.0253605
0.0365759 0.876616 0.024567
0.0347295 0.867002 0.022385
0.0332952 0.857496 0.0207218
0.033051 0.84892 0.0209201
0.0571603 0.842176 0.0219272
0.0984665 0.836088 0.0233768
0.196109 0.831159 0.0298466
0.327108 0.826337 0.038941
0.4486 0.822568 0.0525216
0.56907 0.818936 0.0671702
0.658869 0.817075 0.0814527
0.747936 0.81474 0.0959487
0.819165 0.813931 0.108385
0.876509 0.815366 0.120119
0.923903 0.817868 0.130846
0.950835 0.821408 0.138537
0.952483 0.810575 0.136095
0.951904 0.794614 0.133928
0.950912 0.77612 0.136431
0.951431 0.760586 0.169802
0.950881 0.751598 0.176974
0.950973 0.743862 0.183734
0.0478676 0.967224 0.0339208
0.0478676 0.967224 0.0339208
0.0478676 0.967224 0.0339208
0.0478676 0.967224 0.0339208
0.0478676 0.967224 0.0339208
0.0480049 0.966537 0.0341344
0.048188 0.965606 0.0344396
0.0472267 0.959304 0.0330663
0.0458839 0.95021 0.03122
0.0445106 0.938781 0.0303349
0.0433967 0.927291 0.0296941
0.0426184 0.916259 0.0292058
0.0405432 0.906172 0.026978
0.0388342 0.897292 0.0255894
0.0376898 0.88954 0.0256657
0.037583 0.882429 0.0249027
0.0374304 0.875441 0.023743
0.141772 0.870146 0.0306096
0.244129 0.865431 0.0378729
0.376608 0.861311 0.052491
0.508293 0.857053 0.0679484
0.619928 0.853223 0.0859846
0.716411 0.850385 0.102342
0.795178 0.848951 0.116732
0.854383 0.849485 0.128527
