LUT预设1/iPhone专用lut合集3/iPhone合集3标准版（log）/默片时代.cube
TITLE "Generated by Resolve"
LUT_3D_SIZE 33
0 0 0
0 0 0
0 0 0
0 0 0
0 0 0
0 0 0
0 0 0
0 0 0
0 0 0
0 0 0
0 0 0
0 0 0
0 0 0
0 0 0
0 0 0
0 0 0
0 0 0
0 0 0
0 0 0
0 0 0
0 0 0
0 0 0
0 0 0.002533
0 0.00180056 0.00518807
0.00135805 0.00408942 0.00758373
0.00344854 0.00616464 0.00965896
0.00526436 0.00794995 0.011429
0.00674449 0.0093843 0.0128328
0.00779736 0.0104372 0.0138857
0.00831617 0.0109407 0.0143893
0.00831617 0.0109407 0.0143893
0.00831617 0.0109407 0.0143893
0.00831617 0.0109407 0.0143893
0 0 0
0 0 0
0 0 0
0 0 0
0 0 0
0 0 0
0 0 0
0 0 0
0 0 0
0 0 0
0 0 0
0 0 0
0 0 0
0 0 0
0 0 0
0 0 0
0 0 0
0 0 0
0 0 0.000701915
0 0.000579843 0.00288396
0.00062562 0.0024567 0.0056611
0.00233463 0.00497444 0.00830091
0.00460822 0.00727855 0.0107424
0.00657664 0.00921645 0.0126802
0.0081178 0.0107424 0.0141909
0.00917067 0.01178 0.0152285
0.0100099 0.0126192 0.0160678
0.0111391 0.0137331 0.0171817
0.0127108 0.0153201 0.0187533
0.014725 0.01738 0.0208133
0.0153201 0.0180056 0.0214389
0.0156252 0.0183108 0.0217288
0.0159457 0.0186465 0.0220798
0 0 0
0 0 0
0 0 0
0 0 0
0 0 0
0 0 0
0 0 0
0 0 0
0 0 0
0 0 0
0 0 0
0 0 0
0 0 9.15541e-05
0 0.000122072 0.000915541
0.000244144 0.00105287 0.00241093
0.00128176 0.0024567 0.00395209
0.00259403 0.00384527 0.00665293
0.00378424 0.00607309 0.00947585
0.00563058 0.00828565 0.0117494
0.00723278 0.00988785 0.0133364
0.00874342 0.0113527 0.0148013
0.0103304 0.0129397 0.0163882
0.0119631 0.0145724 0.0180209
0.0136873 0.0163119 0.0197604
0.0155947 0.0182498 0.0216831
0.0178683 0.0205844 0.0240177
0.0203861 0.0232395 0.026627
0.0231174 0.0261234 0.0294499
0.0261082 0.0292515 0.0325322
0.0294041 0.0326696 0.0359503
0.0330816 0.0364538 0.0397498
0.0345922 0.0380102 0.0413214
0.0348363 0.0382696 0.0415656
0 0 0
0 0 0
0 0 0
0 0 0
0 0 0
0 0 0
0 0 0
0 0 0
0 0 0
0 0 0
0 0 0.00125124
4.57771e-05 0.00144961 0.00399786
0.0019379 0.0040589 0.00675975
0.00427253 0.00645457 0.00955215
0.00628672 0.0087129 0.0121767
0.00796521 0.0105898 0.0140536
0.00915541 0.0117494 0.015198
0.0103609 0.0129549 0.0163882
0.0121309 0.014725 0.0181582
0.0142672 0.0168917 0.0203403
0.0166934 0.0193637 0.022797
0.0193637 0.0220951 0.0255283
0.0222477 0.0251621 0.0285344
0.0253147 0.028397 0.0317082
0.0285191 0.0317998 0.0350347
0.0320134 0.0354314 0.0386664
0.0359197 0.0394446 0.04271
0.0400702 0.0436713 0.0469673
0.0443427 0.0480354 0.0513313
0.0488289 0.0526284 0.0559091
0.0534371 0.0573739 0.0606241
0.0582132 0.0623484 0.0654917
0.0586557 0.0628214 0.0659648
0 0 0
0 0 0
0 0 0
0 0 0
0 0 0
0 0 0
0 0 0
7.62951e-05 0.000137331 0.000335698
0.000381476 0.00132753 0.00469978
0.00222782 0.0049897 0.00846876
0.00534066 0.00802625 0.01149
0.00779736 0.0104219 0.0138705
0.00962844 0.0122377 0.015671
0.0106966 0.0132906 0.0167391
0.0122377 0.014847 0.0182803
0.0145113 0.0171511 0.0205844
0.0172427 0.0199588 0.0233768
0.0202792 0.0230869 0.0264744
0.023621 0.0265507 0.0299229
0.0271 0.0302281 0.0335546
0.0307317 0.0340429 0.0372931
0.0346075 0.0381018 0.0413214
0.0388342 0.0424506 0.0456855
0.0431525 0.0468757 0.0501259
0.0475624 0.0514076 0.0546578
0.0521859 0.0561837 0.0593881
0.0569314 0.0610819 0.0641947
0.0616922 0.0661479 0.0690929
0.0665599 0.0714122 0.0741436
0.071519 0.0768292 0.0792859
0.0767987 0.0825666 0.0846418
0.0822766 0.0885023 0.0901656
0.08542 0.0919051 0.0933242
0 0 0
0 0 0
0 0 0
0 0.000396735 0.00154116
0.000808728 0.00187686 0.00321965
0.002121 0.00335698 0.00590524
0.00363165 0.00602731 0.00950637
0.00608835 0.00877394 0.0122377
0.00828565 0.0109102 0.014374
0.0103609 0.0129702 0.0164187
0.0121614 0.014786 0.0182345
0.0142367 0.0168917 0.0203098
0.0169985 0.0197299 0.0231327
0.0201724 0.0230106 0.0263981
0.023743 0.0267033 0.0300603
0.0276646 0.030808 0.0341344
0.0317693 0.0350652 0.0383764
0.0360266 0.0395209 0.0427558
0.0406806 0.0443122 0.0475471
0.0454414 0.0492409 0.0524758
0.0502937 0.0542916 0.0574502
0.0551461 0.0593729 0.0624399
0.0600443 0.0644846 0.0674296
0.0649882 0.0697032 0.0724498
0.0699474 0.0751049 0.0776074
0.0751507 0.0807202 0.0829023
0.0804608 0.0864424 0.0882887
0.0860456 0.0924086 0.0938888
0.0917678 0.0985122 0.0996109
0.0980392 0.104997 0.10576
0.104692 0.111772 0.112245
0.111315 0.118502 0.11873
0.11809 0.125368 0.125322
0.000900282 0.00131228 0.00450141
0.00030518 0.000442512 0.00360113
0.00216678 0.00444038 0.00732433
0.00491341 0.00717174 0.0104829
0.00694286 0.00959792 0.0130465
0.00856031 0.0111849 0.0146334
0.0106661 0.0132601 0.0167086
0.0130159 0.0156405 0.019089
0.0156405 0.0183108 0.0217441
0.0188296 0.0216068 0.0250095
0.0224765 0.0254368 0.0287785
0.0264897 0.029633 0.032929
0.0310369 0.0343175 0.0376287
0.0357366 0.0391699 0.0424659
0.0407111 0.0443122 0.0475776
0.0458839 0.0496376 0.0528878
0.0510872 0.0551156 0.0582742
0.0563821 0.0607156 0.0637217
0.0617685 0.0664073 0.0692149
0.0671855 0.0721599 0.0747234
0.0725567 0.0779431 0.0802319
0.0779126 0.0836957 0.0856794
0.0835889 0.0897078 0.0913863
0.0894026 0.0958724 0.0972152
0.0953994 0.10219 0.103166
0.101732 0.108721 0.109346
0.108202 0.115328 0.115618
0.115129 0.122347 0.122362
0.122148 0.129519 0.129183
0.12961 0.13698 0.1364
0.137133 0.144457 0.143618
0.144411 0.151736 0.150469
0.151797 0.159304 0.157366
0.00767529 0.0103151 0.0137789
0.00721752 0.00985733 0.0133211
0.00935378 0.0119478 0.0154116
0.0103914 0.0129854 0.0164187
0.0129091 0.0155032 0.0189517
0.0162051 0.0188754 0.0223087
0.0198978 0.0226902 0.0260929
0.0239414 0.0269627 0.0302892
0.0282444 0.0314946 0.0347448
0.0333562 0.0367742 0.0400397
0.0387274 0.0422675 0.0455482
0.0442359 0.0479286 0.0512093
0.0499428 0.0538033 0.0570382
0.0556802 0.0598764 0.062974
0.0614633 0.0661021 0.0689555
0.067277 0.0723125 0.074876
0.0731823 0.0786755 0.0808728
0.0792096 0.0851301 0.0869764
0.0852827 0.0915389 0.0930648
0.0915236 0.0980392 0.0992905
0.0979477 0.104768 0.105684
0.104433 0.111437 0.112001
0.11133 0.118441 0.118639
0.118181 0.125444 0.125277
0.125307 0.132692 0.132174
0.132723 0.140185 0.139345
0.140597 0.147967 0.14696
0.148501 0.15584 0.154391
0.156191 0.16376 0.161624
0.163943 0.171801 0.16907
0.172351 0.18024 0.177478
0.181094 0.188708 0.186007
0.190036 0.19733 0.194507
0.0148928 0.0175326 0.0209812
0.0138247 0.0164645 0.019913
0.0165408 0.0192569 0.0226596
0.0204623 0.02327 0.0266728
0.0247654 0.0277867 0.0311437
0.0292973 0.0325933 0.0358434
0.0345159 0.0380102 0.0412451
0.0404669 0.0440833 0.047364
0.0465553 0.050309 0.0535897
0.0528572 0.0567636 0.0599985
0.0589914 0.0633249 0.0663615
0.0652171 0.0700999 0.0728313
0.0714885 0.0768749 0.0792096
0.0780041 0.0839094 0.0857862
0.0846418 0.0909438 0.0924392
0.0914626 0.0980392 0.0992142
0.0985275 0.105333 0.106249
0.105486 0.112474 0.113054
0.112566 0.119677 0.11986
0.119875 0.127092 0.126864
0.12726 0.134707 0.133959
0.134951 0.142458 0.141451
0.14287 0.150317 0.149142
0.150912 0.158267 0.156771
0.15903 0.1664 0.16434
0.167315 0.175097 0.172335
0.176059 0.183886 0.180987
0.185306 0.192889 0.18999
0.194644 0.201923 0.198917
0.203677 0.21091 0.207477
0.212543 0.220127 0.21593
0.221393 0.229236 0.224247
0.230671 0.238666 0.232929
0.0271153 0.0303197 0.0335699
0.02533 0.0284276 0.0317235
0.0299077 0.0331426 0.0364538
0.0354009 0.03888 0.0421302
0.0413825 0.0450599 0.0483101
0.0477607 0.051606 0.0548562
0.0543679 0.058381 0.0615854
0.0609598 0.0653239 0.0683757
0.0675364 0.0725567 0.075227
0.0742657 0.0799115 0.082063
0.0812085 0.0874189 0.0890669
0.0885328 0.0951247 0.0963455
0.0961166 0.102907 0.103868
0.103929 0.110887 0.111589
0.11162 0.1187 0.119036
0.11931 0.126467 0.126329
0.127184 0.134524 0.133837
0.134951 0.142626 0.141299
0.14342 0.150988 0.149645
0.152087 0.159472 0.157977
0.16051 0.167895 0.165896
0.168826 0.17644 0.173831
0.177691 0.185504 0.182528
0.187274 0.19498 0.191928
0.197192 0.204456 0.201251
0.206821 0.21413 0.210452
0.216083 0.223713 0.219242
0.225605 0.233585 0.228168
0.235554 0.24358 0.237522
0.245884 0.253895 0.247318
0.256214 0.264195 0.257023
0.266239 0.274189 0.266285
0.276661 0.284566 0.275731
0.0446479 0.0483406 0.0516365
0.0419471 0.0455787 0.0488594
0.0474556 0.0513161 0.0545205
0.05449 0.0586862 0.0617838
0.0616159 0.0660563 0.0690013
0.0685588 0.0736095 0.0762341
0.0755932 0.0813001 0.0834516
0.0829023 0.0892653 0.0908217
0.0907912 0.0975509 0.0986038
0.0990768 0.106004 0.106813
0.107439 0.114504 0.115038
0.115923 0.123018 0.123201
0.124315 0.131518 0.131136
0.132647 0.140108 0.13904
0.141161 0.148852 0.147295
0.150362 0.1579 0.156359
0.159564 0.166857 0.165118
0.168444 0.175937 0.173495
0.177508 0.18526 0.182284
0.187106 0.194827 0.191669
0.197208 0.204669 0.201343
0.20737 0.214679 0.210956
0.217426 0.22504 0.220569
0.227497 0.235386 0.229923
0.23827 0.24625 0.240024
0.248951 0.256916 0.250141
0.259785 0.267704 0.26038
0.270588 0.278492 0.270314
0.281712 0.289509 0.280293
0.292714 0.300374 0.290318
0.304036 0.311482 0.300832
0.315282 0.322332 0.311376
0.327062 0.333577 0.322454
0.0647288 0.0695964 0.072343
0.0615396 0.0662089 0.0690623
0.067628 0.0726177 0.0751812
0.0754406 0.0810254 0.0832074
0.0831922 0.0894331 0.0910506
0.0910048 0.0978561 0.0988632
0.0996872 0.106752 0.107393
0.108888 0.116014 0.116487
0.118013 0.125154 0.125231
0.127092 0.13434 0.133791
0.135897 0.143465 0.142123
0.145312 0.153017 0.151339
0.155291 0.162799 0.16112
0.165164 0.172396 0.170413
0.174624 0.182116 0.179446
0.184482 0.192279 0.189059
0.194888 0.202533 0.199115
0.2056 0.213001 0.209323
0.216037 0.22356 0.219211
0.226551 0.234424 0.229114
0.237552 0.245548 0.239307
0.24918 0.257176 0.250324
0.260594 0.268513 0.261051
0.272282 0.280125 0.271839
0.283772 0.291508 0.282261
0.295613 0.303166 0.293004
0.307378 0.314717 0.303929
0.319463 0.32636 0.315343
0.33167 0.337987 0.326726
0.344091 0.349798 0.338109
0.356481 0.361563 0.349279
0.368414 0.373083 0.360586
0.380484 0.38471 0.371939
0.0869612 0.0934157 0.0947738
0.0831769 0.0893416 0.090959
0.0897231 0.0962692 0.0975357
0.098558 0.105562 0.106264
0.107836 0.115007 0.11545
0.117693 0.124865 0.125017
0.127504 0.134707 0.134218
0.137194 0.144732 0.143343
0.147005 0.154833 0.152895
0.1579 0.165393 0.163638
0.168353 0.175647 0.173526
0.178622 0.186175 0.183337
0.189349 0.197101 0.193774
0.200534 0.208087 0.204471
0.211688 0.219104 0.215061
0.222644 0.23035 0.225437
0.234028 0.242039 0.236042
0.246006 0.254002 0.247242
0.258274 0.266194 0.258869
0.270314 0.278172 0.270085
0.28278 0.290501 0.281376
0.295125 0.302678 0.292592
0.307774 0.315038 0.304311
0.320287 0.327169 0.316075
0.333288 0.339574 0.328313
0.346487 0.352071 0.340246
0.359289 0.364309 0.352041
0.372137 0.376654 0.36405
0.384833 0.388907 0.375998
0.397406 0.401099 0.387762
0.409735 0.413275 0.399374
0.42208 0.42533 0.411063
0.434012 0.436912 0.422461
0.112535 0.119646 0.119844
0.107713 0.114794 0.11516
0.11487 0.122118 0.122225
0.125429 0.132601 0.132387
0.135866 0.143282 0.142107
0.146395 0.154208 0.152239
0.157931 0.165515 0.163714
0.169314 0.176501 0.174487
0.180179 0.187778 0.184817
0.191531 0.199298 0.195911
0.203586 0.211139 0.207401
0.215534 0.223026 0.218708
0.227253 0.23505 0.229755
0.239307 0.247303 0.24097
0.252293 0.260258 0.253208
0.265034 0.272877 0.265187
0.277821 0.285618 0.276936
0.290974 0.298589 0.288701
0.304387 0.311757 0.301106
0.317815 0.324742 0.313695
0.331258 0.337636 0.32636
0.345083 0.350759 0.338964
0.358816 0.363836 0.351461
0.372427 0.376944 0.36437
0.385962 0.389944 0.377005
0.3991 0.402838 0.389395
0.412085 0.415579 0.401648
0.425101 0.42829 0.413947
0.437888 0.440711 0.426139
0.450416 0.453056 0.438193
0.462745 0.465278 0.450111
0.475044 0.477501 0.461982
0.487327 0.489525 0.473701
0.141161 0.148592 0.147524
0.135836 0.14316 0.142397
0.142916 0.150561 0.148775
0.155047 0.16286 0.160769
0.167681 0.17496 0.172992
0.179355 0.186801 0.184039
0.191257 0.199084 0.195605
0.204135 0.211612 0.207904
0.216754 0.224247 0.219898
0.229206 0.237095 0.231601
0.242329 0.250324 0.243778
0.255863 0.263813 0.25658
0.269383 0.277226 0.2692
0.283024 0.29073 0.281605
0.296941 0.304463 0.294255
0.311025 0.318257 0.307332
0.3252 0.331884 0.320775
0.339712 0.345647 0.334142
0.354559 0.359731 0.347585
0.368872 0.373495 0.360983
0.383108 0.387228 0.374365
0.39704 0.400763 0.387396
0.410636 0.414206 0.400229
0.424445 0.427588 0.413306
0.438163 0.44097 0.426398
0.451377 0.454017 0.439124
0.464424 0.466972 0.451759
0.477638 0.480049 0.464485
0.490471 0.492638 0.476692
0.503227 0.505211 0.488914
0.515496 0.517403 0.500816
0.528038 0.5299 0.5131
0.540047 0.541817 0.524697
0.172152 0.180041 0.177325
0.166171 0.17409 0.171588
0.175677 0.182895 0.180667
0.188525 0.196201 0.192966
0.202106 0.209751 0.205966
0.215793 0.223285 0.218967
0.228931 0.236835 0.231296
0.242618 0.250599 0.244022
0.256794 0.264729 0.257496
0.271046 0.278889 0.270741
0.285588 0.293294 0.283879
0.300191 0.307698 0.29723
0.314794 0.321904 0.310887
0.33022 0.336629 0.325505
0.345678 0.351278 0.339452
0.360891 0.365835 0.353536
0.37615 0.380529 0.367895
0.390906 0.394842 0.38172
0.405417 0.409079 0.395346
0.420081 0.423392 0.409186
0.434669 0.437552 0.423087
0.448524 0.451118 0.436301
0.462562 0.465126 0.449958
0.476555 0.478935 0.463386
0.489937 0.492088 0.476143
0.50338 0.505364 0.489052
0.51664 0.518563 0.501976
0.529747 0.531624 0.514824
0.542718 0.544457 0.52726
0.555474 0.557031 0.539345
0.568032 0.569451 0.551308
0.580301 0.581735 0.563165
0.592325 0.593698 0.574746
0.207385 0.215106 0.211093
0.201404 0.209155 0.205356
0.211444 0.219089 0.214847
0.225834 0.233555 0.228504
0.240391 0.248371 0.241962
0.255222 0.263157 0.255985
0.2701 0.277943 0.269841
0.285069 0.292821 0.28333
0.300603 0.308125 0.297597
0.316304 0.323247 0.312337
0.332525 0.338735 0.327535
0.348684 0.354116 0.342016
0.36463 0.369497 0.357122
0.380453 0.384665 0.371923
0.395773 0.399664 0.386313
0.411368 0.414893 0.400977
0.426688 0.429786 0.415503
0.441688 0.444465 0.429847
0.456443 0.459068 0.444038
0.471122 0.47364 0.458167
0.485649 0.487816 0.471977
0.499748 0.501747 0.485527
0.513985 0.515908 0.499428
0.527825 0.529686 0.512932
0.541375 0.543145 0.526024
0.554833 0.556374 0.538705
0.568215 0.569665 0.551522
0.581186 0.582605 0.564065
0.593942 0.595285 0.576333
0.60676 0.607858 0.588388
0.618616 0.619944 0.599771
0.630747 0.632136 0.611383
0.64242 0.643763 0.622553
0.247135 0.255131 0.248508
0.240314 0.248264 0.2421
0.25005 0.258015 0.25098
0.265888 0.273762 0.265995
0.281819 0.289586 0.280476
0.297887 0.305455 0.295109
0.314733 0.321721 0.310964
0.331533 0.337758 0.326558
0.348394 0.353841 0.341863
0.365118 0.369955 0.357595
0.381872 0.386069 0.373266
0.397971 0.401846 0.388296
0.41413 0.417533 0.403586
0.430182 0.433127 0.41883
0.445808 0.448539 0.433829
0.461616 0.46421 0.449012
0.47689 0.479225 0.463584
0.492164 0.494255 0.478218
0.506752 0.508751 0.492409
0.521614 0.523552 0.507027
0.536217 0.538003 0.521019
0.550423 0.551995 0.534493
0.564599 0.566033 0.548043
0.578485 0.579889 0.561456
0.592294 0.593637 0.574807
0.605386 0.606653 0.587167
0.618311 0.619654 0.599481
0.630976 0.63238 0.611612
0.643565 0.644984 0.623758
0.655695 0.65713 0.635538
0.667643 0.669108 0.647135
0.679286 0.680827 0.658442
0.690745 0.692348 0.669566
0.28983 0.297322 0.288029
0.28191 0.289555 0.280751
0.291859 0.299428 0.289616
0.309178 0.316442 0.305669
0.32726 0.333654 0.322667
0.344945 0.350561 0.33875
0.362692 0.367651 0.355352
0.37995 0.384329 0.371542
0.396902 0.400824 0.387335
0.414069 0.417456 0.403555
0.430762 0.433661 0.419364
0.447227 0.449958 0.435142
0.463584 0.466087 0.450797
0.47985 0.482063 0.466331
0.495369 0.497444 0.481392
0.51107 0.513069 0.496773
0.526513 0.528405 0.511803
0.541741 0.54342 0.526223
0.557092 0.558572 0.540825
0.571633 0.573129 0.55491
0.586084 0.587427 0.568734
0.60029 0.601587 0.582269
0.613916 0.615274 0.595254
0.627619 0.628962 0.608316
0.640726 0.642176 0.621088
0.653864 0.655283 0.633814
0.66656 0.667994 0.646082
0.678752 0.680323 0.657908
0.691051 0.692699 0.669932
0.702663 0.704372 0.681407
0.714321 0.716106 0.692988
0.72578 0.727581 0.70428
0.736584 0.73846 0.715099
0.334936 0.341161 0.329656
0.326253 0.33286 0.321599
0.337179 0.34316 0.331685
0.356268 0.361486 0.34931
0.374777 0.379278 0.366705
0.392828 0.396872 0.383551
0.410681 0.414145 0.400336
0.428046 0.431052 0.416831
0.445487 0.448264 0.433448
0.462638 0.46511 0.449775
0.479469 0.481651 0.465934
0.495888 0.497978 0.481987
0.512322 0.514321 0.4981
0.528664 0.53048 0.513741
0.544915 0.546502 0.529137
0.560449 0.561975 0.544091
0.575982 0.577508 0.559182
0.59118 0.592432 0.57348
0.605737 0.607111 0.587427
0.620203 0.621576 0.601282
0.634272 0.635676 0.614893
0.648035 0.649454 0.628214
0.661463 0.662882 0.641169
0.674601 0.676097 0.653819
0.687739 0.689357 0.666667
0.700343 0.702052 0.679088
0.712566 0.714305 0.691142
0.724834 0.726604 0.703243
0.736492 0.738399 0.7149
0.74789 0.749905 0.726329
0.759136 0.761151 0.737667
0.770001 0.772229 0.748852
0.780255 0.782467 0.75964
0.382254 0.386374 0.373571
0.373587 0.378073 0.365515
0.384268 0.388495 0.375525
0.403708 0.40737 0.393759
0.42237 0.425361 0.411322
0.440238 0.443091 0.428397
0.458442 0.46099 0.445686
0.475761 0.478019 0.462394
0.493278 0.49546 0.479606
0.510811 0.51284 0.49659
0.528038 0.529809 0.512978
0.544778 0.546395 0.528984
0.560983 0.562554 0.544701
0.577203 0.578653 0.560296
0.592813 0.594156 0.575051
0.608392 0.609781 0.58996
0.623453 0.624872 0.604532
0.638407 0.639735 0.618891
0.652796 0.654185 0.632746
0.666651 0.668116 0.646097
0.680537 0.682048 0.659541
0.69395 0.695674 0.672786
0.707317 0.70898 0.685832
0.720073 0.721828 0.698375
0.732677 0.734569 0.710872
0.745007 0.746975 0.723293
0.75671 0.758907 0.735332
0.768093 0.770199 0.747066
0.779095 0.78117 0.758633
0.7897 0.791852 0.770031
0.800259 0.802014 0.780926
0.809949 0.811704 0.791348
0.819318 0.82118 0.801587
0.429999 0.432959 0.418616
0.42118 0.424338 0.410285
0.431403 0.434256 0.419913
0.450782 0.453391 0.438346
0.469184 0.471458 0.456001
0.487907 0.49015 0.474418
0.506218 0.508309 0.492119
0.52401 0.525826 0.50901
0.541665 0.543359 0.52607
0.558709 0.560311 0.54255
0.575494 0.576944 0.558556
0.59205 0.593439 0.574319
0.608392 0.609781 0.590036
0.62417 0.625528 0.60531
0.639521 0.640787 0.619944
0.654505 0.65594 0.634318
0.669581 0.671061 0.648829
0.683879 0.68545 0.662776
0.698131 0.699763 0.676677
0.711803 0.713466 0.690059
0.725155 0.727031 0.703334
0.738338 0.74023 0.716747
0.750622 0.752773 0.729229
0.762905 0.765011 0.741817
0.774868 0.776791 0.754269
0.786236 0.788235 0.766384
0.797162 0.799054 0.777768
0.807782 0.809628 0.789059
0.817914 0.819715 0.800031
0.827756 0.829511 0.810819
0.837507 0.839048 0.821241
0.846784 0.848081 0.831128
0.855482 0.856855 0.840925
0.477226 0.479438 0.463813
0.468101 0.47039 0.454948
0.477699 0.479912 0.464317
0.497902 0.500069 0.484108
0.516823 0.518685 0.502037
0.535317 0.537072 0.519966
0.553475 0.555154 0.537591
0.571221 0.572671 0.554391
0.588418 0.589822 0.570871
0.605249 0.606622 0.587106
0.622003 0.62324 0.603128
0.638102 0.639445 0.618509
0.654139 0.655467 0.633692
0.669627 0.671199 0.648798
0.684535 0.68603 0.663386
0.699138 0.700771 0.677729
0.71342 0.71519 0.691859
0.727581 0.729458 0.70605
0.741009 0.742977 0.719661
0.754055 0.756085 0.73286
0.766857 0.768887 0.746151
0.779065 0.780957 0.758801
0.791043 0.792996 0.771313
0.802319 0.804379 0.783185
0.813581 0.815335 0.795163
0.824247 0.825986 0.806821
0.834592 0.836194 0.817884
0.844923 0.846311 0.828946
0.853864 0.855268 0.839155
0.863081 0.86424 0.849378
0.871931 0.872923 0.859236
0.879835 0.880827 0.868101
0.887739 0.88864 0.876783
0.523949 0.525841 0.509224
0.515114 0.517067 0.500633
0.524773 0.526528 0.509682
0.544488 0.546227 0.528954
0.563378 0.564889 0.546899
0.581521 0.582925 0.564263
0.599634 0.601007 0.581796
0.61706 0.618158 0.598215
0.633661 0.635065 0.614176
0.650706 0.652064 0.630518
0.666743 0.668284 0.646204
0.68249 0.68397 0.661524
0.697856 0.699504 0.676509
0.712734 0.714488 0.69131
0.727367 0.729274 0.705989
0.741543 0.74345 0.720241
0.755291 0.757275 0.734264
0.768597 0.770611 0.747936
0.781613 0.783505 0.761257
0.793881 0.795987 0.774136
0.805814 0.807828 0.786877
0.817746 0.819547 0.799558
0.829023 0.83064 0.811612
0.840024 0.841596 0.823636
0.849546 0.850965 0.834394
0.858763 0.859953 0.844678
0.868009 0.869047 0.854932
0.876814 0.877791 0.864546
0.885237 0.886259 0.874037
0.893309 0.894224 0.882963
0.901427 0.902098 0.891783
0.908888 0.909514 0.900038
0.916228 0.916793 0.90808
0.570413 0.571878 0.553735
0.561608 0.563165 0.545327
0.570459 0.571908 0.553643
0.590188 0.591546 0.572732
0.608881 0.610117 0.590478
0.626612 0.628031 0.607401
0.644144 0.645563 0.624323
0.661219 0.662638 0.640894
0.677714 0.67924 0.656901
0.69398 0.695598 0.67274
0.7093 0.71107 0.688014
0.724956 0.726802 0.703487
0.739528 0.74139 0.718074
0.754238 0.756161 0.733043
0.76817 0.770275 0.74725
0.781842 0.783993 0.761288
0.795224 0.797345 0.775311
0.807507 0.809659 0.788632
0.820066 0.821622 0.801678
0.830869 0.832502 0.81387
0.841398 0.842924 0.825605
0.851667 0.852995 0.836912
0.86157 0.862715 0.847776
0.871336 0.872404 0.858488
0.880339 0.881422 0.868559
0.889097 0.890059 0.878264
0.897963 0.898604 0.887907
0.90605 0.906676 0.896864
0.913924 0.914565 0.905608
0.921645 0.922255 0.914153
0.929229 0.929641 0.922332
0.93637 0.93666 0.930083
0.943343 0.943557 0.937682
0.615656 0.616876 0.597055
0.607034 0.608194 0.588754
0.615152 0.61651 0.596475
0.634318 0.635737 0.614908
0.652522 0.653895 0.632502
0.669886 0.671412 0.649287
0.686992 0.688579 0.665873
0.703609 0.705333 0.682322
0.720027 0.721721 0.69839
0.735378 0.737331 0.713634
0.751003 0.752926 0.729351
0.765423 0.767788 0.744106
0.779706 0.78175 0.758999
0.793088 0.795071 0.773388
0.806073 0.807935 0.787182
0.818616 0.820325 0.800595
0.83003 0.831678 0.813199
0.841459 0.842985 0.825788
0.852506 0.853788 0.837659
0.862928 0.864118 0.849149
0.872877 0.874022 0.860258
0.882582 0.883558 0.871
0.892027 0.892821 0.881453
0.900893 0.901549 0.891188
0.909438 0.910124 0.90071
0.917693 0.918441 0.909941
0.925856 0.926253 0.918654
0.933486 0.933791 0.927001
0.940627 0.940917 0.934813
0.94789 0.948135 0.942657
0.95465 0.954742 0.949889
0.961257 0.961196 0.956909
0.968002 0.967773 0.96405
0.659083 0.660609 0.638834
0.650752 0.652216 0.630808
0.658183 0.659586 0.63798
0.677134 0.67866 0.656229
0.694942 0.696544 0.673609
0.712215 0.713924 0.690471
0.72871 0.730617 0.706935
0.744503 0.746456 0.723018
0.759731 0.761868 0.738598
0.774594 0.776669 0.754131
0.788998 0.790845 0.769162
0.802579 0.804532 0.783536
0.815427 0.817258 0.797299
0.828 0.829633 0.810941
0.840192 0.841718 0.82417
0.852171 0.853468 0.837034
0.862715 0.864042 0.849042
0.873396 0.874372 0.860777
0.883482 0.884382 0.872038
0.893202 0.894026 0.882856
0.902586 0.903304 0.893217
0.911192 0.91194 0.902754
0.919646 0.920165 0.911894
0.927779 0.928161 0.920699
0.935607 0.935912 0.929213
0.94313 0.943481 0.937514
0.950561 0.950668 0.945388
0.957794 0.957732 0.953094
0.964889 0.964813 0.960769
0.971435 0.97142 0.967742
0.976196 0.976165 0.97319
0.980377 0.98027 0.978027
0.985061 0.984802 0.982849
0.70106 0.702815 0.679866
0.692836 0.694545 0.671702
0.700038 0.701595 0.678508
0.718257 0.720027 0.696651
0.735424 0.737408 0.714015
0.751583 0.753536 0.730373
0.767254 0.769345 0.74667
0.78265 0.784497 0.762417
0.796857 0.798932 0.777401
