LUT预设1/iPhone专用lut合集3/iPhone合集3标准版（log）/默片时代.cube
TITLE "Generated by Resolve"
LUT_3D_SIZE 5
0 0 0
0 0 0
0 0 0
0.00135805 0.00408942 0.00758373
0.00831617 0.0109407 0.0143893
0.0148928 0.0175326 0.0209812
0.0465553 0.050309 0.0535897
0.0985275 0.105333 0.106249
0.15903 0.1664 0.16434
0.230671 0.238666 0.232929
0.207385 0.215106 0.211093
0.300603 0.308125 0.297597
0.426688 0.429786 0.415503
0.541375 0.543145 0.526024
0.64242 0.643763 0.622553
0.570413 0.571878 0.553735
0.677714 0.67924 0.656901
0.795224 0.797345 0.775311
0.880339 0.881422 0.868559
0.943343 0.943557 0.937682
0.876997 0.877943 0.864927
0.942687 0.942946 0.937026
0.994904 0.994751 0.993729
1 1 1
1 1 1
0 0 0
0 0 0
0 0 0.000640879
0.0131075 0.0157015 0.0191501
0.0187991 0.0215 0.0249485
0.0277867 0.0309453 0.0342718
0.063508 0.0682841 0.071046
0.119615 0.126909 0.12668
0.185748 0.192767 0.190356
0.263157 0.271138 0.263188
0.246128 0.254124 0.247456
0.335912 0.341878 0.330358
0.461387 0.463966 0.448661
0.575433 0.576959 0.558648
0.673961 0.675456 0.653239
0.617472 0.618753 0.59884
0.708904 0.710597 0.687465
0.81944 0.821271 0.801572
0.899458 0.900206 0.889693
0.958602 0.958587 0.954055
0.905959 0.906508 0.896712
0.959197 0.959121 0.954635
1 1 0.999985
1 1 1
1 1 1
0 0 0
0 0 0
0.00976577 0.0123751 0.0158083
0.0224918 0.0253758 0.0287633
0.0337682 0.0372625 0.0404822
0.0470741 0.0508736 0.0541085
0.0876173 0.0940108 0.0954147
0.150591 0.158083 0.156237
0.224521 0.232486 0.227253
0.310689 0.317662 0.307301
0.293935 0.30132 0.291829
0.388113 0.392264 0.379126
0.514336 0.51632 0.499977
0.62742 0.628779 0.608179
0.722469 0.724254 0.701045
0.669978 0.671458 0.649119
0.756405 0.758465 0.734936
0.857786 0.859007 0.843442
0.930755 0.931044 0.923964
0.982498 0.982483 0.980362
0.938003 0.938384 0.931914
0.982483 0.982483 0.980591
1 1 1
1 1 1
1 1 1
0 0 0
0 0 0
0.0234226 0.0263828 0.0297398
0.0354314 0.0389563 0.0422065
0.0527504 0.0566262 0.0599374
0.0675669 0.0725109 0.0751354
0.112917 0.120058 0.120195
0.183001 0.190295 0.187808
0.265949 0.27393 0.265766
0.358465 0.363577 0.351354
0.341146 0.347066 0.335363
0.437675 0.440497 0.425986
0.564279 0.565713 0.547723
0.674388 0.675868 0.653681
0.766262 0.768277 0.745327
0.716609 0.71841 0.694881
0.797925 0.799908 0.778424
0.890074 0.890883 0.879255
0.957305 0.957412 0.95285
0.994156 0.993973 0.992828
0.965957 0.966003 0.961944
0.996811 0.996674 0.995468
1 1 1
1 1 1
1 1 1
0 0 0
0.000350958 0.00265507 0.00590524
0.0286107 0.0318914 0.0351263
0.044831 0.0485542 0.0518502
0.067689 0.072694 0.0754101
0.0816358 0.0877699 0.0895094
0.136339 0.143755 0.142809
0.21561 0.223529 0.218845
0.308217 0.315343 0.304936
0.40444 0.408133 0.394339
0.38703 0.391104 0.377951
0.483787 0.485939 0.47013
0.609705 0.611032 0.591257
0.716869 0.718685 0.695491
0.804776 0.80676 0.785565
0.758022 0.760143 0.736828
0.832929 0.834577 0.816358
0.917998 0.918608 0.910109
0.980362 0.980194 0.977295
1 1 1
0.986343 0.986007 0.984024
1 1 1
1 1 1
1 1 1
1 1 1
