LUT预设1/iPhone专用lut合集3/iPhone合集3标准版（log）/默片时代.cube
TITLE "Generated by Resolve"
LUT_3D_SIZE 9
0 0 0
0 0 0
0 0 0
0 0 0
0 0 0
0 0 0
0.00135805 0.00408942 0.00758373
0.00779736 0.0104372 0.0138857
0.00831617 0.0109407 0.0143893
0 0 0
0 0 0
0.000381476 0.00132753 0.00469978
0.00962844 0.0122377 0.015671
0.0172427 0.0199588 0.0233768
0.0307317 0.0340429 0.0372931
0.0475624 0.0514076 0.0546578
0.0665599 0.0714122 0.0741436
0.08542 0.0919051 0.0933242
0.0148928 0.0175326 0.0209812
0.0247654 0.0277867 0.0311437
0.0465553 0.050309 0.0535897
0.0714885 0.0768749 0.0792096
0.0985275 0.105333 0.106249
0.12726 0.134707 0.133959
0.15903 0.1664 0.16434
0.194644 0.201923 0.198917
0.230671 0.238666 0.232929
0.0869612 0.0934157 0.0947738
0.107836 0.115007 0.11545
0.147005 0.154833 0.152895
0.189349 0.197101 0.193774
0.234028 0.242039 0.236042
0.28278 0.290501 0.281376
0.333288 0.339574 0.328313
0.384833 0.388907 0.375998
0.434012 0.436912 0.422461
0.207385 0.215106 0.211093
0.240391 0.248371 0.241962
0.300603 0.308125 0.297597
0.36463 0.369497 0.357122
0.426688 0.429786 0.415503
0.485649 0.487816 0.471977
0.541375 0.543145 0.526024
0.593942 0.595285 0.576333
0.64242 0.643763 0.622553
0.382254 0.386374 0.373571
0.42237 0.425361 0.411322
0.493278 0.49546 0.479606
0.560983 0.562554 0.544701
0.623453 0.624872 0.604532
0.680537 0.682048 0.659541
0.732677 0.734569 0.710872
0.779095 0.78117 0.758633
0.819318 0.82118 0.801587
0.570413 0.571878 0.553735
0.608881 0.610117 0.590478
0.677714 0.67924 0.656901
0.739528 0.74139 0.718074
0.795224 0.797345 0.775311
0.841398 0.842924 0.825605
0.880339 0.881422 0.868559
0.913924 0.914565 0.905608
0.943343 0.943557 0.937682
0.74165 0.743542 0.720073
0.7738 0.77586 0.753155
0.831968 0.8336 0.815076
0.878813 0.879881 0.866819
0.918532 0.919173 0.910704
0.953094 0.953262 0.948196
0.983078 0.982864 0.980255
0.994034 0.993912 0.993057
1 1 1
0.876997 0.877943 0.864927
0.899489 0.900145 0.889616
0.942687 0.942946 0.937026
0.979004 0.978866 0.975891
0.994904 0.994751 0.993729
1 1 1
1 1 1
1 1 1
1 1 1
0 0 0
0 0 0
0 0 0
0 0 0
0 0 0
7.62951e-05 0.00199893 0.00534066
0.00822461 0.0108339 0.0142977
0.0116426 0.0142214 0.0176547
0.0124819 0.0150759 0.0185092
0 0 0
0 0 0
0.00337224 0.00582895 0.00898756
0.0112306 0.0138094 0.0172427
0.0209964 0.0238041 0.0272068
0.0358129 0.0393378 0.0425879
0.0538491 0.0577859 0.0610056
0.0732738 0.0787976 0.0810559
0.0955215 0.102419 0.103273
0.0196536 0.0224765 0.025864
0.0289006 0.0321813 0.0354314
0.0519875 0.0559548 0.059144
0.0771496 0.0829328 0.0849012
0.104555 0.111574 0.112108
0.134218 0.141588 0.14081
0.165957 0.173892 0.171237
0.202426 0.209796 0.206378
0.240208 0.248173 0.242176
0.0968643 0.103655 0.104616
0.114946 0.122057 0.122271
0.154376 0.161761 0.160204
0.196536 0.203861 0.200702
0.241108 0.249165 0.242893
0.290593 0.298268 0.288396
0.342412 0.348089 0.336263
0.393591 0.397589 0.384268
0.442786 0.445533 0.430884
0.222843 0.230625 0.22565
0.2486 0.256611 0.249943
0.309468 0.316533 0.306172
0.372534 0.377157 0.364614
0.433722 0.436591 0.422202
0.492134 0.49424 0.478248
0.54789 0.549416 0.531991
0.59997 0.601221 0.581903
0.648157 0.649546 0.628275
0.400916 0.404654 0.391104
0.431327 0.434318 0.419791
0.501366 0.503502 0.487419
0.567422 0.568933 0.550881
0.62887 0.630137 0.60972
0.684962 0.68661 0.663813
0.736584 0.738491 0.715023
0.782025 0.7841 0.762036
0.822156 0.823957 0.804669
0.588418 0.589822 0.57084
0.616983 0.618341 0.598169
0.683589 0.685145 0.662562
0.744289 0.746212 0.722652
0.797772 0.799878 0.7785
0.843183 0.844648 0.827619
0.881895 0.882887 0.870253
0.915404 0.916091 0.907362
0.944381 0.94464 0.938811
0.756664 0.758694 0.735485
0.780606 0.782818 0.759808
0.834897 0.8365 0.818555
0.881178 0.882231 0.86949
0.920226 0.920806 0.912581
0.953918 0.954055 0.949142
0.982101 0.98204 0.97966
0.995132 0.994965 0.993835
1 1 1
0.887633 0.888548 0.876631
0.904097 0.904814 0.894835
0.944793 0.945052 0.939223
0.978805 0.978805 0.976287
0.998734 0.998596 0.997391
1 1 1
1 1 1
1 1 1
1 1 1
0 0 0
0 0 0
0 0 0
0 0 0
0 0 0.000640879
0.00660716 0.00926223 0.012726
0.0131075 0.0157015 0.0191501
0.0172122 0.0198825 0.0233158
0.0187991 0.0215 0.0249485
0 0 0
0 0 0.000869764
0.00935378 0.0119631 0.0154116
0.0165713 0.0192264 0.0226596
0.0288243 0.0321202 0.0353552
0.0463111 0.0500496 0.0533455
0.0650339 0.0698711 0.0726482
0.0858473 0.0923476 0.0936904
0.111299 0.11841 0.118807
0.0277867 0.0309453 0.0342718
0.0387884 0.042359 0.0456397
0.063508 0.0682841 0.071046
0.0903639 0.096849 0.098146
0.119615 0.126909 0.12668
0.150561 0.158114 0.156176
0.185748 0.192767 0.190356
0.222889 0.230854 0.225711
0.263157 0.271138 0.263188
0.112169 0.11931 0.119448
0.130678 0.138064 0.137163
0.171847 0.179599 0.17673
0.216297 0.223987 0.219486
0.264042 0.272084 0.264225
0.316594 0.323415 0.312749
0.369436 0.374121 0.361669
0.420981 0.42417 0.410101
0.470054 0.472496 0.457069
0.246128 0.254124 0.247456
0.271672 0.279683 0.271153
0.335912 0.341878 0.330358
0.399924 0.403723 0.390173
0.461387 0.463966 0.448661
0.519677 0.52163 0.50518
0.575433 0.576959 0.558648
0.626825 0.628183 0.607599
0.673961 0.675456 0.653239
0.430198 0.433158 0.418814
0.459022 0.461448 0.446204
0.529015 0.530755 0.513802
0.594614 0.596002 0.576776
0.655314 0.656703 0.635035
0.710643 0.712352 0.688975
0.760449 0.762509 0.73933
0.804425 0.806439 0.785489
0.843046 0.84448 0.82707
0.617472 0.618753 0.59884
0.643336 0.644739 0.623652
0.708904 0.710597 0.687465
0.768338 0.770504 0.747189
0.81944 0.821271 0.801572
0.862577 0.863767 0.848692
0.899458 0.900206 0.889693
0.93164 0.93196 0.924987
0.958602 0.958587 0.954055
0.781903 0.783886 0.761852
0.803037 0.805005 0.783841
0.854429 0.855711 0.839857
0.898375 0.899123 0.888502
0.936141 0.936416 0.929885
0.96791 0.967727 0.963973
0.987854 0.987762 0.986328
1 1 0.999863
1 1 1
0.905959 0.906508 0.896712
0.920424 0.921004 0.91284
0.959197 0.959121 0.954635
0.985962 0.985794 0.98407
1 1 0.999985
1 1 1
1 1 1
1 1 1
1 1 1
0 0 0
0 0 0
0 0 0
0 0 0
0.00225834 0.00483711 0.00831617
0.0130312 0.0156405 0.0190738
0.0171969 0.0198672 0.0233158
0.0236362 0.0265965 0.0299535
0.0258335 0.0289464 0.0322576
0 0.000183108 0.00123598
0.0027924 0.0053254 0.00856031
0.0151217 0.0177615 0.0211948
0.0231479 0.0260929 0.0294652
0.0381476 0.0417029 0.0449836
0.0569772 0.0611429 0.064271
0.0764935 0.0822919 0.0842908
0.0995804 0.106477 0.107317
0.126619 0.133837 0.133364
0.0368963 0.0404364 0.0436713
0.0495155 0.0533608 0.056611
0.0752728 0.0809186 0.0829938
0.104143 0.111147 0.111711
0.13521 0.142565 0.141756
0.167773 0.175662 0.173022
0.20444 0.211994 0.208255
0.244572 0.252537 0.246204
0.286641 0.294316 0.28481
0.127687 0.135134 0.134493
0.146838 0.154498 0.15285
0.190723 0.198276 0.195193
0.23682 0.244862 0.238804
0.288243 0.295995 0.286198
0.34255 0.348257 0.336553
0.39617 0.400107 0.386664
0.447501 0.450217 0.435416
0.496574 0.498619 0.48249
0.270085 0.277958 0.26952
0.296086 0.303716 0.293492
0.362249 0.367239 0.354971
0.426688 0.429694 0.415503
0.488502 0.490608 0.474678
0.547066 0.548653 0.531273
0.60209 0.603418 0.583993
0.652598 0.653971 0.632547
0.698741 0.70042 0.677531
0.458198 0.460807 0.445731
0.485893 0.488136 0.47245
0.555901 0.557565 0.539925
0.62118 0.622522 0.602411
0.680858 0.682414 0.65977
0.734981 0.736858 0.713405
0.783032 0.785061 0.763058
0.825116 0.826902 0.807904
0.861631 0.862898 0.847761
0.644251 0.645685 0.62443
0.668666 0.67013 0.648127
0.733257 0.735134 0.711604
0.790494 0.792523 0.770596
0.839155 0.840696 0.82324
0.880247 0.881315 0.868452
0.915618 0.91635 0.907637
0.946166 0.94641 0.940749
0.972305 0.972152 0.968688
0.804562 0.806607 0.785611
0.82356 0.825193 0.805829
0.872648 0.873793 0.859983
0.914656 0.91545 0.906615
0.950454 0.950637 0.945388
0.980423 0.980331 0.977737
0.994507 0.994339 0.993179
1 1 1
1 1 1
0.922591 0.923033 0.914992
0.935851 0.936172 0.92961
0.972946 0.972869 0.969482
0.994934 0.994751 0.993393
1 1 1
1 1 1
1 1 1
1 1 1
1 1 1
0 0 0
0 0 0
0 0 0
0 0 0.00111391
0.00976577 0.0123751 0.0158083
0.0186923 0.0213931 0.0248264
0.0224918 0.0253758 0.0287633
0.0305486 0.0339361 0.0371252
0.0337682 0.0372625 0.0404822
0.00250248 0.00357061 0.00511177
0.010605 0.0131838 0.0166171
0.019791 0.0225223 0.0259556
0.0305791 0.0339361 0.037171
0.0482185 0.0520027 0.0552834
0.0675364 0.0725872 0.0752117
0.0885786 0.0951705 0.0963912
0.114137 0.121248 0.121508
0.141802 0.149569 0.147768
0.0470741 0.0508736 0.0541085
0.0602274 0.0646982 0.0676738
0.0876173 0.0940108 0.0954147
0.118227 0.125475 0.125322
0.150591 0.158083 0.156237
0.186053 0.193164 0.190753
0.224521 0.232486 0.227253
0.266682 0.274647 0.266377
0.310689 0.317662 0.307301
0.143374 0.150698 0.149493
0.163622 0.170947 0.168978
0.209461 0.216861 0.213001
0.258167 0.266178 0.258915
0.312367 0.319387 0.308827
0.368231 0.372961 0.360525
0.422187 0.425391 0.411231
0.473579 0.475959 0.460441
0.522744 0.524666 0.508049
0.293935 0.30132 0.291829
0.320775 0.327474 0.316716
0.388113 0.392264 0.379126
0.452827 0.455512 0.440513
0.514336 0.51632 0.499977
0.573175 0.574655 0.55639
0.62742 0.628779 0.608179
0.676966 0.678462 0.656153
0.722469 0.724254 0.701045
0.485237 0.487449 0.471672
0.512215 0.514199 0.49781
0.581888 0.583291 0.564614
0.646082 0.647501 0.626245
0.705013 0.706645 0.683421
0.757687 0.759762 0.736492
0.804379 0.806363 0.785428
0.8448 0.846189 0.829007
0.879225 0.880171 0.867323
0.669978 0.671458 0.649119
0.692927 0.694575 0.671778
0.756405 0.758465 0.734936
0.811353 0.813153 0.792782
0.857786 0.859007 0.843442
0.896773 0.897536 0.886732
0.930755 0.931044 0.923964
0.959564 0.959564 0.955154
0.982498 0.982483 0.980362
0.825315 0.827115 0.808118
0.842268 0.843702 0.826551
0.889326 0.890166 0.878447
0.929778 0.930098 0.922896
0.963958 0.963867 0.959838
0.987259 0.987213 0.985779
0.999893 0.999893 0.999451
1 1 1
1 1 1
0.938003 0.938384 0.931914
0.950057 0.950286 0.944991
0.982483 0.982483 0.980591
0.999954 0.999954 0.999634
1 1 1
1 1 1
1 1 1
1 1 1
1 1 1
0 0 0
0 0 0
0 0 0
0.00292973 0.00561532 0.00910964
0.0170138 0.0196841 0.0231174
0.0231632 0.0260929 0.0294499
0.0284581 0.0317235 0.0349584
0.0388342 0.0424353 0.045716
0.0430304 0.0467079 0.0500191
0.00790417 0.010605 0.0140536
0.0182498 0.0209506 0.0243839
0.0254826 0.0285496 0.0318761
0.0393988 0.0429999 0.0462806
0.05832 0.0625772 0.0656596
0.0782483 0.0841993 0.0860609
0.101701 0.108659 0.109392
0.128908 0.136172 0.1355
0.158495 0.16614 0.164202
0.0574044 0.0616922 0.064744
0.0709697 0.0763104 0.0786603
0.10013 0.107027 0.10782
0.13228 0.139712 0.138949
0.166079 0.173983 0.171298
0.203601 0.211017 0.207492
0.245197 0.253208 0.246799
0.289067 0.296696 0.287037
0.334798 0.340825 0.329381
0.158083 0.166125 0.163302
0.179889 0.18761 0.184604
0.227802 0.235752 0.230213
0.280293 0.288182 0.278843
0.337011 0.342977 0.331456
0.393378 0.397299 0.384024
0.44744 0.450126 0.435355
0.498955 0.500969 0.484794
0.547768 0.549432 0.532067
0.317754 0.324422 0.313512
0.345693 0.351247 0.339315
0.413352 0.416754 0.402823
0.478172 0.480385 0.464714
0.540002 0.541695 0.524559
0.598245 0.599573 0.580377
0.651499 0.652918 0.631495
0.70042 0.702083 0.679164
0.744915 0.746822 0.723568
0.510918 0.51284 0.496361
0.537774 0.539452 0.52224
0.6065 0.607889 0.588205
0.670085 0.671565 0.649302
0.728023 0.72987 0.706294
0.779004 0.781048 0.75877
0.823621 0.825391 0.806271
0.862242 0.863523 0.848417
0.895262 0.896071 0.88513
0.694041 0.695567 0.672633
0.716014 0.7178 0.694636
0.777905 0.780056 0.757046
0.830198 0.831876 0.813367
0.874357 0.875532 0.861921
0.912261 0.912902 0.903792
0.944854 0.945052 0.939361
0.972427 0.972213 0.968811
0.988205 0.988083 0.986664
0.845014 0.846326 0.829068
0.85977 0.86096 0.845777
0.90483 0.905531 0.895598
0.943771 0.943969 0.93817
0.976486 0.976272 0.973129
0.99234 0.992172 0.991012
1 1 1
1 1 1
1 1 1
0.952605 0.952636 0.947555
0.963577 0.963439 0.959365
0.988983 0.988754 0.987274
1 1 1
1 1 1
1 1 1
1 1 1
1 1 1
1 1 1
0 0 0
0 0 0
0 0 0
0.0111391 0.0137331 0.0171817
0.0234226 0.0263828 0.0297398
0.0276493 0.030869 0.0341344
0.0354314 0.0389563 0.0422065
0.0476234 0.0513924 0.0546883
0.0527504 0.0566262 0.0599374
0.0163577 0.0190738 0.0224765
0.0245975 0.0276188 0.0309453
0.0320745 0.035523 0.0387274
0.0487373 0.0525368 0.0558328
0.0681773 0.0732586 0.0758679
0.0895552 0.0962081 0.0973678
0.11519 0.122301 0.122499
0.143633 0.151369 0.149554
0.175509 0.182727 0.180468
0.0675669 0.0725109 0.0751354
0.0818189 0.0879835 0.0896468
0.112917 0.120058 0.120195
0.146609 0.153979 0.15256
0.183001 0.190295 0.187808
0.222049 0.230045 0.224918
0.265949 0.27393 0.265766
0.311879 0.318837 0.30837
0.358465 0.363577 0.351354
0.174807 0.182406 0.180072
0.19733 0.204868 0.20145
0.247608 0.255604 0.248966
0.30277 0.31017 0.299718
0.361059 0.366064 0.353765
0.417731 0.421057 0.406958
0.471733 0.474189 0.458717
0.523415 0.525307 0.508629
0.57232 0.573739 0.555444
0.341146 0.347066 0.335363
0.369772 0.374441 0.36199
0.437675 0.440497 0.425986
0.502663 0.504707 0.488502
0.564279 0.565713 0.547723
0.621866 0.62324 0.602884
0.674388 0.675868 0.653681
0.72253 0.724361 0.701137
0.766262 0.768277 0.745327
0.535454 0.537316 0.520394
0.562097 0.563684 0.545815
0.630182 0.631434 0.610971
0.692912 0.694469 0.67155
0.749249 0.751278 0.72784
0.799298 0.801205 0.780041
0.841947 0.843397 0.826032
0.878477 0.879423 0.866453
0.909957 0.910689 0.901411
0.716609 0.71841 0.694881
0.737774 0.739651 0.716304
0.797925 0.799908 0.778424
0.847929 0.849317 0.832822
0.890074 0.890883 0.879255
0.926436 0.926863 0.919295
0.957305 0.957412 0.95285
0.983337 0.983291 0.981064
0.994156 0.993973 0.992828
0.862119 0.863432 0.848341
0.875914 0.876982 0.863584
0.919234 0.919875 0.911528
0.956405 0.956512 0.951858
0.986099 0.986084 0.984253
0.998001 0.997909 0.997131
1 1 1
1 1 1
1 1 1
0.965957 0.966003 0.961944
0.976287 0.976135 0.972992
0.996811 0.996674 0.995468
1 1 1
1 1 1
1 1 1
1 1 1
1 1 1
1 1 1
0 0 0
0 0 0
0.000335698 0.00260929 0.00582895
0.018143 0.0208286 0.0242771
0.028809 0.0320897 0.0353246
0.0331884 0.0366674 0.0398718
0.0431525 0.0468299 0.0501259
0.0566415 0.0606699 0.0638743
0.062501 0.0669871 0.0699931
0.0238804 0.0268711 0.0302129
0.0298314 0.0331579 0.0363775
0.0399634 0.0435798 0.0468605
0.0579995 0.0621958 0.0653086
0.0780652 0.0840009 0.085893
0.101686 0.108659 0.109407
0.129061 0.136339 0.135668
0.159564 0.167193 0.16524
0.192111 0.19968 0.196414
0.0774548 0.0832532 0.0852827
0.0930037 0.0996567 0.100786
0.125444 0.13283 0.13228
0.160418 0.1682 0.165698
0.19939 0.206607 0.203418
0.241413 0.249393 0.243305
0.286931 0.294636 0.285039
0.334447 0.34049 0.329091
0.381811 0.386053 0.37322
0.191333 0.198276 0.195651
0.214725 0.222232 0.217975
0.267323 0.275288 0.267277
0.325277 0.331777 0.320836
0.384329 0.388495 0.37557
0.441276 0.443961 0.429374
0.495521 0.497597 0.481498
0.546761 0.548455 0.531121
0.595453 0.596857 0.577783
0.364431 0.36939 0.357107
0.393072 0.39704 0.383749
0.461326 0.463905 0.448676
0.526055 0.527932 0.511299
0.588037 0.58941 0.570718
0.644297 0.645685 0.624475
0.6963 0.697948 0.675074
0.743481 0.745388 0.722148
0.785916 0.788159 0.765545
0.559289 0.5608 0.542977
0.585489 0.586892 0.568093
0.652567 0.654002 0.632471
0.714458 0.716167 0.692683
0.769558 0.771649 0.74876
0.817487 0.819287 0.799512
0.858534 0.859831 0.844266
0.89337 0.894148 0.882979
0.9234 0.923812 0.915953
0.738201 0.740093 0.716686
0.758602 0.760632 0.737377
0.816342 0.818128 0.798138
0.864195 0.865354 0.850507
0.904646 0.905287 0.895338
0.93962 0.939879 0.933684
0.969467 0.969238 0.965667
0.988083 0.988022 0.986557
0.9991 0.999039 0.998398
0.878218 0.879088 0.866163
0.891066 0.891936 0.880385
0.932891 0.933181 0.926284
0.96846 0.968246 0.964599
0.9897 0.989578 0.988342
1 1 1
1 1 1
1 1 1
1 1 1
0.976043 0.975982 0.973297
0.98616 0.98616 0.98436
0.999893 0.999893 0.999817
1 1 1
1 1 1
1 1 1
1 1 1
1 1 1
1 1 1
0 0 0
0 0 0
0.000350958 0.00265507 0.00590524
0.0179141 0.0205997 0.0240482
0.0286107 0.0318914 0.0351263
0.0335088 0.0370031 0.0402228
0.044831 0.0485542 0.0518502
0.0598459 0.0641031 0.0672007
0.067689 0.072694 0.0754101
0.0250095 0.0280461 0.0313725
0.0313573 0.0347601 0.0379492
0.0433661 0.0470436 0.0503395
0.0626688 0.0672618 0.0701915
0.0848096 0.091249 0.0926833
0.112016 0.119142 0.119478
0.142504 0.150225 0.148455
0.175692 0.182895 0.180667
0.209232 0.217075 0.212741
0.0816358 0.0877699 0.0895094
0.100725 0.107652 0.108415
0.136339 0.143755 0.142809
0.175418 0.183093 0.180529
0.21561 0.223529 0.218845
0.260731 0.268742 0.261067
0.308217 0.315343 0.304936
0.356817 0.361959 0.349767
0.40444 0.408133 0.394339
0.205554 0.213336 0.209354
0.232059 0.240055 0.234211
0.287404 0.295216 0.285435
0.347677 0.35314 0.341176
0.406882 0.410513 0.396719
0.463691 0.466285 0.451041
0.51809 0.519982 0.50338
0.569528 0.570947 0.552758
0.618021 0.619089 0.59913
0.38703 0.391104 0.377951
0.415915 0.419272 0.405264
0.483787 0.485939 0.47013
0.548699 0.550301 0.53286
0.609705 0.611032 0.591257
0.665782 0.667216 0.645289
0.716869 0.718685 0.695491
0.762905 0.764904 0.741955
0.804776 0.80676 0.785565
0.582132 0.583551 0.564874
0.607767 0.609155 0.589395
0.674022 0.675532 0.653117
0.734585 0.736461 0.712917
0.78822 0.790249 0.768444
0.834211 0.835782 0.817731
0.873625 0.874678 0.861067
0.907271 0.907988 0.898405
0.935973 0.936309 0.929686
0.758022 0.760143 0.736828
0.778286 0.780484 0.757488
0.832929 0.834577 0.816358
0.879057 0.880156 0.867155
0.917998 0.918608 0.910109
0.951705 0.951873 0.946807
0.980362 0.980194 0.977295
0.992447 0.992309 0.99118
1 1 1
0.892866 0.893629 0.882414
0.904936 0.905592 0.895674
0.945312 0.945541 0.939879
0.979583 0.979431 0.976471
0.994568 0.994415 0.993408
1 1 1
1 1 1
1 1 1
1 1 1
0.986343 0.986007 0.984024
0.989944 0.989822 0.988586
1 1 1
1 1 1
1 1 1
1 1 1
1 1 1
1 1 1
1 1 1
