LUT预设1/LUT全系打包/胶片lut系列/胶片各机型log灰片/FILM-LIME橙调.cube
TITLE "Generated by Resolve"
LUT_3D_SIZE 9
0.0157321 0 0
0.034699 0 0
0.0863203 0 0
0.191333 0 0
0.321721 0.00361639 0
0.438376 0.00170901 0
0.458442 0.00172427 0
0.458427 0.00170901 0
0.458396 0.00169375 0
0.0146487 0.00880446 0
0.0237278 0.00825513 0
0.0975204 0.00807202 0
0.198352 0.00784314 0
0.305119 0.00561532 0
0.425696 0.00291447 0
0.458457 0.00172427 0
0.458442 0.00172427 0
0.458427 0.00170901 0
0.0222171 0.061265 0
0.0216983 0.0573892 0
0.0549783 0.0776074 0
0.286183 0.095613 0
0.438148 0.0901961 0.00715648
0.546822 0.0899672 0.0156405
0.567147 0.0796216 0.0194858
0.549493 0.0642405 0.0116884
0.541634 0.0577401 0.00831617
0.065156 0.156024 0
0.0623636 0.150469 0
0.0747082 0.167041 0
0.171435 0.21619 0
0.538293 0.209766 0.016144
0.671443 0.22884 0.0603037
0.714397 0.227054 0.0801099
0.699748 0.210819 0.0749218
0.693614 0.204623 0.0727092
0.123949 0.303471 0.0195468
0.121584 0.297612 0.018265
0.123064 0.296269 0.0152438
0.192584 0.358007 0.00849927
0.434333 0.380484 0.000595102
0.757427 0.373602 0.0669566
0.858518 0.380621 0.108675
0.855039 0.364111 0.111528
0.848814 0.3579 0.110887
0.203021 0.475547 0.0673075
0.200061 0.469917 0.0651865
0.193591 0.457679 0.0606851
0.262348 0.517021 0.0657816
0.423743 0.572824 0.0476997
0.6654 0.552163 0.0565194
0.921935 0.526223 0.103395
0.983459 0.504494 0.11664
0.980056 0.499092 0.116732
0.312901 0.674693 0.141253
0.309071 0.668406 0.138598
0.302022 0.656779 0.133715
0.320806 0.666117 0.132189
0.453559 0.731868 0.107439
0.625589 0.762127 0.105638
0.842664 0.695766 0.0976425
1 0.659632 0.11516
1 0.653437 0.11606
0.346731 0.72813 0.165011
0.346716 0.728115 0.164996
0.346716 0.728099 0.164996
0.34966 0.730648 0.165942
0.456565 0.797406 0.14873
0.603174 0.856397 0.133577
0.784009 0.858976 0.121904
0.951278 0.812726 0.123857
0.978027 0.80029 0.123949
0.346746 0.728145 0.165026
0.346731 0.72813 0.165011
0.346731 0.72813 0.165011
0.346731 0.72813 0.165011
0.443229 0.790356 0.151354
0.585367 0.852323 0.136217
0.768429 0.860121 0.121447
0.936584 0.819394 0.123903
0.97612 0.806256 0.124681
0.0113832 0 0
0.0295262 0 3.0518e-05
0.0850538 0 0
0.176791 0 0
0.299306 0 0
0.428977 0.000854505 0
0.455665 0.00143435 0
0.456504 0.00138857 0
0.456886 0.00137331 0
0.0139773 0.00886549 6.10361e-05
0.0238041 0.00794995 0.000106813
0.0913558 0.00950637 0.000183108
0.188235 0.00578317 0
0.297993 0.00427253 0
0.422202 0.00250248 0
0.458183 0.00166323 0
0.458473 0.00173953 0
0.458457 0.00172427 0
0.0196689 0.059266 0
0.0207218 0.0560769 0
0.054139 0.075349 0
0.281209 0.0932326 0
0.432456 0.0884565 0.0069276
0.542367 0.0868849 0.0141299
0.563912 0.0767224 0.0180667
0.546166 0.0614328 0.0102693
0.538506 0.0551614 0.00697337
0.0640116 0.153689 0
0.061265 0.148318 0
0.073518 0.163973 0
0.167636 0.212909 0
0.533776 0.20737 0.0156252
0.667964 0.225956 0.0591287
0.711955 0.22472 0.0793164
0.697429 0.208453 0.0740978
0.691173 0.202136 0.0718242
0.122972 0.300969 0.019028
0.120577 0.29514 0.0177615
0.121675 0.293233 0.0148623
0.190005 0.354513 0.00756847
0.429755 0.377844 0.00047303
0.754452 0.370962 0.0662242
0.855924 0.378424 0.108309
0.852811 0.361868 0.111299
0.846586 0.355688 0.110613
0.201694 0.472984 0.0663767
0.198764 0.467475 0.0642863
0.19237 0.45536 0.0598611
0.259541 0.513573 0.0651713
0.420005 0.569299 0.0466773
0.662379 0.549767 0.0556344
0.919524 0.524392 0.103105
0.982254 0.502571 0.11667
0.978546 0.497078 0.116777
0.311269 0.672038 0.140108
0.307347 0.665568 0.137407
0.30045 0.654169 0.132647
0.317952 0.662547 0.131106
0.45066 0.728923 0.106645
0.622782 0.75993 0.10518
0.839872 0.693904 0.097261
1 0.657679 0.115114
1 0.651301 0.116075
0.346731 0.72813 0.165011
0.346716 0.728115 0.165011
0.346716 0.728115 0.164996
0.349233 0.730282 0.165805
0.454917 0.796536 0.149035
0.6009 0.855894 0.133898
0.78204 0.859129 0.121843
0.950042 0.811826 0.123598
0.978439 0.798947 0.123781
0.346746 0.728145 0.165026
0.346731 0.72813 0.165011
0.346731 0.72813 0.165011
0.346731 0.72813 0.165011
0.441367 0.789395 0.151736
0.583215 0.851743 0.136492
0.7664 0.860273 0.121386
0.9346 0.820096 0.123873
0.97612 0.806256 0.124681
0.0127413 0 0.0403143
0.0268406 0 0.0393072
0.0834211 0 0.0357671
0.165728 0 0.0298009
0.280034 0 0.0242466
0.403372 0 0.0188449
0.428351 0 0.00959792
0.428534 0 0.00671397
0.428382 0 0.00508125
0.011841 0.00523384 0.0522927
0.0191653 0.00421149 0.049897
0.0819409 0.000381476 0.0354314
0.160479 0.000717174 0.0254978
0.264515 0.000457771 0.0154269
0.390158 6.10361e-05 0.0118563
0.428275 0 0.00291447
0.428 0 0.00170901
0.427893 0 0.00146487
0.0135195 0.0691386 0.0790112
0.0131838 0.0644236 0.0721447
0.0800488 0.0841688 0.0812085
0.257755 0.105989 0.0802472
0.415167 0.111971 0.0799268
0.518364 0.0898909 0.0590524
0.539162 0.0653849 0.0381323
0.522225 0.0505531 0.0254978
0.514855 0.0444038 0.0201419
0.0225071 0.145968 0.0353094
0.0225223 0.141192 0.0303502
0.0890364 0.17348 0.0397803
0.231235 0.235706 0.0270085
0.543404 0.232502 0.0625772
0.6766 0.23946 0.0814069
0.714473 0.228183 0.0881361
0.695811 0.207065 0.0771801
0.689021 0.200168 0.074052
0.115633 0.269322 0.022858
0.114 0.266468 0.0212558
0.122683 0.280049 0.025742
0.195026 0.354101 0.0166934
0.425605 0.37377 0.00251774
0.749126 0.366796 0.0661173
0.851347 0.37467 0.10782
0.848585 0.357656 0.110887
0.842313 0.351446 0.110079
0.199039 0.467903 0.0645304
0.19588 0.461891 0.0623941
0.189761 0.450263 0.0581979
0.253895 0.506691 0.0641337
0.41268 0.562707 0.0447852
0.65684 0.545388 0.0540322
0.915328 0.521126 0.102571
0.980117 0.49929 0.116747
0.97612 0.493935 0.116854
0.308248 0.667079 0.138033
0.304555 0.661006 0.13547
0.297704 0.649592 0.130785
0.313054 0.656397 0.129198
0.445701 0.724071 0.105348
0.618402 0.756298 0.104372
0.835813 0.691051 0.0967117
1 0.654826 0.115068
1 0.64831 0.116136
0.346731 0.72813 0.165011
0.346716 0.728115 0.164996
0.346716 0.728099 0.164996
0.348486 0.729625 0.165576
0.452659 0.795316 0.149477
0.597803 0.855222 0.134356
0.779385 0.859281 0.121752
0.948531 0.810529 0.123247
0.978958 0.797284 0.123583
0.346746 0.728145 0.165026
0.346731 0.72813 0.165011
0.346731 0.72813 0.165011
0.346746 0.72813 0.165026
0.438834 0.788067 0.152285
0.580316 0.85095 0.136889
0.763745 0.860456 0.12134
0.932174 0.820935 0.123842
0.976135 0.806271 0.124681
0.00595102 0 0.13283
0.0175784 0 0.112932
0.0733196 0 0.118685
0.15819 0 0.110079
0.275746 0 0.086305
0.391196 0 0.0777752
0.421073 0 0.0682231
0.421302 0 0.064332
0.421439 0 0.0621653
0.00978103 0.0139773 0.150576
0.0153048 0.0131991 0.149081
0.0613718 0.00111391 0.122133
0.149233 4.57771e-05 0.100664
0.25716 0 0.0751049
0.374502 0 0.0691997
0.421744 0 0.0589151
0.422065 0 0.0551308
0.422248 0 0.0532235
0.0144503 0.075288 0.188678
0.0141451 0.0703288 0.180056
0.0423896 0.0926223 0.207111
0.202441 0.0849165 0.183597
0.359945 0.0840772 0.14905
0.480598 0.0828565 0.134874
0.514916 0.0550393 0.0968795
0.496956 0.0394903 0.0790875
0.489387 0.0335393 0.0717784
0.0210422 0.167926 0.21767
0.0206302 0.16286 0.210834
0.0333562 0.176761 0.213931
0.189014 0.247318 0.263111
0.494026 0.291341 0.264973
0.64947 0.302663 0.266423
0.705867 0.24889 0.209323
0.688701 0.223407 0.184848
0.681453 0.214893 0.176318
0.0296178 0.263157 0.182757
0.0293584 0.258549 0.175937
0.0331731 0.255695 0.163149
0.234379 0.364019 0.199954
0.510002 0.434134 0.181079
0.788098 0.453056 0.231678
0.90544 0.456916 0.24921
0.900526 0.422477 0.2224
0.89279 0.411749 0.212604
0.115724 0.375769 0.10309
0.116701 0.371893 0.0987259
0.119173 0.363607 0.0886702
0.262364 0.471672 0.146059
0.450935 0.589883 0.138659
0.690455 0.582986 0.114992
0.936126 0.560784 0.154635
0.99649 0.529473 0.15346
0.991928 0.519936 0.14847
0.279332 0.586755 0.141512
0.277043 0.584802 0.138827
0.273014 0.581903 0.133837
0.299733 0.617746 0.151431
0.447745 0.723568 0.140414
0.620157 0.762112 0.117632
0.832746 0.693797 0.102068
1 0.652583 0.117189
1 0.645533 0.117952
0.338933 0.712764 0.170016
0.339773 0.714519 0.169467
0.34139 0.717861 0.168444
0.345495 0.724788 0.166918
0.448981 0.793362 0.152346
0.592767 0.854154 0.135271
0.775097 0.859174 0.121553
0.945846 0.809216 0.122805
0.979675 0.794903 0.123293
0.342565 0.720455 0.167758
0.343511 0.722164 0.167102
0.345495 0.725795 0.165805
0.346258 0.72723 0.165316
0.434501 0.785733 0.15375
0.575418 0.849577 0.13756
0.759045 0.860746 0.121218
0.928191 0.822324 0.123781
0.97612 0.806256 0.124681
0.0059968 0.00767529 0.252155
0.0137484 6.10361e-05 0.220966
0.0541238 6.10361e-05 0.218799
0.151537 0 0.227741
0.249653 0 0.202441
0.392737 0 0.166125
0.428672 0 0.148608
0.428046 0 0.142626
0.42771 0 0.139422
0.00900282 0.0291295 0.266667
0.0129549 0.0257877 0.260426
0.0428473 0.00720226 0.216876
0.136156 0.000839246 0.210529
0.234577 0 0.187579
0.375357 0 0.153887
0.4271 0 0.134859
0.426398 0 0.12929
0.426062 0 0.126543
0.0155489 0.10042 0.315953
0.0151064 0.094728 0.307912
0.0374609 0.114214 0.328267
0.130098 0.107439 0.313542
0.319982 0.0796979 0.274998
0.468971 0.0609445 0.218357
0.51281 0.0487678 0.175311
0.491249 0.0323796 0.153521
0.481575 0.0260166 0.144381
0.0222782 0.182391 0.353918
0.021912 0.177646 0.346517
0.0330358 0.188769 0.354482
0.10927 0.257176 0.397833
0.363546 0.264729 0.394491
0.591699 0.267582 0.344915
0.680323 0.246891 0.308675
0.667079 0.221241 0.281636
0.660105 0.212451 0.272129
0.0307317 0.285466 0.370443
0.0303655 0.281209 0.365759
0.0311284 0.275456 0.357122
0.0918135 0.349828 0.397894
0.378378 0.456107 0.472465
0.708949 0.505257 0.47332
0.829343 0.483085 0.449287
0.833036 0.436591 0.401709
0.827878 0.427253 0.391943
0.0394293 0.391073 0.355154
0.0391089 0.387076 0.349416
0.0384527 0.37879 0.337392
0.0911879 0.426383 0.342473
0.437812 0.58587 0.405447
0.731579 0.641062 0.402533
0.97821 0.687175 0.482872
1 0.661891 0.471321
1 0.651759 0.460456
0.115099 0.50106 0.257527
0.115801 0.497246 0.251896
0.116869 0.490135 0.241184
0.155947 0.500114 0.232044
0.453025 0.686671 0.348058
0.664179 0.786709 0.341817
0.892241 0.779278 0.319661
1 0.76968 0.368322
1 0.760342 0.360571
0.241688 0.557092 0.187945
0.247868 0.55845 0.184543
0.258045 0.56141 0.179858
0.272572 0.568795 0.174792
0.452293 0.760372 0.321035
0.625376 0.874968 0.317815
0.809644 0.917159 0.268376
0.970459 0.872831 0.223514
0.998337 0.853269 0.212406
0.26566 0.563149 0.17586
0.270405 0.565759 0.173983
0.277653 0.57142 0.173342
0.288853 0.58204 0.172839
0.433234 0.749447 0.297642
0.604715 0.866712 0.294743
0.786572 0.912093 0.241566
0.946151 0.875975 0.198306
0.98912 0.853925 0.18439
0.00627146 0.0235904 0.347601
0.0128481 0.0103761 0.31902
0.0397803 0.0100862 0.309728
0.121996 0.0128176 0.326604
0.23447 0.00769055 0.338628
0.33901 0 0.295293
0.391012 0 0.27396
0.395529 0 0.267948
0.398291 0 0.264149
0.00886549 0.0455482 0.369131
0.0115663 0.0412299 0.36408
0.0336767 0.0162966 0.315084
0.106325 0.0122835 0.315206
0.219867 0.00732433 0.326421
0.32723 0 0.286244
0.402136 0 0.259098
0.407172 0 0.251896
0.409583 0 0.24828
0.016495 0.124956 0.42884
0.016083 0.119829 0.422629
0.0363165 0.134493 0.441672
0.0846265 0.122759 0.422538
0.231525 0.112917 0.407752
0.405158 0.0624857 0.361624
0.504646 0.0231937 0.290501
0.483772 0.00842298 0.262959
0.475135 0.00549325 0.252354
0.0239719 0.208957 0.468345
0.0235904 0.204456 0.462837
0.03299 0.212451 0.469825
0.0906081 0.272206 0.509972
0.237415 0.283162 0.521172
0.501991 0.262745 0.491936
0.679942 0.231235 0.413535
0.67364 0.210468 0.386618
0.66714 0.202182 0.37702
0.0319371 0.297948 0.493874
0.0315862 0.29424 0.489067
0.0316014 0.287816 0.4795
0.0765698 0.348577 0.512093
0.27689 0.461402 0.602884
0.554238 0.470344 0.597757
0.785077 0.46041 0.535576
0.803723 0.422507 0.49723
0.798581 0.41387 0.48809
0.0424201 0.400977 0.500114
0.0418555 0.39733 0.496071
0.0407721 0.389822 0.487907
0.0703746 0.427649 0.505348
0.24744 0.558679 0.588571
0.628885 0.668315 0.650492
0.904341 0.70367 0.668391
0.961654 0.67512 0.637873
0.957366 0.665553 0.628321
0.061326 0.508888 0.486549
0.0606241 0.505379 0.482795
0.0593118 0.49897 0.475868
0.0666361 0.501625 0.4701
0.228855 0.62472 0.509682
0.643244 0.788312 0.587213
0.922881 0.835019 0.597726
1 0.867781 0.6589
1 0.861311 0.653834
0.0753185 0.549081 0.42916
0.0763714 0.548959 0.423346
0.0782025 0.548852 0.414298
0.0825666 0.54905 0.398871
0.277958 0.652476 0.400076
0.630549 0.859007 0.532784
0.831418 0.954559 0.53344
1 0.952132 0.513619
1 0.938201 0.509026
0.0797131 0.548836 0.407385
0.0815137 0.548943 0.401526
0.0841688 0.549096 0.39263
0.090425 0.549706 0.376272
0.261845 0.63679 0.374868
0.611139 0.847822 0.511101
0.807553 0.948318 0.512154
1 0.960357 0.489219
1 0.94403 0.47602
0.00627146 0.0238499 0.349203
0.0117494 0.0115053 0.323354
0.0376593 0.0103761 0.313848
0.115496 0.0139467 0.33286
0.224704 0.0108186 0.351171
0.332311 0 0.327337
0.362753 0 0.305989
0.362737 0 0.305989
0.362737 0 0.305989
0.00830091 0.0411688 0.368582
0.00999466 0.03682 0.364187
0.0313115 0.0117342 0.31754
0.097734 0.0146487 0.330465
0.207568 0.011902 0.349187
0.31989 1.5259e-05 0.335637
0.362768 0 0.306004
0.362753 0 0.306004
0.362753 0 0.306004
0.0162966 0.12488 0.444327
0.0158846 0.120333 0.440818
0.0345617 0.13312 0.461952
0.07187 0.119387 0.446036
0.189487 0.110338 0.44062
0.350134 0.0813306 0.429603
0.432532 0.0166629 0.362234
0.409796 0.00418097 0.342702
0.401709 0.00361639 0.335882
0.0241398 0.213718 0.511238
0.0238346 0.210193 0.508476
0.031632 0.216342 0.52163
0.0791943 0.269078 0.572808
0.172259 0.280766 0.578012
0.354513 0.269352 0.579141
0.583551 0.224048 0.544625
0.594369 0.192447 0.514412
0.588846 0.182559 0.505898
0.0336767 0.305257 0.575051
0.0333104 0.302022 0.573312
0.0330358 0.295598 0.570367
0.0736858 0.353231 0.602304
0.214023 0.454978 0.689387
0.390661 0.470771 0.725063
0.648219 0.447303 0.699229
0.749172 0.418235 0.652293
0.750591 0.409323 0.641321
0.045304 0.403311 0.600946
0.0448463 0.400046 0.598856
0.0439307 0.393469 0.594308
0.0673686 0.423819 0.612055
0.190204 0.534936 0.693339
0.477165 0.660548 0.812543
0.724254 0.662928 0.797147
0.905135 0.653941 0.750988
0.902174 0.644739 0.740307
0.0636149 0.514336 0.624399
0.0629129 0.510811 0.620478
0.0616312 0.504387 0.613687
0.0657359 0.503716 0.609049
0.17084 0.617227 0.676921
0.449928 0.75787 0.779156
0.853834 0.860502 0.840116
1 0.880095 0.8589
1 0.872129 0.849744
0.0734569 0.567315 0.606699
0.0732891 0.566873 0.602945
0.0730297 0.566049 0.596689
0.0726024 0.56466 0.586175
0.142367 0.648936 0.616602
0.402777 0.797345 0.672892
0.80943 0.953399 0.758816
1 1 0.7794
1 1 0.784741
0.0728618 0.565469 0.591516
0.0726635 0.564858 0.587472
0.0724193 0.564095 0.58146
0.0721141 0.56289 0.571405
0.129152 0.632151 0.592721
0.386618 0.782589 0.642847
0.791043 0.947188 0.732738
1 1 0.747173
1 1 0.739025
0.00627146 0.0238499 0.349203
0.0112154 0.0118715 0.324239
0.0366979 0.0102541 0.313802
0.113191 0.0139925 0.332464
0.222354 0.0109865 0.350927
0.330541 0 0.328527
0.362753 0 0.305989
0.362737 0 0.305989
0.362737 0 0.305989
0.00805676 0.0389563 0.36614
0.00935378 0.0345006 0.361486
0.0305638 0.0104372 0.315496
0.0956436 0.0144656 0.329839
0.205356 0.0119783 0.348852
0.318151 3.0518e-05 0.336767
0.362753 0 0.306004
0.362753 0 0.306004
0.362753 0 0.306004
0.0160678 0.122408 0.44239
0.015671 0.117922 0.438972
0.0336156 0.129274 0.458503
0.0701762 0.115175 0.44123
0.186175 0.105821 0.436088
0.343832 0.0767987 0.425315
0.42591 0.0124514 0.356954
0.402975 0.0033875 0.337423
0.394141 0.00274662 0.330175
0.0239109 0.211139 0.509239
0.0236057 0.20766 0.506477
0.0307012 0.212512 0.517983
0.0765698 0.263554 0.569528
0.166796 0.274281 0.573327
0.345876 0.262852 0.574563
0.571664 0.218662 0.543923
0.579614 0.185046 0.514275
0.572702 0.175341 0.506294
0.033341 0.302296 0.574121
0.03299 0.299123 0.572686
0.0324102 0.29221 0.569726
0.070985 0.347417 0.60235
0.204852 0.447196 0.688762
0.373602 0.46331 0.724804
0.60708 0.441962 0.716091
0.700618 0.409415 0.680583
0.697261 0.400366 0.67451
0.0451057 0.400366 0.608042
0.0446937 0.397131 0.606912
0.0438392 0.390768 0.604685
0.0651255 0.418708 0.625071
0.179675 0.526787 0.710552
0.457877 0.657069 0.837552
0.606516 0.661295 0.855268
0.810987 0.628321 0.817502
0.804196 0.618738 0.812177
0.0628519 0.509285 0.654795
0.062211 0.50573 0.653208
0.0610513 0.499443 0.650401
0.0641642 0.497398 0.651774
0.152285 0.596216 0.722408
0.386816 0.740536 0.842893
0.760861 0.860166 0.959167
0.99382 0.862821 0.953368
0.997009 0.852949 0.94461
0.0748608 0.570748 0.681743
0.0748302 0.570687 0.681697
0.0748302 0.570672 0.681682
0.0748302 0.570687 0.681682
0.132647 0.64712 0.729152
0.316609 0.798138 0.837491
0.68188 0.939452 0.956985
1 1 0.999268
1 1 1
0.074876 0.570748 0.681758
0.0748455 0.570718 0.681712
0.0748455 0.570703 0.681712
0.0748608 0.570764 0.680888
0.119585 0.631647 0.716228
0.291844 0.784314 0.819867
0.64097 0.929808 0.936004
0.992599 1 0.989883
1 1 1
0.00627146 0.0238346 0.349187
0.0109865 0.0120241 0.324605
0.036286 0.010193 0.313771
0.112154 0.014023 0.332311
0.221332 0.0110323 0.350805
0.329793 0 0.329046
0.362753 0 0.305989
0.362753 0 0.305989
0.362737 0 0.305989
0.00794995 0.0380255 0.365072
0.00906386 0.033463 0.360265
0.0302434 0.010071 0.315007
0.0947585 0.0143893 0.329549
0.204425 0.0120241 0.34873
0.317464 3.0518e-05 0.337224
0.362768 0 0.306004
0.362753 0 0.306004
0.362753 0 0.305989
0.0159762 0.12134 0.441581
0.0155642 0.116884 0.438148
0.0332341 0.127733 0.457115
0.0695048 0.113481 0.439323
0.184909 0.104112 0.434394
0.341497 0.075227 0.423835
0.423682 0.0110475 0.355138
0.400809 0.00308232 0.335607
0.392126 0.00247196 0.328603
0.0238346 0.210147 0.508476
0.0235294 0.206607 0.505669
0.0303655 0.211093 0.51664
0.0756542 0.26157 0.568368
0.164981 0.272038 0.571664
0.343465 0.2607 0.572808
0.569299 0.216602 0.542382
0.577874 0.182513 0.51223
0.570977 0.172915 0.504295
0.0332341 0.301274 0.573663
0.0328679 0.297993 0.572183
0.0322118 0.29102 0.568994
0.0701915 0.345495 0.60145
0.202747 0.4448 0.687099
0.370626 0.460929 0.722759
0.604059 0.439979 0.714748
0.699794 0.407141 0.679072
0.696361 0.397925 0.672892
0.0449683 0.399252 0.60766
0.0445563 0.396078 0.606561
0.0437171 0.389746 0.604349
0.0644541 0.416983 0.62414
0.177798 0.524361 0.709056
0.454597 0.654887 0.835843
0.603372 0.65922 0.854505
0.809186 0.626093 0.816312
0.802304 0.616327 0.81088
0.0626383 0.508049 0.654292
0.0619821 0.504494 0.652659
0.0608377 0.498222 0.649897
0.0637827 0.495933 0.651087
0.150668 0.593652 0.721004
0.383597 0.738216 0.841306
0.755734 0.857893 0.95816
0.992477 0.860639 0.952316
0.995346 0.850477 0.943832
0.0748608 0.570733 0.681743
0.0748455 0.570703 0.681697
0.0748302 0.570687 0.681697
0.0748302 0.570687 0.681697
0.131319 0.645548 0.728344
0.313771 0.795972 0.837491
0.676905 0.937362 0.96231
1 1 1
1 1 1
0.0749065 0.570809 0.681819
0.074876 0.570764 0.681758
0.0748608 0.570733 0.681727
0.0748608 0.570733 0.681727
0.118059 0.629618 0.718135
0.28896 0.782345 0.825467
0.636408 0.928878 0.953704
0.996735 1 1
1 1 1
