LUT预设1/LUT全系打包/胶片lut系列/胶片各机型log灰片/FILM-LIME橙调.cube
TITLE "Generated by Resolve"
LUT_3D_SIZE 5
0.0157321 0 0
0.0863203 0 0
0.321721 0.00361639 0
0.458442 0.00172427 0
0.458396 0.00169375 0
0.0222171 0.061265 0
0.0549783 0.0776074 0
0.438148 0.0901961 0.00715648
0.567147 0.0796216 0.0194858
0.541634 0.0577401 0.00831617
0.123949 0.303471 0.0195468
0.123064 0.296269 0.0152438
0.434333 0.380484 0.000595102
0.858518 0.380621 0.108675
0.848814 0.3579 0.110887
0.312901 0.674693 0.141253
0.302022 0.656779 0.133715
0.453559 0.731868 0.107439
0.842664 0.695766 0.0976425
1 0.653437 0.11606
0.346746 0.728145 0.165026
0.346731 0.72813 0.165011
0.443229 0.790356 0.151354
0.768429 0.860121 0.121447
0.97612 0.806256 0.124681
0.0127413 0 0.0403143
0.0834211 0 0.0357671
0.280034 0 0.0242466
0.428351 0 0.00959792
0.428382 0 0.00508125
0.0135195 0.0691386 0.0790112
0.0800488 0.0841688 0.0812085
0.415167 0.111971 0.0799268
0.539162 0.0653849 0.0381323
0.514855 0.0444038 0.0201419
0.115633 0.269322 0.022858
0.122683 0.280049 0.025742
0.425605 0.37377 0.00251774
0.851347 0.37467 0.10782
0.842313 0.351446 0.110079
0.308248 0.667079 0.138033
0.297704 0.649592 0.130785
0.445701 0.724071 0.105348
0.835813 0.691051 0.0967117
1 0.64831 0.116136
0.346746 0.728145 0.165026
0.346731 0.72813 0.165011
0.438834 0.788067 0.152285
0.763745 0.860456 0.12134
0.976135 0.806271 0.124681
0.0059968 0.00767529 0.252155
0.0541238 6.10361e-05 0.218799
0.249653 0 0.202441
0.428672 0 0.148608
0.42771 0 0.139422
0.0155489 0.10042 0.315953
0.0374609 0.114214 0.328267
0.319982 0.0796979 0.274998
0.51281 0.0487678 0.175311
0.481575 0.0260166 0.144381
0.0307317 0.285466 0.370443
0.0311284 0.275456 0.357122
0.378378 0.456107 0.472465
0.829343 0.483085 0.449287
0.827878 0.427253 0.391943
0.115099 0.50106 0.257527
0.116869 0.490135 0.241184
0.453025 0.686671 0.348058
0.892241 0.779278 0.319661
1 0.760342 0.360571
0.26566 0.563149 0.17586
0.277653 0.57142 0.173342
0.433234 0.749447 0.297642
0.786572 0.912093 0.241566
0.98912 0.853925 0.18439
0.00627146 0.0238499 0.349203
0.0376593 0.0103761 0.313848
0.224704 0.0108186 0.351171
0.362753 0 0.305989
0.362737 0 0.305989
0.0162966 0.12488 0.444327
0.0345617 0.13312 0.461952
0.189487 0.110338 0.44062
0.432532 0.0166629 0.362234
0.401709 0.00361639 0.335882
0.0336767 0.305257 0.575051
0.0330358 0.295598 0.570367
0.214023 0.454978 0.689387
0.648219 0.447303 0.699229
0.750591 0.409323 0.641321
0.0636149 0.514336 0.624399
0.0616312 0.504387 0.613687
0.17084 0.617227 0.676921
0.853834 0.860502 0.840116
1 0.872129 0.849744
0.0728618 0.565469 0.591516
0.0724193 0.564095 0.58146
0.129152 0.632151 0.592721
0.791043 0.947188 0.732738
1 1 0.739025
0.00627146 0.0238346 0.349187
0.036286 0.010193 0.313771
0.221332 0.0110323 0.350805
0.362753 0 0.305989
0.362737 0 0.305989
0.0159762 0.12134 0.441581
0.0332341 0.127733 0.457115
0.184909 0.104112 0.434394
0.423682 0.0110475 0.355138
0.392126 0.00247196 0.328603
0.0332341 0.301274 0.573663
0.0322118 0.29102 0.568994
0.202747 0.4448 0.687099
0.604059 0.439979 0.714748
0.696361 0.397925 0.672892
0.0626383 0.508049 0.654292
0.0608377 0.498222 0.649897
0.150668 0.593652 0.721004
0.755734 0.857893 0.95816
0.995346 0.850477 0.943832
0.0749065 0.570809 0.681819
0.0748608 0.570733 0.681727
0.118059 0.629618 0.718135
0.636408 0.928878 0.953704
1 1 1
