LUT预设1/LUT全系打包/胶片lut系列/胶片各机型log灰片/FILM-LIME橙调.cube
TITLE "Generated by Resolve"
LUT_3D_SIZE 33
0.0157321 0 0
0.0158694 0 0
0.0196841 0 0
0.0261692 0 0
0.034699 0 0
0.0438544 0 0
0.0552224 0 0
0.0697185 0 0
0.0863203 0 0
0.108064 0 0
0.134829 0 0
0.162921 0 0
0.191333 0 0
0.221881 0 0
0.254551 0.0012665 0
0.288106 0.00263981 0
0.321721 0.00361639 0
0.355245 0.00415045 0
0.38706 0.00387579 0
0.415549 0.00271611 0
0.438376 0.00170901 0
0.451896 0.00151064 0
0.457267 0.00166323 0
0.458442 0.00172427 0
0.458442 0.00172427 0
0.458427 0.00170901 0
0.458427 0.00170901 0
0.458427 0.00170901 0
0.458427 0.00170901 0
0.458427 0.00170901 0
0.458412 0.00170901 0
0.458412 0.00170901 0
0.458396 0.00169375 0
0.0157321 0 0
0.0157321 0 0
0.0185092 0 0
0.0241855 0 0
0.0327306 0 0
0.0420386 0 0
0.0526894 0 0
0.0670939 0 0
0.0832532 0 0
0.104128 0 0
0.13051 0 0
0.158709 0 0
0.187213 0 0
0.217533 0 0
0.250141 0.00111391 0
0.283772 0.00248722 0
0.317479 0.00349432 0
0.351202 0.00410468 0
0.383398 0.00395209 0
0.412467 0.0028687 0
0.436057 0.00181582 0
0.450629 0.00151064 0
0.456931 0.00164797 0
0.458442 0.00172427 0
0.458442 0.00172427 0
0.458442 0.00172427 0
0.458442 0.00172427 0
0.458442 0.00172427 0
0.458442 0.00172427 0
0.458427 0.00170901 0
0.458427 0.00170901 0
0.458412 0.00170901 0
0.458412 0.00169375 0
0.0153964 0 0
0.0154421 0 0
0.0170901 0 0
0.0222171 0 0
0.0311131 0 0
0.0406958 0 0
0.0507057 0 0
0.0646525 0 0
0.080354 0 0
0.100511 0 0
0.126055 0 0
0.154269 0 0
0.182696 0 0
0.212741 0 0
0.245197 0.0009308 0
0.27892 0.00230411 0
0.312825 0.0033875 0
0.346746 0.00407416 0
0.37937 0.00402838 0
0.409003 0.0030518 0
0.433371 0.00195315 0
0.449134 0.0015259 0
0.456535 0.00161746 0
0.458442 0.00172427 0
0.458442 0.00172427 0
0.458442 0.00172427 0
0.458442 0.00172427 0
0.458442 0.00172427 0
0.458442 0.00172427 0
0.458442 0.00172427 0
0.458442 0.00172427 0
0.458427 0.00170901 0
0.458412 0.00170901 0
0.0148623 0.00138857 0
0.0148623 0.00102235 0
0.0154421 0.000732433 0
0.0196841 0.00030518 0
0.027039 0.000198367 0
0.0407263 0.00030518 0
0.053727 0.000274662 0
0.0679942 0.000259403 0
0.084947 0.000350958 0
0.104173 0.000427253 0
0.126406 0.000427253 0
0.151553 0.000427253 0
0.178561 0.000427253 0
0.207752 0.00047303 0
0.239582 0.00112917 0
0.27277 0.00231937 0
0.30631 0.00328069 0
0.3402 0.00399786 0
0.373312 0.0041352 0
0.403693 0.00329595 0
0.429236 0.00215152 0
0.447013 0.00155642 0
0.456046 0.0016022 0
0.458457 0.00172427 0
0.458442 0.00172427 0
0.458442 0.00172427 0
0.458442 0.00172427 0
0.458457 0.00172427 0
0.458457 0.00172427 0
0.458457 0.00172427 0
0.458442 0.00172427 0
0.458442 0.00172427 0
0.458427 0.00170901 0
0.0146487 0.00880446 0
0.0146487 0.00828565 0
0.0146792 0.00776684 0
0.0177157 0.00762951 0
0.0237278 0.00825513 0
0.0346227 0.010071 0
0.0570077 0.00843824 0
0.0764172 0.00733959 0
0.0975204 0.00807202 0
0.121645 0.00909438 0
0.145846 0.00877394 0
0.171618 0.00798047 0
0.198352 0.00784314 0
0.224948 0.00830091 0
0.251286 0.00828565 0
0.277348 0.00701915 0
0.305119 0.00561532 0
0.336599 0.00531014 0
0.369345 0.0052491 0
0.399756 0.0043183 0
0.425696 0.00291447 0
0.44477 0.0019379 0
0.455482 0.00173953 0
0.458518 0.00177005 0
0.458457 0.00172427 0
0.458457 0.00172427 0
0.458457 0.00172427 0
0.458457 0.00172427 0
0.458442 0.00172427 0
0.458442 0.00172427 0
0.458442 0.00172427 0
0.458442 0.00172427 0
0.458427 0.00170901 0
0.014435 0.019501 0
0.014435 0.0188296 0
0.0144503 0.0181735 0
0.016083 0.0176547 0
0.0228275 0.0181735 0
0.0283513 0.0208896 0
0.0433509 0.0235142 0
0.0751965 0.0216831 0
0.10425 0.0213474 0
0.135393 0.0229191 0
0.166766 0.024567 0
0.197604 0.026154 0
0.228351 0.0280613 0
0.258305 0.02916 0
0.285863 0.0285344 0
0.311635 0.0263676 0
0.337957 0.0233921 0
0.365164 0.0201724 0
0.391501 0.0166934 0
0.415488 0.0130465 0
0.436316 0.00976577 0
0.452201 0.00714122 0
0.460883 0.00511177 0
0.462303 0.00378424 0
0.461158 0.00311284 0
0.460639 0.00283818 0
0.46038 0.00270085 0
0.460166 0.00259403 0
0.459907 0.00247196 0
0.459663 0.00234989 0
0.459388 0.00221256 0
0.45919 0.00210575 0
0.45919 0.00210575 0
0.0146792 0.0310979 0
0.0146029 0.0305486 0
0.0144961 0.0298772 0
0.0147402 0.0289311 0
0.0205844 0.0292515 0
0.0298161 0.031693 0
0.0350042 0.036347 0
0.0552682 0.0403449 0
0.0995193 0.0390936 0
0.142626 0.0396735 0
0.181125 0.0425879 0
0.218982 0.0469062 0
0.254398 0.0502632 0
0.286549 0.0514839 0
0.316136 0.0505989 6.10361e-05
0.344762 0.0482185 0.000167849
0.373434 0.0447395 0.000183108
0.401312 0.0401923 6.10361e-05
0.427283 0.0354772 0
0.450538 0.0316472 0
0.469825 0.0289006 0.000167849
0.48423 0.0265507 0.000411994
0.491402 0.0233616 0.000442512
0.489647 0.0193027 0.000183108
0.484016 0.0156863 0
0.479576 0.013138 0
0.476753 0.0115511 0
0.474891 0.010544 0
0.473045 0.00959792 0
0.47097 0.00851453 0
0.469001 0.0074464 0
0.467872 0.00683604 0
0.467796 0.00679026 0
0.0174258 0.0449226 0
0.017258 0.0443275 0
0.0170748 0.0436561 0
0.0167391 0.042359 0
0.0200046 0.0418555 0
0.0289464 0.0433509 0
0.0364691 0.0485084 0
0.0431373 0.0543374 0
0.0726329 0.0598154 0
0.130632 0.0590372 0
0.183352 0.0611734 0
0.230625 0.0672313 0
0.274357 0.0726482 0
0.311604 0.0746014 7.62951e-05
0.344152 0.0738537 0.00105287
0.376349 0.0715496 0.00238041
0.408637 0.0678264 0.00242618
0.438895 0.0633402 0.00109865
0.466072 0.0598154 0.000549325
0.490028 0.05832 0.000961318
0.50988 0.0581521 0.00294499
0.524651 0.0574044 0.00540169
0.532174 0.0544289 0.00581369
0.530571 0.0491493 0.00383001
0.523949 0.0433051 0.00233463
0.517159 0.0380713 0.0019379
0.512596 0.0347143 0.00166323
0.509834 0.0328222 0.00154116
0.506905 0.030808 0.00135805
0.503838 0.0287175 0.00115969
0.500923 0.0267643 0.000976577
0.499107 0.0255283 0.000854505
0.498985 0.025452 0.000854505
0.0222171 0.061265 0
0.0220645 0.0607309 0
0.0218204 0.0600137 0
0.0213931 0.0586099 0
0.0216983 0.0573892 0
0.0297704 0.0584268 0
0.038941 0.0624857 0
0.0440681 0.0699168 0
0.0549783 0.0776074 0
0.0983291 0.0827497 0
0.167117 0.084947 0
0.231022 0.0898604 0
0.286183 0.095613 0
0.331258 0.0982376 0.0010071
0.368032 0.0974594 0.00471504
0.403037 0.094667 0.00724804
0.438148 0.0901961 0.00715648
0.470634 0.0852522 0.00564584
0.499916 0.0834821 0.00587472
0.525765 0.0861982 0.00984207
0.546822 0.0899672 0.0156405
0.562936 0.0918441 0.020737
0.572595 0.0906539 0.023209
0.573068 0.0860151 0.0223392
0.567147 0.0796216 0.0194858
0.560296 0.0735485 0.0164645
0.555428 0.0692912 0.014313
0.552392 0.0666819 0.0129549
0.549493 0.0642405 0.0116884
0.54638 0.0616312 0.0103609
0.543389 0.0591592 0.00907912
0.541741 0.0578164 0.00836194
0.541634 0.0577401 0.00831617
0.0290379 0.0805219 0
0.0287938 0.079881 0
0.0285191 0.079118 0
0.0280003 0.0776837 0
0.0274052 0.0760662 0
0.0332494 0.0765545 0
0.0422827 0.079881 0
0.0481727 0.087068 0
0.0550698 0.0965744 0
0.0729534 0.105882 0
0.127184 0.113375 0
0.209613 0.116777 0
0.286625 0.120577 0
0.346105 0.123278 0.000915541
0.390646 0.122591 0.00604257
0.42945 0.118914 0.00985733
0.466392 0.113649 0.0104067
0.500237 0.109255 0.010132
0.530541 0.109499 0.0125734
0.557305 0.115251 0.0192721
0.57937 0.122225 0.0275425
0.596338 0.12607 0.0343786
0.607401 0.125795 0.0383154
0.610513 0.122271 0.0388037
0.606836 0.116915 0.0368658
0.600885 0.111162 0.034287
0.596536 0.106966 0.0323949
0.593942 0.104479 0.0312505
0.591302 0.101946 0.0301061
0.588678 0.099443 0.0289464
0.586343 0.0972457 0.027924
0.584787 0.0957656 0.0272374
0.58471 0.0957046 0.0272068
0.038407 0.102296 0
0.0380713 0.101549 0
0.0377508 0.100832 0
0.0370642 0.0992905 0
0.0363165 0.0975509 0
0.0390936 0.0970932 0
0.0473335 0.0998398 0
0.0541085 0.107256 0
0.0591745 0.116625 0
0.0704509 0.126879 0
0.096788 0.138384 0
0.162646 0.147158 0
0.2598 0.149355 0
0.346685 0.150408 0
0.40853 0.150332 0.00518807
0.4542 0.146029 0.0107271
0.493614 0.140017 0.0131991
0.528817 0.137072 0.0155947
0.559747 0.139696 0.0209506
0.586969 0.147707 0.0297856
0.610071 0.156619 0.0396582
0.627771 0.161349 0.0475624
0.639765 0.161273 0.0523384
0.644694 0.157778 0.0536812
0.642237 0.152346 0.0522164
0.63679 0.146761 0.0498665
0.632685 0.142611 0.0480964
0.629969 0.139879 0.046952
0.627558 0.137469 0.0459144
0.62533 0.135225 0.0449531
0.623117 0.133013 0.044007
0.621729 0.131609 0.0433967
0.62179 0.13167 0.0434119
0.0506905 0.127535 0
0.0502327 0.12665 0
0.0497292 0.125719 0
0.0489662 0.124224 0
0.0480354 0.122377 0
0.0477302 0.120485 0
0.05449 0.122652 0
0.0613565 0.130419 0
0.0657816 0.13962 0
0.0743267 0.149889 0
0.0923934 0.162142 0
0.128527 0.175601 0
0.207843 0.181292 0
0.317601 0.181369 0
0.410574 0.180713 0.00268559
0.473304 0.177951 0.00973526
0.51902 0.173266 0.0161898
0.55671 0.170932 0.0219425
0.589059 0.17467 0.0299229
0.617166 0.183764 0.0405585
0.640681 0.192905 0.0513161
0.659342 0.198169 0.0600137
0.672572 0.198505 0.0655833
0.678996 0.194751 0.0676585
0.677913 0.189227 0.0668803
0.672801 0.183505 0.0648203
0.66833 0.178912 0.063035
0.665476 0.175982 0.0618906
0.663081 0.173556 0.0609293
0.6607 0.171099 0.059968
0.658518 0.168872 0.0590677
0.657084 0.167407 0.0584573
0.656992 0.16733 0.0584268
0.065156 0.156024 0
0.064683 0.155077 0
0.0642252 0.154192 0
0.063386 0.152499 0
0.0623636 0.150469 0
0.0611582 0.148165 0
0.0646372 0.149065 0
0.0698558 0.156146 0
0.0747082 0.167041 0
0.0821546 0.176654 0
0.0972915 0.18854 0
0.124193 0.203189 0
0.171435 0.21619 0
0.265476 0.215717 0
0.382376 0.213886 0
0.47631 0.21268 0.00624094
0.538293 0.209766 0.016144
0.582147 0.208667 0.026276
0.617166 0.212238 0.0370031
0.646754 0.220371 0.0488594
0.671443 0.22884 0.0603037
0.690837 0.234043 0.0696574
0.70544 0.235248 0.0763867
0.71397 0.232456 0.0799115
0.714397 0.227054 0.0801099
0.70988 0.221332 0.0785534
0.705486 0.216663 0.0769818
0.702235 0.213321 0.0758068
0.699748 0.210819 0.0749218
0.697444 0.208499 0.0740978
0.695048 0.206073 0.0732433
0.693568 0.204562 0.072694
0.693614 0.204623 0.0727092
0.0797436 0.188754 0
0.0793927 0.187915 0
0.0788891 0.186725 0
0.0781567 0.18497 0
0.0773632 0.183047 0
0.0762646 0.180453 0
0.0762493 0.178988 0
0.0796521 0.185641 0
0.0853742 0.197498 0
0.0947433 0.208667 0
0.108461 0.219791 0
0.131472 0.233921 0
0.166155 0.249607 0
0.224872 0.257649 0
0.33022 0.253605 0
0.450431 0.250462 0.00167849
0.540795 0.248936 0.0128328
0.599542 0.248066 0.0274815
0.640909 0.250599 0.04094
0.673671 0.25687 0.0539101
0.700511 0.264042 0.0660105
0.721874 0.269551 0.0764782
0.738216 0.271778 0.0845502
0.748867 0.269932 0.089601
0.751614 0.265202 0.0912032
0.748531 0.25977 0.0905165
0.744106 0.254902 0.0892958
0.740612 0.251453 0.0882734
0.738247 0.249134 0.0875715
0.735698 0.246632 0.0868086
0.733196 0.244175 0.0860456
0.731792 0.242802 0.0856031
0.731685 0.24271 0.0855726
0.0936599 0.224903 0.000335698
0.0932326 0.223819 0.000289921
0.0928206 0.222705 0.000335698
0.092134 0.220966 0.000366217
0.0913558 0.218906 0.000381476
0.0903792 0.216266 0.000396735
0.0892348 0.213214 0.000381476
0.0909438 0.21767 0.000396735
0.0972763 0.229419 0.000427253
0.109178 0.242527 0.000106813
0.123537 0.254429 0
0.142687 0.267643 0
0.171008 0.28368 0
0.212436 0.297536 0
0.287633 0.299351 0
0.400824 0.292653 0
0.516182 0.289723 0.00842298
0.600397 0.288746 0.0248264
0.655619 0.289479 0.0414893
0.695399 0.293446 0.055848
0.726467 0.299428 0.0687572
0.751064 0.305318 0.0804456
0.769894 0.3084 0.0900282
0.783047 0.307729 0.0966506
0.788724 0.303838 0.0998856
0.787289 0.298207 0.100252
0.783108 0.293095 0.099443
0.779538 0.289586 0.0986038
0.777005 0.287098 0.0979934
0.774487 0.284611 0.0973678
0.772168 0.282338 0.096788
0.770611 0.280827 0.0964065
0.77052 0.280751 0.096376
0.108049 0.263096 0.0106355
0.107683 0.262119 0.0103761
0.107225 0.260899 0.010071
0.106569 0.25919 0.00962844
0.105867 0.257328 0.00915541
0.104784 0.254459 0.00840772
0.103548 0.251225 0.00756847
0.10338 0.250813 0.00741588
0.109789 0.261692 0.00698863
0.123308 0.276799 0.00216678
0.139055 0.291005 0.00062562
0.156298 0.304433 0.000595102
0.178988 0.319265 0.000610361
0.214115 0.334768 0.000534066
0.271839 0.342458 0.000167849
0.360998 0.338964 0
0.471366 0.332921 0.00228885
0.576638 0.330922 0.0179446
0.654841 0.330449 0.0382544
0.708309 0.331609 0.0548562
0.747173 0.335592 0.0690013
0.776364 0.340871 0.0816968
0.799023 0.3449 0.0926528
0.815778 0.345617 0.100877
0.824781 0.342535 0.105699
0.825956 0.337209 0.107347
0.822446 0.331792 0.107134
0.818479 0.327855 0.106462
0.816068 0.325475 0.10605
0.813626 0.323064 0.105608
0.811215 0.320684 0.10518
0.809781 0.31928 0.104906
0.809705 0.319188 0.104891
0.123949 0.303471 0.0195468
0.123491 0.302342 0.0192874
0.122988 0.301091 0.019028
0.122393 0.299611 0.0187076
0.121584 0.297612 0.018265
0.120409 0.294774 0.0176699
0.119158 0.291737 0.0170138
0.117723 0.288136 0.0162509
0.123064 0.296269 0.0152438
0.136706 0.312444 0.0120089
0.153384 0.328405 0.00927749
0.171267 0.343114 0.00868238
0.192584 0.358007 0.00849927
0.222614 0.372915 0.00700389
0.272007 0.38352 0.00285344
0.344717 0.385473 0.000671397
0.434333 0.380484 0.000595102
0.534447 0.375051 0.011429
0.630533 0.372946 0.0314031
0.705257 0.372274 0.0508278
0.757427 0.373602 0.0669566
0.794827 0.377249 0.0807813
0.822858 0.380743 0.0927138
0.844495 0.38233 0.102373
0.858518 0.380621 0.108675
0.863432 0.37586 0.111635
0.861433 0.370565 0.11223
0.857618 0.36669 0.111818
0.855039 0.364111 0.111528
0.852659 0.36173 0.111284
0.850462 0.359533 0.111055
0.84889 0.357961 0.110887
0.848814 0.3579 0.110887
0.140536 0.345037 0.028397
0.140078 0.343893 0.0281224
0.139651 0.342794 0.0278935
0.138994 0.341161 0.0275425
0.138216 0.339178 0.0271
0.137179 0.336553 0.0265202
0.135927 0.33341 0.0258183
0.134463 0.329793 0.0250553
0.137163 0.333379 0.0243534
0.149081 0.347921 0.0240787
0.167239 0.365835 0.0248722
0.186938 0.382254 0.0254368
0.209277 0.398032 0.0247196
0.238331 0.413123 0.0215305
0.280613 0.424979 0.0148623
0.343175 0.430686 0.0077821
0.419226 0.43006 0.0065919
0.500633 0.424613 0.0127413
0.590555 0.417853 0.0256657
0.680095 0.414221 0.043946
0.751431 0.413855 0.0623941
0.802014 0.41532 0.0780194
0.838727 0.417517 0.0911116
0.866743 0.418647 0.101747
0.887022 0.417105 0.109483
0.897322 0.413062 0.114046
0.897978 0.408301 0.115679
0.894453 0.404334 0.115511
0.891859 0.401648 0.115267
0.889769 0.399481 0.115084
0.887587 0.397223 0.114885
0.886183 0.395758 0.114763
0.886259 0.395834 0.114763
0.158968 0.38822 0.0395056
0.158465 0.38706 0.0391699
0.157885 0.385794 0.038819
0.157259 0.384375 0.0384222
0.156435 0.382528 0.0379034
0.15523 0.379797 0.0371405
0.153933 0.376867 0.036347
0.152392 0.373281 0.0354467
0.152255 0.371893 0.034699
0.162112 0.383703 0.0366827
0.181216 0.403067 0.0399176
0.203174 0.421439 0.0410315
0.226734 0.43798 0.0397498
0.256764 0.4533 0.035111
0.29633 0.465583 0.0275425
0.349813 0.47425 0.0204471
0.416709 0.478981 0.0184329
0.48719 0.477958 0.0217899
0.560388 0.469581 0.027985
0.642695 0.459098 0.0389258
0.725917 0.454292 0.0557259
0.793622 0.454765 0.0733959
0.843229 0.45597 0.0882734
0.880247 0.455634 0.100008
0.908003 0.452918 0.108583
0.925536 0.448234 0.114275
0.930495 0.443442 0.11693
0.928298 0.439734 0.117327
0.925765 0.437034 0.117266
0.923735 0.434913 0.117205
0.921874 0.432975 0.117144
0.920623 0.431678 0.117098
0.920562 0.431617 0.117098
0.180163 0.431754 0.0520485
0.179568 0.430594 0.0517128
0.179004 0.429496 0.0513924
0.17818 0.427909 0.0509346
0.177279 0.426184 0.0504616
0.176043 0.423789 0.0498665
0.174517 0.420813 0.0490425
0.172824 0.417334 0.0480812
0.171038 0.413672 0.0470436
0.177523 0.420737 0.0489967
0.195209 0.439078 0.0525521
0.219196 0.459831 0.054612
0.245106 0.477852 0.0534676
0.274846 0.49305 0.0483406
0.313146 0.505943 0.0404822
0.361486 0.516915 0.0337682
0.419059 0.527092 0.0321813
0.482689 0.531838 0.034699
0.547616 0.525505 0.0378729
0.615457 0.511421 0.0422675
0.690791 0.499214 0.0518807
0.767285 0.494636 0.067277
0.832334 0.494682 0.083772
0.882063 0.493721 0.0971237
0.920226 0.489326 0.106538
0.946975 0.482963 0.11284
0.958877 0.47747 0.116365
0.958999 0.47332 0.117327
0.956527 0.470512 0.117388
0.954833 0.46865 0.117433
0.953063 0.466682 0.117464
0.951919 0.4654 0.117494
0.951965 0.465476 0.117494
0.203021 0.475547 0.0673075
0.202487 0.47454 0.0669261
0.201785 0.473198 0.0664225
0.2009 0.471504 0.0657969
0.200061 0.469917 0.0651865
0.198779 0.467506 0.0642863
0.197253 0.464622 0.0632334
0.19556 0.461402 0.0620432
0.193591 0.457679 0.0606851
0.195636 0.459205 0.0611887
0.209308 0.474372 0.0642252
0.233768 0.496803 0.0665141
0.262348 0.517021 0.0657816
0.292561 0.532937 0.0615854
0.328206 0.546075 0.0545968
0.372381 0.559091 0.0487678
0.423743 0.572824 0.0476997
0.480171 0.582193 0.0496986
0.540429 0.580682 0.051606
0.60206 0.568689 0.0532082
0.6654 0.552163 0.0565194
0.734524 0.539147 0.0649119
0.805753 0.533547 0.0784619
0.869688 0.531014 0.092607
0.921935 0.526223 0.103395
0.960601 0.519234 0.110674
0.981323 0.512566 0.115129
0.985351 0.507546 0.116609
0.983459 0.504494 0.11664
0.982147 0.502403 0.11667
0.98088 0.500374 0.116716
0.980102 0.499138 0.116732
0.980056 0.499092 0.116732
0.227344 0.522225 0.0836194
0.226703 0.520989 0.0832074
0.225956 0.519539 0.0827039
0.225101 0.517906 0.0821393
0.224125 0.51603 0.0814832
0.222812 0.513497 0.0806134
0.221408 0.510811 0.0796826
0.219577 0.507332 0.0784466
0.217563 0.503471 0.0770886
0.216358 0.500725 0.0760204
0.224857 0.51046 0.0777752
0.247105 0.532372 0.0805829
0.276936 0.554879 0.0793927
0.307759 0.571862 0.0747692
0.341222 0.585565 0.0690013
0.381186 0.599802 0.0644694
0.427985 0.614862 0.0634775
0.479652 0.627283 0.0651865
0.53492 0.631601 0.0668345
0.592874 0.624796 0.0673838
0.651835 0.609812 0.0680858
0.711406 0.592248 0.0706493
0.775738 0.577508 0.0772106
0.845518 0.568902 0.0878004
0.911284 0.563363 0.0988022
0.963165 0.557076 0.107546
0.992691 0.550546 0.113451
1 0.545037 0.115984
1 0.541253 0.116213
1 0.538888 0.116228
1 0.536843 0.116243
0.999954 0.535363 0.116258
0.999878 0.535286 0.116258
0.254078 0.57261 0.101579
0.253498 0.571527 0.101183
0.252689 0.570016 0.100633
0.251713 0.5682 0.0999771
0.250797 0.566506 0.0993668
0.249409 0.563928 0.098436
0.247852 0.561028 0.0973983
0.246052 0.557656 0.0961776
0.243854 0.553491 0.0946975
0.241459 0.548989 0.0930953
0.243854 0.550881 0.0931411
0.260822 0.567895 0.0958724
0.29015 0.591485 0.0957198
0.322042 0.610468 0.089662
0.354742 0.62501 0.0829175
0.391684 0.639719 0.0793164
0.434363 0.655222 0.0788891
0.481865 0.668528 0.0802777
0.532586 0.676432 0.0816968
0.585367 0.676051 0.0821241
0.640421 0.666194 0.0817731
0.696376 0.649149 0.0815747
0.753552 0.629435 0.0826123
0.81828 0.612329 0.0866865
0.888945 0.601572 0.0943313
0.952178 0.595651 0.103578
0.990539 0.590692 0.111589
1 0.585473 0.115663
1 0.581384 0.11635
1 0.578714 0.116381
1 0.576364 0.11635
1 0.574929 0.11632
1 0.574853 0.116335
0.282628 0.62414 0.12079
0.281926 0.622934 0.120317
0.281025 0.621347 0.119722
0.28014 0.619776 0.119127
0.279088 0.617929 0.118425
0.27779 0.615656 0.11754
0.276356 0.613123 0.116579
0.274434 0.609705 0.115267
0.27219 0.605692 0.113756
0.269841 0.601434 0.112169
0.267292 0.59678 0.110445
0.278065 0.606561 0.112428
0.304784 0.628748 0.113848
0.33698 0.649042 0.107958
0.369284 0.664454 0.098909
0.404379 0.679438 0.0934615
0.443641 0.694453 0.092546
0.486671 0.70779 0.0937819
0.532998 0.717571 0.0950637
0.581094 0.721294 0.0954299
0.630777 0.717098 0.0948043
0.683207 0.704433 0.0933852
0.738582 0.685008 0.0917983
0.797436 0.663203 0.0911421
0.861921 0.645151 0.093431
0.928405 0.634607 0.100069
0.979339 0.62948 0.108629
0.999496 0.625452 0.114488
1 0.621393 0.116182
1 0.618662 0.116518
1 0.616541 0.116533
1 0.614984 0.116533
1 0.614908 0.116533
0.312901 0.674693 0.141253
0.312123 0.673411 0.140703
0.311345 0.672099 0.140154
0.310216 0.670298 0.139391
0.309071 0.668406 0.138598
0.30779 0.6663 0.137713
0.306249 0.663767 0.13666
0.304265 0.660487 0.135271
0.302022 0.656779 0.133715
0.299489 0.652567 0.131991
0.296834 0.648142 0.130205
0.301427 0.650919 0.130663
0.320806 0.666117 0.132189
0.351293 0.686091 0.127657
0.384085 0.702922 0.118288
0.417273 0.717342 0.110765
0.453559 0.731868 0.107439
0.492943 0.745571 0.106706
0.534951 0.756237 0.1066
0.5794 0.762249 0.106355
0.625589 0.762127 0.105638
0.674464 0.754299 0.10396
0.728313 0.738827 0.101335
0.785672 0.718029 0.0988022
0.842664 0.695766 0.0976425
0.900984 0.678111 0.0998245
0.958679 0.668513 0.106035
0.994202 0.663401 0.112306
1 0.659632 0.11516
1 0.656977 0.116014
1 0.65481 0.11603
1 0.653346 0.11606
1 0.653437 0.11606
0.339986 0.7178 0.160098
0.339269 0.716686 0.159564
0.338506 0.715511 0.15903
0.337499 0.71397 0.158282
0.336477 0.712413 0.157549
0.335378 0.71075 0.156756
0.334234 0.708949 0.155917
0.332448 0.706203 0.15462
0.330404 0.703014 0.153155
0.328191 0.699489 0.151614
0.325811 0.695644 0.149996
0.325429 0.693629 0.148959
0.33785 0.702525 0.150088
0.364706 0.72015 0.146715
0.397467 0.737926 0.137804
0.429419 0.752682 0.129381
0.461906 0.766323 0.1243
0.498116 0.78027 0.121843
0.537026 0.792538 0.120378
0.578195 0.800549 0.118349
0.622385 0.80264 0.115221
0.669856 0.798383 0.112184
0.721736 0.78761 0.1093
0.777096 0.770947 0.106218
0.829419 0.750973 0.104448
0.878462 0.729946 0.104387
0.930465 0.712551 0.106569
0.975982 0.703136 0.111131
0.997757 0.698222 0.114626
1 0.695064 0.115923
1 0.693004 0.115908
1 0.691493 0.115908
1 0.691432 0.115923
0.346563 0.727855 0.164874
0.346548 0.72784 0.164874
0.346548 0.72784 0.164889
0.346548 0.727825 0.164874
0.346517 0.727794 0.164858
0.346502 0.727779 0.164843
0.346502 0.727779 0.164858
0.346181 0.727275 0.164614
0.345724 0.726558 0.164279
0.344945 0.725383 0.163699
0.343969 0.723888 0.162997
0.342962 0.722347 0.162264
0.350973 0.728252 0.163226
0.372915 0.743282 0.161318
0.404822 0.762234 0.154131
0.437507 0.779095 0.145632
0.467933 0.793179 0.139422
0.50074 0.807309 0.135851
0.537377 0.820752 0.133257
0.576333 0.830655 0.12958
0.619242 0.835279 0.124025
0.666423 0.833906 0.118608
0.716518 0.827329 0.115175
0.767147 0.816861 0.113085
0.814206 0.802792 0.112078
0.859037 0.784939 0.111955
0.906111 0.76495 0.112139
0.951431 0.748379 0.113512
0.984497 0.739574 0.116014
0.997543 0.735454 0.117311
0.997681 0.733059 0.117159
0.997742 0.731456 0.117067
0.997665 0.731548 0.117082
0.346731 0.72813 0.165011
0.346731 0.72813 0.165011
0.346716 0.728115 0.165011
0.346716 0.728115 0.164996
0.346716 0.728115 0.164996
0.346716 0.728099 0.164996
0.346716 0.728099 0.164996
0.346716 0.728099 0.164996
0.3467 0.728069 0.164981
