LUT预设1/LUT全系打包/胶片lut系列/胶片各机型log灰片/LIGHTWARM暖调.cube
TITLE "Generated by Resolve"
LUT_3D_SIZE 33
0.0449226 0.0545052 0.0594797
0.0449531 0.0545052 0.0594644
0.045716 0.0546883 0.0586862
0.0466926 0.0552071 0.0567941
0.0487221 0.0555428 0.055787
0.0573281 0.0545205 0.0561837
0.076524 0.0522621 0.0540475
0.11017 0.0487068 0.0490578
0.168612 0.0442206 0.0440223
0.24152 0.0404974 0.0409857
0.319539 0.0372015 0.038056
0.404547 0.0355383 0.0353399
0.48629 0.036408 0.0326238
0.561669 0.038941 0.0294652
0.628397 0.0418402 0.0248264
0.685557 0.0446632 0.0204318
0.731411 0.0470741 0.0177768
0.766232 0.0487221 0.0145876
0.793332 0.0512093 0.0119326
0.813138 0.0543374 0.0108797
0.825727 0.0575418 0.0105592
0.83386 0.0603647 0.0105592
0.838987 0.0627146 0.0105898
0.842649 0.0645609 0.0106355
0.845411 0.0658579 0.0106661
0.847303 0.0666972 0.0106813
0.848493 0.0672618 0.0106966
0.849271 0.0677043 0.0107118
0.849805 0.0680247 0.0107118
0.850233 0.0682383 0.0107118
0.850401 0.0683146 0.0107118
0.850385 0.0683146 0.0107118
0.850385 0.0683146 0.0107118
0.0449226 0.0545205 0.0594797
0.0449226 0.0545052 0.0594797
0.0454566 0.054612 0.0590219
0.0463874 0.055024 0.0574197
0.0478065 0.0554513 0.0560616
0.0525063 0.0551308 0.0561685
0.0649424 0.0534981 0.0559396
0.0898146 0.0508736 0.051957
0.132647 0.0467994 0.0467842
0.197086 0.0426795 0.0426795
0.269657 0.0392767 0.0399023
0.34789 0.0365606 0.0371405
0.429511 0.0357214 0.0345312
0.50721 0.0370947 0.0318303
0.578408 0.0396582 0.0282902
0.641382 0.0424811 0.0237583
0.694606 0.0451362 0.0198825
0.737408 0.047364 0.0171206
0.770245 0.0491493 0.0141299
0.795865 0.0517739 0.0117952
0.815045 0.054902 0.0108034
0.826749 0.0580453 0.010544
0.834409 0.0608835 0.010544
0.839353 0.0632792 0.010605
0.842969 0.065156 0.0106355
0.845701 0.0664683 0.0106661
0.847562 0.0672923 0.0106813
0.848753 0.0678569 0.0106966
0.849546 0.0682841 0.0107118
0.850095 0.068574 0.0107118
0.850523 0.0687877 0.0107118
0.850752 0.068925 0.0107118
0.850767 0.0689555 0.0107118
0.04477 0.0552377 0.0597391
0.0448157 0.0550851 0.059678
0.0453803 0.0551156 0.0593271
0.0464485 0.0554513 0.057969
0.0478065 0.0559091 0.0564431
0.052079 0.0557107 0.0562905
0.0634928 0.0542916 0.0561379
0.0853285 0.0520333 0.0524453
0.122499 0.0482032 0.0475166
0.184253 0.044007 0.0429847
0.255543 0.0404974 0.0399329
0.330785 0.0376593 0.0371862
0.411887 0.036286 0.0344701
0.490608 0.0372015 0.0315862
0.562936 0.0396735 0.0281834
0.627878 0.0425116 0.0235294
0.68365 0.045243 0.0191501
0.728679 0.0477913 0.0166171
0.762493 0.0497902 0.0142061
0.789227 0.0525216 0.0122988
0.809552 0.0554665 0.0111238
0.82356 0.0584726 0.0106203
0.8327 0.0613565 0.010544
0.838605 0.0638895 0.0105745
0.842557 0.065919 0.0106203
0.84567 0.0674754 0.0106508
0.847715 0.0683909 0.0106813
0.849042 0.0690013 0.0106966
0.849943 0.0694438 0.0107118
0.850584 0.069749 0.0107118
0.851072 0.0699931 0.0106966
0.851469 0.0702068 0.0107118
0.85153 0.0703136 0.0107118
0.0438392 0.0573281 0.0598764
0.0442969 0.0567941 0.0599832
0.0451057 0.0567025 0.0599222
0.0465858 0.0568246 0.059144
0.0480964 0.0572671 0.0575265
0.052018 0.0572366 0.0568856
0.062623 0.0560311 0.0565652
0.0828717 0.0540169 0.0529488
0.116625 0.0505531 0.0481117
0.174044 0.04654 0.0432441
0.243305 0.0432136 0.0400244
0.317143 0.0402991 0.0372778
0.399115 0.038468 0.0345312
0.479026 0.0390784 0.0311894
0.552483 0.0416419 0.027039
0.618555 0.0444343 0.0227054
0.675563 0.0469825 0.0191806
0.721782 0.0495308 0.0165713
0.757549 0.0518196 0.0143587
0.78526 0.0544289 0.012604
0.806729 0.0572976 0.0113527
0.822126 0.0601968 0.0106813
0.832227 0.063035 0.0105287
0.838743 0.065568 0.0105745
0.842863 0.0676127 0.0106203
0.846067 0.0691539 0.0106508
0.848341 0.0701915 0.0106813
0.849867 0.0709239 0.0106966
0.850935 0.0715038 0.0106966
0.851652 0.0719158 0.0106966
0.852186 0.0722515 0.0107118
0.852613 0.0725414 0.0107271
0.852811 0.072755 0.0107271
0.041474 0.0616464 0.0588083
0.0419318 0.0606088 0.0591135
0.0433356 0.0601053 0.0595102
0.0458839 0.0597238 0.0597238
0.0480964 0.0599069 0.0588846
0.052018 0.0599069 0.0580911
0.061738 0.0590219 0.0573129
0.0801862 0.0573129 0.0537575
0.110796 0.0543832 0.0488136
0.162829 0.0509194 0.0438087
0.228809 0.0480812 0.0404059
0.30193 0.0453346 0.0375372
0.385092 0.0431373 0.0346075
0.467643 0.0433509 0.0310826
0.543603 0.0457465 0.0270085
0.611475 0.0485389 0.0229953
0.670115 0.0511177 0.0195773
0.717678 0.0536965 0.0168765
0.754772 0.0561074 0.0146639
0.783413 0.0586557 0.0128939
0.805676 0.0614176 0.0115663
0.82208 0.0641794 0.0107576
0.832853 0.0669718 0.0105135
0.83978 0.0695354 0.0105745
0.844144 0.071519 0.0106203
0.847608 0.0731365 0.0106508
0.850217 0.0744488 0.0106813
0.852033 0.0753948 0.0106966
0.853208 0.0760815 0.0107118
0.854002 0.076585 0.0107118
0.854551 0.0769207 0.0107271
0.855009 0.0772564 0.0107271
0.855299 0.0775769 0.0107271
0.0418708 0.0683299 0.0586404
0.0416266 0.0668193 0.0585794
0.0424659 0.0662242 0.0587015
0.0444495 0.0657969 0.0589151
0.0470436 0.0655985 0.0592813
0.0516823 0.0652628 0.0597238
0.0605631 0.0647135 0.0588998
0.0767376 0.0636454 0.0552682
0.103639 0.0615091 0.049958
0.148013 0.0589303 0.0446784
0.209461 0.0569772 0.0409094
0.282597 0.0547799 0.037644
0.367269 0.0523232 0.034165
0.454017 0.0518807 0.030518
0.534203 0.0538796 0.0270695
0.605524 0.0565805 0.0235599
0.666453 0.0592203 0.0200961
0.71577 0.0618753 0.0172732
0.754223 0.0643626 0.0149996
0.783688 0.0668803 0.0131838
0.806455 0.0694896 0.0118105
0.823651 0.0720836 0.0108644
0.834897 0.0746777 0.0105135
0.841978 0.0771649 0.0105592
0.846952 0.0791638 0.010605
0.850813 0.0807965 0.0106508
0.853727 0.0820783 0.0106813
0.855726 0.0830701 0.0107118
0.856992 0.0838178 0.0107118
0.857786 0.0843366 0.0107118
0.858351 0.0846418 0.0107271
0.858778 0.0849012 0.0107271
0.859129 0.0852369 0.0107271
0.0435187 0.0780804 0.060914
0.0432898 0.0754406 0.0605478
0.0437476 0.0747234 0.0603647
0.0451057 0.0742809 0.0603342
0.047364 0.0740215 0.0606699
0.0514839 0.0737774 0.0611887
0.0594186 0.0736553 0.0606394
0.0740826 0.0733043 0.0576181
0.0982376 0.0722057 0.0521553
0.136431 0.0705882 0.0461128
0.191943 0.0698711 0.0419928
0.264179 0.0687572 0.0384375
0.350286 0.0666056 0.0345922
0.440635 0.0654917 0.0307774
0.525643 0.0669108 0.027451
0.600763 0.069688 0.0241245
0.664393 0.0723278 0.0207218
0.715724 0.074876 0.0178225
0.755764 0.0773938 0.0154726
0.78613 0.0796979 0.0135653
0.809308 0.0819867 0.0121309
0.827024 0.0842145 0.0110628
0.838178 0.0864881 0.010605
0.845792 0.0886091 0.0105745
0.851316 0.0903639 0.010605
0.855512 0.0917372 0.0106508
0.858671 0.0928206 0.0106813
0.860746 0.0937209 0.0107118
0.861982 0.0944839 0.0107118
0.862791 0.0949569 0.0107271
0.863416 0.0953231 0.0107271
0.863844 0.0955673 0.0107424
0.86421 0.0958877 0.0107271
0.0432593 0.0934157 0.0605173
0.0433204 0.0889296 0.0606088
0.0439918 0.0876631 0.0607004
0.0454566 0.0869001 0.0608682
0.0476387 0.0864729 0.0610971
0.0513466 0.0863203 0.0614176
0.0586709 0.0865339 0.0616312
0.072343 0.0869001 0.060502
0.0951095 0.0867781 0.0557259
0.131167 0.0863813 0.0484016
0.183261 0.0871595 0.0433814
0.253574 0.0882582 0.0396277
0.33901 0.0877546 0.0357824
0.431128 0.086656 0.0318456
0.519921 0.087541 0.0282902
0.59852 0.0900282 0.0249027
0.664485 0.0924544 0.021561
0.717861 0.0945449 0.0185855
0.75938 0.096376 0.016144
0.790997 0.0981003 0.0141146
0.814435 0.0996872 0.0125582
0.832059 0.101335 0.0114443
0.843214 0.102831 0.0108797
0.85127 0.104295 0.0106661
0.857206 0.105562 0.0106203
0.861692 0.106676 0.0106508
0.865034 0.107637 0.0106813
0.867109 0.108385 0.0107118
0.868284 0.109071 0.0107271
0.869093 0.10956 0.0107271
0.869718 0.109987 0.0107271
0.870192 0.110338 0.0107424
0.870558 0.110658 0.0107424
0.043122 0.114549 0.0604257
0.043183 0.107591 0.0603037
0.0438697 0.10547 0.0603189
0.0453956 0.104387 0.0603952
0.0476387 0.10367 0.0605325
0.0514076 0.103426 0.0608835
0.0586709 0.1037 0.0615702
0.0718242 0.104463 0.0619821
0.0934615 0.105028 0.0595102
0.128084 0.106004 0.0522469
0.179446 0.108705 0.0452888
0.248417 0.113008 0.0409094
0.33254 0.116533 0.0371862
0.42472 0.117845 0.033341
0.515114 0.118914 0.0296788
0.596613 0.120577 0.0261845
0.665568 0.122026 0.0228122
0.720623 0.122759 0.019791
0.762921 0.122835 0.0172274
0.795712 0.123018 0.0150454
0.820371 0.123659 0.0132753
0.837766 0.124666 0.0120699
0.849653 0.125383 0.0113527
0.858351 0.126482 0.0109407
0.864698 0.127443 0.0107729
0.869368 0.128344 0.0107576
0.872786 0.129259 0.0107729
0.874891 0.130266 0.0107729
0.876097 0.131136 0.0107729
0.87689 0.13167 0.0107729
0.87747 0.132189 0.0107576
0.877882 0.13257 0.0107271
0.878233 0.133043 0.0107118
0.0428016 0.14551 0.0607919
0.0430152 0.134737 0.0607309
0.0437781 0.130816 0.0606851
0.0453193 0.128908 0.0606394
0.0476081 0.127687 0.0606546
0.051545 0.127184 0.0607462
0.059144 0.127382 0.0610056
0.0724041 0.12842 0.0613413
0.0933242 0.12958 0.0608377
0.126772 0.132204 0.0570382
0.177722 0.137621 0.0493324
0.246845 0.145388 0.0431067
0.330388 0.15375 0.0389258
0.422278 0.160678 0.0352789
0.513298 0.165347 0.0317845
0.596567 0.168399 0.028397
0.667613 0.170672 0.0250858
0.724361 0.17171 0.0220188
0.768078 0.172152 0.0193942
0.801495 0.171633 0.0171511
0.828168 0.170932 0.0148775
0.847715 0.170016 0.013077
0.8607 0.169024 0.0122225
0.869657 0.168048 0.0118868
0.876081 0.167559 0.0117494
0.880842 0.167559 0.0115816
0.884352 0.167803 0.0114137
0.886442 0.168353 0.0113069
0.887602 0.168658 0.0112459
0.888289 0.168658 0.0112001
0.888685 0.168414 0.0111696
0.888991 0.168246 0.0111391
0.889204 0.168048 0.0111238
0.0419165 0.189487 0.0615549
0.042359 0.174228 0.0611429
0.0432898 0.168246 0.0609598
0.0449836 0.164874 0.0608682
0.0474556 0.162707 0.0608072
0.0517433 0.161334 0.0607156
0.0599222 0.161181 0.0606851
0.0734264 0.162127 0.0607614
0.0934157 0.164065 0.0606546
0.125719 0.167437 0.0589914
0.176867 0.175433 0.0539864
0.246784 0.187503 0.0475013
0.332113 0.200351 0.0419318
0.425208 0.211795 0.0376135
0.51783 0.220371 0.0339971
0.601968 0.225544 0.0306249
0.673518 0.228 0.0272831
0.732158 0.229023 0.0239567
0.778225 0.228992 0.0209201
0.81384 0.228382 0.0184176
0.841535 0.226841 0.016083
0.861601 0.224704 0.014435
0.875532 0.222843 0.0138247
0.885344 0.221118 0.0135653
0.892241 0.219455 0.0133974
0.897169 0.218173 0.0132753
0.900664 0.217426 0.0131991
0.902434 0.216922 0.0131685
0.903395 0.216419 0.013138
0.90396 0.216007 0.0131228
0.904204 0.215244 0.013077
0.904326 0.214527 0.0130617
0.904402 0.214023 0.0130465
0.041062 0.246784 0.0635843
0.0412757 0.227359 0.0627451
0.042237 0.219654 0.0624094
0.0440681 0.214801 0.0622416
0.0468147 0.211765 0.0621347
0.0516365 0.209857 0.0620279
0.0605173 0.209079 0.0618448
0.074464 0.21033 0.0615091
0.0940566 0.213764 0.0607614
0.12517 0.218494 0.0591287
0.176516 0.22594 0.0565042
0.24831 0.239399 0.0525826
0.337774 0.256657 0.0469062
0.435431 0.272786 0.0412909
0.529534 0.284062 0.036759
0.614328 0.290791 0.0329595
0.686412 0.293873 0.0293126
0.745953 0.294804 0.0257267
0.793713 0.294453 0.0225223
0.8309 0.293126 0.0200656
0.858534 0.290639 0.0184482
0.877821 0.287068 0.0176699
0.891127 0.283513 0.0174258
0.900359 0.280369 0.0172885
0.906783 0.277119 0.0171817
0.911284 0.274327 0.0171969
0.914321 0.272084 0.0172885
0.915755 0.269764 0.0171817
0.916548 0.268025 0.0170596
0.91693 0.266331 0.0168917
0.917174 0.265019 0.0168002
0.917327 0.263981 0.0167849
0.917372 0.263081 0.0167544
0.0423285 0.315602 0.0672618
0.0414588 0.291859 0.0657359
0.0420844 0.282445 0.0650797
0.0439918 0.276585 0.064744
0.0470893 0.27306 0.0645151
0.0525063 0.270787 0.0642405
0.0622873 0.270146 0.0637675
0.0775464 0.272419 0.0628061
0.0975967 0.277546 0.0612497
0.126665 0.284718 0.0593881
0.177035 0.2925 0.0579385
0.252537 0.304097 0.0564736
0.347143 0.322286 0.0527047
0.449821 0.341619 0.0467842
0.547906 0.356741 0.0408331
0.633433 0.365393 0.0358129
0.704631 0.369268 0.0316014
0.763653 0.370001 0.0278935
0.811597 0.369024 0.0249332
0.849378 0.36643 0.0230869
0.876661 0.362539 0.0226444
0.895048 0.356832 0.0227817
0.907286 0.350927 0.0232242
0.915373 0.345403 0.0237125
0.920821 0.340154 0.0240024
0.924712 0.335424 0.024033
0.927275 0.331472 0.0239567
0.928405 0.327657 0.0237278
0.928862 0.324224 0.0234684
0.928985 0.321218 0.023209
0.929 0.3187 0.0229953
0.929015 0.316869 0.0228885
0.929046 0.315648 0.0228428
0.0469978 0.390707 0.0737316
0.0450141 0.365789 0.0709697
0.0453956 0.355734 0.069688
0.0474861 0.349248 0.0689555
0.0508431 0.345052 0.0682841
0.056733 0.342321 0.0674754
0.0676127 0.342184 0.0662699
0.0844892 0.345647 0.0644846
0.10605 0.352224 0.0622721
0.13489 0.361059 0.0604257
0.184802 0.370398 0.0598611
0.263523 0.381537 0.0599069
0.361028 0.398093 0.0584421
0.466636 0.418051 0.0536965
0.568353 0.436133 0.0466468
0.656855 0.447913 0.0395819
0.729168 0.452934 0.0340581
0.786603 0.452766 0.030518
0.831983 0.449241 0.0287785
0.867308 0.443717 0.0285649
0.892943 0.437095 0.0294499
0.910201 0.429038 0.0304417
0.921416 0.420691 0.0314946
0.928679 0.412711 0.0322118
0.933623 0.405356 0.0324102
0.937209 0.399069 0.0322118
0.939376 0.393469 0.0318608
0.940291 0.388144 0.0314031
0.940642 0.383627 0.0309453
0.940673 0.379492 0.0304723
0.940719 0.376333 0.0300908
0.940734 0.373816 0.0297551
0.940795 0.372015 0.0295415
0.0545357 0.4654 0.0837415
0.0517281 0.44094 0.0797284
0.0520333 0.431006 0.0780652
0.0541238 0.42443 0.0769665
0.0575418 0.419913 0.0759442
0.0637369 0.416922 0.0746929
0.0754559 0.417029 0.0728313
0.0938582 0.4215 0.0700999
0.117189 0.429953 0.066743
0.147005 0.440711 0.063859
0.196124 0.450858 0.0630198
0.276478 0.462913 0.0635843
0.37705 0.479088 0.0637064
0.483238 0.498375 0.0607156
0.585794 0.517586 0.0541238
0.677363 0.532097 0.0462806
0.752224 0.538598 0.0401465
0.810147 0.537743 0.0373846
0.854093 0.531792 0.0378119
0.886915 0.522606 0.0400244
0.910338 0.512215 0.0420996
0.925872 0.501167 0.0433814
0.935775 0.490059 0.0442206
0.942245 0.479866 0.0444343
0.946502 0.47042 0.0439155
0.949386 0.462455 0.0432746
0.950835 0.455177 0.0425574
0.9514 0.448722 0.0417792
0.951507 0.442939 0.0410163
0.9514 0.437949 0.0403296
0.951263 0.433768 0.0397498
0.951141 0.430671 0.039292
0.950988 0.427832 0.0388952
0.064332 0.5346 0.0961776
0.0605783 0.512093 0.0915389
0.0606699 0.502235 0.089662
0.062562 0.495644 0.088304
0.0658885 0.491051 0.0870985
0.0722667 0.488136 0.0857252
0.0846571 0.48893 0.0839399
0.103944 0.49398 0.0812543
0.128481 0.503548 0.0775464
0.159167 0.515694 0.073579
0.206271 0.527855 0.0708782
0.286534 0.541024 0.0695659
0.390127 0.55729 0.0691234
0.497734 0.576761 0.067277
0.599145 0.595987 0.0629282
0.690654 0.611093 0.0576028
0.767788 0.618845 0.0539101
0.828275 0.618189 0.0532845
0.873533 0.610956 0.0553597
0.906889 0.599496 0.0582895
0.929717 0.586328 0.0598154
0.944335 0.572396 0.0603189
0.952758 0.558373 0.0603952
0.957458 0.54548 0.0600137
0.960143 0.534203 0.0592203
0.961395 0.523873 0.0583963
0.961746 0.515206 0.0576181
0.961608 0.507408 0.0566873
0.961288 0.500755 0.055787
0.960876 0.494972 0.0549477
0.960433 0.489738 0.0541085
0.960082 0.485954 0.0535744
0.959701 0.48246 0.0530861
0.0768444 0.596567 0.109331
0.0719615 0.576654 0.104784
0.0717327 0.567025 0.102693
0.0732891 0.560555 0.101122
0.0764172 0.556008 0.0997787
0.0828565 0.553491 0.098436
0.0954452 0.554421 0.0970474
0.115267 0.559762 0.0953689
0.14049 0.569192 0.0926528
0.17171 0.582071 0.0887312
0.215885 0.596902 0.0839857
0.293599 0.611856 0.0790417
0.399634 0.628473 0.0758831
0.508629 0.647318 0.073991
0.608576 0.6663 0.0728618
0.698207 0.681483 0.073106
0.775311 0.68954 0.0750286
0.838087 0.689845 0.0779278
0.886549 0.682979 0.0802014
0.92285 0.671458 0.0809339
0.947631 0.657145 0.0799268
0.962936 0.641642 0.0789502
0.970245 0.625269 0.0783551
0.972793 0.609674 0.0779431
0.973098 0.595544 0.0772717
0.972625 0.583612 0.0767834
0.971801 0.573297 0.0760662
0.970916 0.564416 0.0751659
0.970062 0.556573 0.0741283
0.969284 0.549737 0.0730449
0.968597 0.543816 0.0720226
0.967987 0.53904 0.0712749
0.967422 0.534905 0.0706951
0.0916915 0.648508 0.121309
0.0864118 0.631586 0.117327
0.0856489 0.623026 0.115236
0.0869459 0.617456 0.113695
0.0899367 0.613565 0.112398
0.0962997 0.611261 0.111086
0.108873 0.612085 0.109895
0.128923 0.61738 0.109041
0.154788 0.626703 0.107607
0.186481 0.640238 0.104417
0.227085 0.65687 0.0988785
0.300221 0.673961 0.0910964
0.4065 0.690623 0.0847791
0.515892 0.708278 0.0822614
0.61416 0.725887 0.0842908
0.70074 0.740551 0.0905928
0.776684 0.749416 0.0987716
0.84123 0.751095 0.105119
0.892882 0.746212 0.106874
0.932235 0.736446 0.104631
0.959655 0.722972 0.101061
0.976654 0.70692 0.098436
0.983856 0.688701 0.097261
0.984939 0.670634 0.0969253
0.983627 0.654551 0.0966506
0.981964 0.640391 0.0960403
0.980484 0.628733 0.0952621
0.979126 0.618677 0.0943313
0.977905 0.609598 0.0931258
0.976883 0.601907 0.0919203
0.976013 0.595285 0.0907607
0.975219 0.589624 0.0897993
0.974548 0.584863 0.0890822
0.106889 0.689433 0.131228
0.101717 0.675196 0.127626
0.100832 0.668452 0.125887
0.102113 0.664179 0.124605
0.105135 0.66128 0.123537
0.11165 0.659922 0.12253
0.124392 0.66128 0.121675
0.144411 0.666667 0.121324
0.170642 0.676555 0.121019
0.202243 0.690349 0.118669
0.240085 0.707332 0.113481
0.308019 0.725948 0.104662
0.410498 0.743297 0.0964828
0.519005 0.759884 0.0937819
0.615412 0.775418 0.0981765
0.699138 0.788846 0.108293
0.774197 0.798825 0.120241
0.840085 0.803357 0.128557
0.894667 0.801709 0.130251
0.935622 0.793973 0.126909
0.964416 0.781094 0.122271
0.983078 0.765362 0.118624
0.991226 0.74667 0.116854
0.992447 0.727398 0.116228
0.990875 0.709621 0.115602
0.989166 0.694194 0.114519
0.98761 0.680995 0.113359
0.986175 0.669703 0.112184
0.984863 0.659739 0.110918
0.983719 0.65127 0.109682
0.982727 0.643717 0.108415
0.981872 0.637415 0.107347
0.98114 0.631922 0.106447
0.120546 0.723278 0.140887
0.115755 0.710781 0.137285
0.115221 0.70544 0.135637
0.116655 0.702098 0.134432
0.119844 0.70016 0.133562
0.126558 0.699687 0.132921
0.139452 0.701976 0.132738
0.159396 0.708278 0.133562
0.184894 0.718288 0.135195
0.215686 0.731762 0.13521
0.252522 0.748302 0.13106
0.314641 0.767941 0.121477
0.410971 0.787243 0.112673
0.517372 0.803632 0.110399
0.613092 0.817243 0.115785
0.695125 0.828702 0.126421
0.768063 0.838331 0.138201
0.834562 0.84538 0.14667
0.89247 0.848402 0.149416
0.937057 0.844541 0.147127
0.966659 0.832334 0.142153
0.986023 0.81622 0.137774
0.995056 0.797467 0.135256
0.997131 0.777783 0.133928
0.996124 0.759136 0.13283
0.994736 0.74313 0.131579
0.993317 0.729458 0.130419
0.992004 0.717632 0.12932
0.990768 0.707012 0.128038
0.989685 0.697841 0.126711
0.988693 0.689738 0.125246
0.987884 0.682841 0.12398
0.987152 0.6766 0.12285
0.130999 0.749157 0.152178
0.127352 0.739437 0.147936
0.127321 0.735332 0.146059
0.129046 0.733013 0.144823
0.132357 0.731807 0.143969
0.139178 0.732326 0.143694
0.152041 0.735698 0.144472
0.171542 0.742412 0.146868
0.196063 0.751904 0.150713
0.226108 0.764477 0.153796
0.262226 0.779263 0.152804
0.318914 0.798474 0.145602
0.407996 0.818799 0.137377
0.511147 0.835462 0.134249
0.607004 0.84831 0.137499
0.688914 0.858839 0.145113
0.76025 0.868177 0.153872
0.825544 0.876417 0.160967
0.88426 0.882582 0.164706
0.933272 0.884291 0.165026
0.967132 0.876356 0.161654
0.987671 0.861341 0.157153
0.99704 0.841856 0.153597
0.99939 0.821134 0.151232
0.998825 0.801556 0.149416
0.997894 0.784909 0.147829
0.996979 0.771313 0.146654
0.996124 0.759625 0.145525
0.99527 0.74934 0.14432
0.99443 0.740291 0.143038
0.993591 0.732052 0.141573
0.992813 0.724651 0.140169
0.992096 0.71812 0.138964
0.140841 0.768902 0.163531
0.137377 0.761685 0.159213
0.137469 0.75877 0.157427
0.139162 0.757153 0.156359
0.142412 0.756527 0.155764
0.149279 0.757687 0.155947
0.162127 0.761273 0.157458
0.18143 0.768154 0.160662
0.205585 0.777661 0.164767
0.234668 0.789471 0.168612
0.269825 0.803281 0.169818
0.321019 0.820645 0.165866
0.403662 0.839979 0.159365
0.504112 0.856779 0.15523
0.599115 0.869856 0.156039
0.680537 0.880659 0.160983
0.750607 0.890211 0.167315
0.814176 0.899138 0.173068
0.872297 0.907012 0.177325
0.92372 0.912657 0.180148
0.962966 0.910918 0.179797
0.987518 0.899611 0.176394
0.99794 0.88098 0.172457
0.999939 0.859556 0.169192
0.999786 0.839231 0.166705
0.999512 0.821973 0.164614
0.999039 0.807889 0.163073
0.998489 0.795621 0.161593
0.997894 0.785077 0.160204
0.997299 0.775662 0.158755
0.996704 0.767514 0.157305
0.996155 0.760388 0.155947
0.995621 0.753964 0.154711
0.150607 0.78204 0.175631
0.147097 0.777783 0.17084
0.147173 0.776257 0.168841
0.148943 0.775814 0.167788
0.152316 0.775708 0.1673
0.159045 0.776822 0.167559
0.171405 0.780423 0.168994
0.189929 0.787213 0.171923
0.213397 0.796704 0.176059
0.241886 0.808209 0.180438
0.276097 0.821088 0.18294
0.321569 0.836728 0.181613
0.399435 0.855085 0.176181
0.497749 0.871824 0.171313
0.591241 0.885069 0.170764
0.671336 0.895872 0.173922
0.739742 0.905516 0.178607
0.801556 0.914717 0.183307
0.858305 0.92314 0.187549
0.909117 0.930205 0.191455
0.951614 0.93315 0.194095
0.981994 0.927932 0.193683
0.99646 0.913039 0.191135
1 0.892592 0.187716
1 0.871885 0.184482
1 0.854307 0.181811
0.999847 0.83978 0.179644
0.999634 0.827115 0.177615
0.999344 0.816052 0.175662
0.999008 0.806485 0.173861
0.998596 0.798138 0.172183
0.998199 0.790936 0.170779
0.997833 0.784482 0.169512
0.159808 0.790021 0.187961
0.156649 0.787808 0.183001
0.156893 0.787289 0.180926
0.158511 0.786801 0.179767
0.161761 0.787137 0.179217
0.168261 0.788846 0.179385
0.180331 0.793027 0.180758
0.198062 0.799847 0.18323
0.220569 0.809064 0.186969
0.248157 0.820188 0.191806
0.28127 0.832441 0.195132
0.322759 0.846876 0.195148
0.396902 0.864439 0.190417
0.49218 0.880934 0.185672
0.583597 0.89395 0.184649
0.661845 0.90454 0.187091
0.728389 0.914046 0.190906
0.787884 0.923033 0.194873
0.842252 0.931243 0.198764
0.891447 0.938476 0.202701
0.934203 0.943603 0.206744
0.969039 0.94403 0.209079
0.989914 0.935317 0.208606
0.998474 0.919158 0.206027
1 0.899825 0.202548
1 0.882139 0.19939
1 0.867353 0.196765
1 0.854505 0.194217
0.999954 0.843244 0.19173
0.999832 0.833371 0.189395
0.999603 0.824872 0.187457
0.999359 0.817349 0.185885
0.999115 0.810666 0.184512
0.167834 0.79501 0.199527
0.165377 0.793561 0.195331
0.165438 0.793042 0.193149
0.166934 0.793179 0.191882
0.170001 0.793973 0.191241
0.176364 0.796109 0.191424
0.188098 0.800549 0.192782
0.205386 0.807507 0.195285
0.227222 0.816419 0.198917
0.253773 0.826993 0.204044
0.285481 0.838651 0.20795
0.324422 0.852216 0.208591
0.395834 0.869139 0.204578
0.487755 0.885069 0.200381
0.57644 0.897642 0.199634
0.652033 0.907668 0.201907
0.716136 0.916594 0.205356
0.773358 0.925078 0.209049
0.825437 0.932876 0.21297
0.872587 0.939818 0.216785
0.913634 0.945403 0.220417
0.949325 0.948882 0.223606
0.976761 0.947036 0.224781
0.993347 0.938262 0.223651
0.999359 0.923278 0.22089
0.999954 0.906188 0.217746
1 0.891188 0.214801
1 0.878202 0.211887
1 0.86688 0.208988
1 0.856931 0.206241
1 0.848234 0.203922
0.999939 0.840574 0.202075
0.999817 0.833753 0.200488
0.174411 0.798657 0.209567
0.172259 0.797375 0.205661
0.172641 0.797238 0.203967
0.174151 0.797574 0.202899
0.177111 0.79852 0.202441
0.183246 0.800748 0.202747
0.194659 0.805173 0.204318
0.211597 0.812009 0.207263
0.232959 0.820645 0.21149
0.25861 0.830716 0.216892
0.289067 0.841856 0.221439
0.325567 0.854597 0.222721
0.393576 0.870802 0.219425
0.482414 0.886336 0.215702
0.568963 0.89865 0.214847
0.642771 0.908263 0.216434
0.70518 0.916655 0.21915
0.760143 0.924544 0.222538
0.809812 0.931868 0.226566
0.855329 0.938537 0.230961
0.894697 0.944076 0.234867
0.92961 0.948577 0.238514
0.959381 0.950561 0.240833
0.981811 0.948074 0.241169
0.995438 0.939834 0.239597
0.999664 0.926116 0.237095
1 0.911635 0.233921
1 0.898451 0.230442
1 0.886976 0.227054
1 0.877043 0.223911
1 0.868452 0.22118
1 0.860822 0.218814
0.999985 0.854047 0.216876
0.179965 0.801831 0.218479
0.178073 0.800671 0.214832
0.178714 0.800687 0.213489
0.180377 0.80116 0.212757
0.183352 0.802182 0.212558
0.189288 0.804364 0.213046
0.200275 0.808621 0.21471
