LUT预设1/LUT全系打包/胶片lut系列/胶片各机型log灰片/LIGHT青.cube
TITLE "Generated by Resolve"
LUT_3D_SIZE 9
0.0895552 0.0567483 0.0419776
0.0899367 0.0568246 0.0416724
0.0938277 0.0581826 0.0373083
0.162509 0.0505074 0.0282444
0.43566 0.0387884 0.0125124
0.750759 0.0482032 0
0.93843 0.0605936 0
0.998672 0.0753948 0
1 0.0818036 0
0.0894331 0.0572518 0.0421607
0.0898756 0.0573129 0.0419013
0.0938888 0.0586557 0.0374914
0.16173 0.0510872 0.0283207
0.434882 0.0392615 0.0122225
0.751247 0.0484779 0
0.938613 0.0612955 0
0.998932 0.0760204 0
1 0.0823987 0
0.0848707 0.0689555 0.0402075
0.0856489 0.0688487 0.0403449
0.0942702 0.0684062 0.0420233
0.148592 0.0644388 0.0303044
0.403037 0.0559701 0.01149
0.750347 0.0626383 0
0.942626 0.0757 0
1 0.0882124 0
1 0.0936446 0
0.0865644 0.117861 0.0430304
0.0869764 0.117891 0.0430304
0.0935225 0.118334 0.0432746
0.137514 0.12224 0.0457465
0.360693 0.139025 0.0157321
0.752346 0.149096 0
0.963378 0.148852 0
1 0.150072 0
1 0.149096 0
0.0811627 0.297398 0.0478676
0.0817121 0.297368 0.0478065
0.0899214 0.297978 0.0476387
0.139147 0.310994 0.0444953
0.365591 0.357656 0.0359503
0.790722 0.431342 0.00654612
1 0.427054 0
1 0.394873 0
1 0.3682 0
0.10193 0.626276 0.0869459
0.102647 0.626368 0.0868849
0.113069 0.628122 0.0861219
0.177035 0.654871 0.0816358
0.400168 0.726604 0.0601511
0.863737 0.818875 0.0520333
1 0.79295 0.0606088
1 0.710094 0.0552224
1 0.653605 0.0496681
0.164721 0.853452 0.142031
0.165438 0.853681 0.142077
0.17612 0.856718 0.142107
0.237552 0.882445 0.151339
0.407446 0.956146 0.148013
0.835187 1 0.149615
1 1 0.171511
1 0.973342 0.150439
1 0.901686 0.142885
0.211124 0.935439 0.203113
0.211765 0.935668 0.203128
0.220874 0.939025 0.204532
0.272709 0.961379 0.214435
0.403143 1 0.23238
0.778408 1 0.224018
1 1 0.242161
1 1 0.250523
1 1 0.232761
0.241535 0.952987 0.253452
0.2421 0.953201 0.253635
0.250263 0.956588 0.256413
0.294179 0.975067 0.270146
0.40322 1 0.292699
0.738399 1 0.284825
0.962356 1 0.304021
1 1 0.325658
1 1 0.325811
0.0896773 0.0568399 0.0429236
0.090013 0.0568399 0.0427405
0.0938735 0.0581216 0.0382391
0.162692 0.0504921 0.0297551
0.43621 0.0386969 0.0144808
0.751705 0.0478828 0
0.938842 0.0600748 0
0.999802 0.0740368 0
1 0.0813306 0
0.0895399 0.0572518 0.043122
0.0899672 0.0572976 0.0429541
0.0939498 0.0585794 0.038468
0.161822 0.0510414 0.0297704
0.43595 0.0390021 0.0139162
0.752239 0.0480507 0
0.939162 0.0605783 0
1 0.0745708 0
1 0.0818494 0
0.0842145 0.0690929 0.0404364
0.085008 0.068986 0.04065
0.0941024 0.0683604 0.0430915
0.148592 0.0643015 0.0315709
0.407507 0.0544442 0.0112306
0.752209 0.0611887 0
0.943801 0.0741894 0
1 0.0869459 0
1 0.0932326 0
0.0865339 0.117876 0.0442054
0.0869459 0.117906 0.0441749
0.093492 0.118349 0.044419
0.137377 0.12224 0.0469215
0.362585 0.138582 0.01561
0.754101 0.147784 0
0.964721 0.148058 0
1 0.149813 0
1 0.149004 0
0.0809796 0.297398 0.049012
0.0814984 0.297398 0.0489662
0.0897383 0.298009 0.0487678
0.138994 0.310933 0.0456397
0.365759 0.357748 0.0369726
0.793103 0.431891 0.00643931
1 0.426917 0
1 0.394903 0
1 0.3682 0
0.101534 0.626261 0.0881971
0.102251 0.626352 0.0881361
0.112688 0.628092 0.0874647
0.176745 0.654734 0.082887
0.399619 0.726711 0.0615854
0.863798 0.81886 0.0532845
1 0.793118 0.0614481
1 0.710094 0.0561837
1 0.653452 0.0508583
0.164477 0.853452 0.143282
0.165194 0.853635 0.143343
0.175891 0.856703 0.14345
0.237415 0.882322 0.152728
0.407187 0.955993 0.149767
0.834974 1 0.151141
1 1 0.172747
1 0.973419 0.151644
1 0.901488 0.144091
0.211185 0.935653 0.204776
0.21178 0.935866 0.204913
0.220935 0.939269 0.206271
0.272755 0.961532 0.216251
0.402914 1 0.234806
0.778347 1 0.22652
1 1 0.244862
1 1 0.253422
1 1 0.235508
0.242054 0.95349 0.255879
0.242603 0.953704 0.256077
0.250751 0.957122 0.258839
0.294499 0.975448 0.272541
0.403372 1 0.29543
0.738674 1 0.287694
0.962417 1 0.306874
1 1 0.32871
1 1 0.328695
0.0914473 0.0592966 0.0572366
0.0918288 0.0592813 0.0572366
0.0969253 0.0581826 0.0584421
0.1664 0.0519417 0.0550546
0.443656 0.0384375 0.0442206
0.76141 0.0465858 0.0339818
0.947204 0.0563821 0.0198215
1 0.0643778 0
1 0.0774548 0
0.0912642 0.0596017 0.0571908
0.0916915 0.0596323 0.0572824
0.0969406 0.0586404 0.0584878
0.165499 0.05243 0.054902
0.444358 0.0384222 0.0432136
0.762005 0.0466621 0.0328374
0.947692 0.0564431 0.018967
1 0.064622 0
1 0.0780804 0
0.0773022 0.0707713 0.0493782
0.0781567 0.0706645 0.0498207
0.0918898 0.0685283 0.0581826
0.149035 0.0635843 0.0522469
0.438224 0.0435645 0.0287175
0.771984 0.0482795 0.0114595
0.956115 0.0591745 0
1 0.0754711 0
1 0.0893721 0
0.0863508 0.11809 0.0622873
0.0867475 0.11809 0.0622568
0.0929274 0.118349 0.0617533
0.134859 0.122438 0.0650187
0.379049 0.130358 0.0227665
0.7832 0.128298 0
0.986557 0.13257 0
1 0.139925 0
1 0.145266 0
0.0796979 0.297688 0.0689097
0.0801099 0.297688 0.0687572
0.0870069 0.297917 0.0665446
0.137118 0.310018 0.0637827
0.367544 0.358968 0.0528725
0.823346 0.436973 0.00697337
1 0.422126 0
1 0.389929 0
1 0.366583 0
0.0994278 0.628733 0.111772
0.0998856 0.628763 0.111528
0.10753 0.629343 0.107774
0.171313 0.652781 0.102159
0.391943 0.727749 0.0824598
0.864713 0.819501 0.0729229
1 0.794507 0.0767071
1 0.709087 0.0730449
1 0.652781 0.0703441
0.163119 0.855116 0.167224
0.163714 0.855222 0.167132
0.173205 0.85716 0.165881
0.234257 0.88127 0.173709
0.401984 0.953948 0.176349
0.83212 1 0.174197
1 1 0.194812
1 0.974166 0.172671
1 0.90161 0.16492
0.210803 0.93872 0.229465
0.211475 0.938994 0.229877
0.221851 0.94316 0.233921
0.27335 0.964446 0.246754
0.401175 1 0.273411
0.779278 1 0.266972
1 1 0.287282
1 1 0.298726
1 1 0.27837
0.246372 0.95935 0.28632
0.247135 0.959701 0.286931
0.257755 0.964553 0.294347
0.300923 0.982452 0.30956
0.406165 1 0.335821
0.742702 1 0.332311
0.964813 1 0.348608
1 1 0.372976
1 1 0.371923
0.0851911 0.0671702 0.0962234
0.0860914 0.0670024 0.0965591
0.0971084 0.065156 0.0994278
0.143053 0.0619059 0.104631
0.448844 0.0369268 0.161395
0.772168 0.0384222 0.150576
0.957321 0.0500191 0.126009
1 0.0562448 0.100404
1 0.0700847 0.0918898
0.0845502 0.0676738 0.0958114
0.085359 0.0675822 0.0961624
0.0967269 0.0656443 0.0993515
0.142718 0.0622416 0.104555
0.449775 0.0369421 0.161135
0.772885 0.0385138 0.150057
0.957885 0.0500496 0.125383
1 0.0565499 0.0999619
1 0.070573 0.0918135
0.0716716 0.0782635 0.0830091
0.0724956 0.0781262 0.0837415
0.085893 0.0768444 0.0936599
0.139025 0.0695659 0.105867
0.448997 0.0416419 0.149706
0.788037 0.0406043 0.136233
0.969589 0.0510109 0.110628
1 0.0663157 0.0952316
1 0.0809339 0.0883955
0.0695354 0.125475 0.105028
0.0698711 0.12549 0.104906
0.0754101 0.125582 0.102281
0.111788 0.125719 0.102815
0.385245 0.0988022 0.0938582
0.794949 0.086717 0.0655528
1 0.0920729 0.0409094
1 0.122576 0.0604562
1 0.137469 0.0727703
0.0813153 0.306172 0.147723
0.0817273 0.306172 0.147662
0.0880751 0.306004 0.146044
0.125521 0.308965 0.127489
0.366934 0.357183 0.113191
0.841062 0.422232 0.0527504
1 0.397696 0.0352026
1 0.382406 0.080827
1 0.365698 0.095201
0.101335 0.642725 0.201862
0.101808 0.642786 0.201678
0.108919 0.643946 0.198657
0.155749 0.652766 0.17583
0.363806 0.730541 0.161395
0.864698 0.821241 0.155673
1 0.788937 0.13901
1 0.706447 0.147295
1 0.653376 0.155642
0.164034 0.866224 0.253056
0.16463 0.866377 0.253071
0.173724 0.867948 0.253376
0.228992 0.885649 0.259968
0.382803 0.947234 0.300206
0.828626 1 0.292775
1 1 0.312779
1 0.975402 0.28455
1 0.905196 0.280797
0.211673 0.951217 0.309926
0.21236 0.951476 0.310109
0.222675 0.955734 0.314427
0.285496 0.982971 0.350927
0.406271 1 0.389441
0.784649 1 0.396582
1 1 0.418601
1 1 0.431754
1 1 0.409934
0.247517 0.971069 0.35552
0.248341 0.971405 0.356054
0.260014 0.976822 0.36495
0.325704 1 0.42269
0.431022 1 0.45565
0.753689 1 0.471046
0.972549 1 0.484672
1 1 0.503883
1 1 0.503365
0.0434424 0.0999619 0.181765
0.0441291 0.099733 0.18294
0.0557565 0.0949416 0.198077
0.149325 0.0707866 0.248219
0.337316 0.0760204 0.281514
0.751385 0.0484627 0.383886
0.956481 0.0573739 0.366796
1 0.0597696 0.328069
1 0.0709087 0.30132
0.0429084 0.100664 0.180758
0.0435492 0.100496 0.181872
0.054963 0.0958877 0.197314
0.149081 0.071519 0.247959
0.336934 0.0763561 0.281437
0.752331 0.0485237 0.384054
0.957229 0.0574197 0.366674
1 0.059968 0.327764
1 0.0713664 0.301335
0.0371099 0.115099 0.161227
0.0372625 0.114992 0.162219
0.0419928 0.113344 0.177874
0.140734 0.0864576 0.246448
0.327199 0.0836042 0.27921
0.771282 0.0496071 0.385214
0.971557 0.0582437 0.36257
1 0.0673838 0.326741
1 0.0812543 0.301595
0.0367895 0.173953 0.142443
0.0367895 0.173861 0.142596
0.0367895 0.173571 0.145907
0.0673686 0.175799 0.193484
0.325582 0.12813 0.30161
0.798993 0.0924392 0.372488
1 0.0919356 0.343938
1 0.120211 0.326665
1 0.137362 0.309758
0.0492103 0.345693 0.339635
0.049546 0.345815 0.339803
0.0546731 0.347143 0.341619
0.0916762 0.352895 0.346593
0.327291 0.373526 0.353902
0.828367 0.365911 0.366003
1 0.36556 0.357656
1 0.395804 0.382071
1 0.418204 0.401404
0.106722 0.681788 0.432746
0.107225 0.681926 0.432807
0.114549 0.683757 0.432868
0.163653 0.697093 0.431968
0.341756 0.745708 0.455055
0.85243 0.820859 0.467353
1 0.788952 0.432914
1 0.729305 0.44686
1 0.695872 0.461891
0.169329 0.906691 0.470817
0.16997 0.906859 0.470771
0.179232 0.909133 0.471763
0.238544 0.928191 0.48809
0.417899 0.980957 0.558236
0.83183 1 0.581949
1 1 0.593744
1 0.995789 0.564523
1 0.935485 0.565087
0.218784 0.985168 0.493004
0.219501 0.985458 0.493324
0.230457 0.98967 0.497856
0.295949 1 0.533623
0.497063 1 0.631556
0.817884 1 0.653346
1 1 0.671473
1 1 0.674006
1 1 0.664256
0.253986 0.999374 0.511986
0.254765 0.999695 0.512459
0.266285 1 0.520027
0.335302 1 0.56878
0.610071 1 0.680537
0.82388 1 0.708476
0.994064 1 0.726802
1 1 0.733013
1 1 0.732906
0.0364843 0.146609 0.358679
0.0364843 0.146029 0.360601
0.0364691 0.137606 0.389334
0.178241 0.0942397 0.488609
0.368872 0.0719158 0.532326
0.598108 0.116075 0.51754
0.922759 0.100587 0.625803
1 0.0903944 0.604959
1 0.0927291 0.564248
0.0364843 0.147601 0.357443
0.0364843 0.147097 0.359213
0.0364691 0.138506 0.38822
0.177554 0.0948806 0.48896
0.36875 0.0724346 0.532631
0.598581 0.116472 0.517968
0.923644 0.100725 0.6262
1 0.0908217 0.605249
1 0.0931868 0.564553
0.0363928 0.172686 0.325902
0.0363928 0.17203 0.327901
0.0363928 0.160555 0.360739
0.160693 0.110643 0.493721
0.369635 0.081178 0.543191
0.603754 0.12636 0.525078
0.934997 0.108003 0.634531
1 0.100404 0.611322
1 0.102571 0.569375
0.0359197 0.27396 0.256031
0.0359197 0.273945 0.256397
0.0359045 0.273426 0.265156
0.0368353 0.228672 0.415518
0.386267 0.151553 0.586831
0.628016 0.177966 0.558434
0.967422 0.159274 0.667002
1 0.149905 0.632593
1 0.153643 0.587793
0.0343786 0.452277 0.45597
0.0343786 0.452354 0.455863
0.0343786 0.452705 0.453269
0.0351873 0.456504 0.441642
0.34609 0.476051 0.583047
0.736996 0.441886 0.678752
1 0.398947 0.727291
1 0.406363 0.679438
1 0.428611 0.651514
0.0674449 0.760983 0.753201
0.0678416 0.761059 0.753307
0.0747997 0.762234 0.754803
0.127245 0.771221 0.764294
0.353658 0.80621 0.79118
0.84062 0.830762 0.807553
1 0.819715 0.796445
1 0.808484 0.789349
1 0.825101 0.801541
0.18526 0.956298 0.755352
0.185931 0.956451 0.755505
0.195865 0.958679 0.757259
0.258473 0.9738 0.77113
0.469368 1 0.819913
0.866697 1 0.86183
1 1 0.869139
1 1 0.850614
1 1 0.859937
0.23444 1 0.728893
0.235203 1 0.729137
0.246967 1 0.73286
0.312718 1 0.758038
0.541878 1 0.829313
0.897688 1 0.897642
1 1 0.912032
1 1 0.908934
1 1 0.902739
0.265919 1 0.706035
0.266697 1 0.706416
0.278599 1 0.711604
0.34902 1 0.749249
0.641794 1 0.835309
0.924163 1 0.922881
1 1 0.939925
1 1 0.941192
1 1 0.940093
0.0357824 0.167971 0.612497
0.0357824 0.16759 0.614115
0.0357977 0.156176 0.641825
0.225391 0.11577 0.724727
0.447089 0.0975357 0.74696
0.58732 0.140154 0.641093
0.785016 0.177005 0.700191
0.920333 0.16968 0.728649
0.976852 0.167224 0.725826
0.0357824 0.170062 0.610559
0.0357824 0.169253 0.612573
0.0357977 0.157931 0.640452
0.22443 0.11696 0.725109
0.447425 0.0982681 0.747372
0.58761 0.140734 0.641581
0.785382 0.177584 0.700648
0.920592 0.170275 0.729076
0.977203 0.167727 0.726162
0.0356298 0.206973 0.572488
0.0356298 0.206271 0.574594
0.0356298 0.194903 0.606546
0.196262 0.143938 0.7308
0.454643 0.117845 0.755947
0.595102 0.153323 0.651286
0.793423 0.189151 0.710048
0.927871 0.181415 0.737011
0.983993 0.178622 0.733272
0.0350347 0.362783 0.40885
0.0350347 0.362768 0.409934
0.0350042 0.360723 0.429023
0.0364385 0.322042 0.621927
0.49308 0.256672 0.807614
0.62826 0.215259 0.692668
0.822766 0.241917 0.743114
0.958221 0.234257 0.768994
1 0.236469 0.764736
0.0336767 0.546014 0.509316
0.0336767 0.546212 0.509499
0.0336614 0.548363 0.510735
0.0346532 0.567773 0.531426
0.44892 0.578302 0.79881
0.763058 0.524361 0.847837
0.922271 0.505776 0.852995
1 0.502373 0.883513
1 0.514321 0.861051
0.0313268 0.791211 0.890929
0.0313268 0.791196 0.890822
0.0313268 0.791104 0.889113
0.0757 0.795651 0.883619
0.42501 0.84062 0.852842
0.838026 0.89926 0.932097
1 0.870756 0.979171
1 0.856123 0.975326
1 0.86154 0.948089
0.14934 1 1
0.149981 1 1
0.160143 1 1
0.221332 1 1
0.492973 1 1
0.864393 1 1
1 1 1
1 1 1
1 1 1
0.24065 1 0.936034
0.241367 1 0.936233
0.252628 1 0.938827
0.3196 1 0.957641
0.593439 1 0.995895
0.909972 1 1
1 1 1
1 1 1
1 1 1
0.280949 1 0.886351
0.281712 1 0.886732
0.293263 1 0.890806
0.360922 1 0.91577
0.657633 1 0.966049
0.937972 1 1
1 1 1
1 1 1
1 1 1
0.0504311 0.2121 0.778256
0.0537728 0.211536 0.780072
0.103197 0.20528 0.805478
0.325734 0.173526 0.868177
0.527398 0.165179 0.871565
0.626444 0.169543 0.752636
0.727565 0.185626 0.728481
0.860853 0.208362 0.774334
0.900282 0.214694 0.764538
0.0493782 0.213962 0.776806
0.052018 0.21355 0.77847
0.100618 0.207187 0.804089
0.324666 0.17525 0.868559
0.528023 0.166796 0.872251
0.626932 0.170245 0.753155
0.72784 0.186145 0.728954
0.861219 0.208942 0.774731
0.900603 0.215259 0.76492
0.0362249 0.25951 0.737346
0.0366064 0.259007 0.739284
0.0537728 0.248661 0.771359
0.307897 0.212009 0.873869
0.539254 0.203128 0.885435
0.635874 0.184741 0.763882
0.735332 0.19675 0.737972
0.868238 0.220386 0.78265
0.906844 0.226688 0.771878
0.034287 0.435843 0.539818
0.034287 0.435813 0.541268
0.0342412 0.435126 0.563867
0.149187 0.395987 0.787823
0.578729 0.346349 0.932677
0.685634 0.282368 0.826581
0.766079 0.248722 0.773327
0.897658 0.277638 0.816434
0.93872 0.295705 0.807385
0.0331731 0.609125 0.564614
0.0331579 0.609323 0.564935
0.0331273 0.613596 0.571344
0.136812 0.642908 0.630304
0.541253 0.654963 0.917723
0.828656 0.613519 0.984512
0.874357 0.524788 0.891936
0.997284 0.557626 0.926543
1 0.582116 0.923964
0.0313878 0.790311 0.86392
0.0313878 0.790402 0.863844
0.0313725 0.791943 0.862684
0.105867 0.80824 0.853895
0.496315 0.879942 0.853391
0.853849 0.948913 0.992767
1 0.89749 1
1 0.894224 1
1 0.897642 1
0.105196 0.977401 1
0.105821 0.977523 1
0.115358 0.979431 1
0.17644 0.99266 1
0.493141 1 1
0.860471 1 1
1 1 1
1 1 1
1 1 1
0.201038 1 1
0.201862 1 1
0.214191 1 1
0.283925 1 1
0.599573 1 1
0.907652 1 1
1 1 1
1 1 1
1 1 1
0.258045 1 1
0.258869 1 1
0.271199 1 1
0.342687 1 1
0.669566 1 1
0.941421 1 1
1 1 1
1 1 1
1 1 1
0.149783 0.270298 0.868345
0.152834 0.270146 0.86981
0.199512 0.268238 0.890318
0.390158 0.237385 0.939529
0.586007 0.238331 0.94052
0.656733 0.193317 0.821759
0.710857 0.202396 0.750957
0.810681 0.224125 0.772595
0.880217 0.23682 0.796307
0.147219 0.272206 0.86688
0.150088 0.27219 0.868208
0.197238 0.270283 0.889204
0.389151 0.239094 0.939803
0.586496 0.239918 0.941161
0.65716 0.193988 0.822309
0.711269 0.202884 0.751324
0.810987 0.224643 0.772961
0.880507 0.237385 0.796674
0.0960403 0.313573 0.831235
0.0994278 0.3131 0.833326
0.151003 0.308171 0.862181
0.377768 0.274372 0.944366
0.596536 0.272938 0.953262
0.665904 0.209461 0.832853
0.718547 0.213901 0.75996
0.817273 0.235782 0.780453
0.887022 0.250034 0.804318
0.0337682 0.482628 0.646586
0.0337682 0.482521 0.648753
0.0337072 0.480613 0.681605
0.265202 0.444038 0.899077
0.634256 0.408301 1
0.732799 0.344625 0.918746
0.755734 0.280842 0.801343
0.849546 0.299001 0.816281
0.921279 0.324224 0.84184
0.0348669 0.649409 0.613931
0.0359808 0.649836 0.614618
0.0598764 0.656825 0.626139
0.213733 0.691066 0.704753
0.597757 0.71313 0.968093
0.860136 0.680247 1
0.891112 0.59292 0.945922
0.955947 0.586389 0.930327
1 0.615503 0.951339
0.0314488 0.790265 0.834775
0.0314488 0.790509 0.834836
0.0314183 0.794568 0.83534
0.179202 0.82298 0.82118
0.554742 0.907729 0.87808
0.876493 0.979019 1
1 0.931609 1
1 0.9028 1
1 0.919112 1
0.0976272 0.927001 1
0.0983444 0.927184 1
0.109789 0.930083 1
0.180606 0.950195 1
0.550607 1 1
0.885283 1 1
1 1 1
1 1 1
1 1 1
0.178973 1 1
0.179706 1 1
0.190951 1 1
0.260182 1 1
0.608576 1 1
0.899168 1 1
1 1 1
1 1 1
1 1 1
0.237751 1 1
0.23859 1 1
0.250828 1 1
0.323995 1 1
0.667582 1 1
0.942733 1 1
1 1 1
1 1 1
1 1 1
