LUT预设1/LUT全系打包/胶片lut系列/胶片各机型log灰片/LIGHTWARM暖调.cube
TITLE "Generated by Resolve"
LUT_3D_SIZE 9
0.0449226 0.0545052 0.0594797
0.0487221 0.0555428 0.055787
0.168612 0.0442206 0.0440223
0.48629 0.036408 0.0326238
0.731411 0.0470741 0.0177768
0.825727 0.0575418 0.0105592
0.845411 0.0658579 0.0106661
0.849805 0.0680247 0.0107118
0.850385 0.0683146 0.0107118
0.041474 0.0616464 0.0588083
0.0480964 0.0599069 0.0588846
0.110796 0.0543832 0.0488136
0.385092 0.0431373 0.0346075
0.670115 0.0511177 0.0195773
0.805676 0.0614176 0.0115663
0.844144 0.071519 0.0106203
0.853208 0.0760815 0.0107118
0.855299 0.0775769 0.0107271
0.043122 0.114549 0.0604257
0.0476387 0.10367 0.0605325
0.0934615 0.105028 0.0595102
0.33254 0.116533 0.0371862
0.665568 0.122026 0.0228122
0.820371 0.123659 0.0132753
0.864698 0.127443 0.0107729
0.876097 0.131136 0.0107729
0.878233 0.133043 0.0107118
0.0423285 0.315602 0.0672618
0.0470893 0.27306 0.0645151
0.0975967 0.277546 0.0612497
0.347143 0.322286 0.0527047
0.704631 0.369268 0.0316014
0.876661 0.362539 0.0226444
0.920821 0.340154 0.0240024
0.928862 0.324224 0.0234684
0.929046 0.315648 0.0228428
0.0768444 0.596567 0.109331
0.0764172 0.556008 0.0997787
0.14049 0.569192 0.0926528
0.399634 0.628473 0.0758831
0.775311 0.68954 0.0750286
0.947631 0.657145 0.0799268
0.973098 0.595544 0.0772717
0.970062 0.556573 0.0741283
0.967422 0.534905 0.0706951
0.130999 0.749157 0.152178
0.132357 0.731807 0.143969
0.196063 0.751904 0.150713
0.407996 0.818799 0.137377
0.76025 0.868177 0.153872
0.967132 0.876356 0.161654
0.998825 0.801556 0.149416
0.99527 0.74934 0.14432
0.992096 0.71812 0.138964
0.167834 0.79501 0.199527
0.170001 0.793973 0.191241
0.227222 0.816419 0.198917
0.395834 0.869139 0.204578
0.716136 0.916594 0.205356
0.913634 0.945403 0.220417
0.999359 0.923278 0.22089
1 0.86688 0.208988
0.999817 0.833753 0.200488
0.189364 0.80734 0.233692
0.194049 0.808423 0.230121
0.246204 0.82858 0.241962
0.391272 0.873121 0.253376
0.683452 0.91632 0.254002
0.855573 0.940688 0.270253
0.959976 0.953445 0.283436
0.999405 0.933608 0.277272
1 0.899687 0.264805
0.19852 0.812757 0.249027
0.207507 0.816373 0.252583
0.257404 0.835111 0.265919
0.391836 0.875288 0.27895
0.666224 0.916182 0.281071
0.826703 0.939452 0.296681
0.920607 0.951232 0.312978
0.980011 0.956512 0.320165
0.999664 0.941207 0.315938
0.0461585 0.0560159 0.068574
0.0507515 0.055436 0.0695354
0.172061 0.0438697 0.0636912
0.49189 0.0352941 0.0632029
0.739452 0.0441138 0.0588235
0.831968 0.0484779 0.0413062
0.852338 0.0588235 0.0393378
0.855879 0.0640116 0.0416114
0.856291 0.0649577 0.0432288
0.0395514 0.0615702 0.0654612
0.0482948 0.0590372 0.0665904
0.109987 0.0533913 0.0586252
0.395209 0.0366674 0.0426642
0.670924 0.0437781 0.0312352
0.809476 0.0511788 0.0184634
0.849393 0.0629282 0.0165713
0.856016 0.0722667 0.0208743
0.857832 0.0752422 0.0220493
0.0426947 0.110979 0.0702678
0.0467689 0.100938 0.067689
0.0893568 0.101442 0.0662699
0.33286 0.104982 0.0375219
0.666194 0.107347 0.0222019
0.82443 0.11136 0.0124666
0.869215 0.116793 0.0116426
0.876234 0.121584 0.0136873
0.877882 0.125399 0.0146029
0.0402228 0.302159 0.0780194
0.0449378 0.261128 0.0714275
0.0912947 0.262181 0.0681468
0.326787 0.303838 0.0576028
0.700343 0.35314 0.0315099
0.875715 0.343923 0.0215915
0.921172 0.324651 0.0229343
0.927428 0.310674 0.0233921
0.927047 0.302724 0.0233616
0.0708324 0.585107 0.119432
0.0699931 0.541817 0.105531
0.129076 0.551217 0.0969253
0.368948 0.608576 0.081239
0.758709 0.672984 0.0750896
0.943954 0.64448 0.0793469
0.973022 0.582879 0.0778668
0.968475 0.543252 0.076524
0.965454 0.521492 0.0741741
0.127153 0.743679 0.164096
0.127031 0.725048 0.150988
0.185321 0.740001 0.154208
0.381048 0.804501 0.142763
0.743236 0.857267 0.155032
0.957656 0.866178 0.164218
0.998276 0.79472 0.151934
0.994125 0.739681 0.147066
0.990723 0.707912 0.142275
0.165942 0.79649 0.214267
0.166842 0.79379 0.200687
0.219348 0.813535 0.205951
0.373251 0.864179 0.215122
0.702434 0.914473 0.213443
0.907103 0.943923 0.228397
0.999222 0.922179 0.22977
1 0.863386 0.218311
0.99942 0.829252 0.210071
0.191882 0.811505 0.255192
0.195239 0.811154 0.245792
0.242069 0.82855 0.254292
0.374777 0.870192 0.268055
0.67097 0.915648 0.266453
0.848066 0.940673 0.281987
0.957366 0.953948 0.296025
0.999863 0.933822 0.289189
1 0.898207 0.275731
0.20264 0.818021 0.273716
0.210315 0.820157 0.270649
0.254856 0.836408 0.281437
0.377218 0.873152 0.295201
0.653559 0.915541 0.295384
0.818692 0.939788 0.309728
0.917113 0.951888 0.326619
0.979202 0.957488 0.333425
0.999725 0.941711 0.328786
0.0397955 0.0641337 0.104204
0.0504921 0.0624247 0.108736
0.132586 0.0624094 0.098909
0.498024 0.038468 0.157198
0.745846 0.0388647 0.16907
0.840177 0.0424353 0.161883
0.862425 0.051133 0.157916
0.865873 0.057023 0.158312
0.866728 0.0585489 0.164431
0.0342107 0.0685588 0.092607
0.0455024 0.0653239 0.0950637
0.0964828 0.0625315 0.0883345
0.406607 0.0373541 0.120027
0.685664 0.0383764 0.122393
0.821515 0.0432136 0.109987
0.859831 0.0534676 0.103288
0.866087 0.0639353 0.103304
0.867948 0.0678111 0.102495
0.0315709 0.116121 0.109514
0.0354314 0.10486 0.0965286
0.0806439 0.100908 0.0994125
0.346838 0.0811017 0.0799878
0.688472 0.0746319 0.0575875
0.845014 0.0784161 0.0413214
0.876036 0.102373 0.0616922
0.881788 0.114382 0.0716259
0.883787 0.11931 0.0742809
0.0407874 0.307317 0.144076
0.0440833 0.263325 0.12282
0.0816358 0.259052 0.107881
0.324376 0.297642 0.0908064
0.727275 0.340444 0.0504158
0.909667 0.321004 0.0385443
0.93402 0.31249 0.0642252
0.933425 0.305226 0.076936
0.932433 0.298894 0.0794842
0.071809 0.594659 0.193713
0.0683146 0.547402 0.163546
0.114153 0.545998 0.141375
0.344213 0.606912 0.120378
0.755505 0.669245 0.113329
0.947478 0.637766 0.111955
0.973281 0.576257 0.115923
0.96817 0.538628 0.12108
0.96527 0.517433 0.123049
0.127092 0.753521 0.237491
0.124956 0.729747 0.208301
0.175357 0.737041 0.203342
0.357321 0.794919 0.211887
0.733852 0.853712 0.212467
0.951385 0.861753 0.214557
0.997101 0.79292 0.201236
0.992538 0.737408 0.202548
0.989227 0.705806 0.20145
0.165576 0.808133 0.283482
0.165682 0.802197 0.257603
0.221057 0.821912 0.271809
0.361654 0.866026 0.291722
0.698009 0.918135 0.28809
0.90248 0.945922 0.304814
0.997864 0.923781 0.308217
0.999557 0.864668 0.295018
0.99852 0.830701 0.28806
0.19237 0.823026 0.318669
0.197513 0.82153 0.302586
0.253361 0.843519 0.328405
0.376471 0.877974 0.34728
0.67039 0.922148 0.348837
0.847639 0.948333 0.362509
0.955901 0.958709 0.375357
0.999161 0.937652 0.369223
1 0.902342 0.356176
0.2038 0.829541 0.334752
0.213672 0.830777 0.325078
0.272221 0.854932 0.361776
0.391653 0.884688 0.378576
0.657069 0.923125 0.384283
0.820523 0.948272 0.393652
0.917067 0.958663 0.408072
0.979599 0.9626 0.413092
0.999969 0.946853 0.407736
0.00271611 0.0974136 0.182101
0.0112001 0.0926833 0.198428
0.142 0.0643931 0.279454
0.382055 0.0873274 0.203876
0.728573 0.0715496 0.262257
0.833616 0.0692302 0.286152
0.857404 0.0728771 0.292256
0.861433 0.0769207 0.293431
0.861814 0.0784161 0.295171
0.00210575 0.0975662 0.156603
0.0136721 0.0896468 0.160922
0.0943465 0.0691081 0.209506
0.309834 0.0751659 0.165057
0.674723 0.0525826 0.229313
0.816953 0.0548257 0.253635
0.859663 0.0606241 0.251209
0.86743 0.0699016 0.24979
0.869612 0.0733654 0.248295
0.000244144 0.156054 0.142412
0.00271611 0.136629 0.130205
0.0497597 0.129473 0.175189
0.303731 0.102235 0.177615
0.691417 0.0722057 0.230793
0.849821 0.0720531 0.234165
0.883787 0.097734 0.243122
0.890562 0.11281 0.245274
0.893599 0.120089 0.244907
0.0215 0.338323 0.307637
0.0257115 0.289677 0.263203
0.0603037 0.282933 0.255222
0.307866 0.293568 0.254231
0.722713 0.292607 0.232807
0.899992 0.288029 0.23714
0.936904 0.311772 0.271687
0.940764 0.329854 0.294057
0.942489 0.337972 0.304204
0.0761578 0.628107 0.381109
0.0699016 0.575891 0.332403
0.110872 0.57232 0.313878
0.303838 0.612482 0.312444
0.744854 0.665248 0.308919
0.944579 0.629816 0.286778
0.978286 0.581735 0.30486
0.975784 0.555657 0.322652
0.97435 0.541512 0.331411
0.130632 0.786725 0.412451
0.126558 0.759579 0.368032
0.177172 0.76463 0.364141
0.348745 0.80499 0.401038
0.724361 0.860716 0.407477
0.942107 0.864302 0.407324
0.996811 0.801419 0.391882
0.994583 0.753536 0.397299
0.992325 0.726696 0.398978
0.171221 0.837705 0.43447
0.168276 0.828916 0.395377
0.228656 0.848219 0.413001
0.402121 0.892012 0.469276
0.7019 0.932052 0.477134
0.899763 0.956222 0.487999
0.997925 0.934722 0.485954
0.999847 0.879637 0.480049
0.999084 0.848295 0.476692
0.197757 0.848447 0.450996
0.200046 0.844144 0.420981
0.266941 0.869368 0.455924
0.472602 0.915862 0.520302
0.694118 0.943084 0.529305
0.85507 0.961913 0.539635
0.9579 0.969726 0.54551
0.999435 0.949508 0.53959
0.999863 0.917037 0.530495
0.208988 0.852979 0.458396
0.216266 0.851133 0.43386
0.290181 0.880522 0.482658
0.517342 0.924498 0.549081
0.695644 0.945754 0.559564
0.833982 0.961685 0.569299
0.922057 0.969482 0.5738
0.980438 0.972503 0.575936
0.999603 0.9579 0.571145
0 0.134356 0.337942
0 0.124773 0.363989
0.189136 0.082414 0.466529
0.368444 0.0974136 0.354971
0.576959 0.151476 0.33019
0.785229 0.130968 0.347829
0.837446 0.127642 0.347845
0.854017 0.124926 0.345525
0.855146 0.126787 0.34728
0 0.14284 0.281407
0 0.131014 0.285145
0.110262 0.091783 0.383612
0.301701 0.0821546 0.357397
0.534813 0.126436 0.288121
0.797436 0.104189 0.316793
0.860182 0.0994278 0.321019
0.868772 0.101396 0.322972
0.870283 0.102083 0.323507
0 0.236255 0.226429
0 0.211109 0.215473
0.0317693 0.174762 0.326009
0.298116 0.117433 0.40798
0.554559 0.156909 0.308812
0.830014 0.129473 0.337865
0.88426 0.131014 0.348287
0.89015 0.137407 0.352667
0.892989 0.141176 0.354772
3.0518e-05 0.425437 0.456184
0 0.371344 0.387762
0.007187 0.361379 0.362676
0.29366 0.356329 0.464881
0.665263 0.335531 0.440558
0.893965 0.304936 0.468894
0.94667 0.326528 0.482536
0.95314 0.355062 0.491386
0.955917 0.370352 0.494728
0.0585641 0.684855 0.624521
0.0532692 0.632792 0.573495
0.0974441 0.625864 0.567483
0.312291 0.651438 0.591302
0.727718 0.667384 0.599939
0.928252 0.648646 0.588434
0.977508 0.637461 0.593194
0.978241 0.645151 0.608255
0.978134 0.647837 0.614359
0.14197 0.826673 0.62742
0.136248 0.800259 0.589639
0.188983 0.8038 0.58764
0.398444 0.839887 0.626276
0.731762 0.868223 0.651637
0.925795 0.873854 0.644511
0.988754 0.829053 0.634638
0.988312 0.800977 0.644755
0.986542 0.786847 0.648905
0.181765 0.868666 0.611917
0.180255 0.862501 0.58172
0.241245 0.879286 0.591669
0.47013 0.923262 0.653834
0.746029 0.944289 0.691234
0.900328 0.957687 0.693034
0.988434 0.94696 0.686519
0.993317 0.904875 0.683589
0.992447 0.880415 0.683742
0.206012 0.873442 0.60058
0.210254 0.870878 0.574823
0.278416 0.894331 0.598932
0.546105 0.944183 0.675135
0.760967 0.962356 0.718624
0.877012 0.970993 0.723064
0.961608 0.978408 0.722072
0.993942 0.964324 0.719219
0.993439 0.938308 0.714458
0.216815 0.875532 0.595941
0.225422 0.874556 0.571389
0.300725 0.902388 0.606165
0.591211 0.949432 0.691005
0.775021 0.964508 0.738186
0.867872 0.971054 0.742855
0.936294 0.976989 0.741787
0.980331 0.980835 0.742016
0.994156 0.97084 0.739071
0 0.153552 0.528786
0.00218204 0.140459 0.554086
0.250431 0.102358 0.632441
0.434073 0.111574 0.527672
0.531456 0.177234 0.391852
0.651347 0.19968 0.402518
0.714839 0.200198 0.40325
0.750515 0.195972 0.401724
0.754467 0.196658 0.402518
0 0.167681 0.469429
0 0.151705 0.477882
0.146288 0.107515 0.572015
0.363775 0.0886549 0.568612
0.482841 0.159503 0.370626
0.637217 0.188952 0.383749
0.751766 0.179278 0.388251
0.800443 0.173159 0.386252
0.821027 0.168536 0.383322
0 0.308614 0.330831
0 0.279149 0.332509
0.0383764 0.228321 0.500923
0.374258 0.167315 0.611307
0.499428 0.196445 0.402594
0.662379 0.225269 0.410803
0.795941 0.211429 0.416052
0.847272 0.205615 0.413474
0.869093 0.20238 0.410544
0 0.489204 0.482078
0 0.445716 0.426169
0.00981155 0.447333 0.426383
0.369055 0.440909 0.637095
0.603601 0.404227 0.559945
0.782391 0.40827 0.546822
0.926116 0.396109 0.556085
0.950195 0.405585 0.563455
0.955673 0.411124 0.56762
0.00823987 0.71873 0.775937
0.00642405 0.676295 0.733425
0.0425574 0.667689 0.721187
0.339879 0.690181 0.701106
0.717647 0.711116 0.759716
0.906126 0.69192 0.752132
0.975326 0.67628 0.748531
0.980117 0.686534 0.745205
0.980575 0.692576 0.742473
0.125826 0.875288 0.808576
0.12311 0.849821 0.78291
0.17789 0.849256 0.782986
0.416449 0.872831 0.805356
0.735134 0.881682 0.821424
0.915877 0.880705 0.818708
0.978821 0.865507 0.810162
0.985641 0.862715 0.814435
0.985428 0.862409 0.817044
0.188617 0.900633 0.763272
0.189944 0.894911 0.745708
0.25008 0.90988 0.755047
0.4925 0.941009 0.789654
0.770367 0.951385 0.824002
0.911604 0.956069 0.839384
0.979522 0.952743 0.835157
0.990936 0.9308 0.830961
0.990204 0.919158 0.831968
0.216709 0.89897 0.734386
0.220523 0.896208 0.716884
0.285664 0.917403 0.732937
0.554299 0.955383 0.779767
0.79736 0.970474 0.828779
0.910414 0.975189 0.850309
0.966628 0.980179 0.85095
0.991653 0.972869 0.848051
0.991775 0.955764 0.845579
0.226459 0.898314 0.720455
0.233036 0.89659 0.700298
0.304601 0.920851 0.722545
0.59324 0.957855 0.776776
0.818448 0.972274 0.835447
0.913481 0.977584 0.859281
0.954803 0.981018 0.861067
0.982788 0.983185 0.859495
0.992035 0.977203 0.857359
0.00784314 0.187716 0.649897
0.0587015 0.176822 0.675792
0.323186 0.151156 0.731823
0.485603 0.142397 0.623789
0.538567 0.180972 0.445563
0.620813 0.214801 0.432013
0.668803 0.228748 0.433982
0.68957 0.229679 0.429191
0.693126 0.229633 0.428611
0 0.20708 0.595758
0.00109865 0.187823 0.609293
0.213901 0.149157 0.697383
0.427161 0.130953 0.681529
0.511666 0.170443 0.459007
0.59556 0.206806 0.42211
0.670024 0.222782 0.426993
0.704494 0.224994 0.423819
0.726009 0.223362 0.422217
0 0.370031 0.429419
0 0.339773 0.441474
0.0836957 0.295262 0.625086
0.450324 0.247303 0.734707
0.538689 0.218738 0.51223
0.6159 0.245762 0.452842
0.698634 0.264164 0.459068
0.743481 0.272496 0.461128
0.778241 0.279164 0.466621
0 0.536019 0.507027
0 0.504433 0.470314
0.0503395 0.517113 0.503487
0.447761 0.507729 0.749813
0.663767 0.462104 0.716091
0.713024 0.448295 0.595102
0.812329 0.472313 0.609186
0.88394 0.484962 0.620645
0.92076 0.489616 0.625223
0.000350958 0.711879 0.782147
0.0009308 0.679774 0.739452
0.0493324 0.679667 0.72137
0.405081 0.726284 0.711498
0.73109 0.758938 0.827924
0.838621 0.731121 0.785672
0.941421 0.725261 0.790936
0.974212 0.728939 0.799298
0.977844 0.733883 0.802182
0.0829023 0.869993 0.892821
0.0769665 0.850538 0.880278
0.132387 0.851881 0.882948
0.415061 0.871275 0.890654
0.732158 0.885161 0.878355
0.910002 0.893767 0.889632
0.972839 0.884993 0.890593
0.985519 0.883436 0.880934
0.98558 0.885405 0.876295
0.161471 0.934676 0.876524
0.1635 0.931991 0.871519
0.228107 0.944762 0.882078
0.5066 0.959274 0.896757
0.774105 0.958648 0.901411
0.920302 0.957366 0.906081
0.973098 0.957824 0.906508
0.987701 0.952453 0.903273
0.98854 0.950713 0.903777
0.202701 0.923903 0.827207
0.211521 0.922591 0.818662
0.2822 0.93959 0.833143
0.568811 0.964797 0.863539
0.800305 0.97496 0.886534
0.928222 0.976867 0.90547
0.97081 0.979034 0.911238
0.987305 0.977066 0.910033
0.989288 0.970001 0.908537
0.219272 0.919356 0.805112
0.232059 0.918166 0.792966
0.309529 0.938155 0.81091
0.60267 0.964965 0.848051
0.819501 0.975601 0.879377
0.935302 0.980728 0.90692
0.968704 0.982467 0.914336
0.983902 0.98352 0.914168
0.988983 0.981003 0.91342
0.0819409 0.229206 0.722042
0.144076 0.220584 0.745586
0.37818 0.200763 0.788678
0.519188 0.170413 0.674784
0.549615 0.192538 0.484703
0.599939 0.220386 0.445655
0.655131 0.240421 0.452827
0.675105 0.245762 0.450248
0.677623 0.246113 0.448936
0.0253758 0.248692 0.679942
0.0626535 0.231083 0.698695
0.284825 0.199466 0.766918
0.477287 0.181964 0.745571
0.536965 0.183337 0.524208
0.580316 0.210025 0.446723
0.648615 0.237644 0.450813
0.678096 0.246509 0.449378
0.690562 0.246983 0.444846
0 0.417288 0.505364
0 0.385519 0.529732
0.170901 0.342123 0.719142
0.502846 0.304463 0.801648
0.577996 0.254902 0.606058
0.60444 0.249058 0.482048
0.675258 0.282445 0.486213
0.711727 0.30219 0.491341
0.733028 0.313329 0.494011
0 0.566491 0.529503
0.00030518 0.542519 0.508049
0.118242 0.561486 0.568734
0.498573 0.559152 0.80557
0.701625 0.517601 0.811078
0.716228 0.47042 0.642695
0.779721 0.500404 0.637812
0.823331 0.524483 0.648936
0.855421 0.532906 0.653742
0.000518807 0.703487 0.759121
0.000595102 0.681361 0.72134
0.0956588 0.691783 0.699855
0.455573 0.755169 0.73463
0.745251 0.791974 0.861051
0.849027 0.751141 0.832319
0.886 0.749538 0.806104
0.938003 0.75465 0.813519
0.962356 0.757107 0.817655
0.0719615 0.826703 0.883543
0.0647135 0.812207 0.875425
0.124529 0.820508 0.881056
0.445258 0.854795 0.881727
0.751278 0.88896 0.874937
0.91458 0.909239 0.909041
0.95581 0.895659 0.91043
0.98291 0.893324 0.91165
0.985702 0.896239 0.906386
0.139605 0.918303 0.913237
0.139376 0.91368 0.912642
0.204517 0.926329 0.925475
0.50782 0.944732 0.936263
0.765805 0.949767 0.933501
0.923201 0.955779 0.928908
0.971069 0.95967 0.929213
0.984924 0.958312 0.927596
0.987289 0.957748 0.924712
0.184604 0.944228 0.894026
0.191455 0.944427 0.892439
0.269078 0.958816 0.905135
0.572839 0.974578 0.918257
0.802289 0.977951 0.92462
0.929473 0.978042 0.928817
0.97232 0.978195 0.931914
0.984329 0.9785 0.932113
0.986893 0.977203 0.931441
0.203342 0.937392 0.86482
0.216464 0.937163 0.858045
0.296239 0.953262 0.872908
0.608576 0.970962 0.89424
0.821485 0.977829 0.910353
0.93611 0.981537 0.923995
0.973816 0.981933 0.932128
0.984085 0.982422 0.933196
0.986694 0.981979 0.932845
0.110384 0.251667 0.744762
0.176165 0.24506 0.770611
0.406195 0.224659 0.811078
0.533578 0.185 0.694865
0.554543 0.199298 0.497978
0.595331 0.222049 0.450813
0.6486 0.242527 0.455833
0.673854 0.249271 0.45597
0.676204 0.249165 0.453666
0.0738842 0.280964 0.721157
0.117845 0.268315 0.742809
0.332036 0.238285 0.806729
0.509819 0.223957 0.784833
0.553384 0.19678 0.564279
0.575998 0.216251 0.465324
0.629282 0.242206 0.458656
0.671244 0.256916 0.465751
0.683131 0.259968 0.462089
0 0.446601 0.558541
0.00349432 0.416083 0.592187
0.240101 0.375021 0.77821
0.537606 0.345464 0.842985
0.607553 0.290089 0.672419
0.606867 0.267536 0.511482
0.657847 0.29427 0.499626
0.704967 0.319707 0.512734
0.724727 0.334722 0.51722
0.00755322 0.587121 0.548791
0.0251926 0.569574 0.540185
0.173541 0.59321 0.615503
0.533516 0.598566 0.833204
0.723064 0.560632 0.856504
0.734905 0.510063 0.692439
0.763577 0.517983 0.653483
0.808881 0.54641 0.669184
0.830381 0.558373 0.673716
0.0021973 0.698116 0.741482
0.00268559 0.682216 0.706035
0.148211 0.703151 0.689326
0.493599 0.774899 0.755261
0.761074 0.813291 0.878111
0.863798 0.77258 0.870481
0.870726 0.759152 0.815183
0.908873 0.770794 0.823453
0.934462 0.774395 0.82707
0.0679789 0.802548 0.869886
0.0640116 0.787533 0.858488
0.151492 0.802274 0.864057
0.485527 0.849271 0.862669
0.771405 0.894865 0.875181
0.920867 0.919219 0.918822
0.946151 0.903731 0.914427
0.97052 0.900069 0.918578
0.982513 0.901274 0.919326
0.129015 0.889418 0.910506
0.12845 0.880003 0.908629
0.198764 0.892332 0.920317
0.520882 0.915312 0.930312
0.773007 0.934539 0.932143
0.930129 0.954925 0.935164
0.971725 0.963378 0.935882
0.983627 0.959579 0.93637
0.986572 0.96022 0.933822
0.17261 0.939941 0.918563
0.176226 0.936507 0.919738
0.261082 0.949844 0.931548
0.574823 0.964874 0.938613
0.802136 0.970108 0.93901
0.930556 0.974609 0.938399
0.973342 0.978058 0.937789
0.983902 0.978637 0.93814
0.986191 0.978546 0.938125
0.19408 0.948989 0.902617
0.205127 0.950729 0.903731
0.297093 0.964874 0.916106
0.609491 0.97702 0.925429
0.824399 0.979477 0.930602
0.936721 0.982193 0.935561
0.974334 0.981994 0.937758
0.984054 0.982162 0.938415
0.98616 0.982223 0.93843
