LUT预设1/LUT全系打包/胶片lut系列/胶片各机型log灰片/LIGHT青.cube
TITLE "Generated by Resolve"
LUT_3D_SIZE 5
0.0895552 0.0567483 0.0419776
0.0938277 0.0581826 0.0373083
0.43566 0.0387884 0.0125124
0.93843 0.0605936 0
1 0.0818036 0
0.0848707 0.0689555 0.0402075
0.0942702 0.0684062 0.0420233
0.403037 0.0559701 0.01149
0.942626 0.0757 0
1 0.0936446 0
0.0811627 0.297398 0.0478676
0.0899214 0.297978 0.0476387
0.365591 0.357656 0.0359503
1 0.427054 0
1 0.3682 0
0.164721 0.853452 0.142031
0.17612 0.856718 0.142107
0.407446 0.956146 0.148013
1 1 0.171511
1 0.901686 0.142885
0.241535 0.952987 0.253452
0.250263 0.956588 0.256413
0.40322 1 0.292699
0.962356 1 0.304021
1 1 0.325811
0.0914473 0.0592966 0.0572366
0.0969253 0.0581826 0.0584421
0.443656 0.0384375 0.0442206
0.947204 0.0563821 0.0198215
1 0.0774548 0
0.0773022 0.0707713 0.0493782
0.0918898 0.0685283 0.0581826
0.438224 0.0435645 0.0287175
0.956115 0.0591745 0
1 0.0893721 0
0.0796979 0.297688 0.0689097
0.0870069 0.297917 0.0665446
0.367544 0.358968 0.0528725
1 0.422126 0
1 0.366583 0
0.163119 0.855116 0.167224
0.173205 0.85716 0.165881
0.401984 0.953948 0.176349
1 1 0.194812
1 0.90161 0.16492
0.246372 0.95935 0.28632
0.257755 0.964553 0.294347
0.406165 1 0.335821
0.964813 1 0.348608
1 1 0.371923
0.0434424 0.0999619 0.181765
0.0557565 0.0949416 0.198077
0.337316 0.0760204 0.281514
0.956481 0.0573739 0.366796
1 0.0709087 0.30132
0.0371099 0.115099 0.161227
0.0419928 0.113344 0.177874
0.327199 0.0836042 0.27921
0.971557 0.0582437 0.36257
1 0.0812543 0.301595
0.0492103 0.345693 0.339635
0.0546731 0.347143 0.341619
0.327291 0.373526 0.353902
1 0.36556 0.357656
1 0.418204 0.401404
0.169329 0.906691 0.470817
0.179232 0.909133 0.471763
0.417899 0.980957 0.558236
1 1 0.593744
1 0.935485 0.565087
0.253986 0.999374 0.511986
0.266285 1 0.520027
0.610071 1 0.680537
0.994064 1 0.726802
1 1 0.732906
0.0357824 0.167971 0.612497
0.0357977 0.156176 0.641825
0.447089 0.0975357 0.74696
0.785016 0.177005 0.700191
0.976852 0.167224 0.725826
0.0356298 0.206973 0.572488
0.0356298 0.194903 0.606546
0.454643 0.117845 0.755947
0.793423 0.189151 0.710048
0.983993 0.178622 0.733272
0.0336767 0.546014 0.509316
0.0336614 0.548363 0.510735
0.44892 0.578302 0.79881
0.922271 0.505776 0.852995
1 0.514321 0.861051
0.14934 1 1
0.160143 1 1
0.492973 1 1
1 1 1
1 1 1
0.280949 1 0.886351
0.293263 1 0.890806
0.657633 1 0.966049
1 1 1
1 1 1
0.149783 0.270298 0.868345
0.199512 0.268238 0.890318
0.586007 0.238331 0.94052
0.710857 0.202396 0.750957
0.880217 0.23682 0.796307
0.0960403 0.313573 0.831235
0.151003 0.308171 0.862181
0.596536 0.272938 0.953262
0.718547 0.213901 0.75996
0.887022 0.250034 0.804318
0.0348669 0.649409 0.613931
0.0598764 0.656825 0.626139
0.597757 0.71313 0.968093
0.891112 0.59292 0.945922
1 0.615503 0.951339
0.0976272 0.927001 1
0.109789 0.930083 1
0.550607 1 1
1 1 1
1 1 1
0.237751 1 1
0.250828 1 1
0.667582 1 1
1 1 1
1 1 1
