LUT预设1/LUT全系打包/胶片lut系列/胶片各机型log灰片/LIGHTWARM暖调.cube
TITLE "Generated by Resolve"
LUT_3D_SIZE 5
0.0449226 0.0545052 0.0594797
0.168612 0.0442206 0.0440223
0.731411 0.0470741 0.0177768
0.845411 0.0658579 0.0106661
0.850385 0.0683146 0.0107118
0.043122 0.114549 0.0604257
0.0934615 0.105028 0.0595102
0.665568 0.122026 0.0228122
0.864698 0.127443 0.0107729
0.878233 0.133043 0.0107118
0.0768444 0.596567 0.109331
0.14049 0.569192 0.0926528
0.775311 0.68954 0.0750286
0.973098 0.595544 0.0772717
0.967422 0.534905 0.0706951
0.167834 0.79501 0.199527
0.227222 0.816419 0.198917
0.716136 0.916594 0.205356
0.999359 0.923278 0.22089
0.999817 0.833753 0.200488
0.19852 0.812757 0.249027
0.257404 0.835111 0.265919
0.666224 0.916182 0.281071
0.920607 0.951232 0.312978
0.999664 0.941207 0.315938
0.0397955 0.0641337 0.104204
0.132586 0.0624094 0.098909
0.745846 0.0388647 0.16907
0.862425 0.051133 0.157916
0.866728 0.0585489 0.164431
0.0315709 0.116121 0.109514
0.0806439 0.100908 0.0994125
0.688472 0.0746319 0.0575875
0.876036 0.102373 0.0616922
0.883787 0.11931 0.0742809
0.071809 0.594659 0.193713
0.114153 0.545998 0.141375
0.755505 0.669245 0.113329
0.973281 0.576257 0.115923
0.96527 0.517433 0.123049
0.165576 0.808133 0.283482
0.221057 0.821912 0.271809
0.698009 0.918135 0.28809
0.997864 0.923781 0.308217
0.99852 0.830701 0.28806
0.2038 0.829541 0.334752
0.272221 0.854932 0.361776
0.657069 0.923125 0.384283
0.917067 0.958663 0.408072
0.999969 0.946853 0.407736
0 0.134356 0.337942
0.189136 0.082414 0.466529
0.576959 0.151476 0.33019
0.837446 0.127642 0.347845
0.855146 0.126787 0.34728
0 0.236255 0.226429
0.0317693 0.174762 0.326009
0.554559 0.156909 0.308812
0.88426 0.131014 0.348287
0.892989 0.141176 0.354772
0.0585641 0.684855 0.624521
0.0974441 0.625864 0.567483
0.727718 0.667384 0.599939
0.977508 0.637461 0.593194
0.978134 0.647837 0.614359
0.181765 0.868666 0.611917
0.241245 0.879286 0.591669
0.746029 0.944289 0.691234
0.988434 0.94696 0.686519
0.992447 0.880415 0.683742
0.216815 0.875532 0.595941
0.300725 0.902388 0.606165
0.775021 0.964508 0.738186
0.936294 0.976989 0.741787
0.994156 0.97084 0.739071
0.00784314 0.187716 0.649897
0.323186 0.151156 0.731823
0.538567 0.180972 0.445563
0.668803 0.228748 0.433982
0.693126 0.229633 0.428611
0 0.370031 0.429419
0.0836957 0.295262 0.625086
0.538689 0.218738 0.51223
0.698634 0.264164 0.459068
0.778241 0.279164 0.466621
0.000350958 0.711879 0.782147
0.0493324 0.679667 0.72137
0.73109 0.758938 0.827924
0.941421 0.725261 0.790936
0.977844 0.733883 0.802182
0.161471 0.934676 0.876524
0.228107 0.944762 0.882078
0.774105 0.958648 0.901411
0.973098 0.957824 0.906508
0.98854 0.950713 0.903777
0.219272 0.919356 0.805112
0.309529 0.938155 0.81091
0.819501 0.975601 0.879377
0.968704 0.982467 0.914336
0.988983 0.981003 0.91342
0.110384 0.251667 0.744762
0.406195 0.224659 0.811078
0.554543 0.199298 0.497978
0.6486 0.242527 0.455833
0.676204 0.249165 0.453666
0 0.446601 0.558541
0.240101 0.375021 0.77821
0.607553 0.290089 0.672419
0.657847 0.29427 0.499626
0.724727 0.334722 0.51722
0.0021973 0.698116 0.741482
0.148211 0.703151 0.689326
0.761074 0.813291 0.878111
0.870726 0.759152 0.815183
0.934462 0.774395 0.82707
0.129015 0.889418 0.910506
0.198764 0.892332 0.920317
0.773007 0.934539 0.932143
0.971725 0.963378 0.935882
0.986572 0.96022 0.933822
0.19408 0.948989 0.902617
0.297093 0.964874 0.916106
0.824399 0.979477 0.930602
0.974334 0.981994 0.937758
0.98616 0.982223 0.93843
