LUT预设1/LUT全系打包/胶片lut系列/胶片各机型log灰片/LIGHT青.cube
TITLE "Generated by Resolve"
LUT_3D_SIZE 33
0.0895552 0.0567483 0.0419776
0.0895552 0.0567483 0.0419776
0.0895552 0.0567483 0.0419776
0.0895705 0.0567483 0.0419776
0.0899367 0.0568246 0.0416724
0.0907301 0.0570535 0.0407111
0.0912642 0.0574807 0.0390173
0.0919203 0.057969 0.0375677
0.0938277 0.0581826 0.0373083
0.100023 0.0573281 0.038407
0.112474 0.0558022 0.0377661
0.13257 0.0538796 0.0334173
0.162509 0.0505074 0.0282444
0.219242 0.0466773 0.022797
0.285985 0.0437171 0.0192721
0.357382 0.0409552 0.0159152
0.43566 0.0387884 0.0125124
0.521523 0.0381933 0.00920119
0.603296 0.0403601 0.00561532
0.680903 0.0445869 0.00325017
0.750759 0.0482032 0
0.813306 0.0523842 0
0.865187 0.055787 0
0.905821 0.0577554 0
0.93843 0.0605936 0
0.963287 0.0644694 0
0.979934 0.0684215 0
0.991455 0.0721904 0
0.998672 0.0753948 0
1 0.0779736 0
1 0.0801862 0
1 0.0809796 0
1 0.0818036 0
0.0895552 0.0567483 0.0419776
0.0895552 0.0567483 0.0419776
0.0895552 0.0567483 0.0419776
0.0895705 0.0567483 0.0419776
0.0899367 0.0568246 0.0416724
0.0907301 0.0570535 0.0407111
0.0912642 0.0574807 0.0390173
0.0919203 0.057969 0.0375677
0.0938277 0.0581826 0.0373083
0.100023 0.0573281 0.038407
0.112474 0.0558022 0.0377661
0.13257 0.0538796 0.0334173
0.162509 0.0505074 0.0282444
0.219242 0.0466773 0.022797
0.285985 0.0437171 0.0192721
0.357382 0.0409552 0.0159152
0.43566 0.0387884 0.0125124
0.521523 0.0381933 0.00920119
0.603296 0.0403601 0.00561532
0.680903 0.0445869 0.00325017
0.750759 0.0482032 0
0.813306 0.0523842 0
0.865187 0.055787 0
0.905821 0.0577554 0
0.93843 0.0605936 0
0.963287 0.0644694 0
0.979934 0.0684215 0
0.991455 0.0721904 0
0.998672 0.0753948 0
1 0.0779736 0
1 0.0801862 0
1 0.0809796 0
1 0.0818036 0
0.0895552 0.0567483 0.0419776
0.0895552 0.0567483 0.0419776
0.0895552 0.0567483 0.0419776
0.0895705 0.0567483 0.0419776
0.0899367 0.0568246 0.0416724
0.0907301 0.0570535 0.0407111
0.0912642 0.0574807 0.0390173
0.0919203 0.057969 0.0375677
0.0938277 0.0581826 0.0373083
0.100023 0.0573281 0.038407
0.112474 0.0558022 0.0377661
0.13257 0.0538796 0.0334173
0.162509 0.0505074 0.0282444
0.219242 0.0466773 0.022797
0.285985 0.0437171 0.0192721
0.357382 0.0409552 0.0159152
0.43566 0.0387884 0.0125124
0.521523 0.0381933 0.00920119
0.603296 0.0403601 0.00561532
0.680903 0.0445869 0.00325017
0.750759 0.0482032 0
0.813306 0.0523842 0
0.865187 0.055787 0
0.905821 0.0577554 0
0.93843 0.0605936 0
0.963287 0.0644694 0
0.979934 0.0684215 0
0.991455 0.0721904 0
0.998672 0.0753948 0
1 0.0779736 0
1 0.0801862 0
1 0.0809796 0
1 0.0818036 0
0.0895399 0.0567636 0.0419928
0.0895399 0.0567636 0.0419928
0.0895399 0.0567636 0.0419928
0.0895552 0.0567636 0.0419776
0.0899367 0.0568399 0.0416724
0.0907301 0.0570535 0.0407111
0.0912642 0.057496 0.0390478
0.0919203 0.0579843 0.0375677
0.0938277 0.0581979 0.0373083
0.100023 0.0573281 0.038407
0.112474 0.0558175 0.0377813
0.13257 0.0539101 0.033402
0.162478 0.0505074 0.0282444
0.219165 0.0466773 0.0228122
0.285985 0.0437171 0.0192569
0.357412 0.0409552 0.0158999
0.435691 0.0387732 0.0125124
0.521553 0.0382086 0.00920119
0.603357 0.0403906 0.00564584
0.680934 0.0445869 0.00318914
0.750805 0.0482185 0
0.813321 0.0523995 0
0.865202 0.0557717 0
0.905867 0.0577249 0
0.93843 0.0605936 0
0.963287 0.0644694 0
0.979934 0.0684215 0
0.991455 0.0721904 0
0.998672 0.0754406 0
1 0.0780957 0
1 0.0803235 0
1 0.081117 0
1 0.0818494 0
0.0894331 0.0572518 0.0421607
0.0894331 0.0572518 0.0421607
0.0894331 0.0572518 0.0421607
0.0894636 0.0572518 0.0421454
0.0898756 0.0573129 0.0419013
0.0907607 0.0574807 0.0410925
0.0914168 0.0578927 0.0395361
0.0920424 0.0584268 0.0378576
0.0938888 0.0586557 0.0374914
0.100008 0.0578164 0.0385443
0.112352 0.0563363 0.0378729
0.13225 0.0544747 0.0334325
0.16173 0.0510872 0.0283207
0.218036 0.0472572 0.0228428
0.285191 0.0441749 0.0189822
0.356634 0.041413 0.0155642
0.434882 0.0392615 0.0122225
0.521141 0.0385901 0.00881971
0.603464 0.0406958 0.00509651
0.681239 0.0448615 0.00256352
0.751247 0.0484779 0
0.813809 0.0526436 0
0.865675 0.0560311 0
0.906264 0.0581521 0
0.938613 0.0612955 0
0.96347 0.065095 0
0.980133 0.0689555 0
0.991684 0.0727245 0
0.998932 0.0760204 0
1 0.078706 0
1 0.0809339 0
1 0.0817426 0
1 0.0823987 0
0.0892042 0.0584573 0.0425269
0.0892042 0.0584573 0.0425269
0.0892042 0.0584573 0.0425269
0.0892348 0.0584726 0.0425269
0.0897078 0.0585184 0.0424353
0.0907912 0.0586252 0.0419776
0.0917678 0.0589151 0.0407111
0.0923781 0.0595102 0.0387121
0.0940719 0.0598306 0.0380255
0.0999924 0.0590524 0.0389105
0.112047 0.0576486 0.038117
0.131426 0.0559091 0.0335851
0.159884 0.0525978 0.0285191
0.215213 0.0488136 0.0229038
0.282597 0.0455634 0.018555
0.353902 0.0428168 0.0149844
0.432242 0.0406653 0.0116732
0.5196 0.0397498 0.00810254
0.603143 0.0416571 0.00399786
0.681254 0.0459907 0.000656138
0.751904 0.049485 0
0.814801 0.0534981 0
0.866682 0.0569772 0
0.907088 0.0594492 0
0.939101 0.0630503 0
0.963958 0.066743 0
0.980682 0.0704051 0
0.992294 0.0741283 0
0.999557 0.077409 0
1 0.0799573 0
1 0.0821851 0
1 0.0830243 0
1 0.0836805 0
0.0888838 0.0599222 0.0428473
0.0888838 0.0599222 0.0428473
0.0888838 0.0599222 0.0428473
0.0888838 0.0599222 0.0428473
0.0893721 0.0599527 0.0428016
0.0906081 0.0600595 0.0426184
0.0919509 0.0601816 0.0420081
0.0927901 0.0607919 0.0399481
0.0943008 0.0612497 0.038819
0.0999924 0.0605936 0.0393835
0.111711 0.0593118 0.038468
0.130388 0.0577249 0.0338903
0.157687 0.054551 0.0289158
0.211414 0.0509041 0.0230259
0.277409 0.0479896 0.0187686
0.348241 0.0452888 0.0151522
0.427283 0.0429236 0.0117494
0.516167 0.0417945 0.00823987
0.60119 0.0436408 0.0039826
0.678828 0.0488136 0
0.751095 0.0518959 0
0.815137 0.0555123 0
0.867323 0.0589303 0
0.907713 0.0615244 0
0.939696 0.0650034 0
0.964584 0.0687266 0
0.981414 0.0723888 0
0.993057 0.0759136 0
1 0.0790112 0
1 0.0815442 0
1 0.0835889 0
1 0.0844739 0
1 0.0851606 0
0.0852216 0.0634623 0.0415961
0.0852216 0.0634623 0.0415961
0.0852216 0.0634623 0.0415961
0.0853132 0.063447 0.0416571
0.0866255 0.0631723 0.0421454
0.0894484 0.0626535 0.0429999
0.0915847 0.0625315 0.0429847
0.0933089 0.0628367 0.0421302
0.0946365 0.0634623 0.0402838
0.0999161 0.0630655 0.0402228
0.111009 0.0619669 0.0391546
0.128588 0.0605478 0.0345769
0.153979 0.0576944 0.0294499
0.205066 0.0543069 0.0233463
0.269108 0.0517281 0.0190433
0.339452 0.0493477 0.0154421
0.419425 0.047013 0.0120241
0.510277 0.0455024 0.0083772
0.597955 0.0468757 0.00390631
0.677852 0.0520027 0
0.750973 0.0552224 0
0.815534 0.0588846 0
0.868132 0.0623178 0
0.908736 0.0649882 0
0.940734 0.0685283 0
0.965576 0.0719005 0
0.982467 0.0754101 0
0.994217 0.0789197 0
1 0.0818952 0
1 0.0841993 0
1 0.0862593 0
1 0.0871443 0
1 0.0876783 0
0.0848707 0.0689555 0.0402075
0.0848707 0.0689555 0.0402075
0.0848707 0.0689555 0.0402075
0.0849012 0.0689403 0.040238
0.0856489 0.0688487 0.0403449
0.0873426 0.0686809 0.0405585
0.0888991 0.0686503 0.0406043
0.0906386 0.0687419 0.0409247
0.0942702 0.0684062 0.0420233
0.0998856 0.0680705 0.0424659
0.109453 0.0676127 0.04065
0.125185 0.0665904 0.0360571
0.148592 0.0644388 0.0303044
0.191684 0.061799 0.0241703
0.25156 0.0598917 0.019501
0.321309 0.0582132 0.0154879
0.403037 0.0559701 0.01149
0.49723 0.053727 0.00701915
0.590372 0.0546426 0.00201419
0.674617 0.0595102 0
0.750347 0.0626383 0
0.816266 0.0662242 0
0.869627 0.0696727 0
0.91075 0.0724041 0
0.942626 0.0757 0
0.96759 0.0789044 0
0.984512 0.0820325 0
0.996353 0.0853437 0
1 0.0882124 0
1 0.0903029 0
1 0.0921492 0
1 0.0930343 0
1 0.0936446 0
0.0864271 0.0757153 0.041886
0.0864271 0.0757153 0.041886
0.0864271 0.0757153 0.041886
0.0864271 0.0757153 0.041886
0.0868238 0.0757458 0.0418555
0.0878614 0.0758068 0.0417945
0.0890822 0.0758068 0.0418555
0.0907607 0.0758679 0.042359
0.0942855 0.0755016 0.0437324
0.0993362 0.0754559 0.0442206
0.108049 0.0755016 0.0425727
0.122744 0.0750744 0.0383459
0.144549 0.0738994 0.0322271
0.181353 0.0718242 0.025452
0.235065 0.0709087 0.0205844
0.30309 0.0701915 0.0163424
0.386038 0.0684367 0.011902
0.482689 0.0658427 0.0068513
0.581994 0.0655528 0.00144961
0.670878 0.0706493 0
0.749447 0.0738689 0
0.817197 0.0773175 0
0.871824 0.080705 0
0.913756 0.0835737 0
0.945602 0.0865797 0
0.970718 0.0894942 0
0.987716 0.0922408 0
0.999619 0.0951858 0
1 0.0977646 0
1 0.0995651 0
1 0.100816 0
1 0.101595 0
1 0.102174 0
0.087541 0.0854658 0.0438849
0.087541 0.0854658 0.0438849
0.087541 0.0854658 0.0438849
0.087541 0.0854658 0.0438849
0.087953 0.0854963 0.0439155
0.0890211 0.0855573 0.044007
0.0902419 0.0855268 0.0441291
0.0919509 0.0856489 0.0443427
0.0942855 0.0857557 0.0445258
0.0985885 0.0860151 0.0448157
0.106905 0.0864271 0.0443122
0.120867 0.0867781 0.0417182
0.141466 0.0865187 0.0358434
0.175906 0.0852827 0.0274357
0.224506 0.0854963 0.0220493
0.290227 0.0862593 0.0176547
0.372976 0.0859846 0.0131228
0.470497 0.0839551 0.00793469
0.574929 0.0817578 0.00216678
0.667918 0.0871748 0
0.749737 0.0906233 0
0.819196 0.0937972 0
0.875074 0.0968643 0
0.918486 0.0996109 0
0.950378 0.102052 0
0.975418 0.104372 0
0.992294 0.106615 0
1 0.108827 0
1 0.110689 0
1 0.112001 0
1 0.11284 0
1 0.113329 0
1 0.11368 0
0.0869917 0.0996414 0.0433967
0.0869917 0.0996414 0.0433967
0.0869917 0.0996414 0.0433967
0.0869917 0.0996567 0.0433967
0.0874037 0.0996719 0.0434119
0.0884413 0.0997024 0.0434882
0.0896468 0.0997482 0.0436561
0.0914015 0.0999008 0.0438087
0.0937514 0.100023 0.0439765
0.0981155 0.100343 0.0443885
0.106035 0.101152 0.0451972
0.118975 0.102296 0.0452888
0.138598 0.102678 0.0408942
0.173098 0.102861 0.0306706
0.220005 0.104295 0.0237736
0.284016 0.10721 0.0188144
0.365316 0.10985 0.0144045
0.462272 0.110063 0.0093843
0.569436 0.106813 0.00331121
0.665721 0.111574 0
0.751629 0.114992 0
0.822599 0.117556 0
0.879255 0.119585 0
0.924453 0.121263 0
0.956893 0.122683 0
0.981537 0.124147 0
0.998138 0.125643 0
1 0.126772 0
1 0.127504 0
1 0.128084 0
1 0.128862 0
1 0.128908 0
1 0.128923 0
0.0865644 0.117861 0.0430304
0.0865644 0.117861 0.0430304
0.0865644 0.117861 0.0430304
0.0865644 0.117861 0.0430304
0.0869764 0.117891 0.0430304
0.0880446 0.117983 0.0430457
0.0893568 0.118044 0.0430915
0.0911116 0.118135 0.0430915
0.0935225 0.118334 0.0432746
0.0979171 0.118776 0.0437324
0.105837 0.119783 0.0447242
0.118608 0.121233 0.0459144
0.137514 0.12224 0.0457465
0.169741 0.123445 0.0362554
0.216815 0.126711 0.0264286
0.280507 0.132158 0.0200046
0.360693 0.139025 0.0157321
0.456458 0.144808 0.0110475
0.562982 0.144778 0.00534066
0.662272 0.146654 0.00108339
0.752346 0.149096 0
0.825971 0.150408 0
0.883314 0.149966 0
0.928664 0.148608 0
0.963378 0.148852 0
0.987884 0.149523 0
1 0.150088 0
1 0.150286 0
1 0.150072 0
1 0.149706 0
1 0.149706 0
1 0.149432 0
1 0.149096 0
0.0860151 0.144671 0.043595
0.0860151 0.144671 0.043595
0.0860151 0.144671 0.043595
0.0860151 0.144671 0.043595
0.0864271 0.144686 0.0435798
0.0874952 0.144701 0.0435492
0.088777 0.144701 0.0435187
0.0905776 0.144732 0.043534
0.0929885 0.1449 0.0435645
0.0975967 0.145418 0.0436255
0.105943 0.146639 0.0438392
0.118975 0.14844 0.0441749
0.137102 0.149752 0.0442206
0.168399 0.152697 0.0422217
0.214527 0.158877 0.0328374
0.278813 0.167529 0.023682
0.35996 0.178271 0.0173648
0.455344 0.189807 0.0130312
0.55967 0.19852 0.00799573
0.66212 0.203281 0.00344854
0.75378 0.206546 0
0.829847 0.208576 0
0.888853 0.209049 0
0.93402 0.20795 0
0.969421 0.206134 0
0.998093 0.204456 0
1 0.201648 0
1 0.199252 0
1 0.196872 0
1 0.194339 0
1 0.193378 0
1 0.192569 0
1 0.191089 0
0.0849012 0.182406 0.043946
0.0849012 0.182406 0.043946
0.0849012 0.182406 0.043946
0.0849165 0.182406 0.043946
0.085359 0.182376 0.043946
0.0864576 0.182284 0.0439155
0.0878004 0.182116 0.0438544
0.0896925 0.181964 0.0438087
0.0922255 0.18204 0.0437171
0.0972305 0.182391 0.043595
0.106172 0.183505 0.0434882
0.119493 0.185626 0.043473
0.136614 0.188251 0.0435798
0.165942 0.191791 0.0426947
0.212482 0.199039 0.0377203
0.277317 0.212558 0.0300145
0.359792 0.228504 0.0219577
0.457832 0.243442 0.0154116
0.564065 0.258976 0.0106508
0.668894 0.267353 0.00570687
0.758999 0.271687 0.00151064
0.836103 0.273457 0
0.898253 0.273625 0
0.946181 0.272679 0
0.983307 0.270512 0
1 0.26685 0
1 0.262699 0
1 0.259174 0
1 0.255589 0
1 0.251652 0
1 0.249119 0
1 0.246815 0
1 0.244724 0
0.0830091 0.233509 0.0452583
0.0830091 0.233509 0.0452583
0.0830091 0.233509 0.0452583
0.0830243 0.233494 0.045243
0.0834974 0.233448 0.0452277
0.0847028 0.233356 0.0452125
0.0861219 0.233204 0.0452125
0.0880903 0.233112 0.0451362
0.0909285 0.233326 0.0450599
0.0964065 0.233722 0.0449683
0.105898 0.234836 0.0447547
0.119646 0.237369 0.0443732
0.136782 0.241993 0.0438087
0.163363 0.248173 0.0421759
0.210391 0.255222 0.0392615
0.275837 0.268208 0.0353399
0.360845 0.28748 0.0291447
0.464897 0.310018 0.0206149
0.57731 0.32958 0.0134585
0.681239 0.340352 0.00865187
0.771389 0.346288 0.00396735
0.848905 0.348409 0
0.912642 0.348089 0
0.963394 0.346487 0
1 0.343908 0
1 0.338613 0
1 0.332799 0
1 0.327398 0
1 0.322026 0
1 0.316533 0
1 0.3122 0
1 0.307683 0
1 0.304067 0
0.0811627 0.297398 0.0478676
0.0811627 0.297398 0.0478676
0.0811627 0.297398 0.0478676
0.0811933 0.297383 0.0478523
0.0817121 0.297368 0.0478065
0.0829786 0.297322 0.047776
0.0845197 0.297292 0.0477913
0.0866865 0.297475 0.0476997
0.0899214 0.297978 0.0476387
0.0958572 0.298711 0.0475013
0.106081 0.300465 0.0471046
0.120943 0.30425 0.0461891
0.139147 0.310994 0.0444953
0.163745 0.320592 0.0421759
0.207431 0.329244 0.0396429
0.275227 0.339498 0.0385748
0.365591 0.357656 0.0359503
0.4748 0.385031 0.0288243
0.595666 0.410101 0.0185702
0.701198 0.424414 0.012314
0.790722 0.431342 0.00654612
0.867079 0.434058 0.00108339
0.9308 0.433631 0
0.983001 0.430777 0
1 0.427054 0
1 0.419593 0
1 0.411261 0
1 0.40296 0
1 0.394873 0
1 0.387152 0
1 0.380896 0
1 0.374044 0
1 0.3682 0
0.0810559 0.373587 0.0521096
0.0810559 0.373587 0.0521096
0.0810559 0.373587 0.0521096
0.0810864 0.373602 0.0520943
0.081651 0.373632 0.0520333
0.0830243 0.373663 0.0519265
0.0847486 0.373754 0.0518196
0.0873426 0.374228 0.0515755
0.0909438 0.375021 0.0513008
0.0973373 0.376257 0.0508278
0.108675 0.379324 0.0498817
0.125429 0.385336 0.048188
0.145357 0.394034 0.0455482
0.17026 0.405859 0.0428626
0.207446 0.418463 0.0414282
0.278645 0.429038 0.0407721
0.37612 0.443503 0.0405585
0.487984 0.467582 0.0383001
0.613321 0.498268 0.0280308
0.727367 0.519951 0.0173648
0.816388 0.528405 0.00949111
0.890761 0.531304 0.00352483
0.952697 0.529961 0
1 0.524742 0
1 0.518456 0
1 0.507988 0
1 0.496406 0
1 0.48481 0
1 0.47364 0.000793469
1 0.463279 0.000350958
1 0.454994 0
1 0.446143 0
1 0.43827 0
0.0849012 0.460746 0.0587625
0.0849012 0.460746 0.0587625
0.0849012 0.460746 0.0587625
0.0849165 0.460746 0.0588388
0.0856031 0.460853 0.0587625
0.0873274 0.461173 0.058381
0.0894484 0.461646 0.0580301
0.0923629 0.462318 0.0574044
0.0962692 0.463264 0.0567025
0.103273 0.464851 0.0555123
0.115785 0.46891 0.0534524
0.134325 0.476753 0.0506142
0.156237 0.487541 0.047776
0.184207 0.50074 0.0444038
0.222568 0.51368 0.0443122
0.292027 0.528008 0.0446784
0.39202 0.545449 0.045243
0.509926 0.566308 0.0453651
0.624338 0.587564 0.0415503
0.748577 0.619806 0.0258946
0.848325 0.636378 0.0126497
0.924941 0.639292 0.00535592
0.981155 0.632715 0.00318914
1 0.621576 0.00421149
1 0.61001 0.00801099
1 0.596933 0.00907912
1 0.581476 0.0113527
1 0.566857 0.0126192
1 0.553704 0.0122683
1 0.54168 0.0109865
1 0.531395 0.0102388
1 0.521019 0.00907912
1 0.511955 0.00781262
0.0925917 0.546441 0.0716411
0.0925917 0.546441 0.0716411
0.0925917 0.546441 0.0716411
0.092607 0.546441 0.0716716
0.0933089 0.546609 0.0716106
0.0950637 0.547005 0.0714122
0.0971237 0.547463 0.0712596
0.100145 0.548165 0.0710155
0.104051 0.549111 0.0706645
0.111177 0.550759 0.0698863
0.124163 0.55491 0.0681315
0.143633 0.563165 0.0650339
0.166827 0.57583 0.060441
0.196475 0.592065 0.0540627
0.232471 0.60763 0.0504921
0.298665 0.621607 0.0494698
0.40058 0.638422 0.0502632
0.525643 0.661646 0.051194
0.639689 0.688243 0.049073
0.757137 0.714717 0.0393683
0.858503 0.732128 0.0274357
0.942351 0.739849 0.0209964
1 0.735988 0.0216983
1 0.721508 0.0274205
1 0.703105 0.0342412
1 0.685313 0.0344854
1 0.666362 0.0354009
1 0.649027 0.0343023
1 0.633204 0.0318914
1 0.618235 0.0296635
1 0.605386 0.0282139
1 0.593774 0.0259556
1 0.583551 0.0240787
0.10193 0.626276 0.0869459
0.10193 0.626276 0.0869459
0.10193 0.626276 0.0869459
0.101961 0.626276 0.0869306
0.102647 0.626368 0.0868849
0.104326 0.626657 0.0867933
0.106325 0.626978 0.0866712
0.109224 0.627466 0.0864424
0.113069 0.628122 0.0861219
0.120333 0.630091 0.0855116
0.133608 0.634974 0.0847334
0.153445 0.643534 0.0837262
0.177035 0.654871 0.0816358
0.20708 0.670466 0.0774548
0.2439 0.68809 0.0732891
0.301411 0.707362 0.0665141
0.400168 0.726604 0.0601511
0.536416 0.747051 0.0570993
0.653635 0.774868 0.0557565
0.762051 0.800183 0.0518044
0.863737 0.818875 0.0520333
0.94818 0.825711 0.0553445
1 0.82182 0.0594186
1 0.810361 0.0617533
1 0.79295 0.0606088
1 0.774136 0.0578164
1 0.751614 0.0569467
1 0.729793 0.05626
1 0.710094 0.0552224
1 0.692561 0.0541238
1 0.67805 0.0536507
1 0.664866 0.0516365
1 0.653605 0.0496681
0.115267 0.699962 0.10341
0.115267 0.699962 0.10341
0.115267 0.699962 0.10341
0.115282 0.699962 0.103395
0.115953 0.700008 0.103334
0.117601 0.70016 0.103212
0.119585 0.700298 0.103044
0.122469 0.700587 0.102785
0.126482 0.701213 0.102449
0.133776 0.702907 0.101793
0.146914 0.707042 0.101167
0.166781 0.714534 0.100847
0.191424 0.725277 0.100465
0.22269 0.740871 0.0973373
0.25977 0.760082 0.0925612
0.308476 0.782284 0.0847639
0.4009 0.80354 0.0745556
0.541787 0.823087 0.0654612
0.661997 0.847333 0.0644694
0.763867 0.871229 0.0653391
0.860883 0.890608 0.0781872
0.94725 0.899672 0.0911421
1 0.898528 0.0971847
1 0.889586 0.0949721
1 0.874662 0.0894179
1 0.857038 0.0840925
1 0.833631 0.0815747
1 0.808499 0.0812848
1 0.785138 0.0810559
1 0.765103 0.0797131
1 0.748241 0.0789502
1 0.73341 0.0769055
1 0.720867 0.074815
0.131609 0.762188 0.118181
0.131609 0.762188 0.118181
0.131609 0.762188 0.118181
0.131624 0.762188 0.118212
0.132296 0.762264 0.118151
0.133989 0.762432 0.117983
0.136065 0.762631 0.1178
0.139086 0.762982 0.117571
0.143267 0.763806 0.117296
0.150622 0.765301 0.116777
0.163684 0.768795 0.116075
0.183505 0.775692 0.115648
0.20856 0.786725 0.116457
0.240406 0.802777 0.114412
0.2766 0.822095 0.110079
0.319997 0.844511 0.103105
0.403891 0.867658 0.0914015
0.538567 0.889525 0.0782788
0.664591 0.909392 0.0781262
0.76286 0.930266 0.0832837
0.853147 0.947784 0.102861
0.940108 0.959884 0.120256
1 0.964614 0.12752
1 0.960571 0.124498
1 0.946975 0.117815
1 0.929946 0.111162
1 0.907012 0.107256
1 0.880629 0.106523
1 0.855299 0.106065
1 0.833616 0.103944
1 0.81471 0.102312
1 0.798489 0.100237
1 0.78468 0.0980697
0.148898 0.811673 0.130266
0.148898 0.811673 0.130266
0.148898 0.811673 0.130266
0.148928 0.811688 0.130282
0.149599 0.811841 0.130266
0.151354 0.812207 0.130175
0.153597 0.812726 0.130037
0.156695 0.813443 0.1299
0.160845 0.814466 0.129809
0.168246 0.816419 0.129793
0.18143 0.820768 0.129732
0.201053 0.828595 0.130144
0.225025 0.839673 0.133028
0.255528 0.855192 0.134447
0.290547 0.872999 0.132921
0.33254 0.894469 0.125887
0.406729 0.919646 0.112856
0.526528 0.945556 0.0993057
0.661173 0.963973 0.100008
0.758618 0.981033 0.108019
0.84445 0.994537 0.12639
0.927916 1 0.141985
1 1 0.150301
1 1 0.150973
1 1 0.144289
1 0.993973 0.136965
1 0.971023 0.131838
1 0.944442 0.129824
1 0.918639 0.128664
1 0.896391 0.126513
1 0.876722 0.124681
1 0.860044 0.123064
1 0.845594 0.121019
0.164721 0.853452 0.142031
0.164721 0.853452 0.142031
0.164721 0.853452 0.142031
0.164752 0.853483 0.142046
0.165438 0.853681 0.142077
0.167193 0.85417 0.142077
0.16936 0.854826 0.142031
0.172198 0.855604 0.142016
0.17612 0.856718 0.142107
0.18323 0.859236 0.142611
0.195789 0.864271 0.143893
0.21445 0.872206 0.146471
0.237552 0.882445 0.151339
0.266392 0.896101 0.15729
0.301152 0.912871 0.15967
0.342107 0.931548 0.157702
0.407446 0.956146 0.148013
0.512535 0.985687 0.133852
0.648325 1 0.13254
0.749706 1 0.138003
0.835187 1 0.149615
0.915816 1 0.160372
0.991409 1 0.167834
1 1 0.17171
1 1 0.171511
1 1 0.163439
1 1 0.157107
1 1 0.153155
1 0.973342 0.150439
1 0.950118 0.147906
1 0.930449 0.14612
1 0.915068 0.144732
1 0.901686 0.142885
0.176532 0.885008 0.156634
0.176532 0.885008 0.156634
0.176532 0.885008 0.156634
0.176532 0.885008 0.156634
0.177188 0.885176 0.15671
0.178866 0.885618 0.156893
0.180941 0.886137 0.157168
0.183658 0.886931 0.157458
0.187411 0.888045 0.157855
0.194415 0.890654 0.15874
0.206882 0.895735 0.16083
0.225345 0.9037 0.164599
0.247959 0.914305 0.169741
0.276188 0.927626 0.175006
0.309194 0.942763 0.179355
0.348775 0.959854 0.180179
0.405997 0.981277 0.175341
0.497246 1 0.165881
0.635782 1 0.158282
0.736568 1 0.160861
0.822126 1 0.168811
0.900191 1 0.176287
0.973312 1 0.182177
1 1 0.187381
1 1 0.192142
1 1 0.190738
1 1 0.183597
1 1 0.178134
1 1 0.174578
1 0.997238 0.171283
1 0.976562 0.168414
1 0.960296 0.166567
1 0.945998 0.164263
0.188037 0.909438 0.171191
0.188037 0.909438 0.171191
0.188037 0.909438 0.171191
0.188006 0.909438 0.171221
0.188632 0.909621 0.171328
0.190326 0.910094 0.171542
0.192432 0.91075 0.171908
0.195224 0.911788 0.172412
0.199069 0.91313 0.172961
0.205783 0.915633 0.173983
0.217533 0.920378 0.176104
0.235035 0.927871 0.179568
0.25658 0.937728 0.183734
0.283864 0.950713 0.18967
0.316014 0.964843 0.194537
0.354223 0.980362 0.197131
0.403586 0.998993 0.195727
0.482612 1 0.188937
0.62501 1 0.176852
0.722866 1 0.179095
0.808377 1 0.184436
0.88455 1 0.189837
0.954574 1 0.194766
1 1 0.199725
1 1 0.204929
1 1 0.209964
1 1 0.208637
1 1 0.204364
1 1 0.199329
1 1 0.194842
1 1 0.191455
1 0.999756 0.188403
1 0.984924 0.185061
0.199802 0.925887 0.186862
0.199802 0.925887 0.186862
0.199802 0.925887 0.186862
0.199817 0.925887 0.186877
0.200443 0.926085 0.186938
0.202075 0.926635 0.187137
0.20412 0.927382 0.187518
0.206867 0.928435 0.187976
0.210544 0.929778 0.188571
