LUT预设1/LUT全系打包/胶片lut系列/胶片各机型log灰片/富士3513.cube
TITLE "Generated by Resolve"
LUT_3D_SIZE 33
0.0289616 0.0230716 0.0286107
0.0288396 0.0238346 0.0290074
0.028809 0.0246738 0.0294347
0.0294347 0.025742 0.0298314
0.0275273 0.0266117 0.0301366
0.0301366 0.0276036 0.0302586
0.0467842 0.0296025 0.0301823
0.0627298 0.0331731 0.0304417
0.0928664 0.0372473 0.0297398
0.140749 0.0351568 0.0234531
0.18883 0.0310826 0.0077821
0.242206 0.0176242 0.000137331
0.301595 0 0
0.360082 0 0
0.414832 0 0
0.465873 0 0
0.509606 0 0
0.545678 0 0
0.575631 0 0
0.598993 0 0
0.617365 0 0
0.630701 0 0
0.639918 0 0
0.645914 0 0
0.646708 0 0
0.646708 0 0
0.646708 0 0
0.646708 0 0
0.646708 0 0
0.646708 0 0
0.646708 0 0
0.646708 0 0
0.646708 0 0
0.0298466 0.0271763 0.0301823
0.0294347 0.027039 0.0303349
0.028809 0.0270085 0.0306249
0.0294957 0.0272221 0.0308232
0.028687 0.0276036 0.03093
0.0291447 0.028275 0.0309453
0.0437324 0.0298314 0.0307622
0.0606546 0.0330968 0.0308843
0.0875257 0.0371252 0.0303197
0.132296 0.0362097 0.0261387
0.179324 0.032578 0.00976577
0.230869 0.0235752 0.00015259
0.289723 0 0
0.349081 0 0
0.404211 0 0
0.455909 0 0
0.501228 0 0
0.538552 0 0
0.569635 0 0
0.594324 0 0
0.61355 0 0
0.627955 0 0
0.63801 0 0
0.644572 0 0
0.646708 0 0
0.646708 0 0
0.646708 0 0
0.646708 0 0
0.646708 0 0
0.646708 0 0
0.646708 0 0
0.646708 0 0
0.646708 0 0
0.0308843 0.0299077 0.0318456
0.0305028 0.0297704 0.0319219
0.0293278 0.029572 0.0322881
0.0295262 0.0294041 0.032578
0.0301213 0.0295872 0.0327459
0.0290684 0.0301518 0.0328985
0.042298 0.0312505 0.032578
0.0603799 0.0343481 0.0325933
0.0848402 0.0386816 0.0320745
0.127596 0.0392309 0.0286259
0.17525 0.0373846 0.0133364
0.226032 0.0319829 0.000350958
0.284153 0.0115358 0
0.343679 0 0
0.398871 0 0
0.450309 0 0
0.495766 0 0
0.533288 0 0
0.565148 0 0
0.590951 0 0
0.610819 0 0
0.625986 0 0
0.636652 0 0
0.643778 0 0
0.646708 0 0
0.646708 0 0
0.646708 0 0
0.646708 0 0
0.646708 0 0
0.646708 0 0
0.646708 0 0
0.646708 0 0
0.646708 0 0
0.0310521 0.0351568 0.0335241
0.0308995 0.0347143 0.0335241
0.0298619 0.0340429 0.0338903
0.0295415 0.0332952 0.034226
0.0306706 0.0329137 0.0344549
0.0288548 0.0330816 0.0348058
0.0399329 0.0335546 0.0345769
0.060029 0.0360723 0.0344854
0.0827192 0.0404517 0.034226
0.123293 0.0422065 0.0316014
0.171939 0.0425116 0.0184329
0.223239 0.0401007 0.00123598
0.281727 0.0305791 0
0.342138 0.00604257 0
0.398825 0 0
0.451804 0 0
0.498878 0 0
0.537758 0 0
0.569543 0 0
0.594751 0 0
0.613901 0 0
0.628336 0 0
0.6383 0 0
0.644984 0 0
0.648386 0 0
0.648249 0 0
0.648035 0 0
0.64773 0 0
0.647364 0 0
0.646967 0 0
0.646708 0 0
0.646708 0 0
0.646708 0 0
0.029984 0.0437171 0.0353246
0.0299382 0.0432898 0.0352789
0.0294499 0.0422522 0.0355077
0.0290837 0.0409552 0.035874
0.0305791 0.0399634 0.0361639
0.0296788 0.0396124 0.0365606
0.0382239 0.0395514 0.0364843
0.0588388 0.0415198 0.0363012
0.0809186 0.0461585 0.0360876
0.118853 0.0494698 0.0335546
0.167971 0.0507515 0.0233921
0.220203 0.0504768 0.00274662
0.279088 0.0467994 1.5259e-05
0.341222 0.0296635 0
0.399023 0.00679026 0
0.453086 0.000549325 0
0.502266 0 0
0.542824 0 0
0.576181 0 0
0.602701 0 0
0.622553 0 0
0.637247 0 0
0.647852 0 0
0.654856 0 0
0.658335 0 0
0.657023 0 0
0.655756 0 0
0.654429 0 0
0.653117 0 0
0.65185 0 0
0.651072 0 0
0.65127 0 0
0.651514 0 0
0.0281071 0.0522621 0.0372473
0.0283055 0.0518502 0.0372015
0.0285496 0.0508583 0.0373236
0.0287175 0.0492866 0.0376135
0.0306706 0.0480354 0.0378882
0.0311742 0.0475776 0.0383307
0.036408 0.0478828 0.0386511
0.0569772 0.0501869 0.0384222
0.0792096 0.054902 0.037644
0.114519 0.0591287 0.0351568
0.164614 0.0614633 0.0251621
0.218265 0.0631876 0.00395209
0.277745 0.0633555 7.62951e-05
0.341115 0.0562905 0
0.400397 0.0361334 0
0.45449 0.0113375 0
0.505577 0.00077821 0
0.547982 0 0
0.582956 0 0
0.610697 0 0
0.631449 0 0
0.646403 0 0
0.657526 0 0
0.664973 0 0
0.66952 0 0
0.668269 0 0
0.667018 0 0
0.665736 0 0
0.664454 0 0
0.663157 0 0
0.662089 0 0
0.662303 0 0
0.662516 0 0
0.019028 0.06392 0.0389105
0.0195621 0.0634012 0.0388495
0.0209659 0.0622263 0.03888
0.0232242 0.0601053 0.0390936
0.0270542 0.0579843 0.0393225
0.030457 0.0569467 0.0398413
0.0328069 0.0568093 0.040528
0.0528725 0.0586709 0.0404974
0.0773022 0.0630503 0.0393072
0.110567 0.0682078 0.0368811
0.1617 0.0720836 0.0270542
0.217121 0.0756542 0.00610361
0.27715 0.0785992 0.000244144
0.341665 0.0761883 0
0.403861 0.068101 0
0.458061 0.0458686 0
0.50959 0.0144961 0
0.553704 0.00141909 0
0.590143 0 0
0.619516 0 0
0.64126 0 0
0.656779 0 0
0.668193 0 0
0.675959 0 0
0.681132 0 0
0.68011 0 0
0.678828 0 0
0.677501 0 0
0.676173 0 0
0.674784 0 0
0.673609 0 0
0.673823 0 0
0.674052 0 0
0.00556954 0.081117 0.0405737
0.00605783 0.0804608 0.0404974
0.00709544 0.0792554 0.0404822
0.00958267 0.0766003 0.0406348
0.0131685 0.0736858 0.0408331
0.0190433 0.0718853 0.0413062
0.0200046 0.0713359 0.0420386
0.0419928 0.0726329 0.0422675
0.0746777 0.0768139 0.0409094
0.107424 0.0825055 0.0376745
0.157977 0.0872358 0.0284123
0.21593 0.0916152 0.00827039
0.277104 0.0964065 0.000518807
0.342657 0.0966049 0
0.407248 0.0929122 0
0.464149 0.0828565 0
0.515984 0.0575418 0
0.561517 0.0283055 0
0.598566 0.010605 0
0.629435 0.00614939 0
0.652293 0.00468452 0
0.668742 0.00386053 0
0.680522 0.0033875 0
0.688655 0.00296025 0
0.693919 0.00215152 0
0.693675 0.000823987 0
0.692195 0 0
0.69073 0 0
0.689296 0 0
0.687755 0 0
0.68632 0 0
0.68658 0 0
0.686778 0 0
0.000396735 0.100938 0.0428473
0.000488289 0.100221 0.042771
0.000640879 0.0993057 0.0426947
0.0011902 0.0965133 0.0429236
0.00205997 0.0927901 0.0433051
0.00447089 0.0903487 0.0435798
0.00543221 0.0898604 0.0441749
0.025452 0.0912032 0.0442512
0.0670481 0.0953231 0.0422217
0.103578 0.101534 0.0378119
0.153445 0.107301 0.0268101
0.214176 0.113268 0.00645457
0.277333 0.119768 0.00030518
0.343999 0.122683 0
0.411093 0.122148 0
0.471336 0.117784 0
0.525246 0.106096 0
0.57232 0.0875257 0
0.61004 0.0660258 0
0.641321 0.0549172 0
0.665217 0.0475319 0
0.68249 0.0420081 0
0.694911 0.0382239 0
0.703471 0.0353857 0
0.708888 0.0318151 0
0.709407 0.0252689 0
0.7075 0.0177462 0
0.705623 0.0117952 0
0.704021 0.010193 0
0.702403 0.00851453 0
0.700832 0.00675975 0
0.70106 0.00691234 0
0.701274 0.00706493 0
0 0.122484 0.0441138
0 0.121859 0.0440375
0 0.121019 0.044007
0 0.118318 0.0446021
0 0.114015 0.0457618
0.000106813 0.110613 0.0463111
0.000427253 0.109957 0.0467231
0.011841 0.111315 0.0463722
0.0525826 0.115206 0.0433204
0.0975204 0.121706 0.037644
0.147738 0.12871 0.0242924
0.210864 0.136324 0.00491341
0.276967 0.144869 6.10361e-05
0.345205 0.150561 0
0.415488 0.153094 0
0.479011 0.152331 0
0.53608 0.14699 0
0.585962 0.137881 0
0.625971 0.129335 0
0.657557 0.120134 0
0.68249 0.112459 0
0.70013 0.106905 0
0.713207 0.103334 0
0.722148 0.101778 0
0.727886 0.101183 0
0.72929 0.0969711 0
0.726986 0.0899519 0
0.72462 0.08336 0
0.722438 0.0787366 0
0.720424 0.0701457 0
0.718425 0.0613565 0
0.718654 0.0622263 0
0.718868 0.063035 0
0 0.147921 0.0423133
0 0.14728 0.0423438
0 0.146197 0.0424353
0 0.143999 0.043061
0 0.139345 0.04477
0 0.135058 0.0460822
0 0.133471 0.0466468
0.00396735 0.134691 0.0463111
0.033463 0.138262 0.0425269
0.0840162 0.144915 0.0341192
0.139178 0.15314 0.0184176
0.205997 0.162585 0.0033875
0.275364 0.172854 3.0518e-05
0.346197 0.180682 0
0.419043 0.185336 0
0.486656 0.187076 0
0.546929 0.185367 0
0.600702 0.179889 0
0.643229 0.173877 0
0.67631 0.167681 0
0.702113 0.16257 0
0.720897 0.159762 0
0.734569 0.159091 0
0.744137 0.159701 0
0.750301 0.161501 0
0.752972 0.160616 0
0.750515 0.155657 0
0.747997 0.150546 0
0.745464 0.145373 0
0.743053 0.139315 0
0.740627 0.132418 0
0.740749 0.132799 0
0.7411 0.133852 0
0 0.175738 0.0372931
0 0.174899 0.0375067
0 0.174014 0.0376745
0 0.172351 0.0381476
0 0.167773 0.0403449
0 0.162799 0.0425269
0 0.160449 0.0431983
0.000610361 0.161303 0.0425879
0.0141451 0.164767 0.0370947
0.0613413 0.171756 0.0234989
0.125673 0.18201 0.00756847
0.197787 0.193591 0.000747692
0.272084 0.205646 0
0.345251 0.215549 0
0.420447 0.222019 0
0.492729 0.226017 0
0.555596 0.2262 0
0.613489 0.223178 0
0.659495 0.218784 0
0.69482 0.213733 0
0.721767 0.208927 0
0.742168 0.206683 0
0.756405 0.206531 0
0.767086 0.207446 0
0.773724 0.209476 0
0.778088 0.210529 0
0.77554 0.205646 0
0.773114 0.200931 0
0.770672 0.196231 0
0.768185 0.191424 0
0.765667 0.186358 0
0.765713 0.186419 0
0.765988 0.186984 0
0 0.204654 0.0270237
0 0.203647 0.0280461
0 0.202777 0.0279393
0 0.201404 0.0286412
0 0.19736 0.0311894
0 0.191821 0.0346838
0 0.188815 0.0356909
1.5259e-05 0.189258 0.0341802
0.00201419 0.192523 0.0245365
0.0296483 0.20032 0.00961318
0.101808 0.212924 0.00163272
0.185931 0.226749 0
0.26569 0.240269 0
0.342443 0.252399 0
0.419516 0.260822 0
0.494987 0.266712 0
0.561334 0.268986 0
0.622141 0.267689 0
0.672908 0.264866 0
0.710735 0.261051 0
0.739818 0.257008 0
0.761685 0.25539 0
0.776959 0.255146 0
0.788434 0.256352 0
0.795789 0.258228 0
0.801801 0.260243 0
0.799588 0.255421 0
0.797406 0.250721 0
0.795071 0.245747 0
0.792782 0.240803 0
0.790417 0.235691 0
0.790402 0.235599 0
0.790677 0.236164 0
0 0.236774 0
0 0.235859 0
0 0.23473 0
0 0.233341 0.00108339
0 0.229801 0.002121
0 0.22388 0.00859083
0 0.219715 0.012726
0 0.219516 0.0077821
3.0518e-05 0.223163 0.00340276
0.00567636 0.231724 0.00120546
0.0712444 0.245518 0.000137331
0.168231 0.261311 0
0.256199 0.276677 0
0.33785 0.290806 0
0.416999 0.301442 0
0.494972 0.308766 0
0.564858 0.312963 0
0.628229 0.313252 0
0.68307 0.311162 0
0.724163 0.308415 0
0.756115 0.305425 0
0.779675 0.30399 0
0.796292 0.304234 0
0.80795 0.30544 0
0.815671 0.306584 0
0.821424 0.308019 0
0.820829 0.304356 0
0.818921 0.299672 0
0.816876 0.294911 0
0.814969 0.290455 0
0.812894 0.285603 0
0.812833 0.285435 0
0.813001 0.285817 0
0 0.273411 0
0 0.27245 0
0 0.271489 0
0 0.270054 0
0 0.267536 0
0 0.26125 0.00030518
0 0.256306 0.000701915
0 0.25539 0.000350958
0 0.258885 1.5259e-05
0.000289921 0.267247 1.5259e-05
0.0330663 0.281498 0
0.136141 0.298833 0
0.242191 0.316411 0
0.330938 0.332906 0
0.41416 0.346075 0
0.494987 0.355169 0
0.568292 0.3608 0
0.634272 0.362661 0
0.691966 0.361318 0
0.737087 0.359426 0
0.771389 0.356542 0
0.79733 0.35494 0
0.815091 0.355291 0
0.82739 0.356191 0
0.835416 0.356863 0
0.840665 0.357656 0
0.841199 0.35462 0
0.839353 0.349813 0
0.837324 0.344778 0
0.83534 0.339879 0
0.833387 0.335058 0
0.833265 0.334768 0
0.833432 0.335149 0
0 0.309239 0
0 0.308629 0
0 0.307744 0
0 0.306554 0
0 0.304997 0
0 0.29958 0
0 0.294118 0
0 0.292668 0
0 0.29575 0
0 0.304006 0
0.00273136 0.318624 0
0.0974289 0.337545 0
0.2206 0.357626 0
0.321447 0.377676 0
0.409964 0.39379 0
0.49485 0.405356 0
0.572503 0.412757 0
0.640467 0.416007 0
0.701152 0.415717 0
0.749538 0.414252 0
0.786938 0.412406 0
0.815412 0.41062 0
0.834958 0.410681 0
0.848386 0.411368 0
0.857176 0.412024 0
0.862486 0.412726 0
0.864073 0.410437 0
0.862104 0.405295 0
0.859846 0.399908 0
0.857511 0.3944 0
0.8551 0.388663 0
0.85481 0.387976 0
0.85507 0.388602 0
0 0.340856 0
0 0.340337 0
0 0.339498 0
0 0.338476 0
0 0.337179 0
0 0.333181 0
0 0.328008 0
0 0.326314 0
0 0.329595 0
0 0.337774 0
0 0.353002 0
0.0612802 0.373693 0
0.191043 0.396124 0
0.307378 0.41915 0
0.403418 0.439506 0
0.492378 0.454139 0
0.575357 0.464225 0
0.646174 0.469459 0
0.709865 0.470573 0
0.761486 0.469947 0
0.802396 0.468986 0
0.833387 0.468162 0
0.855634 0.468071 0
0.87013 0.468437 0
0.880537 0.469795 0
0.886992 0.471595 0
0.890257 0.471061 0
0.888411 0.466133 0
0.885847 0.460334 0
0.883375 0.454749 0
0.880751 0.448798 0
0.8804 0.448005 0
0.880598 0.448463 0
0 0.369085 0
0 0.368551 0
0 0.367926 0
0 0.366979 0
0 0.365927 0
0 0.363394 0
0 0.358877 0
0 0.356832 0
0 0.360372 0
0 0.369009 0
0 0.384634 0
0.0294499 0.406867 0
0.156298 0.43151 0
0.287984 0.456565 0
0.391943 0.47985 0
0.48574 0.497856 0
0.573617 0.510811 0
0.649577 0.519097 0
0.716335 0.522499 0
0.77261 0.523278 0
0.816327 0.52369 0
0.850446 0.523201 0
0.875196 0.52372 0
0.891569 0.524422 0
0.90367 0.526085 0
0.911574 0.528847 0
0.917174 0.5308 0
0.915862 0.52665 0
0.91342 0.521324 0
0.910979 0.515969 0
0.908415 0.510353 0
0.908019 0.509514 0
0.908232 0.509987 0
0 0.393423 0
0 0.393027 0
0 0.392493 0
0 0.391821 0
0 0.390982 0
0 0.389654 0
0 0.386175 0
0 0.384558 0
0 0.38822 0
0 0.397742 0
0 0.414038 0
0.00550851 0.437766 0
0.10634 0.464683 0
0.260182 0.491737 0
0.377371 0.517296 0
0.475807 0.538552 0
0.568475 0.554711 0
0.650126 0.5664 0
0.721248 0.572808 0
0.782391 0.57554 0
0.829572 0.577127 0
0.86656 0.577371 0
0.89366 0.578119 0
0.912215 0.579187 0
0.925383 0.581033 0
0.934539 0.583535 0
0.941512 0.586282 0
0.941161 0.58294 0
0.939116 0.578164 0
0.936858 0.573068 0
0.9346 0.568002 0
0.934142 0.566964 0
0.93434 0.567407 0
0 0.412589 0
0 0.41236 0
0 0.412024 0
0 0.411505 0
0 0.41088 0
0 0.409964 0
0 0.408072 0
0 0.406806 0
0 0.410681 0
0 0.420447 0
0 0.43714 0
0.000167849 0.462058 0
0.0474708 0.491554 0
0.223468 0.52108 0
0.360693 0.549462 0
0.463188 0.573587 0
0.56051 0.59324 0
0.647257 0.608164 0
0.723354 0.61825 0
0.789288 0.623819 0
0.841459 0.627192 0
0.880751 0.628794 0
0.910918 0.630335 0
0.931579 0.632349 0
0.946212 0.634867 0
0.956451 0.63711 0
0.963592 0.639353 0
0.964828 0.637354 0
0.963226 0.633051 0
0.961166 0.628336 0
0.959106 0.62359 0
0.958633 0.622522 0
0.95874 0.622736 0
0 0.427161 0
0 0.426993 0
0 0.426749 0
0 0.426368 0
0 0.42591 0
0 0.42533 0
0 0.424552 0
0 0.424094 0
0 0.427893 0
0 0.437873 0
0 0.453956 0
0 0.478782 0
0.0156252 0.509941 0
0.194156 0.54168 0
0.341512 0.572396 0
0.448951 0.599924 0
0.549081 0.622797 0
0.641306 0.641733 0
0.721325 0.655009 0
0.792279 0.663691 0
0.848859 0.669367 0
0.891875 0.672541 0
0.924804 0.674891 0
0.947967 0.678004 0
0.96437 0.681285 0
0.975708 0.684077 0
0.983276 0.686641 0
0.986542 0.68629 0
0.985504 0.682826 0
0.983642 0.678721 0
0.981689 0.674449 0
0.981247 0.673472 0
0.981414 0.673884 0
0 0.438529 0
0 0.438376 0
0 0.438132 0
0 0.437873 0
0 0.437522 0
0 0.437156 0
0 0.43711 0
0 0.438087 0
0 0.441947 0
0 0.451698 0
0 0.467536 0
0 0.491417 0
0.0103609 0.523064 0
0.168933 0.556741 0
0.319814 0.58938 0
0.433143 0.619776 0
0.535958 0.64564 0
0.63212 0.667445 0
0.715572 0.684123 0
0.790768 0.696025 0
0.85211 0.704341 0
0.899504 0.709575 0
0.93521 0.712901 0
0.961288 0.716533 0
0.978805 0.719905 0
0.990082 0.722362 0
0.994919 0.723491 0
0.996338 0.723049 0
0.996307 0.720668 0
0.996109 0.71809 0
0.995544 0.715023 0
0.995407 0.71426 0
0.995453 0.714412 0
0 0.447044 0
0 0.446921 0
0 0.446784 0
0 0.446586 0
0 0.446357 0
0 0.446067 0
0 0.446357 0
0 0.448478 0
0 0.452888 0
0 0.462623 0
0 0.478401 0
0 0.50161 0
0.00775158 0.532845 0
0.132128 0.567376 0
0.295171 0.601755 0
0.417578 0.634379 0
0.522072 0.662898 0
0.620417 0.687037 0
0.707973 0.70692 0
0.785443 0.721447 0
0.852186 0.732219 0
0.903151 0.739681 0
0.94284 0.744808 0
0.971542 0.749264 0
0.9897 0.75288 0
0.996216 0.753277 0
0.997406 0.752575 0
0.997559 0.751614 0
0.997574 0.74963 0
0.997574 0.747524 0
0.997528 0.74519 0
0.997513 0.744595 0
0.997513 0.744717 0
0 0.453437 0
0 0.4533 0
0 0.453162 0
0 0.452949 0
0 0.45272 0
0 0.452491 0
0 0.452827 0
0 0.455192 0
0 0.460121 0
0 0.470222 0
0 0.486076 0
0 0.508553 0
0.000442512 0.538827 0
0.106584 0.573404 0
0.272053 0.608804 0
0.400687 0.643275 0
0.507347 0.674022 0
0.60795 0.700633 0
0.698054 0.722744 0
0.778302 0.740001 0
0.848295 0.752895 0
0.903578 0.762493 0
0.9467 0.769055 0
0.978302 0.774289 0
0.994736 0.777249 0
0.997436 0.776562 0
0.997543 0.77557 0
0.997543 0.774777 0
0.997543 0.773205 0
0.997559 0.771389 0
0.997559 0.769482 0
0.997559 0.768963 0
0.997559 0.768963 0
0 0.460212 0
0 0.459953 0
0 0.459663 0
0 0.459388 0
0 0.459068 0
0 0.458717 0
0 0.458747 0
0 0.461265 0
0 0.467048 0
0 0.477226 0
0 0.493675 0
0 0.515419 0
0 0.544213 0
0.0947738 0.578103 0
0.254627 0.61326 0
0.385077 0.648447 0
0.493187 0.680766 0
0.5944 0.708873 0
0.687388 0.732998 0
0.769558 0.752407 0
0.842313 0.767376 0
0.901183 0.778851 0
0.947234 0.786786 0
0.982437 0.792889 0
0.995758 0.794476 0
0.997467 0.793545 0
0.997497 0.792493 0
0.997497 0.791638 0
0.997497 0.790631 0
0.997497 0.789456 0
0.997513 0.788296 0
0.997513 0.787884 0
0.997513 0.787884 0
0 0.469215 0
0 0.469017 0
0 0.468742 0
0 0.468421 0
0 0.468071 0
0 0.467658 0
0 0.467201 0
0 0.469856 0
0 0.477867 0
0 0.488746 0
0 0.505196 0
0 0.526741 0
0 0.553597 0
0.0792859 0.585626 0
0.244022 0.619883 0
0.376364 0.654429 0
0.484047 0.687312 0
0.584314 0.716075 0
0.678614 0.741299 0
0.761532 0.761959 0
0.836606 0.778485 0
0.898299 0.791226 0
0.947005 0.800473 0
0.98349 0.806928 0
0.995972 0.807904 0
0.997467 0.806653 0
0.997467 0.805447 0
0.997467 0.804501 0
0.997467 0.803632 0
0.997482 0.802701 0
0.997482 0.80177 0
0.997482 0.80145 0
0.997482 0.801495 0
0 0.479606 0
0 0.479408 0
0 0.479164 0
0 0.478843 0
0 0.478477 0
0 0.478065 0
0 0.477653 0
0 0.480339 0
0 0.489799 0
0 0.502998 0
0 0.520348 0
0 0.541955 0
0 0.567544 0
0.10486 0.597696 0
0.255558 0.630564 0
0.378119 0.66334 0
0.482383 0.695079 0
0.579568 0.723644 0
0.673075 0.749065 0
0.756664 0.770611 0
0.832471 0.787945 0
0.897353 0.801846 0
0.948379 0.812284 0
0.984787 0.818906 0
0.996185 0.819135 0
0.997436 0.817594 0
0.997452 0.816281 0
0.997452 0.815427 0
0.997452 0.814618 0
0.997452 0.813809 0
0.997452 0.812955 0
0.997452 0.81265 0
0.997452 0.81265 0
0 0.486931 0
0 0.487526 0
0 0.487861 0
0 0.487907 0
0 0.487907 0
0 0.487907 0
0 0.487907 0
0 0.48986 0
0 0.499977 0
