LUT预设1/LUT全系打包/胶片lut系列/胶片各机型log灰片/富士3513.cube
TITLE "Generated by Resolve"
LUT_3D_SIZE 5
0.0289616 0.0230716 0.0286107
0.0928664 0.0372473 0.0297398
0.509606 0 0
0.646708 0 0
0.646708 0 0
0.000396735 0.100938 0.0428473
0.0670481 0.0953231 0.0422217
0.525246 0.106096 0
0.708888 0.0318151 0
0.701274 0.00706493 0
0 0.340856 0
0 0.329595 0
0.575357 0.464225 0
0.880537 0.469795 0
0.880598 0.448463 0
0 0.460212 0
0 0.467048 0
0.493187 0.680766 0
0.995758 0.794476 0
0.997513 0.787884 0
0 0.487907 0
0 0.491814 0
0.420981 0.68896 0
0.994583 0.839185 0
0.997406 0.835492 0
0.00833143 4.57771e-05 0.162448
0.10251 0.0165255 0.138277
0.565667 0 0.116136
0.694759 0 0.114427
0.692332 0 0.0802777
0 0.11516 0.13193
0.0563211 0.105455 0.102617
0.568383 0.061387 0.0108949
0.748714 0.00636301 0.0049897
0.738582 6.10361e-05 0
0 0.380652 0.043122
0 0.366094 0.0137789
0.615778 0.505821 0
0.919509 0.496178 0
0.911055 0.46566 0
0 0.475746 0.0122225
0 0.481056 0.000503548
0.492363 0.692851 0
0.996185 0.798611 0
0.997513 0.787289 0
0 0.488685 0.022034
0 0.491157 0.0142367
0.404257 0.68423 0
0.992798 0.839078 0
0.997406 0.835492 0
0 0 0.443305
0.0455024 0 0.453819
0.60061 0 0.507454
0.738903 0 0.531243
0.73666 0 0.518349
0 0.00698863 0.494011
0.00511177 0.0270237 0.481315
0.586343 0.000167849 0.503182
0.776699 0 0.515557
0.770306 0 0.489403
0 0.438972 0.541787
0 0.421622 0.520394
0.571679 0.573556 0.545678
0.901076 0.534279 0.514305
0.896361 0.497871 0.487007
0 0.554086 0.558572
0 0.562585 0.548119
0.329992 0.76965 0.537484
0.981918 0.858183 0.460685
0.997299 0.851194 0.441566
0 0.57174 0.549691
0 0.574639 0.538781
0.148608 0.752941 0.538918
0.944503 0.870634 0.478309
0.997269 0.878157 0.479744
0 0 0.480873
0.00834669 0 0.50454
0.596277 0 0.591852
0.759319 0 0.628244
0.75964 0 0.628534
0 0 0.570581
0 0.00239567 0.579049
0.572931 0 0.649973
0.798932 0 0.67747
0.796872 0 0.669932
0 0.429175 0.659342
0 0.408484 0.661326
0.466712 0.545785 0.736889
0.90042 0.55314 0.797574
0.900786 0.522896 0.790234
0 0.539818 0.69044
0 0.543435 0.693248
0.0886397 0.736675 0.747173
0.965057 0.928969 0.86157
0.996399 0.929107 0.862119
0 0.551064 0.695399
0 0.551553 0.694957
0 0.722667 0.745937
0.917601 0.935836 0.856916
0.999557 0.950164 0.863218
0 0 0.480873
0.00839246 0 0.502739
0.586282 0 0.590463
0.759396 0 0.628428
0.759655 0 0.62855
0 0 0.567895
0 0 0.574578
0.555657 7.62951e-05 0.645655
0.79762 0 0.67808
0.797726 0 0.673884
0 0.41944 0.659083
0 0.396201 0.65922
0.433814 0.525185 0.730648
0.894804 0.540963 0.802518
0.897887 0.511513 0.797894
0 0.539101 0.692454
0 0.541405 0.694942
0.0435645 0.727733 0.750332
0.958144 0.929534 0.876493
0.995499 0.930404 0.880171
0 0.550744 0.699062
0 0.550744 0.699062
0 0.714137 0.751781
0.902647 0.936904 0.874556
0.99968 0.954284 0.88455
