LUT预设1/LUT全系打包/胶片lut系列/胶片各机型log灰片/富士CN仿色 .cube
TITLE "Generated by Resolve"
LUT_3D_SIZE 9
0 0 0
0 0 0
0.0492714 0.00863661 0.00444038
0.252842 0.0400854 0.00712596
0.53576 0.0814069 0.0119478
0.819181 0.103655 0.000640879
0.939574 0.10988 0
0.940475 0.109895 0
0.940475 0.109895 0
0 0 0
0 0 0
0.0570687 0.00979629 0.00447089
0.258244 0.0410315 0.00727855
0.539895 0.0819104 0.0119326
0.819303 0.103639 0.000915541
0.939529 0.10988 0
0.940475 0.109895 0
0.940475 0.109895 0
0.00798047 0.0518349 0.0284276
0.00779736 0.0505226 0.0277409
0.057435 0.0542611 0.0273289
0.273579 0.0653239 0.0185397
0.562463 0.0859388 0.0120851
0.834455 0.104662 0
0.940002 0.109895 0
0.940475 0.109895 0
0.940475 0.109895 0
0.0159609 0.258076 0.139727
0.0157626 0.253895 0.137545
0.0239567 0.255024 0.137865
0.269902 0.277745 0.155215
0.611276 0.242634 0.0808423
0.868986 0.185473 0.0297398
0.953201 0.145953 0.0114443
0.947936 0.130282 0.00404364
0.945724 0.124514 0.00173953
0.00933852 0.5626 0.270558
0.00965896 0.556146 0.268696
0.00955215 0.557992 0.269444
0.0690929 0.56524 0.267872
0.603021 0.610941 0.281498
0.926589 0.583566 0.230381
0.99765 0.498436 0.123415
0.997818 0.481163 0.115572
0.997818 0.480873 0.115389
0.00300603 0.77409 0.288716
0.00289921 0.773266 0.292103
0.00289921 0.773648 0.292317
0.00462348 0.772793 0.29337
0.51725 0.832441 0.290578
0.945861 0.906172 0.35819
0.984085 0.814023 0.251682
0.97763 0.767437 0.186892
0.977264 0.76733 0.185885
0.00553903 0.780529 0.150469
0.00549325 0.78143 0.154788
0.00546273 0.781704 0.155718
0.00541695 0.782361 0.159609
0.210178 0.801755 0.130266
0.823896 0.883787 0.16463
0.987106 0.922896 0.234363
0.98912 0.921645 0.262745
0.989151 0.92166 0.262898
0.0065156 0.763378 0.0740063
0.0065156 0.763363 0.0739757
0.0065156 0.763409 0.0741436
0.0065156 0.763516 0.0745403
0.0631723 0.763043 0.0537423
0.570718 0.80351 0.0533761
0.891539 0.884596 0.112001
0.971191 0.908415 0.147433
0.971206 0.908553 0.148974
0.0065156 0.763256 0.0735332
0.0065156 0.763256 0.0735332
0.0065156 0.763256 0.0735332
0.0065156 0.763256 0.0735332
0.0661173 0.76173 0.0504463
0.566155 0.800778 0.0496071
0.878187 0.880705 0.104555
0.96643 0.907149 0.136751
0.96672 0.907332 0.138216
0 0 0
0 0 0
0.0516976 0.00901808 0.00450141
0.255558 0.0405585 0.00721752
0.538613 0.0816968 0.0119173
0.820752 0.103761 0.000686656
0.939574 0.10988 0
0.940475 0.109895 0
0.940475 0.109895 0
0 0 0
0 0 0
0.0589456 0.0101015 0.00451667
0.260227 0.0413825 0.00733959
0.54168 0.0821241 0.011902
0.820249 0.103716 0.000823987
0.93962 0.10988 0
0.940475 0.109895 0
0.940475 0.109895 0
0.00796521 0.0519265 0.0284886
0.0077821 0.0505837 0.0277867
0.0569924 0.0538338 0.0271305
0.274388 0.0647898 0.0182193
0.56321 0.0859846 0.0120546
0.834943 0.104707 0
0.940047 0.109895 0
0.940475 0.109895 0
0.940475 0.109895 0
0.016022 0.257465 0.139498
0.015671 0.253422 0.137224
0.0233463 0.254215 0.137423
0.267872 0.275929 0.153979
0.609796 0.240558 0.0800488
0.867903 0.183856 0.0291752
0.952789 0.145312 0.0112154
0.947921 0.130312 0.00445563
0.945739 0.12462 0.0021973
0.00939956 0.561532 0.270268
0.00968948 0.554864 0.268315
0.00959792 0.556069 0.268574
0.068864 0.562905 0.267109
0.599115 0.607569 0.280415
0.924743 0.579538 0.228473
0.99762 0.495064 0.123262
0.997742 0.477287 0.114733
0.997742 0.476936 0.114534
0.00299077 0.773938 0.289403
0.00288396 0.773037 0.293065
0.00289921 0.772625 0.292653
0.00474556 0.771725 0.293614
0.506859 0.829908 0.291508
0.943648 0.903258 0.356161
0.984375 0.811978 0.251713
0.978103 0.76466 0.186114
0.978012 0.764645 0.185885
0.00552377 0.780758 0.151568
0.00547799 0.781704 0.155932
0.00544747 0.781842 0.156939
0.00540169 0.782498 0.160937
0.204471 0.801648 0.133013
0.8206 0.883528 0.165591
0.987091 0.923201 0.236042
0.989334 0.92192 0.26482
0.989364 0.921889 0.265049
0.0065156 0.763378 0.0740063
0.0065156 0.763409 0.0740978
0.0065156 0.763485 0.0743877
0.00650034 0.763577 0.0747845
0.0607919 0.763226 0.0548257
0.565682 0.803037 0.053315
0.889616 0.884123 0.112016
0.971511 0.908492 0.148104
0.971557 0.90866 0.149859
0.0065156 0.763256 0.0735332
0.0065156 0.763256 0.0735332
0.0065156 0.763256 0.0735332
0.0065156 0.763256 0.0735332
0.0642405 0.761852 0.0514839
0.55996 0.799817 0.0490425
0.874342 0.879667 0.103822
0.966415 0.907134 0.136584
0.96672 0.907347 0.138231
0.00737011 0.0102693 0.024445
0.00888075 0.0123293 0.0294652
0.0682689 0.0212863 0.0319677
0.282582 0.0553445 0.0268406
0.570321 0.0967727 0.0249027
0.846342 0.118395 0.0121004
0.953307 0.120943 0.00320439
0.952453 0.11957 0.00263981
0.953124 0.120211 0.00299077
0.0110018 0.0151827 0.0363317
0.01149 0.0158389 0.0379339
0.0771496 0.0240635 0.0362554
0.288167 0.0568093 0.0283207
0.572625 0.0971542 0.024918
0.84419 0.1178 0.01178
0.951949 0.11957 0.0019379
0.950423 0.117617 0.000350958
0.949935 0.117235 0.000167849
0.0156405 0.0659342 0.0693675
0.0153811 0.0642405 0.0675669
0.0656596 0.0645762 0.0617685
0.30132 0.0795453 0.0433204
0.596597 0.102296 0.0264897
0.860319 0.119936 0.0118868
0.953902 0.121141 0.00344854
0.951217 0.118624 0.002121
0.951034 0.118608 0.002121
0.0194705 0.267994 0.171481
0.0188754 0.263325 0.166644
0.0251774 0.263783 0.165621
0.268452 0.278843 0.171908
0.627802 0.248188 0.0947738
0.884123 0.191791 0.0359655
0.961608 0.153338 0.0168917
0.955734 0.13724 0.00875868
0.953536 0.131426 0.00628672
0.0104372 0.566751 0.279561
0.0106203 0.559564 0.276509
0.0104829 0.560479 0.276265
0.0672618 0.565789 0.273472
0.598642 0.608743 0.28455
0.926177 0.579721 0.229633
0.997589 0.495033 0.123873
0.997742 0.477104 0.115175
0.997742 0.476921 0.115068
0.00300603 0.774456 0.289418
0.00289921 0.773449 0.29305
0.00292973 0.772763 0.292439
0.00477607 0.772 0.293431
0.500694 0.829114 0.290974
0.943191 0.902815 0.3552
0.984421 0.81207 0.252064
0.978317 0.764706 0.186862
0.978241 0.764858 0.186862
0.00553903 0.780667 0.151064
0.00547799 0.781628 0.155596
0.00546273 0.78172 0.156497
0.00540169 0.782376 0.160479
0.199023 0.801144 0.133379
0.817823 0.882918 0.165087
0.986923 0.923217 0.235935
0.98938 0.921965 0.265095
0.98938 0.921904 0.265202
0.0065156 0.763363 0.0739757
0.0065156 0.763409 0.0741436
0.0065156 0.76347 0.0744335
0.00650034 0.763577 0.074815
0.0585336 0.76321 0.0553597
0.562325 0.802533 0.0530404
0.887953 0.883665 0.111742
0.971542 0.908492 0.148135
0.971588 0.908675 0.14995
0.0065156 0.763241 0.0735332
0.0065156 0.763241 0.0735485
0.0065156 0.763241 0.0735485
0.0065156 0.763241 0.0735485
0.0625772 0.761883 0.0519112
0.556237 0.799222 0.0487221
0.87187 0.878996 0.103395
0.966384 0.907118 0.136492
0.96672 0.907347 0.138323
0.0618143 0.087541 0.210193
0.0647746 0.091783 0.22005
0.124254 0.0972 0.221149
0.374105 0.115114 0.178195
0.697002 0.16289 0.139757
0.969802 0.193072 0.0981155
0.999771 0.186404 0.10869
0.999786 0.186633 0.112306
0.999863 0.18703 0.116243
0.0678874 0.0961929 0.230289
0.0686809 0.0972763 0.232792
0.133074 0.10042 0.227436
0.378271 0.116274 0.179889
0.697841 0.162814 0.137835
0.96878 0.193225 0.0946059
0.999847 0.186542 0.104936
0.999817 0.186557 0.107576
0.999817 0.186755 0.110933
0.0670176 0.139132 0.262852
0.0670787 0.137743 0.261967
0.118471 0.137514 0.256931
0.387671 0.138979 0.200732
0.729549 0.172152 0.148028
0.97911 0.194232 0.10277
0.999832 0.186679 0.111574
0.999802 0.186786 0.113512
0.999847 0.187045 0.116243
0.0519722 0.307179 0.32958
0.0512703 0.302419 0.324422
0.0558633 0.302998 0.32636
0.282872 0.303548 0.297597
0.728969 0.309468 0.245838
0.974426 0.255177 0.169039
0.998993 0.210941 0.129183
0.999405 0.201801 0.126741
0.99942 0.197436 0.125689
0.0128481 0.63212 0.486107
0.0136873 0.624109 0.477012
0.0135653 0.62501 0.476692
0.061265 0.617441 0.46688
0.597147 0.621973 0.428397
0.948898 0.582681 0.344533
0.982361 0.462531 0.19173
0.982422 0.445014 0.183551
0.981949 0.444068 0.185595
0.00163272 0.782315 0.430671
0.00183108 0.780652 0.425757
0.00183108 0.780194 0.424002
0.00308232 0.779095 0.422553
0.417182 0.810849 0.388128
0.925643 0.893492 0.453788
0.972198 0.78265 0.320272
0.970947 0.737423 0.267567
0.970825 0.736645 0.272038
0.00337224 0.771618 0.259281
0.00347906 0.772656 0.254154
0.00347906 0.772961 0.253529
0.00344854 0.773892 0.255314
0.1196 0.768093 0.204837
0.716747 0.854902 0.241093
0.958358 0.914137 0.31696
0.976532 0.914488 0.348043
0.975769 0.914031 0.354314
0.00456245 0.757305 0.19237
0.00477607 0.757137 0.17969
0.00479133 0.757259 0.177996
0.00480659 0.757092 0.17673
0.0254673 0.737987 0.135927
0.438209 0.770596 0.126436
0.822644 0.873655 0.199329
0.937377 0.908232 0.242557
0.936706 0.908873 0.25182
0.00422675 0.758984 0.210483
0.00448615 0.757794 0.196109
0.00448615 0.758236 0.195575
0.00448615 0.75816 0.194491
0.023682 0.732387 0.144427
0.416449 0.76437 0.135882
0.797269 0.867689 0.205432
0.925566 0.907134 0.246784
0.92546 0.907881 0.255741
0.14522 0.208499 0.491432
0.148791 0.213794 0.503761
0.17702 0.221164 0.517037
0.469917 0.217563 0.456458
0.848859 0.258778 0.4103
0.999115 0.2392 0.358419
1 0.221592 0.341268
1 0.224506 0.353994
1 0.226596 0.362966
0.152697 0.219623 0.517372
0.153628 0.22092 0.520348
0.183597 0.225254 0.526009
0.473762 0.218936 0.460136
0.848798 0.258671 0.409903
0.999191 0.238468 0.353796
1 0.219577 0.33344
1 0.22182 0.343404
1 0.223575 0.351202
0.147356 0.263127 0.56376
0.147799 0.261616 0.561837
0.172412 0.262791 0.565805
0.485023 0.244327 0.493629
0.882292 0.271122 0.43154
0.999985 0.240742 0.37258
1 0.223789 0.350881
1 0.225666 0.359136
1 0.22707 0.365652
0.144991 0.412985 0.617792
0.143526 0.407416 0.611643
0.146532 0.410559 0.619547
0.383337 0.404547 0.584543
0.844785 0.389883 0.512016
0.992691 0.302937 0.423651
1 0.246647 0.370413
1 0.240208 0.37615
1 0.238041 0.380484
0.0854658 0.706508 0.767315
0.0827802 0.697765 0.75761
0.0856794 0.699245 0.760235
0.128145 0.691478 0.752087
0.68336 0.669902 0.656077
0.958465 0.585428 0.536492
0.975647 0.422797 0.343023
0.977508 0.408057 0.338735
0.977996 0.408408 0.343465
0.0398566 0.863828 0.776211
0.0402533 0.861143 0.769924
0.0402838 0.860746 0.769833
0.0425116 0.86041 0.771817
0.332601 0.825483 0.683635
0.90071 0.881132 0.699779
0.974884 0.736599 0.532326
0.978714 0.691096 0.488716
0.978958 0.690867 0.493156
0 0.840223 0.650172
0 0.838956 0.640681
0 0.838895 0.640101
0 0.839857 0.643397
0.0182803 0.778943 0.560174
0.487327 0.81088 0.527428
0.91249 0.917098 0.618845
0.969833 0.904051 0.614313
0.971054 0.903883 0.619562
0 0.821042 0.615228
0 0.81915 0.601297
0 0.818769 0.598596
0 0.818799 0.598444
0 0.775311 0.545495
0.185763 0.723857 0.419242
0.692378 0.861036 0.506981
0.89395 0.928344 0.568826
0.90248 0.931502 0.577585
0 0.823285 0.63183
0 0.82153 0.619272
0 0.821225 0.617426
0 0.82121 0.617395
0 0.77084 0.556115
0.179965 0.722499 0.428412
0.66894 0.854658 0.509804
0.882368 0.927474 0.570535
0.892653 0.931151 0.578866
0.213046 0.332937 0.793713
0.214221 0.336278 0.801938
0.21886 0.34165 0.814878
0.487129 0.336507 0.770199
0.944167 0.343923 0.695384
1 0.281651 0.603082
1 0.2327 0.542519
1 0.231601 0.548089
1 0.231266 0.552254
0.215625 0.340063 0.811231
0.215915 0.340825 0.813123
0.220584 0.344244 0.821195
0.488334 0.337514 0.772808
0.944961 0.344045 0.695338
1 0.283131 0.602518
1 0.23328 0.538796
1 0.232151 0.542855
1 0.231846 0.546502
0.199405 0.372091 0.846937
0.199924 0.370962 0.84567
0.205478 0.371908 0.851041
0.497383 0.358434 0.801022
0.962661 0.349889 0.709651
1 0.277729 0.606714
1 0.231998 0.547158
1 0.231388 0.550576
1 0.231159 0.553628
0.174792 0.557015 0.904601
0.174701 0.550332 0.901915
0.175174 0.552789 0.906615
0.392111 0.553246 0.885237
0.888869 0.435645 0.751751
0.994965 0.300938 0.609796
1 0.242298 0.551995
1 0.2365 0.555947
1 0.235157 0.558907
0.239124 0.801526 0.96376
0.240101 0.794583 0.961028
0.239536 0.79649 0.962356
0.261402 0.793957 0.961776
0.669017 0.697017 0.872038
0.947005 0.526452 0.677546
0.997192 0.430274 0.570718
0.99881 0.415396 0.565805
0.998779 0.415473 0.568353
0.101808 0.929259 0.98146
0.108202 0.928527 0.981872
0.108049 0.928328 0.981414
0.112367 0.928405 0.982055
0.372519 0.885374 0.942229
0.908064 0.874693 0.867323
0.982773 0.719066 0.689326
0.988403 0.670924 0.641138
0.98854 0.671641 0.644205
0 0.890959 0.927275
0 0.891661 0.924895
0 0.891768 0.924468
0 0.893263 0.927321
0.0193332 0.848173 0.867384
0.477913 0.841291 0.758755
0.928389 0.928893 0.811856
0.988525 0.884489 0.762478
0.989303 0.882765 0.763653
0 0.859464 0.889815
0 0.858213 0.882368
0 0.858183 0.881331
0 0.858335 0.881483
0 0.830381 0.842832
0.1935 0.765988 0.663035
0.654704 0.870649 0.703685
0.929931 0.956359 0.77409
0.946944 0.961532 0.781979
0 0.860929 0.898833
0 0.859663 0.892729
0 0.859541 0.891142
0 0.859571 0.890944
0 0.827405 0.846799
0.196979 0.76669 0.668559
0.632929 0.864912 0.701625
0.918227 0.956039 0.771969
0.937804 0.962371 0.780087
0.236057 0.416205 0.970977
0.236118 0.418006 0.973632
0.236393 0.421256 0.978225
0.45626 0.419303 0.963043
0.943145 0.404746 0.882048
1 0.276585 0.727504
1 0.219699 0.660655
1 0.218372 0.664012
1 0.218036 0.666773
0.236301 0.420127 0.976806
0.236362 0.420523 0.977829
0.2365 0.422644 0.980591
0.454612 0.419455 0.964401
0.943023 0.406531 0.883375
1 0.278416 0.728008
1 0.220356 0.658137
1 0.218921 0.660212
1 0.218601 0.662577
0.219135 0.445075 0.987152
0.219669 0.44416 0.987472
0.221515 0.444251 0.988647
0.462943 0.436683 0.975357
0.954879 0.4047 0.885557
1 0.27332 0.729
1 0.218952 0.663645
1 0.218189 0.665553
1 0.217945 0.667475
0.153063 0.687434 0.992325
0.154101 0.678996 0.992554
0.153017 0.678599 0.992538
0.302785 0.660975 0.99234
0.805386 0.45893 0.902602
0.998917 0.291615 0.72961
1 0.226047 0.665003
1 0.221363 0.667887
1 0.220706 0.669779
0.113466 0.860059 0.990021
0.112673 0.85565 0.990082
0.111284 0.85655 0.990036
0.113008 0.850919 0.990112
0.373754 0.671122 0.966308
0.869627 0.474495 0.787823
0.993545 0.377111 0.669779
0.996429 0.362478 0.662974
0.996399 0.362234 0.663905
0.0981155 0.963684 0.988434
0.106889 0.9635 0.98854
0.105989 0.96318 0.98854
0.108965 0.962661 0.988602
0.26569 0.894575 0.990417
0.689311 0.786816 0.933776
0.958251 0.679042 0.79295
0.978424 0.648157 0.760388
0.97818 0.648585 0.761349
0 0.923598 0.987305
0 0.924834 0.98732
0 0.925383 0.987243
0 0.927413 0.987243
0.0280461 0.897597 0.98204
0.525612 0.887999 0.942535
0.932067 0.927703 0.928206
0.991958 0.865797 0.854719
0.992325 0.864027 0.853834
0 0.890242 0.986526
0 0.889403 0.986236
0 0.889418 0.985916
0 0.88957 0.985809
0 0.870985 0.975021
0.2495 0.826932 0.862135
0.670497 0.901076 0.858625
0.95729 0.971725 0.90164
0.979904 0.976349 0.906569
0 0.891264 0.987015
0 0.890364 0.986725
0 0.890272 0.98645
0 0.890288 0.986465
0 0.869535 0.975341
0.251987 0.826947 0.862684
0.653361 0.897414 0.855451
0.945129 0.975082 0.901534
0.972686 0.982834 0.908675
0.241672 0.467063 0.997147
0.241825 0.468009 0.997147
0.242145 0.469871 0.997131
0.420813 0.47396 0.999176
0.915175 0.447974 0.968582
1 0.276753 0.810269
1 0.211139 0.734157
1 0.210163 0.734844
1 0.210025 0.735988
0.242084 0.469322 0.997147
0.24213 0.469596 0.997147
0.242344 0.470832 0.997131
0.41648 0.473625 0.999207
0.912932 0.450996 0.970397
1 0.279469 0.812757
1 0.211658 0.733303
1 0.210346 0.73315
1 0.210254 0.733928
0.226841 0.491463 0.996658
0.227375 0.490822 0.996674
0.229068 0.489677 0.996704
0.426825 0.488701 0.999161
0.925673 0.444175 0.967849
1 0.273442 0.80914
1 0.210666 0.735393
1 0.210056 0.735683
1 0.209995 0.736202
0.124773 0.758831 0.991623
0.127443 0.75111 0.99176
0.12694 0.748989 0.991775
0.228351 0.718364 0.993561
0.729747 0.483909 0.972152
0.994476 0.290959 0.808331
1 0.215091 0.730571
1 0.211795 0.733043
1 0.211765 0.733654
0.0133669 0.885679 0.988357
0.0128634 0.882979 0.988403
0.0130159 0.883101 0.988403
0.0127718 0.87631 0.988479
0.213764 0.681193 0.991043
0.725063 0.470069 0.878325
0.981674 0.343709 0.720562
0.996323 0.327794 0.709743
0.996292 0.327825 0.709926
0.0487831 0.97116 0.987671
0.0533761 0.970413 0.987747
0.0528115 0.970077 0.987732
0.0536202 0.968902 0.987762
0.122393 0.897002 0.98967
0.445762 0.758099 0.979278
0.857114 0.630152 0.842451
0.945724 0.593118 0.796155
0.945708 0.593774 0.796414
0 0.944335 0.987289
0 0.946075 0.987259
0 0.946609 0.987243
0 0.948608 0.987228
0.0369116 0.926741 0.988113
0.490089 0.902968 0.99379
0.784115 0.876112 0.969573
0.951202 0.823178 0.901793
0.955444 0.82237 0.89987
0 0.909056 0.987762
0 0.908812 0.987747
0 0.908858 0.987747
0 0.90901 0.987747
0 0.895872 0.987793
0.284825 0.867277 0.975586
0.710216 0.935119 0.975311
0.961181 0.973449 0.977783
0.987472 0.975464 0.976608
0 0.909285 0.987762
0 0.908995 0.987747
0 0.908904 0.987762
0 0.908888 0.987747
0 0.895369 0.987793
0.283772 0.865858 0.974762
0.69662 0.932326 0.971588
0.958816 0.986603 0.983566
0.989349 0.99266 0.986175
0.242908 0.477409 0.997055
0.242924 0.477867 0.997055
0.242969 0.478294 0.99704
0.414267 0.482368 0.999115
0.911742 0.452873 0.975769
1 0.276509 0.819486
1 0.210285 0.740963
1 0.209506 0.740246
1 0.209506 0.740322
0.242954 0.478798 0.99704
0.242969 0.478996 0.99704
0.242985 0.479194 0.99704
0.403326 0.481971 0.999008
0.906508 0.457588 0.978531
1 0.280064 0.824689
1 0.21062 0.742214
1 0.209445 0.740841
1 0.209445 0.740887
0.227359 0.497902 0.996582
0.22797 0.497368 0.996597
0.229648 0.495613 0.996643
0.412909 0.494209 0.998962
0.92076 0.449287 0.974594
1 0.274113 0.818082
1 0.209934 0.741619
1 0.209415 0.741009
1 0.209415 0.741009
0.118517 0.766705 0.991424
0.121279 0.760052 0.991562
0.121263 0.75729 0.991592
0.213977 0.725978 0.993271
0.720012 0.487678 0.976898
0.993149 0.292332 0.815717
1 0.214466 0.734981
1 0.211154 0.737224
1 0.211231 0.73753
0.0043946 0.8869 0.98822
0.00292973 0.88452 0.988235
0.00337224 0.884596 0.988251
0.00390631 0.877806 0.988342
0.198749 0.684825 0.99176
0.705501 0.472633 0.887892
0.976989 0.343481 0.725841
0.996033 0.326543 0.713451
0.996033 0.326528 0.713481
0.0403296 0.971801 0.987564
0.0432288 0.971176 0.987594
0.0428321 0.970703 0.987594
0.0440375 0.969436 0.987625
0.105943 0.897826 0.989441
0.421881 0.758236 0.982803
0.837003 0.628794 0.850263
0.940398 0.589197 0.799817
0.94052 0.589776 0.799939
0 0.946548 0.987259
0 0.94873 0.987213
0 0.949279 0.987213
0 0.951263 0.987182
0.0389258 0.929808 0.988113
0.480598 0.903456 0.994339
0.754879 0.870085 0.973663
0.938415 0.815549 0.905211
0.94461 0.813947 0.902586
0 0.911208 0.987732
0 0.911376 0.987732
0 0.911482 0.987732
0 0.911574 0.987716
0 0.898772 0.987915
0.294606 0.872801 0.987289
0.717525 0.939635 0.987686
0.958144 0.971923 0.986755
0.985656 0.973816 0.984695
0 0.91107 0.987732
0 0.91107 0.987732
0 0.91107 0.987716
0 0.911055 0.987732
0 0.898009 0.98793
0.290959 0.870344 0.98555
0.703899 0.936675 0.984207
0.961349 0.988205 0.993866
0.990723 0.993591 0.994904
