LUT预设1/LUT全系打包/胶片lut系列/胶片各机型log灰片/富士3513.cube
TITLE "Generated by Resolve"
LUT_3D_SIZE 9
0.0289616 0.0230716 0.0286107
0.0275273 0.0266117 0.0301366
0.0928664 0.0372473 0.0297398
0.301595 0 0
0.509606 0 0
0.617365 0 0
0.646708 0 0
0.646708 0 0
0.646708 0 0
0.029984 0.0437171 0.0353246
0.0305791 0.0399634 0.0361639
0.0809186 0.0461585 0.0360876
0.279088 0.0467994 1.5259e-05
0.502266 0 0
0.622553 0 0
0.658335 0 0
0.653117 0 0
0.651514 0 0
0.000396735 0.100938 0.0428473
0.00205997 0.0927901 0.0433051
0.0670481 0.0953231 0.0422217
0.277333 0.119768 0.00030518
0.525246 0.106096 0
0.665217 0.0475319 0
0.708888 0.0318151 0
0.704021 0.010193 0
0.701274 0.00706493 0
0 0.204654 0.0270237
0 0.19736 0.0311894
0.00201419 0.192523 0.0245365
0.26569 0.240269 0
0.561334 0.268986 0
0.739818 0.257008 0
0.795789 0.258228 0
0.795071 0.245747 0
0.790677 0.236164 0
0 0.340856 0
0 0.337179 0
0 0.329595 0
0.191043 0.396124 0
0.575357 0.464225 0
0.802396 0.468986 0
0.880537 0.469795 0
0.885847 0.460334 0
0.880598 0.448463 0
0 0.427161 0
0 0.42591 0
0 0.427893 0
0.0156252 0.509941 0
0.549081 0.622797 0
0.848859 0.669367 0
0.96437 0.681285 0
0.985504 0.682826 0
0.981414 0.673884 0
0 0.460212 0
0 0.459068 0
0 0.467048 0
0 0.544213 0
0.493187 0.680766 0
0.842313 0.767376 0
0.995758 0.794476 0
0.997497 0.790631 0
0.997513 0.787884 0
0 0.487907 0
0 0.487907 0
0 0.496788 0
0.00207523 0.581033 0
0.473075 0.704204 0
0.822828 0.80029 0
0.996811 0.836408 0
0.997406 0.832029 0
0.997421 0.830701 0
0 0.487907 0
0 0.487907 0
0 0.491814 0
0 0.567407 0
0.420981 0.68896 0
0.783627 0.792065 0
0.994583 0.839185 0
0.997406 0.835065 0
0.997406 0.835492 0
0.0286564 0.0241855 0.0426337
0.0239719 0.023682 0.0402991
0.0985885 0.0378424 0.0366369
0.318242 0 0
0.532219 0 0
0.636255 0 0
0.663813 0 0
0.65893 0 0
0.658366 0 0
0.0275578 0.0441901 0.0377508
0.032105 0.0403296 0.0368811
0.0860609 0.0482643 0.0357366
0.292241 0.0434577 1.5259e-05
0.518868 0 0
0.635279 0 0
0.66746 0 0
0.65745 0 0
0.654582 0 0
0.000396735 0.102327 0.0423133
0.00227359 0.0942092 0.0412604
0.0677043 0.0960403 0.0399939
0.284245 0.120485 0.00015259
0.533013 0.104814 0
0.669535 0.0423743 0
0.70898 0.0292058 0
0.703685 0.00926223 0
0.700862 0.00650034 0
0 0.206882 0.019028
0 0.199557 0.027039
0.00222782 0.193072 0.0232395
0.26424 0.239475 0
0.558938 0.26659 0
0.737697 0.254322 0
0.794171 0.255177 0
0.79379 0.243153 0
0.789242 0.233402 0
0 0.339986 0
0 0.335683 0
0 0.327459 0
0.182452 0.392752 0
0.570718 0.460945 0
0.799817 0.466102 0
0.878843 0.466682 0
0.884657 0.457542 0
0.879332 0.445441 0
0 0.42649 0
0 0.425376 0
0 0.426581 0
0.016556 0.506935 0
0.544152 0.620233 0
0.845975 0.667262 0
0.962753 0.678813 0
0.984543 0.680705 0
0.980209 0.671092 0
0 0.459693 0
0 0.458656 0
0 0.466361 0
0 0.542275 0
0.488304 0.678782 0
0.838865 0.766018 0
0.995056 0.793667 0
0.997513 0.78996 0
0.997528 0.786908 0
0 0.487907 0
0 0.487907 0
0 0.496223 0
0.00381476 0.579934 0
0.468391 0.702663 0
0.819242 0.799084 0
0.996826 0.836072 0
0.997406 0.831739 0
0.997421 0.830335 0
0 0.487907 0
0 0.487907 0
0 0.491371 0
0 0.565866 0
0.414343 0.687053 0
0.778531 0.790677 0
0.993744 0.839109 0
0.997406 0.835019 0
0.997406 0.835492 0
0.00833143 4.57771e-05 0.162448
0.0204471 4.57771e-05 0.140124
0.10251 0.0165255 0.138277
0.340764 0 0.128252
0.565667 0 0.116136
0.669108 0 0.11043
0.694759 0 0.114427
0.692531 0 0.0831922
0.692332 0 0.0802777
0.00662242 0.0391394 0.134844
0.0173495 0.0378729 0.117968
0.0887007 0.0459144 0.115938
0.31043 0.00747692 0.0957961
0.55346 0 0.0683452
0.67129 0 0.0564889
0.700786 0 0.0597543
0.693263 0 0.035874
0.691524 0 0.0215
0 0.11516 0.13193
0 0.105867 0.116838
0.0563211 0.105455 0.102617
0.305791 0.120378 0.0673838
0.568383 0.061387 0.0108949
0.712505 0.0121614 0.000442512
0.748714 0.00636301 0.0049897
0.742702 7.62951e-05 0
0.738582 6.10361e-05 0
0 0.238163 0.112871
0 0.229419 0.103456
0.000564584 0.219074 0.0816815
0.284657 0.259678 0.0145418
0.605753 0.283253 0
0.784772 0.264668 0
0.830945 0.257908 0
0.826963 0.242786 0
0.821134 0.232471 0
0 0.380652 0.043122
0 0.375616 0.0346532
0 0.366094 0.0137789
0.18497 0.438209 0
0.615778 0.505821 0
0.850492 0.504616 0
0.919509 0.496178 0
0.91928 0.480735 0
0.911055 0.46566 0
0 0.455482 0.0103151
0 0.454704 0.0144808
0 0.456321 0.00164797
0.0194858 0.540551 0
0.576165 0.661463 0
0.886397 0.705959 0
0.991058 0.707927 0
0.995605 0.698024 0
0.992905 0.686336 0
0 0.475746 0.0122225
0 0.474357 0.00712596
0 0.481056 0.000503548
0 0.555734 0
0.492363 0.692851 0
0.850889 0.778378 0
0.996185 0.798611 0
0.997497 0.791226 0
0.997513 0.787289 0
0 0.491966 0.0628061
0 0.493675 0.0590219
0 0.498589 0.0381323
0.00189212 0.578119 0.00672923
0.457618 0.699809 0
0.813245 0.797421 0
0.996674 0.835859 0
0.997406 0.83122 0
0.997421 0.829816 0
0 0.488685 0.022034
0 0.488731 0.0241703
0 0.491157 0.0142367
0 0.563516 0.0010071
0.404257 0.68423 0
0.771923 0.788983 0
0.992798 0.839078 0
0.997406 0.834989 0
0.997406 0.835492 0
0 0 0.338094
0 0 0.318441
0.0991073 0 0.326253
0.357275 0 0.333867
0.584527 0 0.331975
0.688609 0 0.340734
0.714046 0 0.34696
0.712489 0 0.327688
0.712276 0 0.326116
0 0 0.323232
0 0 0.297963
0.0826581 0 0.301701
0.325704 0 0.303685
0.573007 0 0.299565
0.689906 0 0.303105
0.719188 0 0.314412
0.712978 0 0.293843
0.712154 0 0.285954
0 0.092256 0.327062
0 0.0832837 0.308553
0.0144808 0.095613 0.298466
0.309346 0.116579 0.299535
0.57908 0.0228122 0.268132
0.726696 0 0.259968
0.760739 0 0.273091
0.757336 0 0.253025
0.754543 0 0.2421
0 0.255604 0.326497
0 0.249195 0.317388
0 0.239872 0.297749
0.260395 0.289448 0.291203
0.607172 0.28333 0.246708
0.780102 0.237598 0.205585
0.820554 0.227466 0.216037
0.816907 0.206043 0.198428
0.812314 0.190723 0.183062
0 0.448463 0.341573
0 0.442969 0.333181
0 0.431403 0.306508
0.0574044 0.485985 0.267277
0.60531 0.527123 0.18677
0.846769 0.506935 0.0879835
0.908827 0.492561 0.104387
0.908171 0.474388 0.0953994
0.903456 0.458839 0.0841382
0 0.526787 0.334905
0 0.524025 0.32668
0 0.520455 0.297658
0.000274662 0.588754 0.256626
0.547021 0.686946 0.100465
0.893431 0.733577 0.00869764
0.99411 0.733959 0.000228885
0.99617 0.723247 0.00976577
0.996399 0.714672 0.00257877
0 0.542596 0.336446
0 0.540322 0.328481
0 0.543252 0.309743
0 0.604486 0.273487
0.450813 0.715862 0.128695
0.856825 0.801221 0.0141604
0.997253 0.822858 0
0.997452 0.816083 0
0.997452 0.814069 0
0 0.564477 0.37174
0 0.563668 0.368627
0 0.566964 0.359899
0 0.63772 0.342718
0.37998 0.72813 0.276066
0.780011 0.798886 0.129686
0.986648 0.836271 0.0430304
0.997406 0.832547 0.0340276
0.997406 0.831678 0.0220645
0 0.558907 0.34461
0 0.557504 0.33753
0 0.557137 0.326848
0 0.618738 0.308385
0.302998 0.709026 0.239322
0.739071 0.789624 0.0818952
0.977951 0.837858 0.0167697
0.997406 0.835096 0.00671397
0.997406 0.834913 0.0194095
0 0 0.443305
0 0 0.435554
0.0455024 0 0.453819
0.358083 0 0.487358
0.60061 0 0.507454
0.711406 0 0.521904
0.738903 0 0.531243
0.736828 0 0.519158
0.73666 0 0.518349
0 0 0.459037
0 0 0.444892
0.0276341 0 0.4551
0.329473 0 0.482063
0.584741 0 0.493477
0.709636 0 0.502464
0.739757 0 0.511604
0.73463 0 0.496452
0.733471 0 0.490898
0 0.00698863 0.494011
0 0.002533 0.483467
0.00511177 0.0270237 0.481315
0.300313 0.0474556 0.506569
0.586343 0.000167849 0.503182
0.74139 0 0.503395
0.776699 0 0.515557
0.77322 0 0.498909
0.770306 0 0.489403
0 0.242435 0.516823
0 0.234791 0.510887
0 0.219348 0.501076
0.174441 0.278813 0.517815
0.596002 0.29575 0.530816
0.780331 0.247105 0.506355
0.820417 0.233158 0.512184
0.817594 0.212299 0.497536
0.813336 0.194751 0.484703
0 0.438972 0.541787
0 0.434501 0.536324
0 0.421622 0.520394
0.000137331 0.486946 0.526253
0.571679 0.573556 0.545678
0.837324 0.548882 0.512718
0.901076 0.534279 0.514305
0.901152 0.515175 0.502495
0.896361 0.497871 0.487007
0 0.535134 0.557549
0 0.534859 0.553613
0 0.53994 0.543435
0 0.627085 0.554772
0.472251 0.747265 0.536492
0.858717 0.779797 0.493248
0.969314 0.776013 0.481407
0.979797 0.768109 0.486686
0.977768 0.756008 0.470634
0 0.554086 0.558572
0 0.554208 0.554406
0 0.562585 0.548119
0 0.640116 0.559564
0.329992 0.76965 0.537484
0.809445 0.839109 0.492805
0.981918 0.858183 0.460685
0.997314 0.856352 0.459266
0.997299 0.851194 0.441566
0 0.569207 0.565927
0 0.569192 0.564065
0 0.575113 0.560464
0 0.660639 0.578973
0.228733 0.76997 0.567559
0.742428 0.845579 0.536385
0.960754 0.877317 0.508019
0.997314 0.880934 0.503929
0.997299 0.877516 0.488472
0 0.57174 0.549691
0 0.572183 0.545144
0 0.574639 0.538781
0 0.649134 0.553201
0.148608 0.752941 0.538918
0.697139 0.832929 0.507683
0.944503 0.870634 0.478309
0.997269 0.878447 0.478981
0.997269 0.878157 0.479744
0 0 0.474479
0 0 0.472847
0.00784314 0 0.496773
0.345785 0 0.541222
0.600656 0 0.57586
0.722622 0 0.596979
0.753521 0 0.609186
0.752544 0 0.605524
0.752209 0 0.604837
0 0 0.504295
0 0 0.497887
6.10361e-05 0 0.512856
0.315435 0 0.550866
0.583749 0 0.579644
0.720974 0 0.59649
0.754376 0 0.604852
0.752453 0 0.5991
0.751492 0 0.596826
0 0 0.557061
0 0 0.55256
0 0.00415045 0.560525
0.284398 0.0237736 0.596292
0.585367 0 0.619684
0.754772 0 0.633371
0.793469 0 0.642847
0.79202 0 0.634684
0.78996 0 0.629496
0 0.229252 0.599985
0 0.220005 0.597375
0 0.203006 0.600595
0.125765 0.262287 0.620951
0.578836 0.291569 0.674922
0.779339 0.235889 0.672236
0.824903 0.218219 0.676509
0.823697 0.195361 0.669276
0.820127 0.171511 0.661875
0 0.433326 0.641703
0 0.428885 0.639796
0 0.41416 0.636942
0 0.46569 0.650858
0.509422 0.563485 0.708995
0.83061 0.572885 0.736416
0.902205 0.554543 0.737118
0.904005 0.536828 0.730373
0.899626 0.520256 0.720729
0 0.52401 0.662821
0 0.523598 0.662089
0 0.525292 0.661723
0 0.600366 0.686458
0.339193 0.734813 0.715587
0.837873 0.824979 0.76527
0.964446 0.82359 0.764202
0.976181 0.814267 0.762387
0.974014 0.803235 0.752911
0 0.540475 0.6654
0 0.539834 0.664347
0 0.546288 0.664866
0 0.613153 0.68893
0.156573 0.758892 0.714275
0.773938 0.883009 0.760998
0.970596 0.910979 0.757366
0.99765 0.913069 0.759564
0.99765 0.909422 0.751766
0 0.555657 0.671809
0 0.555566 0.670695
0 0.559121 0.669795
0 0.636652 0.696727
0.083299 0.752667 0.71487
0.704631 0.881254 0.766262
0.948531 0.923186 0.765988
0.998383 0.930541 0.766094
0.998825 0.928664 0.758541
0 0.555703 0.663981
0 0.555962 0.662562
0 0.557565 0.659937
0 0.625834 0.683375
0.0215457 0.740093 0.701396
0.654414 0.868925 0.746761
0.929519 0.917342 0.74638
0.997116 0.928923 0.750301
0.998749 0.92845 0.747784
0 0 0.480873
0 0 0.481163
0.00834669 0 0.50454
0.332982 0 0.551904
0.596277 0 0.591852
0.725887 0 0.61503
0.759319 0 0.628244
0.759625 0 0.628473
0.75964 0 0.628534
0 0 0.515023
0 0 0.510826
0 0 0.525628
0.299626 0 0.565896
0.575296 0 0.60032
0.72372 0 0.621927
0.759793 0 0.629297
0.759976 0 0.627832
0.75906 0 0.626657
0 0 0.570581
0 0 0.567849
0 0.00239567 0.579049
0.268025 0.0228122 0.618738
0.572931 0 0.649973
0.757031 0 0.670161
0.798932 0 0.67747
0.798871 0 0.673213
0.796872 0 0.669932
0 0.231098 0.614862
0 0.222721 0.613687
0 0.199176 0.620188
0.0882582 0.256138 0.640681
0.560235 0.294087 0.709026
0.77438 0.235691 0.717632
0.825452 0.214206 0.720897
0.826001 0.18851 0.717418
0.822644 0.162036 0.713161
0 0.429175 0.659342
0 0.425025 0.657832
0 0.408484 0.661326
0 0.456321 0.680018
0.466712 0.545785 0.736889
0.818341 0.574182 0.795224
0.90042 0.55314 0.797574
0.904952 0.539437 0.795422
0.900786 0.522896 0.790234
0 0.521706 0.682277
0 0.520821 0.681682
0 0.522774 0.687648
0 0.588815 0.715267
0.249744 0.699641 0.732937
0.820356 0.832685 0.841886
0.961273 0.833524 0.851316
0.975311 0.825269 0.85153
0.973266 0.815229 0.848173
0 0.539818 0.69044
0 0.539559 0.69012
0 0.543435 0.693248
0 0.602762 0.719112
0.0886397 0.736675 0.747173
0.747463 0.892683 0.844038
0.965057 0.928969 0.86157
0.996277 0.931502 0.864103
0.996399 0.929107 0.862119
0 0.551019 0.696315
0 0.550774 0.696132
0 0.553567 0.697276
0 0.625452 0.726833
0.0182193 0.734737 0.748837
0.668345 0.882979 0.834363
0.938781 0.93933 0.862028
0.997223 0.948837 0.866331
0.999512 0.948638 0.865278
0 0.551064 0.695399
0 0.551064 0.695186
0 0.551553 0.694957
0 0.614282 0.721675
0 0.722667 0.745937
0.608316 0.866285 0.820874
0.917601 0.935836 0.856916
0.994873 0.949416 0.86334
0.999557 0.950164 0.863218
0 0 0.480873
0 0 0.480858
0.00772107 0 0.503014
0.32105 0 0.550195
0.587869 0 0.590692
0.723598 0 0.614893
0.759365 0 0.628397
0.759655 0 0.62855
0.759655 0 0.62855
0 0 0.5122
0 0 0.50811
0 0 0.52163
0.286015 0 0.561395
0.563272 0 0.596368
0.71841 0 0.619425
0.759411 0 0.629877
0.760388 0 0.629404
0.759655 0 0.62855
0 0 0.568643
0 0 0.566018
0 0.000244144 0.57615
0.255116 0.0182956 0.614298
0.561364 7.62951e-05 0.647395
0.752438 0 0.669902
0.798505 0 0.679225
0.799908 0 0.677272
0.798352 0 0.674876
0 0.222431 0.613733
0 0.215335 0.61239
0 0.189014 0.618311
0.067277 0.246525 0.638575
0.546242 0.287968 0.708934
0.768002 0.22974 0.719921
0.824247 0.21059 0.724727
0.82652 0.19144 0.723156
0.823377 0.170611 0.719875
0 0.423026 0.659968
0 0.419013 0.65861
0 0.400732 0.660548
0 0.446647 0.680705
0.4421 0.532311 0.733303
0.80766 0.568307 0.799954
0.897261 0.547631 0.804227
0.903609 0.534447 0.803372
0.899504 0.517952 0.799435
0 0.520867 0.685115
0 0.520531 0.6851
0 0.520134 0.689509
0 0.581582 0.716869
0.208301 0.688045 0.731884
0.803632 0.826734 0.848081
0.957763 0.831418 0.863279
0.974945 0.824979 0.864607
0.972824 0.814801 0.862882
0 0.539208 0.6925
0 0.539025 0.692409
0 0.541863 0.695232
0 0.596857 0.721279
0.0574197 0.729595 0.750683
0.730495 0.889525 0.851942
0.959976 0.930526 0.87657
0.995392 0.933303 0.880156
0.995682 0.931289 0.879774
0 0.550744 0.699062
0 0.550362 0.698756
0 0.552682 0.700008
0 0.61976 0.729046
0.00265507 0.728923 0.753277
0.640467 0.87538 0.837919
0.930938 0.940658 0.876173
0.996353 0.951751 0.88249
0.999329 0.951812 0.882551
0 0.550759 0.699001
0 0.550759 0.699016
0 0.550759 0.698955
0 0.609766 0.725704
0 0.716228 0.751827
0.572076 0.854429 0.822492
0.907225 0.937469 0.873701
0.993301 0.952834 0.88191
0.999664 0.953979 0.882643
0 0 0.480873
0 0 0.480766
0.00839246 0 0.502739
0.318593 0 0.549828
0.586282 0 0.590463
0.72314 0 0.614862
0.759396 0 0.628428
0.759655 0 0.62855
0.759655 0 0.62855
0 0 0.511162
0 0 0.50692
0 0 0.519982
0.279942 0 0.559472
0.557885 0 0.594797
0.715694 0 0.618204
0.758984 0 0.629572
0.760037 0 0.629007
0.759655 0 0.62855
0 0 0.567895
0 0 0.565103
0 0 0.574578
0.248981 0.0161135 0.612161
0.555657 7.62951e-05 0.645655
0.749599 0 0.668498
0.79762 0 0.67808
0.799313 0 0.676356
0.797726 0 0.673884
0 0.217792 0.61294
0 0.2103 0.611414
0 0.183291 0.616739
0.057908 0.240894 0.636683
0.539406 0.282551 0.706889
0.764111 0.22327 0.718288
0.822446 0.200565 0.723156
0.82533 0.183551 0.72192
0.822126 0.162554 0.718547
0 0.41944 0.659083
0 0.414816 0.657603
0 0.396201 0.65922
0 0.440085 0.67924
0.433814 0.525185 0.730648
0.802335 0.561578 0.797986
0.894804 0.540963 0.802518
0.902083 0.528283 0.801892
0.897887 0.511513 0.797894
0 0.520027 0.684749
0 0.519509 0.684672
0 0.518532 0.688884
0 0.577813 0.715724
0.193851 0.68307 0.729702
0.797574 0.821988 0.846479
0.955688 0.827466 0.862531
0.974227 0.82153 0.864042
0.971923 0.810452 0.862226
0 0.539101 0.692454
0 0.538903 0.692332
0 0.541405 0.694942
0 0.594965 0.720699
0.0435645 0.727733 0.750332
0.725704 0.887816 0.851133
0.958144 0.929534 0.876493
0.995071 0.932616 0.8804
0.995499 0.930404 0.880171
0 0.550744 0.699062
0 0.550286 0.698726
0 0.552392 0.699886
0 0.617853 0.72842
0 0.727245 0.753246
0.634043 0.873304 0.836744
0.929458 0.940383 0.876616
0.995972 0.951751 0.883452
0.999313 0.951888 0.883864
0 0.550744 0.699062
0 0.550744 0.699062
0 0.550744 0.699062
0 0.608347 0.725414
0 0.714137 0.751781
0.5608 0.850614 0.820233
0.902647 0.936904 0.874556
0.992645 0.953246 0.88365
0.99968 0.954284 0.88455
