LUT预设1/LUT全系打包/胶片lut系列/胶片各机型log灰片/富士CN仿色 .cube
TITLE "Generated by Resolve"
LUT_3D_SIZE 33
0 0 0
0 0 0
0 0 0
0 0 0
0 0 0
0.000137331 3.0518e-05 3.0518e-05
0.00274662 0.000564584 0.000457771
0.0166629 0.00318914 0.0021973
0.0492714 0.00863661 0.00444038
0.0946059 0.0154269 0.00486763
0.14432 0.0225223 0.00456245
0.19649 0.0304723 0.00537118
0.252842 0.0400854 0.00712596
0.314961 0.0509041 0.00929274
0.383093 0.0618601 0.0115206
0.457206 0.0722667 0.0125582
0.53576 0.0814069 0.0119478
0.613962 0.0888991 0.0105592
0.688167 0.0947127 0.00810254
0.756771 0.099443 0.00424201
0.819181 0.103655 0.000640879
0.873442 0.107042 0
0.913283 0.109041 0
0.933623 0.109758 0
0.939574 0.10988 0
0.940429 0.109895 0
0.940475 0.109895 0
0.940475 0.109895 0
0.940475 0.109895 0
0.940475 0.109895 0
0.940475 0.109895 0
0.940475 0.109895 0
0.940475 0.109895 0
0 0 0
0 0 0
0 0 0
0 0 0
0 0 0
0.00015259 3.0518e-05 3.0518e-05
0.0028687 0.000579843 0.00047303
0.0168154 0.00318914 0.00215152
0.0482032 0.00843824 0.00425727
0.0917372 0.0150301 0.00486763
0.140856 0.0219883 0.00444038
0.192309 0.0297246 0.00518807
0.24799 0.0392004 0.00697337
0.309438 0.0499733 0.0090486
0.376837 0.060914 0.0113375
0.44979 0.0712902 0.0125429
0.527642 0.0805676 0.0120851
0.605768 0.0881666 0.0106966
0.680095 0.0941329 0.00839246
0.748882 0.098909 0.00474556
0.811643 0.103136 0.00128176
0.866606 0.106615 0
0.908324 0.108797 0
0.931304 0.109682 0
0.939071 0.10988 0
0.940383 0.109895 0
0.940475 0.109895 0
0.940475 0.109895 0
0.940475 0.109895 0
0.940475 0.109895 0
0.940475 0.109895 0
0.940475 0.109895 0
0.940475 0.109895 0
0 0 0
0 0 0
0 0 0
0 0 0
0 0 0
0.000228885 4.57771e-05 3.0518e-05
0.00352483 0.000717174 0.000549325
0.018555 0.00347906 0.00228885
0.0506294 0.00880446 0.0043183
0.0943923 0.0153964 0.00482185
0.143328 0.0223239 0.00442512
0.194553 0.030045 0.00526436
0.250248 0.0395972 0.00703441
0.311727 0.0503853 0.0091249
0.379263 0.0613107 0.0114443
0.45214 0.0716564 0.0126192
0.529809 0.080827 0.0120851
0.60766 0.0883345 0.0106355
0.681544 0.0942397 0.00834669
0.75021 0.0990005 0.00466926
0.812634 0.103197 0.00128176
0.867323 0.106661 0
0.908675 0.108827 0
0.931395 0.109697 0
0.939055 0.10988 0
0.940383 0.109895 0
0.940475 0.109895 0
0.940475 0.109895 0
0.940475 0.109895 0
0.940475 0.109895 0
0.940475 0.109895 0
0.940475 0.109895 0
0.940475 0.109895 0
0 0 0
0 0 0
0 0 0
0 0 0
0 0 0
0.000289921 6.10361e-05 4.57771e-05
0.0041352 0.000839246 0.000640879
0.0203708 0.0037995 0.0024567
0.0535897 0.00927749 0.00440986
0.0979934 0.0158999 0.00477607
0.14699 0.022858 0.00447089
0.198383 0.0306859 0.00538643
0.254017 0.0402686 0.00715648
0.315572 0.0510872 0.00927749
0.383291 0.0619669 0.0116121
0.456504 0.0722515 0.0126497
0.534218 0.0813001 0.0120394
0.611963 0.088716 0.010544
0.685573 0.0945449 0.00819409
0.753475 0.0992142 0.00448615
0.815549 0.103395 0.00112917
0.869535 0.106798 0
0.90988 0.108888 0
0.932006 0.109712 0
0.939254 0.10988 0
0.940398 0.109895 0
0.940475 0.109895 0
0.940475 0.109895 0
0.940475 0.109895 0
0.940475 0.109895 0
0.940475 0.109895 0
0.940475 0.109895 0
0.940475 0.109895 0
0 0 0
0 0 0
0 0 0
0 0 0
0 0 0
0.000335698 7.62951e-05 6.10361e-05
0.00468452 0.0009308 0.000717174
0.0223392 0.0041352 0.00260929
0.0570687 0.00979629 0.00447089
0.101961 0.0164645 0.00474556
0.151019 0.0234531 0.00451667
0.20264 0.0314031 0.00553903
0.258244 0.0410315 0.00727855
0.320699 0.0519875 0.00946059
0.388678 0.0627909 0.0117647
0.462028 0.0729839 0.0126802
0.539895 0.0819104 0.0119326
0.617212 0.0892042 0.0104372
0.690211 0.0948959 0.0080415
0.758022 0.0995193 0.00422675
0.819303 0.103639 0.000915541
0.872465 0.106966 0
0.911971 0.10898 0
0.933028 0.109743 0
0.939529 0.10988 0
0.940429 0.109895 0
0.940475 0.109895 0
0.940475 0.109895 0
0.940475 0.109895 0
0.940475 0.109895 0
0.940475 0.109895 0
0.940475 0.109895 0
0.940475 0.109895 0
7.62951e-05 0.000335698 0.000213626
7.62951e-05 0.000289921 0.000183108
7.62951e-05 0.000274662 0.000167849
6.10361e-05 0.000274662 0.000167849
7.62951e-05 0.000289921 0.000167849
0.000503548 0.000411994 0.000259403
0.00567636 0.00143435 0.00102235
0.024918 0.00488289 0.00297551
0.0604715 0.010605 0.004654
0.105852 0.0172274 0.00477607
0.155093 0.0241855 0.00460822
0.20705 0.0322118 0.00570687
0.263401 0.0419776 0.00746166
0.325917 0.0528725 0.00968948
0.394263 0.0636301 0.0119326
0.468147 0.0737926 0.0127108
0.546349 0.0826123 0.011841
0.623484 0.0897688 0.0103151
0.69575 0.0953078 0.00781262
0.762798 0.0998398 0.00390631
0.823606 0.103929 0.000656138
0.876127 0.107179 0
0.91458 0.109102 0
0.934127 0.109773 0
0.939757 0.109895 0
0.940444 0.109895 0
0.940475 0.109895 0
0.940475 0.109895 0
0.940475 0.109895 0
0.940475 0.109895 0
0.940475 0.109895 0
0.940475 0.109895 0
0.940475 0.109895 0
0.00106813 0.00433356 0.00254826
0.000991836 0.0040589 0.00238041
0.000991836 0.00407416 0.00238041
0.0010071 0.00411994 0.00241093
0.00102235 0.00421149 0.0024567
0.00158694 0.00448615 0.00263981
0.00721752 0.00564584 0.0034638
0.0269474 0.00900282 0.00514229
0.0629282 0.0142367 0.00619516
0.108461 0.0201724 0.00579843
0.158343 0.0265049 0.00540169
0.210697 0.0339818 0.00633249
0.26775 0.0433967 0.00787366
0.330816 0.0539864 0.0100252
0.399573 0.0645609 0.0121462
0.473762 0.0745708 0.0127413
0.552316 0.0832227 0.0117342
0.628931 0.0902113 0.010193
0.700877 0.0956588 0.00755322
0.767498 0.10016 0.00360113
0.827878 0.104219 0.000366217
0.879576 0.107408 0
0.916747 0.109209 0
0.934874 0.109804 0
0.939834 0.109895 0
0.940444 0.109895 0
0.940475 0.109895 0
0.940475 0.109895 0
0.940475 0.109895 0
0.940475 0.109895 0
0.940475 0.109895 0
0.940475 0.109895 0
0.940475 0.109895 0
0.00424201 0.0204929 0.0115663
0.00404364 0.0195163 0.011017
0.00402838 0.0195315 0.011017
0.0040589 0.0196841 0.0111086
0.00410468 0.0200198 0.0112917
0.00463874 0.0203861 0.0115053
0.00967422 0.0213931 0.0121157
0.0275578 0.0235904 0.0127718
0.062089 0.0271305 0.0124971
0.108156 0.0313268 0.0111696
0.158923 0.0357519 0.0099794
0.212345 0.0411994 0.00979629
0.270512 0.048661 0.0101778
0.334615 0.0574502 0.0113375
0.403723 0.0666056 0.0127718
0.478859 0.0757458 0.0129091
0.557397 0.0838788 0.0117037
0.634058 0.0906844 0.0100862
0.705745 0.0959945 0.00732433
0.771832 0.10045 0.00332647
0.831662 0.104479 9.15541e-05
0.88249 0.107591 0
0.918227 0.109285 0
0.935363 0.109819 0
0.939895 0.109895 0
0.940444 0.109895 0
0.940475 0.109895 0
0.940475 0.109895 0
0.940475 0.109895 0
0.940475 0.109895 0
0.940475 0.109895 0
0.940475 0.109895 0
0.940475 0.109895 0
0.00798047 0.0518349 0.0284276
0.0077821 0.0500801 0.0274968
0.00776684 0.0499275 0.0274052
0.0077821 0.0500954 0.027512
0.00779736 0.0505226 0.0277409
0.00813306 0.0510719 0.0280308
0.0115206 0.051606 0.0282292
0.0256657 0.0523995 0.0280003
0.057435 0.0542611 0.0273289
0.104265 0.0569314 0.0261082
0.157549 0.0593576 0.0240024
0.213382 0.061799 0.0213779
0.273579 0.0653239 0.0185397
0.339162 0.0698253 0.0167239
0.408896 0.0746777 0.0157778
0.483986 0.0801099 0.0142367
0.562463 0.0859388 0.0120851
0.638437 0.0916304 0.010193
0.709697 0.096437 0.00723278
0.775341 0.10074 0.00314336
0.834455 0.104662 0
0.884672 0.107713 0
0.919493 0.109331 0
0.935805 0.109819 0
0.940002 0.109895 0
0.940459 0.109911 0
0.940475 0.109895 0
0.940475 0.109895 0
0.940475 0.109895 0
0.940475 0.109895 0
0.940475 0.109895 0
0.940475 0.109895 0
0.940475 0.109895 0
0.00973526 0.093843 0.0513161
0.0096437 0.0916915 0.0501259
0.00962844 0.0915084 0.0500343
0.00961318 0.0915999 0.0500801
0.00962844 0.092134 0.05037
0.00975052 0.0927749 0.0507057
0.0115663 0.0931106 0.0507515
0.0214542 0.0929122 0.0502327
0.0491798 0.0938888 0.0504158
0.0964523 0.0963149 0.0511177
0.154025 0.0986954 0.0501869
0.21471 0.0994888 0.0458534
0.279255 0.0995804 0.0387732
0.34696 0.0988632 0.0317388
0.417762 0.0971847 0.0255436
0.492302 0.0955825 0.0193179
0.569375 0.0953841 0.0144503
0.643748 0.0969711 0.0116121
0.713771 0.0991531 0.0080415
0.7785 0.101991 0.00344854
0.837049 0.105226 0
0.886625 0.107942 0
0.920592 0.109422 0
0.936095 0.10985 0
0.940017 0.109911 0
0.940459 0.109911 0
0.940475 0.109895 0
0.940475 0.109895 0
0.940475 0.109895 0
0.940475 0.109895 0
0.940475 0.109895 0
0.940475 0.109895 0
0.940475 0.109895 0
0.0102235 0.142901 0.0779889
0.0102235 0.140368 0.0766003
0.0102388 0.139834 0.0762951
0.0102541 0.140108 0.0764324
0.0102541 0.14052 0.0766461
0.0103151 0.141161 0.0769818
0.0110781 0.141314 0.0769818
0.0168307 0.140856 0.0765393
0.0384527 0.141329 0.0770123
0.0839704 0.144427 0.0800031
0.145861 0.148836 0.0831006
0.214557 0.151751 0.0817731
0.285512 0.151431 0.0739757
0.357702 0.147646 0.0621653
0.430564 0.140169 0.0478828
0.505348 0.130678 0.033051
0.581109 0.122484 0.0225223
0.65359 0.116655 0.0170291
0.721065 0.112398 0.0121614
0.783459 0.11014 0.00640879
0.840299 0.109773 0.00161746
0.888548 0.110399 0
0.921386 0.110842 0
0.936355 0.110658 0
0.940154 0.110307 0
0.940536 0.110094 0
0.94052 0.110033 0
0.94052 0.110018 0
0.940505 0.109987 0
0.940505 0.109957 0
0.94049 0.109926 0
0.94049 0.109926 0
0.94049 0.109926 0
0.0125124 0.197223 0.107134
0.0123751 0.193851 0.105348
0.0123903 0.193423 0.105119
0.0124056 0.193484 0.105165
0.0124514 0.194034 0.10547
0.0125124 0.194614 0.105791
0.0127718 0.194903 0.105928
0.0156405 0.194705 0.105714
0.0299229 0.195117 0.10602
0.0675212 0.198062 0.108873
0.129839 0.20415 0.114672
0.205768 0.210529 0.11902
0.285435 0.213428 0.116762
0.363653 0.210269 0.10576
0.441382 0.200641 0.0861677
0.519387 0.18645 0.0622873
0.596277 0.171847 0.0420233
0.669215 0.159319 0.0291905
0.735668 0.148409 0.0215305
0.795727 0.139315 0.0156405
0.849744 0.132509 0.0104677
0.895293 0.127581 0.00613413
0.925963 0.123278 0.00265507
0.939544 0.119188 9.15541e-05
0.942351 0.116106 0
0.942184 0.114504 0
0.941909 0.113695 0
0.941649 0.113008 0
0.94136 0.112261 0
0.941085 0.111513 0
0.940871 0.110964 0
0.940856 0.110933 0
0.940871 0.110948 0
0.0159609 0.258076 0.139727
0.0159609 0.254032 0.137774
0.0158541 0.253376 0.137362
0.0157931 0.25333 0.137285
0.0157626 0.253895 0.137545
0.0157626 0.254612 0.137896
0.0158236 0.255009 0.138079
0.016907 0.255024 0.138003
0.0239567 0.255024 0.137865
0.0484779 0.257023 0.139071
0.101778 0.262562 0.143389
0.181292 0.27068 0.150286
0.269902 0.277745 0.155215
0.358083 0.279423 0.152224
0.445014 0.273243 0.136858
0.530053 0.259907 0.110475
0.611276 0.242634 0.0808423
0.686687 0.225208 0.0563668
0.754772 0.209995 0.041474
0.815534 0.196704 0.0337987
0.868986 0.185473 0.0297398
0.91284 0.175006 0.0256962
0.941115 0.164187 0.0202029
0.952285 0.153872 0.0148013
0.953201 0.145953 0.0114443
0.951858 0.140978 0.00929274
0.950668 0.137453 0.00756847
0.949371 0.13402 0.00582895
0.947936 0.130282 0.00404364
0.946624 0.126848 0.00260929
0.945708 0.124453 0.00178531
0.945663 0.124346 0.00170901
0.945724 0.124514 0.00173953
0.0160525 0.325994 0.172808
0.0161746 0.321492 0.170809
0.0162203 0.320378 0.170336
0.0161593 0.320317 0.17026
0.0161135 0.320653 0.170367
0.016083 0.321447 0.170718
0.0160525 0.321965 0.170947
0.0162966 0.321935 0.170901
0.0185245 0.321813 0.170718
0.0301213 0.322713 0.170748
0.0670481 0.326223 0.172168
0.139757 0.333883 0.177234
0.236576 0.343481 0.185046
0.338643 0.3514 0.190982
0.438697 0.352728 0.187396
0.533822 0.345342 0.169421
0.621805 0.330541 0.14023
0.701747 0.31191 0.109346
0.77322 0.293553 0.0846265
0.836606 0.277089 0.0684825
0.891814 0.263508 0.0609293
0.936446 0.25095 0.0571908
0.964157 0.238422 0.0526589
0.974029 0.226444 0.0471962
0.974227 0.216342 0.0425727
0.972503 0.208774 0.0391699
0.970489 0.20174 0.0359045
0.968261 0.194705 0.0325017
0.966033 0.187961 0.0292821
0.964126 0.18233 0.0268101
0.962966 0.178988 0.0255741
0.963012 0.179187 0.0256962
0.963165 0.17966 0.0259098
0.014313 0.401022 0.206348
0.0143587 0.395865 0.204181
0.014374 0.394675 0.203708
0.014374 0.394308 0.203601
0.014374 0.394629 0.203738
0.014374 0.395178 0.203937
0.014374 0.395972 0.204257
0.0144198 0.396185 0.204334
0.0148623 0.396323 0.204334
0.0190127 0.396414 0.204074
0.0387121 0.398611 0.204257
0.0922408 0.404318 0.206073
0.185122 0.414115 0.211353
0.301381 0.425055 0.219181
0.418662 0.433829 0.225895
0.527367 0.435111 0.222339
0.624537 0.427848 0.20531
0.710719 0.414237 0.179889
0.786847 0.397024 0.152132
0.853559 0.379507 0.128435
0.911009 0.363073 0.112062
0.955367 0.347814 0.10103
0.981399 0.332967 0.0912032
0.990402 0.31986 0.0826276
0.991226 0.309728 0.0772412
0.990341 0.30219 0.0742657
0.989151 0.295216 0.0717021
0.987961 0.288853 0.0691997
0.986847 0.283238 0.0669413
0.985931 0.278767 0.0652628
0.985489 0.277043 0.0647135
0.985656 0.277897 0.0650645
0.98584 0.278691 0.0653849
0.0125582 0.481361 0.239948
0.0127565 0.476036 0.237873
0.0128481 0.474678 0.237385
0.0128786 0.474449 0.237339
0.0129244 0.474434 0.237385
0.0128939 0.475227 0.237705
0.0128634 0.475792 0.237903
0.0128481 0.476158 0.238025
0.0128939 0.476524 0.238148
0.013962 0.476555 0.238056
0.0216678 0.477562 0.23801
0.051545 0.481376 0.238102
0.123095 0.489677 0.239231
0.240024 0.501442 0.243809
0.378195 0.51371 0.252079
0.507073 0.522805 0.257877
0.617319 0.524193 0.254215
0.709712 0.518654 0.241901
0.790951 0.507836 0.222309
0.862531 0.492973 0.198398
0.922118 0.475364 0.174685
0.965438 0.455375 0.152361
0.988846 0.435142 0.130938
0.996338 0.41828 0.113497
0.99736 0.407126 0.104311
0.997238 0.400275 0.101091
0.996994 0.395102 0.0995346
0.996765 0.390784 0.0982376
0.996536 0.387045 0.0971389
0.996353 0.384527 0.0964218
0.996231 0.383642 0.0961776
0.996292 0.384298 0.0963607
0.996399 0.385534 0.0967117
0.00933852 0.5626 0.270558
0.00958267 0.557671 0.268956
0.00965896 0.556161 0.268528
0.00965896 0.556039 0.268574
0.00965896 0.556146 0.268696
0.00961318 0.556695 0.268986
0.00958267 0.557275 0.26923
0.00955215 0.557656 0.269337
0.00955215 0.557992 0.269444
0.00973526 0.557961 0.269368
0.0118105 0.558297 0.269261
0.0241398 0.559915 0.268788
0.0690929 0.56524 0.267872
0.168994 0.576104 0.26891
0.316243 0.590402 0.274434
0.472877 0.603433 0.280873
0.603021 0.610941 0.281498
0.706294 0.611704 0.276204
0.791806 0.608118 0.267231
0.865934 0.5991 0.252598
0.926589 0.583566 0.230381
0.968887 0.561212 0.201297
0.990295 0.535149 0.168032
0.996704 0.512459 0.139239
0.99765 0.498436 0.123415
0.997757 0.491264 0.118257
0.997772 0.486992 0.116823
0.997803 0.484047 0.116167
0.997818 0.481163 0.115572
0.997818 0.479667 0.115236
0.997818 0.479454 0.115145
0.997818 0.48014 0.115251
0.997818 0.480873 0.115389
0.00579843 0.637766 0.294087
0.00596628 0.633143 0.292958
0.00598154 0.632074 0.292775
0.00598154 0.631739 0.292805
0.00596628 0.631983 0.292988
0.00593576 0.632441 0.293156
0.0059205 0.632898 0.293309
0.00590524 0.633112 0.293385
0.0059205 0.633402 0.293416
0.00596628 0.633082 0.293263
0.00639353 0.633066 0.293187
0.0105592 0.633249 0.29279
0.0338598 0.635889 0.291981
0.108186 0.644938 0.292256
0.250156 0.660029 0.295216
0.428412 0.675456 0.297917
0.589166 0.686778 0.297414
0.7093 0.692317 0.291676
0.79881 0.69453 0.288136
0.871427 0.693233 0.286183
0.929992 0.683482 0.274495
0.970031 0.661295 0.245945
0.989441 0.631296 0.205051
0.994949 0.60148 0.165545
0.995895 0.581582 0.141176
0.996155 0.572045 0.131502
0.996307 0.567681 0.128847
0.996414 0.56495 0.127947
0.996506 0.562676 0.127291
0.996567 0.561624 0.126833
0.996582 0.561715 0.126665
0.996567 0.562371 0.126711
0.996567 0.563012 0.126802
0.00350958 0.701274 0.307439
0.00360113 0.697749 0.307179
0.00361639 0.696773 0.30721
0.00361639 0.696574 0.307332
0.00358587 0.696788 0.307515
0.00357061 0.697353 0.307729
0.00354009 0.697643 0.307942
0.00350958 0.698146 0.308141
0.00350958 0.69836 0.308263
0.00350958 0.69836 0.308217
0.00357061 0.698039 0.308141
0.00457771 0.697734 0.308034
0.0149844 0.69868 0.308034
0.0664988 0.705333 0.309407
0.197299 0.720516 0.313069
0.390799 0.739193 0.315984
0.578988 0.755657 0.316396
0.716976 0.768277 0.313405
0.812116 0.775311 0.311864
0.880659 0.779385 0.316472
0.93315 0.776501 0.316167
0.968902 0.759365 0.294026
0.986068 0.726619 0.249104
0.99086 0.688029 0.200305
0.991913 0.66009 0.165835
0.992477 0.646326 0.149844
0.992782 0.64097 0.145129
0.992966 0.63827 0.143786
0.993118 0.636255 0.143053
0.993194 0.635081 0.14258
0.993179 0.635416 0.142565
0.993149 0.635798 0.142641
0.993133 0.636362 0.142763
0.00265507 0.747097 0.306096
0.00263981 0.745037 0.307088
0.00262455 0.744549 0.307561
0.00260929 0.744457 0.307942
0.00259403 0.744732 0.308217
0.00256352 0.745098 0.308461
0.00254826 0.745541 0.308675
0.00251774 0.745892 0.308949
0.00250248 0.746151 0.309148
0.00250248 0.74609 0.309056
0.00251774 0.745617 0.308858
0.00273136 0.7449 0.308797
0.00697337 0.744961 0.309087
0.0404212 0.749416 0.310811
0.1552 0.763729 0.314763
0.35201 0.78584 0.318975
0.561013 0.80914 0.32163
0.719844 0.829572 0.325307
0.82649 0.844038 0.331365
0.893812 0.853422 0.344579
0.937652 0.856474 0.35552
0.966918 0.846464 0.343938
0.981903 0.81532 0.3028
0.985946 0.771282 0.247135
0.986084 0.735546 0.199771
0.985748 0.715801 0.173449
0.985626 0.707576 0.164126
0.985779 0.704372 0.161822
0.985962 0.702556 0.161074
0.986068 0.70161 0.160708
0.986007 0.702068 0.160784
0.985962 0.70248 0.160876
0.985931 0.702739 0.160952
0.00300603 0.77409 0.288716
0.00294499 0.773098 0.290639
0.00292973 0.772946 0.291386
0.00291447 0.773037 0.29189
0.00289921 0.773266 0.292103
0.00291447 0.773388 0.292134
0.00289921 0.77348 0.29221
0.00289921 0.773571 0.292256
0.00289921 0.773648 0.292317
0.00288396 0.773602 0.292454
0.0028687 0.773312 0.292531
0.00289921 0.772915 0.292836
0.00462348 0.772793 0.29337
0.0247501 0.77525 0.294087
0.111589 0.785565 0.29369
0.294438 0.805814 0.291569
0.51725 0.832441 0.290578
0.702464 0.859953 0.298863
0.828199 0.882826 0.314519
0.904067 0.898238 0.336675
0.945861 0.906172 0.35819
0.970199 0.903502 0.365469
0.9832 0.884398 0.347616
0.986435 0.850401 0.304311
0.984085 0.814023 0.251682
0.980545 0.788174 0.21323
0.978485 0.775402 0.195544
0.977844 0.770016 0.189425
0.97763 0.767437 0.186892
0.977493 0.766125 0.18555
0.977401 0.766369 0.185489
0.97734 0.766827 0.185672
0.977264 0.76733 0.185885
0.00375372 0.786374 0.259373
0.00369268 0.786053 0.261891
0.00367742 0.785977 0.262837
0.00367742 0.786023 0.263111
0.00366217 0.786084 0.26334
0.00367742 0.786175 0.263401
0.00367742 0.786267 0.263462
0.00367742 0.786358 0.263554
0.00367742 0.786435 0.263767
0.00367742 0.786511 0.263935
0.00366217 0.786358 0.264363
0.00366217 0.786252 0.264866
0.00422675 0.786145 0.265827
0.0136721 0.787121 0.266072
0.0703746 0.792966 0.262135
0.223331 0.808576 0.252232
0.445335 0.834119 0.243763
0.649638 0.863081 0.249424
0.797024 0.890425 0.266316
0.895033 0.911269 0.29041
0.949645 0.92459 0.317189
0.97641 0.92961 0.339452
0.98854 0.924773 0.348516
0.991684 0.909117 0.336599
0.989013 0.885573 0.306966
0.984588 0.864256 0.277531
0.98172 0.851713 0.260609
0.980529 0.846036 0.253544
0.97995 0.842756 0.249836
0.979706 0.841398 0.248264
0.979751 0.84184 0.248646
0.979797 0.842451 0.24921
0.979812 0.842741 0.24947
0.00440986 0.788907 0.224033
0.00436408 0.789044 0.226719
0.00434882 0.78912 0.22768
0.00433356 0.789197 0.228122
0.00433356 0.789288 0.228321
0.00434882 0.789349 0.228367
0.00433356 0.789425 0.228412
0.00433356 0.789502 0.228504
0.00433356 0.789578 0.228733
0.0043183 0.789578 0.229068
0.0043183 0.789517 0.229511
0.0043183 0.789456 0.230304
0.00442512 0.789425 0.231495
0.00834669 0.789944 0.232151
0.0423743 0.793713 0.228321
0.160449 0.805875 0.216693
0.360723 0.827695 0.20412
0.571374 0.853605 0.202762
0.737102 0.880552 0.215671
0.856535 0.904128 0.236606
0.934127 0.92256 0.262089
0.974594 0.933639 0.287129
0.990417 0.936477 0.307042
0.994568 0.932448 0.317586
0.993866 0.923445 0.317433
0.991913 0.913863 0.312123
0.990539 0.907652 0.308217
0.989868 0.904524 0.306355
0.989517 0.902815 0.305196
0.989395 0.902266 0.304845
0.989471 0.902632 0.30515
0.989548 0.903075 0.305531
0.989593 0.903304 0.305745
0.0049897 0.786267 0.187152
0.00494392 0.786648 0.189868
0.00492866 0.786816 0.190845
0.00492866 0.786954 0.191394
0.00492866 0.787045 0.191608
0.00491341 0.787076 0.191669
0.00491341 0.787091 0.19173
0.00491341 0.787152 0.192004
0.00491341 0.787182 0.192142
0.00491341 0.787243 0.192676
0.00489815 0.787274 0.193225
0.00488289 0.787335 0.194125
0.00488289 0.787472 0.195499
0.00645457 0.787961 0.196719
0.0255741 0.790677 0.194491
0.107668 0.799451 0.183841
0.279255 0.816205 0.167971
0.487236 0.837644 0.160266
0.662425 0.861357 0.170291
0.793576 0.885435 0.188525
0.89044 0.906752 0.210346
0.951278 0.922316 0.232715
0.980819 0.930098 0.253132
0.99115 0.931411 0.269947
0.99295 0.929213 0.282292
0.992569 0.926268 0.290944
0.992309 0.924422 0.296483
0.99234 0.923735 0.299657
0.992432 0.923537 0.30132
0.992493 0.923537 0.302022
0.992508 0.923659 0.301885
0.992523 0.923766 0.301717
0.992523 0.923766 0.301717
0.00553903 0.780529 0.150469
0.00549325 0.781079 0.15317
0.00547799 0.781292 0.154223
0.00547799 0.781384 0.15462
0.00549325 0.78143 0.154788
0.00547799 0.781506 0.155001
0.00547799 0.781537 0.155077
0.00547799 0.781613 0.155383
0.00546273 0.781704 0.155718
0.00546273 0.781781 0.156191
0.00546273 0.781903 0.156954
0.00543221 0.782086 0.158007
0.00541695 0.782361 0.159609
0.0059205 0.782879 0.16144
0.0151217 0.784665 0.160861
0.0694133 0.790311 0.149981
0.210178 0.801755 0.130266
0.405249 0.818296 0.118822
0.582635 0.838376 0.127749
0.717067 0.861509 0.145312
0.823896 0.883787 0.16463
0.903609 0.902388 0.184176
0.954452 0.915129 0.202701
0.97908 0.92137 0.219547
0.987106 0.922896 0.234363
0.988418 0.922271 0.246342
0.988602 0.921569 0.254749
0.988891 0.921492 0.260029
0.98912 0.921645 0.262745
0.989212 0.921752 0.263737
0.989181 0.921691 0.263157
0.989151 0.92166 0.262898
0.989151 0.92166 0.262898
0.0059968 0.77351 0.116472
0.00596628 0.774029 0.1187
0.00596628 0.774212 0.119478
0.00595102 0.774304 0.119829
0.00596628 0.774334 0.119875
0.00596628 0.774365 0.119982
0.00596628 0.774411 0.120104
0.00595102 0.774441 0.120195
0.00595102 0.774533 0.120562
0.00593576 0.774701 0.121324
0.0059205 0.774899 0.122271
0.0059205 0.775158 0.123507
0.00590524 0.775525 0.125246
0.0059968 0.776074 0.127443
0.0102693 0.777295 0.127031
0.0446479 0.780591 0.115663
0.153552 0.787381 0.0945907
0.327718 0.799298 0.0829633
0.500053 0.815976 0.0901961
0.636362 0.836698 0.1066
0.745647 0.858564 0.124437
0.838041 0.87924 0.142657
0.909621 0.896544 0.160174
0.954955 0.908583 0.176638
0.975906 0.914534 0.191424
0.983093 0.916259 0.203861
0.985016 0.916381 0.21326
0.985473 0.916411 0.219471
0.985626 0.916533 0.222599
0.985687 0.916609 0.223651
0.985641 0.916564 0.223255
0.985626 0.916533 0.222965
0.985611 0.916503 0.222812
0.00631724 0.767544 0.0907607
0.00630198 0.767849 0.0919356
0.00630198 0.767926 0.0922255
0.00631724 0.767941 0.0922103
0.00630198 0.76791 0.0921187
0.00630198 0.767926 0.0921798
0.00630198 0.767941 0.0922103
0.00630198 0.767987 0.0924392
0.00628672 0.768139 0.0930953
0.00628672 0.768292 0.0936904
0.00627146 0.76849 0.0944839
0.0062562 0.768734 0.0955673
0.00624094 0.769039 0.0968795
0.0062562 0.769467 0.098436
0.0080415 0.770184 0.0975357
0.0281834 0.771634 0.0869917
0.108721 0.774884 0.0686809
0.258289 0.782956 0.0580758
0.423194 0.796613 0.0618753
0.560082 0.814099 0.0749523
0.669657 0.834546 0.0907912
0.766369 0.856138 0.107897
0.85069 0.876783 0.125124
0.914763 0.893721 0.141466
0.953994 0.904738 0.156161
0.973342 0.910201 0.168856
0.980591 0.912184 0.179217
0.982361 0.91281 0.186358
0.982559 0.913024 0.19028
0.982559 0.913085 0.191485
0.982483 0.913039 0.191165
0.982467 0.913024 0.190921
0.982467 0.913024 0.190921
0.00646983 0.764309 0.0775921
0.00646983 0.764385 0.0779278
0.00646983 0.764416 0.0780041
0.00646983 0.764416 0.0780041
0.00646983 0.764401 0.0779431
0.00646983 0.764385 0.0779278
0.00646983 0.764385 0.0779278
0.00646983 0.764462 0.0782025
0.00645457 0.764523 0.0784772
