LUT预设1/LUT全系打包/胶片lut系列/胶片各机型log灰片/富士CN仿色 .cube
TITLE "Generated by Resolve"
LUT_3D_SIZE 5
0 0 0
0.0492714 0.00863661 0.00444038
0.53576 0.0814069 0.0119478
0.939574 0.10988 0
0.940475 0.109895 0
0.00798047 0.0518349 0.0284276
0.057435 0.0542611 0.0273289
0.562463 0.0859388 0.0120851
0.940002 0.109895 0
0.940475 0.109895 0
0.00933852 0.5626 0.270558
0.00955215 0.557992 0.269444
0.603021 0.610941 0.281498
0.99765 0.498436 0.123415
0.997818 0.480873 0.115389
0.00553903 0.780529 0.150469
0.00546273 0.781704 0.155718
0.210178 0.801755 0.130266
0.987106 0.922896 0.234363
0.989151 0.92166 0.262898
0.0065156 0.763256 0.0735332
0.0065156 0.763256 0.0735332
0.0661173 0.76173 0.0504463
0.878187 0.880705 0.104555
0.96672 0.907332 0.138216
0.00737011 0.0102693 0.024445
0.0682689 0.0212863 0.0319677
0.570321 0.0967727 0.0249027
0.953307 0.120943 0.00320439
0.953124 0.120211 0.00299077
0.0156405 0.0659342 0.0693675
0.0656596 0.0645762 0.0617685
0.596597 0.102296 0.0264897
0.953902 0.121141 0.00344854
0.951034 0.118608 0.002121
0.0104372 0.566751 0.279561
0.0104829 0.560479 0.276265
0.598642 0.608743 0.28455
0.997589 0.495033 0.123873
0.997742 0.476921 0.115068
0.00553903 0.780667 0.151064
0.00546273 0.78172 0.156497
0.199023 0.801144 0.133379
0.986923 0.923217 0.235935
0.98938 0.921904 0.265202
0.0065156 0.763241 0.0735332
0.0065156 0.763241 0.0735485
0.0625772 0.761883 0.0519112
0.87187 0.878996 0.103395
0.96672 0.907347 0.138323
0.14522 0.208499 0.491432
0.17702 0.221164 0.517037
0.848859 0.258778 0.4103
1 0.221592 0.341268
1 0.226596 0.362966
0.147356 0.263127 0.56376
0.172412 0.262791 0.565805
0.882292 0.271122 0.43154
1 0.223789 0.350881
1 0.22707 0.365652
0.0854658 0.706508 0.767315
0.0856794 0.699245 0.760235
0.68336 0.669902 0.656077
0.975647 0.422797 0.343023
0.977996 0.408408 0.343465
0 0.840223 0.650172
0 0.838895 0.640101
0.0182803 0.778943 0.560174
0.91249 0.917098 0.618845
0.971054 0.903883 0.619562
0 0.823285 0.63183
0 0.821225 0.617426
0 0.77084 0.556115
0.66894 0.854658 0.509804
0.892653 0.931151 0.578866
0.236057 0.416205 0.970977
0.236393 0.421256 0.978225
0.943145 0.404746 0.882048
1 0.219699 0.660655
1 0.218036 0.666773
0.219135 0.445075 0.987152
0.221515 0.444251 0.988647
0.954879 0.4047 0.885557
1 0.218952 0.663645
1 0.217945 0.667475
0.113466 0.860059 0.990021
0.111284 0.85655 0.990036
0.373754 0.671122 0.966308
0.993545 0.377111 0.669779
0.996399 0.362234 0.663905
0 0.923598 0.987305
0 0.925383 0.987243
0.0280461 0.897597 0.98204
0.932067 0.927703 0.928206
0.992325 0.864027 0.853834
0 0.891264 0.987015
0 0.890272 0.98645
0 0.869535 0.975341
0.653361 0.897414 0.855451
0.972686 0.982834 0.908675
0.242908 0.477409 0.997055
0.242969 0.478294 0.99704
0.911742 0.452873 0.975769
1 0.210285 0.740963
1 0.209506 0.740322
0.227359 0.497902 0.996582
0.229648 0.495613 0.996643
0.92076 0.449287 0.974594
1 0.209934 0.741619
1 0.209415 0.741009
0.0043946 0.8869 0.98822
0.00337224 0.884596 0.988251
0.198749 0.684825 0.99176
0.976989 0.343481 0.725841
0.996033 0.326528 0.713481
0 0.946548 0.987259
0 0.949279 0.987213
0.0389258 0.929808 0.988113
0.754879 0.870085 0.973663
0.94461 0.813947 0.902586
0 0.91107 0.987732
0 0.91107 0.987716
0 0.898009 0.98793
0.703899 0.936675 0.984207
0.990723 0.993591 0.994904
