LUT预设1/LUT全系打包/胶片lut系列/胶片各机型log灰片/林5213-2.cube
TITLE "Generated by Resolve"
LUT_3D_SIZE 5
0 0.0431678 0.056611
0.113603 0.0454108 0.0394293
0.342779 0.0560922 0.0333562
0.346777 0.0554055 0.0334325
0.346777 0.0554055 0.0334325
0 0.125887 0.0895705
0.169772 0.184634 0.0955367
0.530892 0.108934 0.0312505
0.459083 0.0791638 0.0310674
0.411749 0.066804 0.0320592
0.0662852 0.404868 0.184176
0.0416419 0.37023 0.171801
0.806531 0.616297 0.272465
0.947723 0.499153 0.181918
0.906676 0.417655 0.133333
0.534173 0.673823 0.307195
0.534173 0.673823 0.307195
0.757855 0.776837 0.446387
1 0.841337 0.606119
1 0.839918 0.604578
0.534173 0.673823 0.307195
0.534173 0.673823 0.307195
0.688487 0.73962 0.36701
0.996246 0.840574 0.589578
1 0.84239 0.610254
0 0.0315251 0.0795453
0.076936 0.0360571 0.134356
0.282994 0.0462501 0.064332
0.282338 0.0464332 0.0408331
0.281102 0.0463111 0.0372778
0 0.125734 0.190723
0.0775921 0.129046 0.165637
0.470039 0.0718853 0.0415961
0.40177 0.0602274 0.031342
0.365545 0.0567025 0.0322271
0.0411536 0.399649 0.215915
0.0283055 0.360388 0.185718
0.769436 0.590799 0.257557
0.93106 0.464057 0.161028
0.880659 0.380774 0.115709
0.534173 0.673823 0.307195
0.534173 0.673823 0.307195
0.740001 0.768307 0.431083
1 0.84033 0.602853
1 0.837797 0.6
0.534173 0.673823 0.307195
0.534173 0.673823 0.307195
0.670939 0.730953 0.354543
0.990646 0.839872 0.583825
1 0.84239 0.610254
0 0.0319982 0.104036
0.00956741 0.0352331 0.166491
0.174746 0.0377966 0.204471
0.238331 0.0409247 0.19585
0.239918 0.0410773 0.190646
0 0.0574197 0.228809
0 0.0472114 0.237446
0.250782 0.0411231 0.252827
0.290272 0.0437476 0.168139
0.263416 0.0428168 0.147265
0.0263523 0.50692 0.606638
0.0186007 0.472755 0.572747
0.507683 0.552392 0.559991
0.80177 0.36817 0.323568
0.747295 0.261021 0.210437
0.565194 0.744579 0.517296
0.589166 0.744793 0.495216
0.661555 0.762478 0.490105
1 0.828046 0.544305
1 0.824308 0.534432
0.654032 0.750896 0.450248
0.658824 0.74609 0.424842
0.716075 0.759091 0.410147
0.993835 0.831174 0.541344
1 0.837858 0.58912
0 0.0319982 0.104051
0.00163272 0.0347601 0.161654
0.148058 0.036759 0.206638
0.230243 0.0402228 0.212039
0.230243 0.0402228 0.212039
0 0.0415656 0.191363
0 0.0388647 0.194919
0.144594 0.0391241 0.244358
0.256504 0.0410163 0.226505
0.237064 0.0404669 0.215808
0.0179599 0.469444 0.652308
0.0133516 0.431724 0.628016
0.288548 0.533974 0.67248
0.687129 0.481849 0.666926
0.628183 0.34258 0.619745
0.276371 0.746761 0.763897
0.274495 0.745693 0.763607
0.424063 0.777981 0.780316
0.864408 0.812192 0.801419
0.904311 0.796536 0.778881
0.277012 0.746868 0.763607
0.279164 0.746929 0.761868
0.296407 0.750103 0.761318
0.805295 0.832685 0.766842
0.961334 0.855955 0.773922
0 0.0319982 0.104051
0 0.0345769 0.159487
0.140749 0.0365301 0.205661
0.230243 0.0402228 0.212039
0.230243 0.0402228 0.212039
0 0.0390326 0.174975
0 0.0368505 0.176867
0.127077 0.0384833 0.233387
0.248951 0.0408026 0.222324
0.234577 0.0403906 0.214435
0.0161135 0.454566 0.642557
0.0115663 0.413809 0.61648
0.216052 0.491569 0.652125
0.666911 0.434821 0.650965
0.606989 0.290623 0.601724
0.276234 0.746685 0.763882
0.27335 0.745052 0.763455
0.40206 0.771679 0.777325
0.861082 0.809094 0.807446
0.893141 0.803281 0.796124
0.276555 0.746868 0.763928
0.276555 0.746868 0.763928
0.290486 0.749706 0.765133
0.779034 0.836011 0.819928
0.931075 0.853086 0.830503
