LUT预设1/LUT全系打包/胶片lut系列/胶片各机型log灰片/林5213-2.cube
TITLE "Generated by Resolve"
LUT_3D_SIZE 33
0 0.0431678 0.056611
0 0.0433051 0.056672
0 0.0430152 0.0561532
0.00178531 0.0415961 0.0534676
0.012192 0.0400702 0.0497444
0.0256199 0.0396735 0.0463569
0.0482948 0.0416724 0.0434882
0.0828565 0.0453651 0.0408026
0.113603 0.0454108 0.0394293
0.143908 0.046479 0.0387274
0.182986 0.049134 0.0379492
0.225772 0.0522774 0.0370336
0.261448 0.0542763 0.036286
0.289616 0.0551614 0.035523
0.314122 0.0560311 0.0345312
0.333013 0.056611 0.0336004
0.342779 0.0560922 0.0333562
0.346075 0.0555581 0.033402
0.346716 0.0554208 0.0334325
0.346777 0.0554055 0.0334325
0.346777 0.0554055 0.0334325
0.346777 0.0554055 0.0334325
0.346777 0.0554055 0.0334325
0.346777 0.0554055 0.0334325
0.346777 0.0554055 0.0334325
0.346777 0.0554055 0.0334325
0.346777 0.0554055 0.0334325
0.346777 0.0554055 0.0334325
0.346777 0.0554055 0.0334325
0.346777 0.0554055 0.0334325
0.346777 0.0554055 0.0334325
0.346777 0.0554055 0.0334325
0.346777 0.0554055 0.0334325
0 0.043595 0.0569162
0 0.0434119 0.0567788
0 0.0433967 0.0566415
0 0.0423896 0.0552071
0.00643931 0.0408789 0.0517891
0.0178073 0.0396429 0.0480659
0.035111 0.0402228 0.0448005
0.0659495 0.0436255 0.0420081
0.100237 0.0454566 0.0399939
0.130129 0.0459297 0.0390326
0.165331 0.0478523 0.0383154
0.208835 0.0511025 0.0373846
0.248707 0.0538033 0.0365454
0.278965 0.0548867 0.0358892
0.304448 0.0556191 0.0349737
0.326131 0.0564279 0.0339666
0.339727 0.0564431 0.0333715
0.34519 0.0557565 0.0333562
0.346593 0.0554513 0.0334173
0.346777 0.0554055 0.0334325
0.346777 0.0554055 0.0334325
0.346777 0.0554055 0.0334325
0.346777 0.0554055 0.0334325
0.346777 0.0554055 0.0334325
0.346777 0.0554055 0.0334325
0.346777 0.0554055 0.0334325
0.346777 0.0554055 0.0334325
0.346777 0.0554055 0.0334325
0.346777 0.0554055 0.0334325
0.346777 0.0554055 0.0334325
0.346777 0.0554055 0.0334325
0.346777 0.0554055 0.0334325
0.346777 0.0554055 0.0334325
0 0.0445869 0.0576181
0 0.0443427 0.0574502
0 0.0446479 0.0574502
0 0.0441444 0.0564736
0.00527962 0.0423285 0.0529793
0.0163882 0.0406348 0.0490425
0.0310521 0.0403601 0.0455482
0.0594034 0.0433051 0.0427253
0.0931868 0.0455482 0.0404212
0.123217 0.0458991 0.0392309
0.155825 0.0472877 0.0384985
0.197421 0.0502174 0.037644
0.239948 0.0534066 0.0366827
0.271946 0.0547341 0.0361181
0.297902 0.0553597 0.0352331
0.321233 0.05626 0.0342412
0.33756 0.056672 0.0333867
0.344533 0.0558938 0.033341
0.346502 0.0554665 0.0334173
0.346777 0.0554055 0.0334325
0.346777 0.0554055 0.0334325
0.346777 0.0554055 0.0334325
0.346777 0.0554055 0.0334325
0.346777 0.0554055 0.0334325
0.346777 0.0554055 0.0334325
0.346777 0.0554055 0.0334325
0.346777 0.0554055 0.0334325
0.346777 0.0554055 0.0334325
0.346777 0.0554055 0.0334325
0.346777 0.0554055 0.0334325
0.346777 0.0554055 0.0334325
0.346777 0.0554055 0.0334325
0.346777 0.0554055 0.0334325
0 0.0496834 0.059617
0 0.0484169 0.0591592
0 0.0481422 0.0589914
0 0.0485695 0.0583047
0.00560006 0.0475013 0.0557717
0.0195773 0.045243 0.0511635
0.0403601 0.0458686 0.0470436
0.0658732 0.0476844 0.0437781
0.0949416 0.0483406 0.0410925
0.1234 0.047715 0.0394141
0.154253 0.048249 0.0384985
0.192767 0.0504768 0.0377356
0.233997 0.0533913 0.0368048
0.265858 0.0547341 0.036286
0.291402 0.0552071 0.0354925
0.315785 0.0560616 0.0345617
0.335134 0.0569619 0.0334173
0.343832 0.0560922 0.0333104
0.34641 0.0554971 0.0334173
0.346777 0.0554055 0.0334325
0.346777 0.0554055 0.0334325
0.346777 0.0554055 0.0334325
0.346777 0.0554055 0.0334325
0.346777 0.0554055 0.0334325
0.346777 0.0554055 0.0334325
0.346777 0.0554055 0.0334325
0.346777 0.0554055 0.0334325
0.346777 0.0554055 0.0334325
0.346777 0.0554055 0.0334325
0.346777 0.0554055 0.0334325
0.346777 0.0554055 0.0334325
0.346777 0.0554055 0.0334325
0.346777 0.0554055 0.0334325
0 0.0595254 0.062974
0 0.0579385 0.0624552
0 0.0571756 0.06215
0 0.0578927 0.0611887
0.00437934 0.0616617 0.0596017
0.0291752 0.0617533 0.0574807
0.058793 0.0602884 0.0536049
0.0897841 0.0610056 0.0481117
0.11986 0.0596933 0.043183
0.146212 0.0562295 0.0399329
0.173465 0.0538491 0.0382544
0.207294 0.0540322 0.0373693
0.244236 0.0556344 0.0365759
0.275273 0.0565194 0.0360113
0.29955 0.0570077 0.0353094
0.320806 0.0574502 0.0345312
0.338369 0.0579232 0.0334936
0.346258 0.0568704 0.0332494
0.347631 0.0558175 0.0333562
0.347723 0.0555428 0.0334173
0.347585 0.0555123 0.0334173
0.347372 0.0554818 0.0334173
0.347127 0.0554513 0.0334173
0.347021 0.055436 0.0334325
0.346975 0.055436 0.0334325
0.346929 0.0554208 0.0334325
0.346868 0.0554208 0.0334325
0.346792 0.0554208 0.0334325
0.346777 0.0554055 0.0334325
0.346777 0.0554055 0.0334325
0.346777 0.0554055 0.0334325
0.346777 0.0554055 0.0334325
0.346777 0.0554055 0.0334325
0 0.0734569 0.0660563
0 0.0712596 0.0654459
0 0.0702525 0.0652476
0 0.0697337 0.0649882
0 0.0748608 0.0649729
0.0271458 0.0834669 0.0647746
0.0736248 0.0847639 0.0634318
0.122515 0.0834058 0.0581216
0.167529 0.0817121 0.0492714
0.207538 0.0785229 0.0423896
0.242618 0.0738537 0.0381628
0.271275 0.069398 0.0363317
0.295903 0.0663615 0.0354925
0.316243 0.06421 0.0349737
0.330861 0.0624857 0.0345159
0.342 0.0613565 0.0339971
0.356313 0.0610361 0.0332799
0.365759 0.0601358 0.0328832
0.367407 0.0586709 0.03299
0.364813 0.0577249 0.0331121
0.360922 0.0571145 0.0332036
0.357107 0.0566567 0.0332647
0.353384 0.0562295 0.0333104
0.35169 0.0560159 0.0333562
0.35082 0.0558938 0.0333562
0.349889 0.0557717 0.0333715
0.34876 0.0556344 0.033402
0.34786 0.0555428 0.0334173
0.347448 0.0554818 0.0334173
0.34728 0.0554665 0.0334173
0.347204 0.0554665 0.0334173
0.347204 0.0554665 0.0334173
0.34725 0.0554665 0.0334173
0 0.0886549 0.0719005
0 0.086305 0.070573
0 0.0851759 0.0699168
0 0.0839094 0.069337
0 0.0859236 0.0707103
0.00794995 0.095552 0.0734112
0.0576638 0.110323 0.0738231
0.127733 0.115312 0.0707713
0.197772 0.115419 0.0652323
0.255482 0.112596 0.0542306
0.304982 0.105867 0.0439918
0.34374 0.096437 0.0379034
0.371679 0.0869612 0.0347906
0.388952 0.080827 0.0335393
0.40061 0.0767834 0.0327611
0.405844 0.0741588 0.0322728
0.408225 0.071809 0.0320287
0.407858 0.0692607 0.0319677
0.403616 0.0660563 0.0321355
0.39707 0.0635996 0.0323949
0.390295 0.0619364 0.0326085
0.385382 0.0610056 0.0327153
0.380774 0.0602579 0.0328069
0.375814 0.0594492 0.0329137
0.370611 0.0585794 0.0330205
0.365621 0.0578012 0.0331121
0.36141 0.0572366 0.0331884
0.358221 0.0568399 0.0332341
0.355947 0.0565499 0.0332799
0.353964 0.0562753 0.0333104
0.352773 0.0561074 0.0333257
0.352651 0.0560922 0.033341
0.352972 0.0561227 0.033341
0 0.105974 0.0808881
0 0.103212 0.0795605
0 0.102068 0.0790112
0 0.100221 0.0780957
0 0.0999924 0.0780041
0 0.106981 0.0802472
0.0340734 0.123857 0.0833906
0.104891 0.14255 0.083711
0.197009 0.152193 0.0804761
0.281971 0.152697 0.0733349
0.344961 0.147051 0.0604715
0.392126 0.136446 0.0480201
0.428046 0.12372 0.0396582
0.453132 0.110933 0.0350347
0.467369 0.101045 0.0327459
0.470817 0.0925917 0.0314641
0.468666 0.0866865 0.0309606
0.462959 0.0825055 0.0309758
0.455421 0.0787518 0.0310369
0.447395 0.0759289 0.0312352
0.439246 0.0737163 0.0314336
0.431083 0.0716106 0.0316014
0.422766 0.0694591 0.0317845
0.414664 0.0674601 0.0319677
0.406851 0.0656443 0.032166
0.399725 0.0640879 0.0323491
0.393881 0.0629129 0.0324865
0.388296 0.0618143 0.0326238
0.382513 0.0606699 0.0327459
0.37612 0.0594644 0.0328985
0.371954 0.0586862 0.0330053
0.371389 0.0585489 0.0330205
0.372015 0.0586252 0.0330053
0 0.125887 0.0895705
0 0.123033 0.0883803
0 0.121614 0.0877852
0 0.119478 0.0869459
0 0.117952 0.086183
0 0.1205 0.0867018
0.0123293 0.134478 0.0915389
0.0726482 0.160357 0.0959029
0.169772 0.184634 0.0955367
0.273747 0.19585 0.0902876
0.362158 0.194659 0.0822003
0.422614 0.185077 0.0691539
0.465461 0.17026 0.0542153
0.498878 0.15259 0.043183
0.521553 0.135973 0.0366827
0.531273 0.12079 0.0330663
0.530892 0.108934 0.0312505
0.525139 0.100649 0.030518
0.515389 0.0958877 0.030396
0.504784 0.092607 0.0304875
0.495186 0.0897231 0.0305791
0.485893 0.0869306 0.0306859
0.47657 0.0841077 0.0307927
0.467552 0.0814984 0.0309148
0.459083 0.0791638 0.0310674
0.450446 0.0768139 0.03122
0.441886 0.0744793 0.0313878
0.433158 0.0720836 0.0315557
0.424598 0.0698405 0.0317388
0.416464 0.0678874 0.0319219
0.41117 0.0666667 0.0320592
0.41062 0.0665446 0.0320745
0.411749 0.066804 0.0320592
0 0.149676 0.0975509
0 0.146242 0.0964981
0 0.144656 0.0960098
0 0.142229 0.0952316
0 0.139773 0.094316
0 0.138994 0.0933242
0 0.14905 0.0979019
0.049424 0.174243 0.104356
0.136446 0.206775 0.106508
0.245655 0.2336 0.103899
0.355138 0.244495 0.0987869
0.439887 0.239261 0.0908064
0.497185 0.224613 0.0783398
0.536248 0.206195 0.0635843
0.562112 0.185733 0.0502632
0.577554 0.164538 0.0412604
0.584695 0.144457 0.0355077
0.583551 0.127657 0.0320897
0.57554 0.116793 0.0306096
0.564019 0.11104 0.0302586
0.553628 0.107683 0.0302434
0.544366 0.10486 0.0302739
0.535439 0.102113 0.0303197
0.526329 0.0992752 0.0303807
0.517235 0.0964218 0.0304265
0.508232 0.0936446 0.0304875
0.498772 0.0907759 0.0305486
0.489326 0.087953 0.0306554
0.479896 0.0851911 0.0307622
0.470909 0.0826276 0.0308995
0.464561 0.0808423 0.0309911
0.463584 0.0805676 0.0310216
0.46479 0.0809186 0.0309911
0 0.178164 0.105974
0 0.174151 0.104784
0 0.172335 0.104265
0 0.169467 0.10341
0 0.166186 0.102449
0 0.164065 0.10135
0 0.167956 0.102251
0.0255741 0.187579 0.108553
0.104433 0.222995 0.116243
0.207919 0.260685 0.116503
0.32697 0.287572 0.114809
0.433616 0.295033 0.109651
0.513726 0.28603 0.102678
0.570611 0.269215 0.0927596
0.604913 0.247501 0.0779889
0.622736 0.221851 0.0615854
0.63241 0.194873 0.0486152
0.63447 0.16968 0.0395819
0.630488 0.149798 0.0342412
0.621164 0.138277 0.0320134
0.611139 0.132204 0.031281
0.601709 0.127703 0.0309606
0.592767 0.123537 0.0307164
0.583963 0.119402 0.0305028
0.575113 0.115419 0.0303349
0.566262 0.112032 0.0302586
0.557214 0.109026 0.0302586
0.548089 0.106172 0.0302892
0.538918 0.103258 0.0303197
0.529976 0.100389 0.0303502
0.523262 0.0982071 0.0303655
0.522057 0.0977951 0.0303655
0.523507 0.0982376 0.0303502
0 0.210559 0.11606
0 0.20621 0.114778
0 0.204089 0.114153
0 0.201007 0.113039
0 0.197177 0.111604
0 0.193729 0.110384
0 0.193805 0.109407
0.0119173 0.20734 0.113085
0.0761578 0.2392 0.124514
0.171176 0.278492 0.131121
0.287587 0.316152 0.132311
0.406531 0.341131 0.130739
0.506813 0.345449 0.125963
0.585779 0.333837 0.119631
0.639933 0.314672 0.110124
0.669444 0.289296 0.0950484
0.681651 0.26041 0.0769055
0.68365 0.230213 0.0596475
0.681697 0.202625 0.0469062
0.677409 0.183261 0.0397955
0.670619 0.170794 0.0362554
0.662348 0.16228 0.0345006
0.653315 0.155184 0.0333562
0.644068 0.149172 0.0326085
0.634745 0.143969 0.0321202
0.62536 0.139239 0.0317388
0.615732 0.134569 0.0314031
0.606561 0.130068 0.0311131
0.597391 0.125444 0.030808
0.588312 0.120851 0.030518
0.581384 0.117342 0.0303349
0.579995 0.116503 0.0302739
0.581308 0.116991 0.0302892
0 0.246418 0.132464
0 0.24155 0.130358
0 0.239185 0.129259
0 0.235874 0.127733
0 0.232013 0.125948
0 0.227955 0.124163
0 0.225818 0.122393
0.00740063 0.23357 0.123766
0.0475929 0.256977 0.133074
0.133562 0.294163 0.146609
0.248966 0.335668 0.153079
0.368795 0.3729 0.153826
0.482673 0.395819 0.154086
0.580789 0.396078 0.148775
0.656489 0.382269 0.141207
0.706889 0.362036 0.130419
0.732647 0.335744 0.114977
0.74136 0.304829 0.0954604
0.74049 0.272618 0.0751202
0.737011 0.245243 0.059556
0.73254 0.225101 0.0496529
0.725673 0.21178 0.0445716
0.716731 0.202487 0.0419776
0.707195 0.194919 0.0403143
0.697459 0.187732 0.03888
0.687816 0.180514 0.0375219
0.678019 0.173022 0.0361486
0.668482 0.165667 0.0348516
0.6589 0.158618 0.0337682
0.649317 0.152422 0.0329747
0.641657 0.147982 0.032517
0.639979 0.147066 0.0324559
0.641352 0.147875 0.032517
0.00653086 0.282902 0.146883
0.00541695 0.278202 0.145342
0.00494392 0.275746 0.14435
0.00425727 0.272389 0.142992
0.00347906 0.268452 0.14139
0.00265507 0.264271 0.139681
0.00210575 0.260533 0.137926
0.00534066 0.262165 0.137469
0.0262303 0.277623 0.143709
0.0927749 0.309651 0.158938
0.207141 0.351385 0.173556
0.328374 0.392294 0.179049
0.44567 0.427436 0.181537
0.557687 0.446265 0.17998
0.654093 0.445899 0.173861
0.726253 0.433646 0.164843
0.771695 0.413733 0.153033
0.795361 0.386847 0.136584
0.804318 0.35523 0.116594
0.804303 0.324331 0.0968948
0.799619 0.298421 0.0800641
0.792691 0.280644 0.0696574
0.783764 0.268437 0.0639811
0.773663 0.257877 0.0598459
0.76347 0.247486 0.0559548
0.753307 0.236881 0.0520943
0.743358 0.226383 0.0484474
0.73315 0.216312 0.0453956
0.72314 0.207858 0.0432746
0.713268 0.200183 0.0415656
0.705043 0.193851 0.0402075
0.703044 0.192309 0.0398871
0.704295 0.193286 0.0401007
0.0161746 0.320455 0.15816
0.0145876 0.315465 0.157031
0.0139315 0.312932 0.156252
0.0130312 0.309407 0.155245
0.0120394 0.305608 0.154208
0.010956 0.301411 0.153033
0.00981155 0.296986 0.151797
0.0102693 0.295354 0.150942
0.0198672 0.303151 0.154009
0.0614786 0.32723 0.167041
0.156497 0.365454 0.186786
0.285603 0.407599 0.200977
0.408835 0.447547 0.20618
0.524041 0.481071 0.207614
0.638132 0.499825 0.206821
0.731548 0.500954 0.200946
0.796368 0.490181 0.191699
0.837308 0.471626 0.179187
0.859586 0.446677 0.1626
0.868238 0.417426 0.144381
0.867277 0.388342 0.126482
0.861601 0.365118 0.111498
0.853239 0.348028 0.101015
0.843626 0.334615 0.0937514
0.833585 0.322179 0.0874189
0.823301 0.310048 0.0814679
0.812833 0.298314 0.0762036
0.801968 0.286809 0.0713512
0.791348 0.276051 0.0670176
0.78088 0.26537 0.0627756
0.771893 0.255955 0.0590829
0.769574 0.253422 0.0580758
0.770886 0.254688 0.0585336
0.0326543 0.360342 0.168261
0.0284276 0.354299 0.166186
0.0268864 0.351553 0.165362
0.0251164 0.347768 0.16434
0.0229648 0.343435 0.163119
0.0214694 0.339132 0.162142
0.0202487 0.334752 0.161196
0.0196231 0.331197 0.160342
0.0228122 0.332448 0.161013
0.0437018 0.347021 0.170245
0.111162 0.380072 0.191989
0.237064 0.422965 0.214511
0.374151 0.466072 0.227649
0.489967 0.505669 0.231846
0.611582 0.539513 0.235828
0.72636 0.559182 0.236683
0.809628 0.560922 0.231296
0.864103 0.551369 0.223346
0.897169 0.53434 0.212558
0.914626 0.511528 0.197635
0.920928 0.484993 0.179782
0.919707 0.458854 0.161852
0.914504 0.437324 0.146899
0.90779 0.421134 0.136141
0.899763 0.407584 0.128573
0.890578 0.394507 0.122454
0.880995 0.381842 0.11664
0.871122 0.36907 0.110658
0.86128 0.356527 0.10457
0.851362 0.343938 0.0982528
0.842557 0.332815 0.0925307
0.840146 0.329702 0.0908522
0.841382 0.331121 0.0914931
0.0662852 0.404868 0.184176
0.0608072 0.399268 0.181872
0.0579232 0.396262 0.180636
0.0551003 0.392203 0.179248
0.0518807 0.387564 0.177661
0.0486152 0.382666 0.176028
0.0453651 0.377661 0.174395
0.0424353 0.372839 0.172808
0.0416419 0.37023 0.171801
0.0517739 0.377157 0.176806
0.0950332 0.400931 0.194842
0.194858 0.439719 0.220218
0.332082 0.484169 0.242313
0.459602 0.526726 0.254047
0.583627 0.566766 0.261189
0.707073 0.599252 0.268284
0.806531 0.616297 0.272465
0.874998 0.618357 0.272038
0.917571 0.61033 0.266957
0.942245 0.595651 0.256672
0.955871 0.576196 0.240131
0.960342 0.553384 0.220417
0.958434 0.531304 0.203143
0.953613 0.513375 0.190646
0.947723 0.499153 0.181918
0.941222 0.485725 0.174228
0.934524 0.472206 0.166415
0.927825 0.458717 0.158404
0.920913 0.444846 0.14995
0.914031 0.431434 0.141711
0.907546 0.419562 0.134646
0.905776 0.416266 0.132631
0.906676 0.417655 0.133333
0.108232 0.448524 0.202335
0.101884 0.442741 0.199603
0.0985428 0.439719 0.198169
0.0945907 0.43563 0.19646
0.090547 0.431327 0.19472
0.0862287 0.426657 0.192859
0.0815595 0.421576 0.190845
0.0770733 0.416617 0.18883
0.0741283 0.412818 0.187015
0.0787518 0.415137 0.188128
0.104402 0.429877 0.199649
0.173144 0.4607 0.223697
0.294179 0.503685 0.251438
0.432334 0.548547 0.273899
0.561013 0.589929 0.287984
0.68394 0.626917 0.299306
0.791409 0.65539 0.311818
0.872816 0.670588 0.321553
0.925414 0.672923 0.324575
0.956191 0.666316 0.319722
0.973968 0.653986 0.307225
0.981888 0.636454 0.289921
0.982818 0.617304 0.273106
0.980484 0.600931 0.259709
0.977111 0.587457 0.248753
0.973587 0.574945 0.238529
0.970077 0.5626 0.228351
0.966491 0.550072 0.21796
0.96257 0.536995 0.207355
0.957961 0.523766 0.197635
0.953033 0.511574 0.189746
0.951507 0.508095 0.187655
0.952071 0.509499 0.188586
0.161868 0.493996 0.22385
0.153262 0.487999 0.220859
0.147738 0.484352 0.219074
0.142473 0.480079 0.216983
0.137407 0.475547 0.214817
0.132036 0.470741 0.212497
0.126329 0.46566 0.210071
0.120531 0.460456 0.207584
0.115526 0.455604 0.204944
0.116976 0.454948 0.20325
0.135134 0.465126 0.209751
0.186206 0.490059 0.230121
0.284993 0.527932 0.258274
0.413748 0.571557 0.288136
0.541573 0.613046 0.312535
0.663233 0.650523 0.330663
0.771923 0.683543 0.348898
0.861067 0.708614 0.367681
0.923583 0.721523 0.381064
0.961089 0.722042 0.38381
0.98233 0.71458 0.376211
0.992645 0.702083 0.362615
0.99585 0.68777 0.347784
0.995636 0.675441 0.335042
0.994232 0.664805 0.323629
0.992508 0.654841 0.312657
0.990723 0.644831 0.30161
0.988785 0.634501 0.290608
0.986313 0.622904 0.279286
0.983291 0.61059 0.268376
0.980209 0.599115 0.258778
0.979232 0.595621 0.255955
0.979522 0.59678 0.256962
0.245655 0.54551 0.249165
0.231266 0.538277 0.245716
0.222522 0.53402 0.243687
0.213184 0.528939 0.24123
0.203983 0.523613 0.238636
0.194308 0.51809 0.23595
0.183917 0.512154 0.233066
0.173953 0.506188 0.230152
0.167681 0.500832 0.227192
0.168948 0.498863 0.224521
0.188251 0.506447 0.226825
0.231128 0.526253 0.241291
0.305821 0.557076 0.266712
0.412284 0.596246 0.298466
0.529213 0.63653 0.331304
0.646342 0.673259 0.35938
0.752667 0.70634 0.38439
0.843122 0.735012 0.410285
0.912062 0.75462 0.431907
0.957809 0.761547 0.442191
0.984192 0.758633 0.440284
0.997452 0.750408 0.430747
1 0.741527 0.419944
1 0.734127 0.410376
1 0.727123 0.400351
1 0.720119 0.389761
1 0.712551 0.378836
1 0.703761 0.367712
0.999405 0.693874 0.356222
0.99762 0.683833 0.345022
0.995941 0.674418 0.334554
0.995422 0.671519 0.331319
0.99556 0.672328 0.332219
0.360342 0.600397 0.274861
0.3467 0.594827 0.27245
0.337606 0.591073 0.270787
0.327581 0.58648 0.268666
0.315862 0.580758 0.265995
0.30399 0.574746 0.263127
0.291279 0.568276 0.260029
0.278279 0.561624 0.256855
0.265843 0.554925 0.253544
0.258122 0.550042 0.250248
0.271138 0.553857 0.249393
0.307759 0.569741 0.258564
0.36202 0.593866 0.279866
0.438407 0.625437 0.309438
0.534157 0.661112 0.345205
0.638987 0.695888 0.382666
0.739666 0.727504 0.417227
0.826398 0.755154 0.447745
0.896895 0.776791 0.473564
0.948638 0.788418 0.489158
0.981033 0.789792 0.493019
0.997757 0.785718 0.490043
1 0.781216 0.485481
1 0.777768 0.481056
1 0.773907 0.474723
1 0.768856 0.465705
1 0.762646 0.455131
1 0.755779 0.444404
1 0.748516 0.433387
1 0.741009 0.421942
1 0.734203 0.411536
1 0.732128 0.408331
1 0.732738 0.409232
0.456718 0.642481 0.293523
0.450721 0.640146 0.292515
0.445945 0.638239 0.291691
0.436988 0.634241 0.289921
0.426627 0.629572 0.287831
0.414954 0.624231 0.285435
0.403449 0.618891 0.28304
0.391089 0.613062 0.2804
0.378729 0.607263 0.277775
0.367346 0.601923 0.274968
0.37258 0.603128 0.27393
0.401953 0.615808 0.280293
0.444663 0.636133 0.297704
0.499245 0.661128 0.324498
0.568704 0.689509 0.358831
0.651606 0.719234 0.399664
0.737591 0.747387 0.440711
0.815686 0.772305 0.475959
0.881483 0.79266 0.503792
0.935637 0.806577 0.522622
0.974227 0.811582 0.531228
0.995407 0.81059 0.534661
1 0.809094 0.537377
1 0.808789 0.539483
1 0.80763 0.538109
1 0.804257 0.531929
1 0.799558 0.523171
1 0.794583 0.513909
1 0.789532 0.504479
1 0.784314 0.494713
1 0.779507 0.485634
1 0.777981 0.482734
1 0.778408 0.483543
0.514595 0.666209 0.303899
0.513359 0.665736 0.303685
0.512352 0.665339 0.303517
0.506035 0.662821 0.302419
0.499107 0.660029 0.301183
0.491814 0.657084 0.299916
0.483833 0.653834 0.298497
0.475532 0.650355 0.296971
0.46688 0.646693 0.295354
0.458793 0.643183 0.293721
0.459174 0.643061 0.293172
0.483635 0.653208 0.298222
0.528008 0.672801 0.313756
0.573724 0.694469 0.338445
0.622415 0.716564 0.369787
0.679194 0.739437 0.408453
0.743908 0.762768 0.451469
0.809094 0.784482 0.490257
0.867536 0.802731 0.520134
0.919844 0.816831 0.541146
0.962829 0.824765 0.553552
0.990005 0.826993 0.56231
1 0.827314 0.570642
1 0.827863 0.576806
1 0.828061 0.57911
1 0.826749 0.576944
1 0.824201 0.571893
1 0.821286 0.565988
1 0.818372 0.560098
1 0.815412 0.55407
1 0.812619 0.548409
1 0.811749 0.546639
1 0.811994 0.547127
0.534173 0.673823 0.307195
0.534173 0.673823 0.307195
0.533593 0.673609 0.307088
0.531899 0.672953 0.306813
0.530037 0.672221 0.306493
0.52813 0.671489 0.306172
0.525887 0.670604 0.305806
0.523262 0.669596 0.305348
0.520455 0.668498 0.304891
0.517617 0.667384 0.304402
0.518837 0.667781 0.304356
0.541176 0.676448 0.30837
0.584466 0.694606 0.321859
0.629664 0.715373 0.345098
0.669596 0.735058 0.374731
0.707973 0.753658 0.41062
0.753048 0.772778 0.452628
0.804105 0.791363 0.492744
0.854536 0.807446 0.524117
0.903746 0.820584 0.546731
0.949569 0.83032 0.562249
0.982727 0.835462 0.574441
0.999466 0.837003 0.585657
1 0.837369 0.594263
1 0.837674 0.598688
1 0.837629 0.599588
1 0.836881 0.598108
1 0.835874 0.595941
1 0.834836 0.593683
1 0.833753 0.591394
1 0.83241 0.588556
1 0.831907 0.587472
1 0.831998 0.58764
0.534173 0.673823 0.307195
0.534173 0.673823 0.307195
0.534173 0.673823 0.307195
0.534173 0.673823 0.307195
0.534173 0.673823 0.307195
0.534173 0.673823 0.307195
0.534173 0.673823 0.307195
0.534173 0.673823 0.307195
0.534173 0.673823 0.307195
0.534173 0.673823 0.307195
0.5364 0.674632 0.307424
0.552834 0.680858 0.310002
0.593637 0.69723 0.320409
0.644388 0.719219 0.341878
0.687922 0.740414 0.37116
0.723232 0.759228 0.406088
0.757855 0.776837 0.446387
0.797955 0.793637 0.4869
0.841627 0.808392 0.52018
0.888167 0.820615 0.544732
0.936431 0.830839 0.562234
0.975097 0.83743 0.575769
0.996506 0.840085 0.58883
1 0.840909 0.599985
1 0.841337 0.606119
1 0.84155 0.608072
1 0.841489 0.608118
1 0.841321 0.607721
1 0.841123 0.607248
1 0.840848 0.606607
1 0.840208 0.605188
1 0.839902 0.604532
1 0.839918 0.604578
0.534173 0.673823 0.307195
0.534173 0.673823 0.307195
0.534173 0.673823 0.307195
0.534173 0.673823 0.307195
0.534173 0.673823 0.307195
0.534173 0.673823 0.307195
0.534173 0.673823 0.307195
0.534173 0.673823 0.307195
0.534173 0.673823 0.307195
0.534173 0.673823 0.307195
0.534783 0.674037 0.307256
0.543175 0.677165 0.30837
0.577279 0.690425 0.31519
0.63032 0.712505 0.333303
0.67982 0.735393 0.361013
0.719692 0.755978 0.394903
0.751934 0.773953 0.433646
0.786984 0.790753 0.474693
0.827176 0.805722 0.510933
0.871733 0.818112 0.53843
0.920745 0.828565 0.55787
0.964401 0.836103 0.57232
0.991806 0.839918 0.586404
1 0.841443 0.599619
1 0.842145 0.607538
1 0.842359 0.609964
1 0.84239 0.610254
1 0.84239 0.610254
1 0.842374 0.610224
1 0.842283 0.610025
1 0.842115 0.609628
1 0.842039 0.60943
1 0.842054 0.609445
0.534173 0.673823 0.307195
0.534173 0.673823 0.307195
0.534173 0.673823 0.307195
0.534173 0.673823 0.307195
0.534173 0.673823 0.307195
0.534173 0.673823 0.307195
0.534173 0.673823 0.307195
0.534173 0.673823 0.307195
0.534173 0.673823 0.307195
0.534173 0.673823 0.307195
0.534173 0.673823 0.307195
0.537835 0.675151 0.307561
0.561547 0.684184 0.311513
0.609216 0.703593 0.325109
0.661906 0.726833 0.34966
0.705852 0.748547 0.381323
0.739422 0.767285 0.418463
0.773159 0.784634 0.459663
0.811765 0.800504 0.498573
0.854505 0.81384 0.529366
0.901946 0.824857 0.551537
0.949279 0.833677 0.567605
0.983703 0.838926 0.581765
1 0.841093 0.595804
1 0.841993 0.605951
1 0.842329 0.609705
1 0.84239 0.610254
1 0.84239 0.610254
1 0.84239 0.610254
1 0.84239 0.610254
1 0.84239 0.610254
1 0.84239 0.610254
1 0.84239 0.610254
0.534173 0.673823 0.307195
0.534173 0.673823 0.307195
0.534173 0.673823 0.307195
0.534173 0.673823 0.307195
0.534173 0.673823 0.307195
0.534173 0.673823 0.307195
0.534173 0.673823 0.307195
0.534173 0.673823 0.307195
0.534173 0.673823 0.307195
