LUT预设1/LUT全系打包/胶片lut系列/胶片各机型log灰片/林5213-2.cube
TITLE "Generated by Resolve"
LUT_3D_SIZE 9
0 0.0431678 0.056611
0.012192 0.0400702 0.0497444
0.113603 0.0454108 0.0394293
0.261448 0.0542763 0.036286
0.342779 0.0560922 0.0333562
0.346777 0.0554055 0.0334325
0.346777 0.0554055 0.0334325
0.346777 0.0554055 0.0334325
0.346777 0.0554055 0.0334325
0 0.0595254 0.062974
0.00437934 0.0616617 0.0596017
0.11986 0.0596933 0.043183
0.244236 0.0556344 0.0365759
0.338369 0.0579232 0.0334936
0.347585 0.0555123 0.0334173
0.346975 0.055436 0.0334325
0.346777 0.0554055 0.0334325
0.346777 0.0554055 0.0334325
0 0.125887 0.0895705
0 0.117952 0.086183
0.169772 0.184634 0.0955367
0.465461 0.17026 0.0542153
0.530892 0.108934 0.0312505
0.495186 0.0897231 0.0305791
0.459083 0.0791638 0.0310674
0.424598 0.0698405 0.0317388
0.411749 0.066804 0.0320592
0 0.246418 0.132464
0 0.232013 0.125948
0.0475929 0.256977 0.133074
0.482673 0.395819 0.154086
0.732647 0.335744 0.114977
0.73254 0.225101 0.0496529
0.697459 0.187732 0.03888
0.6589 0.158618 0.0337682
0.641352 0.147875 0.032517
0.0662852 0.404868 0.184176
0.0518807 0.387564 0.177661
0.0416419 0.37023 0.171801
0.332082 0.484169 0.242313
0.806531 0.616297 0.272465
0.955871 0.576196 0.240131
0.947723 0.499153 0.181918
0.920913 0.444846 0.14995
0.906676 0.417655 0.133333
0.360342 0.600397 0.274861
0.315862 0.580758 0.265995
0.265843 0.554925 0.253544
0.36202 0.593866 0.279866
0.739666 0.727504 0.417227
0.981033 0.789792 0.493019
1 0.773907 0.474723
1 0.748516 0.433387
1 0.732738 0.409232
0.534173 0.673823 0.307195
0.534173 0.673823 0.307195
0.534173 0.673823 0.307195
0.593637 0.69723 0.320409
0.757855 0.776837 0.446387
0.936431 0.830839 0.562234
1 0.841337 0.606119
1 0.841123 0.607248
1 0.839918 0.604578
0.534173 0.673823 0.307195
0.534173 0.673823 0.307195
0.534173 0.673823 0.307195
0.539467 0.675761 0.307729
0.715129 0.753475 0.390036
0.866346 0.816785 0.535653
1 0.841398 0.59942
1 0.84239 0.610254
1 0.84239 0.610254
0.534173 0.673823 0.307195
0.534173 0.673823 0.307195
0.534173 0.673823 0.307195
0.534554 0.673961 0.307225
0.688487 0.73962 0.36701
0.835523 0.808331 0.51696
0.996246 0.840574 0.589578
1 0.84239 0.610254
1 0.84239 0.610254
0 0.0352483 0.0621653
0.0264439 0.0385138 0.0801862
0.121736 0.0420539 0.0666819
0.247135 0.0482795 0.0381628
0.315404 0.0514687 0.0330816
0.330373 0.0527199 0.0332799
0.33994 0.0542611 0.0333715
0.343252 0.0548257 0.033402
0.342443 0.0546883 0.0333867
0 0.0599069 0.0801099
0 0.0551766 0.0709239
0.109285 0.0532235 0.0496071
0.234714 0.0527504 0.0369116
0.328603 0.0565652 0.0335851
0.345266 0.0551308 0.0334173
0.346349 0.0553292 0.0334173
0.346624 0.055375 0.0334325
0.346777 0.0554055 0.0334325
0 0.123568 0.09514
0 0.115282 0.0889143
0.153918 0.175082 0.0943923
0.451301 0.162066 0.0522469
0.519036 0.104814 0.0311589
0.484428 0.0865187 0.0306859
0.44921 0.0763256 0.0312352
0.415808 0.0677348 0.0319371
0.402975 0.0648508 0.0322576
0 0.239277 0.129412
0 0.225879 0.123201
0.0371252 0.245869 0.128206
0.46743 0.385122 0.148653
0.720378 0.325994 0.110887
0.721233 0.216114 0.0472114
0.686809 0.179553 0.0373236
0.648508 0.152209 0.0330053
0.629511 0.141375 0.0319371
0.0589609 0.396201 0.18088
0.0465095 0.379904 0.175036
0.0366979 0.362463 0.169406
0.311666 0.471916 0.236759
0.79176 0.605631 0.264805
0.949172 0.564004 0.231662
0.941253 0.484276 0.172534
0.91223 0.430488 0.142519
0.895094 0.400885 0.125353
0.33846 0.590692 0.270481
0.296376 0.571023 0.261357
0.248508 0.545968 0.249271
0.336156 0.581064 0.272007
0.722622 0.717906 0.405737
0.977447 0.785504 0.484749
1 0.767498 0.463279
1 0.741192 0.421683
1 0.722866 0.395193
0.534173 0.673823 0.307195
0.534173 0.673823 0.307195
0.534173 0.673823 0.307195
0.586252 0.694255 0.318379
0.75082 0.773465 0.440101
0.930022 0.829328 0.560052
1 0.841031 0.605035
1 0.840833 0.606516
1 0.839368 0.603311
0.534173 0.673823 0.307195
0.534173 0.673823 0.307195
0.534173 0.673823 0.307195
0.538247 0.675303 0.307607
0.710658 0.751095 0.385748
0.860945 0.815412 0.532692
1 0.841291 0.598184
1 0.84239 0.610254
1 0.84239 0.610254
0.534173 0.673823 0.307195
0.534173 0.673823 0.307195
0.534173 0.673823 0.307195
0.534463 0.67393 0.307225
0.679911 0.735393 0.360967
0.827436 0.805737 0.510903
0.993805 0.840299 0.586725
1 0.84239 0.610254
1 0.84239 0.610254
0 0.0315251 0.0795453
0.000381476 0.0336919 0.107515
0.076936 0.0360571 0.134356
0.204288 0.0406195 0.13254
0.282994 0.0462501 0.064332
0.282612 0.046479 0.0466926
0.282338 0.0464332 0.0408331
0.281453 0.0463417 0.0372625
0.281102 0.0463111 0.0372778
0 0.0381018 0.0932021
0 0.0370947 0.0944076
0.0815442 0.0372931 0.129671
0.194812 0.0408179 0.116457
0.281437 0.0461891 0.0553292
0.281682 0.0463417 0.0364691
0.282429 0.0467994 0.0336919
0.284916 0.047013 0.0329747
0.286839 0.0471962 0.0328985
0 0.125734 0.190723
0 0.114885 0.175937
0.0775921 0.129046 0.165637
0.377127 0.11397 0.102678
0.470039 0.0718853 0.0415961
0.432013 0.0618448 0.0309453
0.40177 0.0602274 0.031342
0.373999 0.0574197 0.0319982
0.365545 0.0567025 0.0322271
0 0.266163 0.223728
0 0.249012 0.206607
0.00128176 0.245029 0.179599
0.424079 0.360708 0.171115
0.689311 0.302281 0.112352
0.697246 0.19205 0.0423285
0.668482 0.162127 0.0344396
0.632792 0.139956 0.0316014
0.613977 0.131594 0.0310979
0.0411536 0.399649 0.215915
0.0345006 0.381613 0.202457
0.0283055 0.360388 0.185718
0.271855 0.454215 0.233845
0.769436 0.590799 0.257557
0.94023 0.547555 0.220066
0.93106 0.464057 0.161028
0.90071 0.411032 0.13164
0.880659 0.380774 0.115709
0.312886 0.579568 0.267887
0.271473 0.559655 0.258274
0.228717 0.535378 0.24506
0.300221 0.563546 0.261494
0.698573 0.70486 0.391028
0.972183 0.77911 0.472923
1 0.759396 0.448554
1 0.73022 0.405493
1 0.710933 0.378256
0.534173 0.673823 0.307195
0.534112 0.673808 0.307179
0.534173 0.673823 0.307195
0.571023 0.688228 0.314794
0.740001 0.768307 0.431083
0.921843 0.827253 0.556893
1 0.84033 0.602853
1 0.840421 0.60557
1 0.837797 0.6
0.534173 0.673823 0.307195
0.534173 0.673823 0.307195
0.534173 0.673823 0.307195
0.537072 0.674876 0.307485
0.704326 0.747692 0.379599
0.85333 0.813458 0.528496
1 0.841108 0.59617
1 0.84239 0.610254
1 0.84239 0.610254
0.534173 0.673823 0.307195
0.534173 0.673823 0.307195
0.534173 0.673823 0.307195
0.534173 0.673823 0.307195
0.670939 0.730953 0.354543
0.81915 0.80296 0.504326
0.990646 0.839872 0.583825
1 0.84239 0.610254
1 0.84239 0.610254
0 0.0311131 0.0897383
0 0.0319677 0.108003
0.0287785 0.0346075 0.148089
0.114794 0.0357214 0.166186
0.220356 0.0407111 0.15172
0.249531 0.0426184 0.130404
0.251591 0.0429694 0.122911
0.257267 0.043534 0.115541
0.256657 0.0434424 0.116854
0 0.0316014 0.0956741
0 0.0318303 0.100084
0.0206912 0.0344549 0.147555
0.103578 0.0356909 0.156481
0.21413 0.0404669 0.153002
0.260609 0.043946 0.109941
0.2663 0.0446174 0.101137
0.272435 0.0453346 0.0917983
0.273625 0.0454719 0.088304
0 0.0799268 0.228
0 0.0678264 0.204837
0.00334173 0.0830243 0.223133
0.281209 0.0561532 0.248432
0.389548 0.0497444 0.19585
0.361547 0.0495613 0.0896773
0.335882 0.0486915 0.0753033
0.312596 0.0477913 0.0649119
0.306584 0.0475624 0.0606394
0 0.309987 0.404059
0 0.287053 0.379812
0 0.277226 0.363134
0.282475 0.324559 0.349584
0.59733 0.252567 0.240757
0.602701 0.112413 0.0847639
0.571542 0.0876783 0.0445563
0.543267 0.0763409 0.0380102
0.528862 0.0738537 0.0361944
0.0213779 0.461173 0.410056
0.0172274 0.443717 0.392905
0.0124666 0.421622 0.369512
0.146838 0.466087 0.336492
0.693111 0.574777 0.329809
0.904753 0.50695 0.260624
0.882063 0.402396 0.16231
0.848661 0.350301 0.120684
0.827527 0.323629 0.102647
0.316152 0.629236 0.396277
0.261173 0.605661 0.384024
0.203082 0.575967 0.365332
0.232868 0.575433 0.339467
0.6448 0.699916 0.409232
0.969131 0.778698 0.469673
1 0.752728 0.429572
1 0.718532 0.387976
1 0.697169 0.360616
0.619638 0.720729 0.37232
0.610468 0.715877 0.36524
0.596277 0.708476 0.354986
0.598535 0.706035 0.344625
0.740368 0.766461 0.420447
0.916762 0.824445 0.545342
1 0.838514 0.596063
1 0.839338 0.602487
1 0.835615 0.59472
0.561761 0.689311 0.327916
0.556909 0.68661 0.324269
0.548791 0.682063 0.318196
0.544747 0.679393 0.313863
0.699825 0.744884 0.374075
0.845045 0.811231 0.523369
0.999542 0.840879 0.593561
1 0.84239 0.610254
1 0.84239 0.610254
0.550988 0.683299 0.31986
0.543496 0.679103 0.314229
0.538857 0.676478 0.310735
0.535576 0.674632 0.308278
0.661295 0.726299 0.348272
0.810239 0.799863 0.496925
0.985946 0.839231 0.580896
1 0.84239 0.610254
1 0.84239 0.610254
0 0.0319982 0.104036
0 0.032517 0.114717
0.00956741 0.0352331 0.166491
0.0683909 0.0358892 0.188174
0.174746 0.0377966 0.204471
0.235767 0.0406653 0.202289
0.238331 0.0409247 0.19585
0.240421 0.0411383 0.18941
0.239918 0.0410773 0.190646
0 0.0323491 0.110079
0 0.0323186 0.109651
0 0.0344244 0.157443
0.0590219 0.0356603 0.181277
0.131289 0.0360113 0.192523
0.242267 0.0413367 0.183322
0.244022 0.0415198 0.174792
0.244617 0.0416266 0.167041
0.244633 0.0416571 0.164416
0 0.0574197 0.228809
0 0.0482032 0.202869
0 0.0472114 0.237446
0.138994 0.0464027 0.291234
0.250782 0.0411231 0.252827
0.31252 0.0444953 0.191913
0.290272 0.0437476 0.168139
0.270344 0.0430304 0.152987
0.263416 0.0428168 0.147265
0.00155642 0.287617 0.49659
0.00047303 0.266041 0.474022
0 0.248066 0.456352
0.0702678 0.273701 0.457969
0.473381 0.21767 0.448447
0.580118 0.0863966 0.323827
0.547967 0.0626993 0.22002
0.506386 0.0576791 0.176837
0.485084 0.0559243 0.158907
0.0263523 0.50692 0.606638
0.0226902 0.490623 0.59057
0.0186007 0.472755 0.572747
0.0682078 0.504585 0.570077
0.507683 0.552392 0.559991
0.781613 0.456153 0.438239
0.80177 0.36817 0.323568
0.769726 0.29836 0.249149
0.747295 0.261021 0.210437
0.285512 0.686824 0.579004
0.243305 0.66627 0.566598
0.183185 0.6383 0.551385
0.170779 0.630594 0.53962
0.481209 0.687999 0.51017
0.917739 0.768765 0.543343
0.997559 0.752422 0.511376
0.992447 0.713771 0.468025
0.988815 0.688487 0.439063
0.565194 0.744579 0.517296
0.578714 0.74551 0.508003
0.589166 0.744793 0.495216
0.590799 0.741024 0.480125
0.661555 0.762478 0.490105
0.90956 0.824765 0.550362
1 0.828046 0.544305
1 0.826001 0.537789
1 0.824308 0.534432
0.642496 0.751202 0.464225
0.648585 0.750851 0.456626
0.654566 0.750301 0.447074
0.660349 0.749294 0.43595
0.713726 0.764309 0.434058
0.844053 0.808804 0.507988
1 0.827665 0.534783
1 0.83035 0.55523
1 0.83209 0.563027
0.654032 0.750896 0.450248
0.661326 0.749966 0.437522
0.658824 0.74609 0.424842
0.653971 0.741283 0.411276
0.716075 0.759091 0.410147
0.811292 0.797498 0.479454
0.993835 0.831174 0.541344
1 0.835599 0.578958
1 0.837858 0.58912
0 0.0319982 0.104051
0 0.0324254 0.112398
0.00543221 0.0350042 0.164263
0.0658579 0.0360876 0.189502
0.15967 0.0372015 0.207736
0.230243 0.0402228 0.212039
0.230243 0.0402228 0.212039
0.230243 0.0402228 0.212039
0.230243 0.0402228 0.212039
0 0.0322423 0.108232
0 0.0322576 0.108553
0 0.0341955 0.153643
0.0531624 0.0362707 0.186572
0.105669 0.0355383 0.200549
0.230228 0.0402228 0.212039
0.230259 0.0402228 0.212039
0.230274 0.0402228 0.212009
0.230365 0.040238 0.211872
0 0.0470436 0.210529
0 0.0415198 0.188266
0 0.0408942 0.211749
0.0807965 0.0433967 0.281727
0.162341 0.0397498 0.255421
0.277852 0.0414588 0.246891
0.265354 0.0413214 0.229679
0.249683 0.0409247 0.21944
0.242725 0.0407568 0.214679
0.00102235 0.262867 0.50454
0 0.23949 0.481056
0 0.2168 0.463569
0.012253 0.227985 0.488899
0.316258 0.189364 0.49868
0.469047 0.0784772 0.463905
0.471519 0.0538491 0.41828
0.447105 0.0504921 0.367803
0.432898 0.0487373 0.339284
0.0196689 0.482506 0.659922
0.0173648 0.466728 0.648325
0.0146944 0.446159 0.633448
0.0203403 0.450324 0.640192
0.33962 0.551553 0.672618
0.65565 0.518456 0.665644
0.720531 0.479316 0.659144
0.710552 0.382986 0.615122
0.707027 0.322408 0.582864
0.211719 0.711696 0.744564
0.183597 0.692683 0.73373
0.147845 0.670176 0.721355
0.131838 0.655863 0.716075
0.362005 0.709072 0.723934
0.732387 0.725963 0.723018
0.885725 0.720668 0.697673
0.890028 0.705104 0.680888
0.884947 0.682734 0.660487
0.294728 0.745357 0.73901
0.300313 0.744457 0.729641
0.308293 0.743343 0.717281
0.318379 0.742031 0.702586
0.395285 0.763989 0.725399
0.717998 0.807904 0.711803
0.96112 0.837003 0.70103
0.980636 0.833204 0.6981
0.985458 0.829404 0.678721
0.34374 0.741085 0.677028
0.361349 0.741039 0.663874
0.383932 0.740841 0.646128
0.408927 0.740642 0.625803
0.416968 0.743877 0.630915
0.646555 0.78909 0.642023
0.981491 0.850568 0.665934
0.994644 0.849485 0.666163
0.998703 0.847364 0.648356
0.376852 0.740749 0.651453
0.407172 0.740429 0.6271
0.439368 0.740398 0.603754
0.472313 0.740505 0.579705
0.486778 0.742138 0.57229
0.62179 0.771756 0.583642
0.981643 0.844007 0.618158
1 0.841123 0.609186
1 0.837858 0.590082
0 0.0319982 0.104051
0 0.0323186 0.110079
0.00163272 0.0347601 0.161654
0.0637827 0.0361334 0.18909
0.148058 0.036759 0.206638
0.230243 0.0402228 0.212039
0.230243 0.0402228 0.212039
0.230243 0.0402228 0.212039
0.230243 0.0402228 0.212039
0 0.032166 0.107149
0 0.032166 0.106935
0 0.0338445 0.14725
0.049485 0.0362554 0.185183
0.100572 0.0356146 0.199451
0.229221 0.040177 0.212055
0.230243 0.0402228 0.212039
0.230243 0.0402228 0.212039
0.230243 0.0402228 0.212039
0 0.0415656 0.191363
0 0.0382696 0.171115
0 0.0388647 0.194919
0.0652934 0.0413977 0.263539
0.144594 0.0391241 0.244358
0.258564 0.0408484 0.238636
0.256504 0.0410163 0.226505
0.241413 0.0406043 0.218219
0.237064 0.0404669 0.215808
0.000122072 0.242863 0.484565
0 0.219913 0.461051
0 0.19588 0.439979
0.00746166 0.204471 0.472419
0.292149 0.172229 0.484962
0.431342 0.0673228 0.448493
0.435752 0.0511482 0.410346
0.405371 0.0479438 0.368627
0.390372 0.0467079 0.347646
0.0179599 0.469444 0.652308
0.0156558 0.453468 0.642008
0.0133516 0.431724 0.628016
0.0154726 0.428305 0.635798
0.288548 0.533974 0.67248
0.6448 0.531487 0.679438
0.687129 0.481849 0.666926
0.649989 0.393988 0.637171
0.628183 0.34258 0.619745
0.20734 0.707271 0.753338
0.179416 0.68835 0.747509
0.143374 0.663783 0.73994
0.129458 0.650034 0.737179
0.45597 0.740795 0.768948
0.798993 0.774426 0.78999
0.868421 0.777829 0.784329
0.874189 0.780209 0.784054
0.860395 0.762234 0.776425
0.276371 0.746761 0.763897
0.275486 0.746242 0.76376
0.274495 0.745693 0.763607
0.273701 0.74493 0.763409
0.424063 0.777981 0.780316
0.70193 0.812131 0.804715
0.864408 0.812192 0.801419
0.906188 0.804898 0.786786
0.904311 0.796536 0.778881
0.276738 0.746868 0.763821
0.277073 0.746868 0.763577
0.277317 0.746883 0.763394
0.277989 0.746914 0.762905
0.32903 0.758541 0.768353
0.659815 0.821775 0.803647
0.809964 0.834089 0.774105
0.954864 0.855085 0.779293
0.959152 0.855146 0.777508
0.277012 0.746868 0.763607
0.278248 0.746929 0.762737
0.279164 0.746929 0.761868
0.281193 0.746899 0.759838
0.296407 0.750103 0.761318
0.589685 0.81181 0.797131
0.805295 0.832685 0.766842
0.951873 0.854582 0.767559
0.961334 0.855955 0.773922
0 0.0319982 0.104051
0 0.0322423 0.10869
0 0.0345464 0.159182
0.0615549 0.0361639 0.188602
0.139467 0.0364996 0.205478
0.230243 0.0402228 0.212039
0.230243 0.0402228 0.212039
0.230243 0.0402228 0.212039
0.230243 0.0402228 0.212039
0 0.032105 0.105959
0 0.0320592 0.10544
0 0.0336309 0.142565
0.0459907 0.0362554 0.183902
0.0957046 0.0357214 0.198383
0.227817 0.0401007 0.2121
0.230243 0.0402228 0.212039
0.230243 0.0402228 0.212039
0.230243 0.0402228 0.212039
0 0.0390784 0.175463
0 0.0366522 0.159228
0 0.0371099 0.179294
0.0518349 0.0400702 0.246006
0.12929 0.0385443 0.234699
0.237461 0.0401923 0.2309
0.249668 0.0408331 0.222721
0.236942 0.0404517 0.215747
0.234882 0.0403906 0.214603
0 0.222934 0.46424
0 0.200717 0.440253
0 0.175204 0.416068
0.0034638 0.181384 0.454093
0.275151 0.15491 0.469276
0.404776 0.0585946 0.428412
0.422187 0.0495308 0.391623
0.392279 0.0468299 0.350545
0.377997 0.0459297 0.331914
0.0162051 0.455695 0.64329
0.0141604 0.439292 0.632822
0.011902 0.417258 0.618692
0.0123751 0.410346 0.623865
0.229252 0.499596 0.656031
0.611811 0.502831 0.667796
0.670405 0.443305 0.653834
0.632959 0.353674 0.623499
0.610834 0.299718 0.605158
0.183001 0.690929 0.748333
0.156329 0.672602 0.742657
0.122774 0.644846 0.73341
0.105028 0.628092 0.730175
0.426444 0.729885 0.764126
0.783001 0.76669 0.785855
0.862196 0.771282 0.781628
0.864988 0.768795 0.779431
0.851164 0.751614 0.772122
0.276265 0.746685 0.763897
0.27483 0.745876 0.763668
0.27364 0.74522 0.7635
0.271305 0.743633 0.763073
0.406195 0.772931 0.777935
0.690929 0.80737 0.804669
0.862852 0.810285 0.807935
0.897414 0.808484 0.79913
0.893599 0.80383 0.796429
0.276555 0.746868 0.763928
0.276555 0.746868 0.763928
0.276555 0.746868 0.763928
0.276555 0.746868 0.763928
0.322881 0.757229 0.768627
0.655848 0.821729 0.809293
0.802609 0.838636 0.821881
0.925673 0.851987 0.829892
0.930282 0.851911 0.829465
0.276555 0.746868 0.763928
0.276555 0.746868 0.763928
0.276555 0.746868 0.763928
0.276555 0.746868 0.763928
0.29218 0.750103 0.765316
0.587686 0.811795 0.80238
0.780606 0.836179 0.820035
0.911269 0.849897 0.829435
0.931411 0.853117 0.829175
0 0.0319982 0.104051
0 0.0322423 0.108888
0 0.0345769 0.159487
0.0618448 0.0361639 0.188663
0.140749 0.0365301 0.205661
0.230243 0.0402228 0.212039
0.230243 0.0402228 0.212039
0.230243 0.0402228 0.212039
0.230243 0.0402228 0.212039
0 0.032105 0.105959
0 0.0320439 0.105211
0 0.0336309 0.14226
0.0457313 0.0362554 0.183825
0.0953994 0.0357519 0.19826
0.227649 0.0400854 0.2121
0.230243 0.0402228 0.212039
0.230243 0.0402228 0.212039
0.230243 0.0402228 0.212039
0 0.0390326 0.174975
0 0.0365911 0.158328
0 0.0368505 0.176867
0.0498665 0.0399176 0.243427
0.127077 0.0384833 0.233387
0.234516 0.0401007 0.230076
0.248951 0.0408026 0.222324
0.236454 0.0404517 0.215473
0.234577 0.0403906 0.214435
0 0.221576 0.462837
0 0.197452 0.436667
0 0.171267 0.411597
0.00273136 0.176898 0.450278
0.271427 0.151507 0.466087
0.39971 0.0579385 0.424826
0.419791 0.0492561 0.388327
0.390173 0.0466621 0.347631
0.37586 0.0457923 0.329366
0.0161135 0.454566 0.642557
0.0138552 0.43653 0.631006
0.0115663 0.413809 0.61648
0.0118868 0.406485 0.621103
0.216052 0.491569 0.652125
0.6038 0.496849 0.665263
0.666911 0.434821 0.650965
0.629389 0.345357 0.620691
0.606989 0.290623 0.601724
0.180194 0.688945 0.747707
0.151507 0.668711 0.741375
0.117998 0.640116 0.731716
0.0990768 0.622492 0.728344
0.418219 0.726421 0.762661
0.778637 0.764446 0.784665
0.860166 0.7691 0.780728
0.862791 0.766018 0.778271
0.848768 0.748684 0.770809
0.276234 0.746685 0.763882
0.274678 0.7458 0.763653
0.27335 0.745052 0.763455
0.270451 0.74316 0.762936
0.40206 0.771679 0.777325
0.687526 0.806104 0.803983
0.861082 0.809094 0.807446
0.896635 0.807538 0.798566
0.893141 0.803281 0.796124
0.276555 0.746868 0.763928
0.276555 0.746868 0.763928
0.276555 0.746868 0.763928
0.276555 0.746868 0.763928
0.320836 0.756741 0.768368
0.653529 0.821439 0.809079
0.801816 0.838529 0.82182
0.925231 0.851774 0.82974
0.930114 0.851667 0.829267
0.276555 0.746868 0.763928
0.276555 0.746868 0.763928
0.276555 0.746868 0.763928
0.276555 0.746868 0.763928
0.290486 0.749706 0.765133
0.581552 0.810788 0.801648
0.779034 0.836011 0.819928
0.909499 0.849638 0.829435
0.931075 0.853086 0.830503
