LUT预设1/LUT全系打包/6.FAKE5207&淡雅系列/淡雅LUT/rec709/淡雅warm709.cube
TITLE "Generated by Resolve"
LUT_3D_SIZE 9
0.018204 0.0188144 0.0295262
0.0571298 0.0201572 0.0277562
0.144381 0.0228428 0.0231022
0.283696 0.0320134 0.0213779
0.432029 0.0441138 0.0233921
0.567361 0.0581674 0.0272068
0.691463 0.0730907 0.0299992
0.812619 0.0894636 0.032578
0.916625 0.104417 0.0356298
0.0271916 0.0661479 0.058854
0.0725567 0.0717479 0.0585794
0.178683 0.0779583 0.0492256
0.334096 0.0901808 0.0444648
0.485939 0.105531 0.0416876
0.61796 0.119615 0.0415351
0.739986 0.134966 0.0428931
0.860716 0.152682 0.0448615
0.937224 0.165728 0.0459602
0.0467384 0.161837 0.135592
0.095201 0.171344 0.13254
0.198062 0.178607 0.110719
0.356435 0.187686 0.0929274
0.509071 0.202991 0.0825208
0.643336 0.219944 0.0785687
0.768429 0.236088 0.0771954
0.884352 0.25388 0.0785229
0.949065 0.268025 0.0818494
0.0665751 0.2907 0.262547
0.11632 0.306523 0.259449
0.210391 0.324697 0.229252
0.358373 0.335561 0.185748
0.52401 0.341085 0.165484
0.658198 0.354589 0.155077
0.786557 0.368185 0.150896
0.898207 0.383612 0.152605
0.95555 0.397498 0.158846
0.0904555 0.440528 0.404471
0.153323 0.462852 0.40444
0.241856 0.485481 0.37731
0.369558 0.505394 0.33135
0.537514 0.508034 0.284459
0.677531 0.511803 0.273487
0.797955 0.528344 0.264637
0.908034 0.540764 0.26186
0.955795 0.551431 0.270344
0.126146 0.581003 0.545251
0.21146 0.605097 0.551675
0.314595 0.62269 0.529976
0.425391 0.644053 0.490013
0.547631 0.661768 0.43003
0.694087 0.660594 0.399817
0.814084 0.66949 0.405356
0.910643 0.687755 0.410529
0.955123 0.703059 0.427207
0.19086 0.694011 0.655131
0.290501 0.721721 0.669306
0.394415 0.741405 0.665766
0.489189 0.75906 0.635431
0.579568 0.782986 0.581735
0.697353 0.798291 0.528679
0.830045 0.793683 0.521782
0.912932 0.803967 0.556695
0.951583 0.820371 0.590249
0.272786 0.798001 0.75523
0.380499 0.826871 0.772885
0.484627 0.852201 0.779461
0.56846 0.867765 0.763958
0.644846 0.882856 0.71725
0.731273 0.898726 0.666957
0.831556 0.903853 0.643946
0.917922 0.89189 0.656931
0.949416 0.89424 0.701274
0.374594 0.892409 0.848249
0.475776 0.913756 0.862333
0.567849 0.930999 0.869947
0.64892 0.940002 0.855055
0.722438 0.943877 0.818311
0.796948 0.947021 0.789425
0.863142 0.945525 0.77557
0.920485 0.936965 0.761791
0.950866 0.933165 0.778195
0.0211337 0.0311589 0.0691844
0.0585489 0.0303197 0.0685893
0.14342 0.0256809 0.0638132
0.287907 0.0285649 0.0540017
0.447593 0.0406348 0.047837
0.586023 0.0548409 0.0470588
0.709651 0.0706798 0.0479133
0.828901 0.0892195 0.0491035
0.925231 0.104387 0.0510567
0.0291142 0.0817273 0.0906539
0.0762188 0.0878462 0.0961776
0.181689 0.0893873 0.0899367
0.337575 0.0969711 0.0803388
0.492851 0.111696 0.0692454
0.626719 0.129198 0.0645609
0.747326 0.147799 0.0624857
0.863691 0.167071 0.0611734
0.938781 0.183169 0.0607462
0.0480964 0.182223 0.161776
0.0992752 0.19147 0.169909
0.202625 0.197742 0.155688
0.360784 0.204685 0.130312
0.514443 0.220584 0.118303
0.647532 0.236866 0.112352
0.772625 0.255268 0.110887
0.887633 0.274495 0.111727
0.949401 0.288624 0.115129
0.0697032 0.316991 0.28397
0.12604 0.330755 0.29633
0.226856 0.346395 0.276173
0.369848 0.356207 0.236484
0.531609 0.362646 0.211337
0.664027 0.374228 0.196048
0.791653 0.389151 0.191928
0.901534 0.406699 0.194949
0.957168 0.420462 0.201251
0.0992905 0.467842 0.429938
0.169238 0.487083 0.444282
0.270848 0.503288 0.428641
0.402487 0.519341 0.388754
0.551369 0.527291 0.339467
0.682673 0.532311 0.322469
0.802655 0.546715 0.310277
0.909743 0.558236 0.308324
0.957092 0.571176 0.318685
0.148013 0.602884 0.571099
0.237705 0.623667 0.580941
0.345663 0.639323 0.569345
0.455955 0.656107 0.539773
0.567178 0.674449 0.488701
0.702571 0.676905 0.449165
0.81944 0.685466 0.453651
0.914519 0.702373 0.458045
0.95523 0.717632 0.473442
0.219089 0.714443 0.679484
0.322667 0.739574 0.697169
0.426825 0.756634 0.697902
0.519112 0.772015 0.676005
0.602594 0.791959 0.633539
0.7084 0.809079 0.58085
0.838514 0.807691 0.563516
0.915846 0.817807 0.596078
0.951766 0.83212 0.626215
0.305913 0.81619 0.777676
0.416037 0.843107 0.798184
0.515145 0.86566 0.808164
0.594568 0.878477 0.79852
0.66685 0.890684 0.758511
0.747646 0.90483 0.710964
0.839567 0.910231 0.686473
0.918791 0.900572 0.69453
0.950881 0.902495 0.732555
0.41268 0.905211 0.868299
0.510353 0.924392 0.882979
0.59794 0.937804 0.890181
0.673854 0.944289 0.878447
0.744732 0.946929 0.84828
0.813016 0.949371 0.824521
0.873335 0.947311 0.809964
0.923461 0.940978 0.79646
0.952255 0.938399 0.805997
0.0276341 0.0550546 0.143328
0.0628672 0.0487373 0.146212
0.141482 0.0316625 0.143114
0.291203 0.0234989 0.130114
0.460914 0.0325628 0.104051
0.608713 0.0439765 0.0918898
0.733059 0.059144 0.0875715
0.847578 0.0780652 0.085893
0.934951 0.093904 0.0856794
0.0269474 0.111025 0.164904
0.0744793 0.111849 0.17319
0.180148 0.101839 0.171298
0.338506 0.0991531 0.155932
0.503273 0.110155 0.134249
0.640848 0.127855 0.117403
0.761242 0.148318 0.107469
0.873732 0.172488 0.103655
0.94345 0.191028 0.104555
0.0441291 0.207904 0.210163
0.0947433 0.216266 0.222583
0.201633 0.220798 0.215534
0.359747 0.225986 0.186847
0.51696 0.237263 0.174044
0.652705 0.252995 0.165667
0.777295 0.273274 0.162341
0.891173 0.294484 0.161639
0.949798 0.310597 0.164538
0.0674601 0.345266 0.289677
0.128344 0.359945 0.325582
0.237369 0.372976 0.327916
0.382422 0.381949 0.302266
0.537743 0.386633 0.269047
0.668772 0.395392 0.247852
0.793896 0.412482 0.243549
0.9028 0.431571 0.247364
0.95671 0.446342 0.254215
0.103029 0.497581 0.433738
0.180453 0.51371 0.469291
0.299153 0.526299 0.477806
0.431281 0.538918 0.449256
0.56321 0.548684 0.402319
0.687999 0.55462 0.37998
0.807431 0.564691 0.36405
0.911604 0.578225 0.363928
0.958068 0.592126 0.374716
0.154574 0.628412 0.580102
0.256519 0.644831 0.604776
0.373327 0.657588 0.607813
0.487266 0.670817 0.594278
0.586145 0.687617 0.550866
0.710979 0.694087 0.505104
0.824491 0.702922 0.506203
0.918135 0.717174 0.507317
0.95555 0.733166 0.522225
0.236332 0.737682 0.696773
0.357076 0.758984 0.724208
0.458793 0.773968 0.729122
0.547692 0.786435 0.716655
0.628214 0.802731 0.684779
0.719799 0.8215 0.636103
0.841154 0.823178 0.611521
0.918685 0.831769 0.637461
0.952041 0.844404 0.664775
0.337819 0.837369 0.798978
0.450553 0.860319 0.822446
0.546914 0.878828 0.835981
0.622202 0.889982 0.831968
0.690242 0.900023 0.801068
0.76408 0.912016 0.756634
0.847974 0.915862 0.73135
0.920409 0.908934 0.734249
0.952178 0.911192 0.765576
0.451164 0.918669 0.886809
0.545922 0.934035 0.902068
0.628824 0.943481 0.909072
0.699214 0.948348 0.903014
0.766979 0.950256 0.877501
0.831144 0.95111 0.856657
0.884276 0.949416 0.844312
0.927504 0.945205 0.831418
0.953902 0.943923 0.834394
0.0396887 0.0948348 0.248371
0.072755 0.0812543 0.257221
0.141894 0.0481117 0.257633
0.292454 0.0242771 0.251942
0.47248 0.0271763 0.225589
0.624033 0.0357214 0.19115
0.749767 0.0454414 0.163348
0.862821 0.0583352 0.149065
0.941527 0.071519 0.141985
0.0260471 0.156619 0.270573
0.0738842 0.150057 0.283864
0.175341 0.125216 0.288792
0.337514 0.105119 0.280964
0.512596 0.105562 0.256458
0.65565 0.11603 0.225055
0.780102 0.132082 0.197284
0.887358 0.152972 0.182254
0.949813 0.172 0.18085
0.0380865 0.245686 0.304204
0.0851759 0.254429 0.314015
0.188785 0.254749 0.315114
0.356695 0.24744 0.301396
0.525841 0.249531 0.284337
0.665873 0.260517 0.263783
0.788327 0.281056 0.24979
0.899077 0.305211 0.243046
0.952361 0.324529 0.244007
0.0590066 0.373266 0.344808
0.119722 0.390448 0.373816
0.236088 0.403052 0.391043
0.390219 0.409857 0.381872
0.540658 0.413306 0.338338
0.671077 0.42089 0.319356
0.795148 0.438209 0.315999
0.903578 0.458839 0.319646
0.95613 0.475456 0.326452
0.08925 0.526482 0.437079
0.162066 0.540505 0.476722
0.301656 0.551751 0.512398
0.448066 0.562615 0.510384
0.572152 0.572412 0.475517
0.69189 0.576547 0.442679
0.81146 0.585687 0.426505
0.912322 0.599695 0.426612
0.959167 0.615198 0.438453
0.138323 0.656199 0.567346
0.242054 0.668101 0.608164
0.387793 0.678767 0.638163
0.511574 0.689189 0.643107
0.607782 0.701915 0.61532
0.71873 0.711833 0.567193
0.82916 0.720302 0.559686
0.919814 0.733593 0.559899
0.955962 0.749477 0.573281
0.220447 0.766232 0.69482
0.359579 0.780224 0.735546
0.480125 0.792157 0.753765
0.575647 0.803372 0.756298
0.652399 0.815961 0.733089
0.735821 0.832868 0.690669
0.845396 0.838697 0.664561
0.921752 0.846113 0.681712
0.952392 0.85658 0.704616
0.338613 0.86244 0.806287
0.474022 0.878981 0.841199
0.578637 0.892134 0.860426
0.651057 0.901411 0.861463
0.713924 0.909834 0.83859
0.784207 0.918196 0.802167
0.859144 0.921538 0.779095
0.923369 0.917571 0.776806
0.953048 0.920394 0.800183
0.47425 0.932403 0.898573
0.578576 0.941848 0.916655
0.660044 0.948318 0.925246
0.72604 0.951949 0.923247
0.788144 0.953506 0.904631
0.84802 0.953002 0.885695
0.895689 0.951797 0.876417
0.932372 0.949722 0.865141
0.955993 0.949523 0.862196
0.0556802 0.145586 0.369574
0.0882887 0.130312 0.387304
0.147875 0.0866865 0.39498
0.28751 0.0349737 0.396658
0.473075 0.0248112 0.380865
0.631144 0.0304265 0.349477
0.757168 0.0378729 0.310323
0.869169 0.0457313 0.271778
0.943923 0.0530556 0.249943
0.0285039 0.208438 0.387472
0.0753033 0.202167 0.407309
0.17142 0.164736 0.422324
0.329702 0.119646 0.427512
0.514366 0.111925 0.415122
0.663737 0.115526 0.386267
0.788891 0.122377 0.349859
0.894423 0.134981 0.318593
0.953063 0.150698 0.30518
0.0346227 0.299367 0.430579
0.0779126 0.309102 0.441596
0.17293 0.303441 0.440543
0.350027 0.272694 0.44303
0.530465 0.262791 0.433005
0.678645 0.269169 0.412009
0.801877 0.28394 0.386587
0.908217 0.305074 0.368933
0.955505 0.326009 0.367559
0.0522469 0.410712 0.454551
0.108705 0.428214 0.469718
0.221088 0.437446 0.479667
0.381994 0.442222 0.481575
0.540841 0.442817 0.459846
0.680583 0.444892 0.4421
0.804608 0.459037 0.430106
0.908141 0.479484 0.425742
0.956405 0.498558 0.429267
0.0644694 0.54757 0.488151
0.133608 0.563287 0.516594
0.275654 0.575708 0.547707
0.446647 0.587076 0.566125
0.580346 0.596628 0.555215
0.696162 0.600732 0.51577
0.813077 0.608103 0.500542
0.912413 0.624094 0.503105
0.959274 0.640421 0.513436
0.106432 0.678798 0.574319
0.19675 0.691661 0.607767
0.357366 0.700587 0.64741
0.514656 0.709972 0.673732
0.626673 0.71899 0.670604
0.725536 0.729519 0.636118
0.834012 0.738857 0.614954
0.920333 0.751034 0.613626
0.956054 0.766506 0.626093
0.170779 0.794965 0.67689
0.305486 0.804685 0.721279
0.464408 0.813458 0.759777
0.594644 0.821241 0.788312
0.67541 0.832044 0.778881
0.756802 0.844297 0.745129
0.851316 0.852598 0.720119
0.924361 0.859861 0.727504
0.952743 0.868833 0.745327
0.293767 0.891127 0.789609
0.451774 0.90013 0.83711
0.585901 0.905913 0.87039
0.674998 0.912673 0.884337
0.738018 0.919814 0.8719
0.806073 0.924575 0.845243
0.872862 0.927108 0.826612
0.927016 0.925933 0.81973
0.953841 0.929549 0.835264
0.45452 0.946593 0.890089
0.587625 0.949905 0.920058
0.685283 0.952544 0.935561
0.751446 0.955139 0.937652
0.80882 0.956115 0.927001
0.86334 0.955306 0.911208
0.907897 0.954559 0.904219
0.937957 0.954208 0.895491
0.958068 0.954925 0.890867
0.0699474 0.198611 0.490684
0.103838 0.186191 0.51223
0.156664 0.141497 0.523339
0.271504 0.0620279 0.533623
0.463142 0.0269322 0.531334
0.62916 0.0291752 0.515801
0.758724 0.0349432 0.487419
0.870268 0.0420386 0.450263
0.942367 0.0478218 0.423072
0.0310826 0.257984 0.497948
0.0751202 0.254871 0.520897
0.164736 0.217838 0.544579
0.31545 0.147646 0.563622
0.507332 0.118715 0.561776
0.662577 0.127077 0.546258
0.791501 0.133608 0.521691
0.894606 0.140887 0.490303
0.95259 0.153033 0.472999
0.0293889 0.353628 0.550805
0.0664378 0.363302 0.558358
0.158068 0.353185 0.554788
0.334386 0.305943 0.573175
0.528115 0.277501 0.579644
0.681254 0.286931 0.567117
0.807736 0.298161 0.545495
0.910399 0.313466 0.524392
0.955627 0.329915 0.516625
0.0539101 0.458839 0.586526
0.105837 0.47364 0.593835
0.209918 0.482292 0.595895
0.361578 0.479484 0.59173
0.538247 0.46508 0.590997
0.689036 0.467643 0.584451
0.815885 0.477317 0.570581
0.914321 0.493294 0.558221
0.957153 0.513359 0.559472
0.0559091 0.572168 0.589258
0.12549 0.589242 0.605325
0.259007 0.603372 0.620493
0.427832 0.612787 0.631357
0.578515 0.621393 0.633875
0.702174 0.623438 0.617853
0.821714 0.630045 0.604303
0.915602 0.645747 0.603082
0.958724 0.663584 0.609537
0.0796826 0.695521 0.628672
0.170642 0.709392 0.647654
0.322271 0.720897 0.671427
0.489479 0.730129 0.694469
0.629038 0.738979 0.711421
0.733837 0.749432 0.696544
0.837293 0.757748 0.675746
0.920272 0.769879 0.674556
0.955917 0.785672 0.6851
0.136538 0.815381 0.696284
0.249363 0.827207 0.721721
0.412482 0.835279 0.754055
0.573465 0.841947 0.792981
0.684474 0.850431 0.810773
0.773022 0.858503 0.795117
0.858747 0.8663 0.774868
0.927138 0.873823 0.774502
0.953079 0.881697 0.786999
0.235492 0.913741 0.778195
0.389746 0.918624 0.817014
0.54725 0.921523 0.856352
0.672709 0.924651 0.88954
0.75642 0.929213 0.89546
0.824369 0.931441 0.8804
0.885924 0.932967 0.868101
0.931563 0.934234 0.860975
0.954894 0.938506 0.868772
0.407797 0.956771 0.866133
0.557015 0.956893 0.904814
0.678965 0.95697 0.932006
0.765743 0.958206 0.944488
0.827527 0.958511 0.943038
0.877241 0.95787 0.931746
0.918532 0.957427 0.925963
0.943908 0.958267 0.921309
0.959518 0.959136 0.917662
0.0789807 0.247028 0.598886
0.114855 0.238651 0.622736
0.167788 0.197971 0.636713
0.255985 0.109621 0.649531
0.442725 0.0373693 0.658259
0.618479 0.0303044 0.648081
0.752865 0.0382391 0.6327
0.869368 0.0447852 0.611048
0.940795 0.0504463 0.593011
0.0324559 0.302419 0.594385
0.0733196 0.302144 0.616541
0.162341 0.275227 0.647135
0.291844 0.192844 0.676081
0.489494 0.125444 0.687785
0.657298 0.135912 0.679515
0.787808 0.152468 0.666468
0.893507 0.161486 0.6477
0.951537 0.172946 0.634836
0.0218662 0.400916 0.650156
0.0492866 0.407919 0.650233
0.138064 0.397696 0.646754
0.310521 0.349447 0.679332
0.513817 0.290227 0.701595
0.680217 0.297597 0.698543
0.808148 0.320378 0.68632
0.909667 0.334859 0.672892
0.954192 0.349294 0.666331
0.0581369 0.507012 0.708446
0.108843 0.520653 0.711284
0.20412 0.52726 0.706188
0.342031 0.518608 0.692119
0.530114 0.486473 0.707454
0.692897 0.482399 0.712184
0.819394 0.497993 0.701289
0.917021 0.513344 0.689586
0.956558 0.530617 0.688746
0.0622416 0.604578 0.702983
0.134722 0.622477 0.716686
0.258686 0.636728 0.725155
0.413764 0.645899 0.728176
0.56321 0.646845 0.725063
0.705089 0.644144 0.727077
0.829908 0.650278 0.720714
0.919661 0.662577 0.71722
0.958343 0.677745 0.721889
0.0784161 0.714458 0.712459
0.175082 0.729839 0.727626
0.316915 0.74229 0.739422
0.475135 0.754025 0.751339
0.616358 0.764172 0.765713
0.733806 0.770001 0.76788
0.843046 0.776364 0.758038
0.921721 0.786969 0.755932
0.956161 0.801633 0.763592
0.12726 0.829633 0.754543
0.242603 0.842329 0.771176
0.396384 0.85301 0.789288
0.547951 0.860746 0.808316
0.674861 0.867704 0.830411
0.780438 0.874647 0.840421
0.865751 0.880934 0.828717
0.927993 0.88716 0.823438
0.953292 0.894575 0.82945
0.211353 0.926375 0.815641
0.355993 0.930556 0.833814
0.511101 0.93344 0.857969
0.643641 0.935714 0.886275
0.751202 0.937087 0.906279
0.834852 0.938643 0.908064
0.896406 0.940108 0.901656
0.93637 0.942351 0.895827
0.956329 0.945586 0.898329
0.379858 0.961425 0.877455
0.525002 0.961135 0.901869
0.649592 0.960754 0.923598
0.751141 0.960723 0.942336
0.83061 0.960449 0.949462
0.887251 0.960189 0.946303
0.927001 0.960204 0.94258
0.949386 0.961242 0.939742
0.960922 0.962051 0.938613
0.084123 0.293584 0.697032
0.122942 0.287953 0.722576
0.180911 0.253956 0.739757
0.250553 0.173724 0.750103
0.411994 0.0654002 0.76643
0.608454 0.031281 0.764691
0.743145 0.0426795 0.750393
0.862913 0.0525216 0.739116
0.939727 0.0601663 0.730663
0.0322881 0.348043 0.683543
0.0717021 0.350057 0.705837
0.161089 0.332235 0.740444
0.273289 0.257527 0.77406
0.452338 0.150332 0.795392
0.645197 0.136477 0.79472
0.779156 0.16437 0.78172
0.888106 0.183078 0.771099
0.950561 0.197208 0.764126
0.0162966 0.444175 0.733364
0.0344244 0.44744 0.725551
0.125093 0.440558 0.728634
0.282032 0.40061 0.764721
0.479316 0.321202 0.805066
0.670024 0.302373 0.814603
0.804089 0.335958 0.80473
0.906142 0.361456 0.795804
0.953445 0.377798 0.790661
0.0640879 0.553033 0.814496
0.112123 0.563439 0.812863
0.196277 0.565118 0.794675
0.321157 0.552911 0.77026
0.508232 0.522133 0.799771
0.686046 0.492149 0.822797
0.818784 0.512642 0.818128
0.917174 0.536583 0.810788
0.955978 0.554879 0.81088
0.0796521 0.645502 0.818479
0.155398 0.661616 0.82919
0.269764 0.674311 0.832135
0.407095 0.68101 0.824964
0.547662 0.675639 0.810941
0.699565 0.661799 0.824704
0.8318 0.662943 0.829435
0.920256 0.678294 0.826993
0.957061 0.693141 0.831586
0.097734 0.739605 0.813733
0.192279 0.755688 0.825818
0.329091 0.77052 0.836088
0.476417 0.782437 0.843412
0.608286 0.790921 0.847669
0.728664 0.790661 0.848539
0.846738 0.791363 0.848371
0.923247 0.802045 0.848676
0.956436 0.815549 0.854749
0.140642 0.846586 0.831098
0.26273 0.859648 0.845319
0.408881 0.869978 0.85594
0.549813 0.878279 0.864393
0.67039 0.885313 0.876402
0.777386 0.88954 0.88658
0.868788 0.893309 0.885725
0.929381 0.899397 0.880278
0.954147 0.906783 0.883848
0.23534 0.93312 0.873549
0.377096 0.937346 0.884871
0.516915 0.940917 0.895567
0.636927 0.943481 0.905791
0.743297 0.943603 0.919615
0.833661 0.944579 0.928542
0.901091 0.946319 0.928222
0.940261 0.948989 0.925002
0.957855 0.950912 0.922621
0.390173 0.963897 0.915404
0.523934 0.963134 0.92398
0.637995 0.96257 0.93341
0.732906 0.962295 0.943175
0.818341 0.96202 0.951598
0.886137 0.962081 0.954787
0.931411 0.962371 0.953689
0.95349 0.963119 0.952438
0.962356 0.963546 0.951568
0.0883803 0.336782 0.783123
0.128161 0.332204 0.807782
0.191028 0.303258 0.828855
0.251011 0.232242 0.839673
0.378073 0.107332 0.860548
0.591073 0.0340734 0.871641
0.735622 0.0452277 0.858244
0.85391 0.0631113 0.84654
0.934478 0.0777905 0.839429
0.030869 0.389792 0.762692
0.0703136 0.390616 0.781765
0.159594 0.376867 0.813962
0.266865 0.316701 0.84892
0.407431 0.190738 0.874815
0.624781 0.14136 0.892195
0.77261 0.166766 0.884398
0.881239 0.200153 0.875685
0.947982 0.224048 0.869108
0.00981155 0.47747 0.795056
0.0296941 0.479454 0.78819
0.118013 0.474083 0.793881
0.263752 0.444038 0.82771
0.444251 0.361334 0.875135
0.646006 0.310872 0.900008
0.799924 0.340017 0.899565
0.901305 0.379019 0.893248
0.952697 0.407385 0.890455
0.0669718 0.586572 0.894057
0.112245 0.591745 0.882246
0.183276 0.586084 0.848478
0.304189 0.575372 0.824781
0.485924 0.552102 0.862974
0.669261 0.507668 0.90367
0.815381 0.519188 0.907118
0.915236 0.553506 0.903197
0.954833 0.578851 0.902556
0.0977035 0.680461 0.915145
0.172869 0.694102 0.920363
0.276158 0.701259 0.910994
0.396597 0.700282 0.883818
0.530343 0.694835 0.864378
0.688289 0.681285 0.892134
0.829953 0.671183 0.913817
0.919982 0.691737 0.911238
0.955734 0.713649 0.910796
0.120394 0.764797 0.903334
0.212314 0.780224 0.911086
0.340825 0.794324 0.918334
0.479912 0.806073 0.92195
0.602319 0.810208 0.910491
0.722332 0.80592 0.90631
0.847166 0.800793 0.915862
0.924422 0.814832 0.91957
0.955474 0.83122 0.921645
0.159213 0.862074 0.906416
0.27895 0.873991 0.912978
0.42089 0.884291 0.918135
0.555154 0.892912 0.922988
0.670222 0.898421 0.928008
0.774182 0.900649 0.929473
0.867765 0.901366 0.930861
0.930724 0.908598 0.930541
0.955352 0.917647 0.932952
0.269398 0.939178 0.922332
0.40798 0.943358 0.929839
0.540169 0.94667 0.934203
0.651606 0.948196 0.937072
0.74638 0.948547 0.941482
0.831937 0.949477 0.945876
0.899947 0.950912 0.947936
0.942351 0.953307 0.946944
0.959533 0.955505 0.946334
0.435401 0.964553 0.942733
0.555077 0.963729 0.94583
0.653391 0.963455 0.949096
0.738918 0.963241 0.952239
0.816876 0.963165 0.956146
0.882353 0.963348 0.959411
0.930739 0.96379 0.960922
0.955291 0.963989 0.959884
0.963272 0.964218 0.959152
