LUT预设1/LUT全系打包/6.FAKE5207&淡雅系列/淡雅LUT/rec709/淡雅cold709.cube
TITLE "Generated by Resolve"
LUT_3D_SIZE 9
0.0141451 0.023331 0.0422065
0.0449378 0.0242771 0.0413672
0.119829 0.0241703 0.0359808
0.252537 0.0303807 0.0309148
0.405509 0.0416114 0.0297398
0.545495 0.0550393 0.0328832
0.670878 0.0695354 0.035462
0.791348 0.0861372 0.0374304
0.901747 0.102647 0.0403754
0.0217441 0.0737011 0.071046
0.0566567 0.079118 0.075288
0.148074 0.0828717 0.0672007
0.297719 0.0920119 0.06009
0.454276 0.106767 0.0534981
0.591119 0.121889 0.0507668
0.712703 0.137667 0.0506752
0.834638 0.156191 0.0514076
0.923842 0.171481 0.0520485
0.0391699 0.172229 0.148272
0.0782177 0.181582 0.154574
0.165148 0.188479 0.139361
0.313817 0.195804 0.116533
0.472297 0.209247 0.102281
0.610956 0.226291 0.0961318
0.736217 0.242802 0.0938735
0.857786 0.261494 0.0947433
0.937896 0.27718 0.0978561
0.0578012 0.305074 0.275807
0.100969 0.319127 0.285679
0.183505 0.335622 0.26804
0.316335 0.348852 0.226398
0.482124 0.353597 0.195697
0.622599 0.364736 0.181567
0.750286 0.377905 0.174823
0.870619 0.394598 0.176028
0.946212 0.409552 0.181613
0.078645 0.454063 0.41857
0.136385 0.475044 0.435676
0.224201 0.493492 0.422431
0.340291 0.514229 0.386618
0.495689 0.52314 0.332723
0.641093 0.524269 0.306859
0.760708 0.53843 0.297368
0.878599 0.551385 0.291447
0.946181 0.56318 0.298695
0.110658 0.589792 0.558434
0.193759 0.614893 0.575891
0.294957 0.63151 0.568109
0.407324 0.648142 0.541543
0.514061 0.669612 0.49221
0.651087 0.675547 0.441657
0.777844 0.678553 0.437171
0.882673 0.694942 0.442802
0.945144 0.711284 0.45568
0.171771 0.700725 0.666697
0.271031 0.72903 0.688609
0.377935 0.75021 0.696208
0.476066 0.764996 0.680735
0.561913 0.784115 0.64419
0.658503 0.805982 0.586618
0.786892 0.809064 0.551125
0.888319 0.812284 0.575174
0.942321 0.826368 0.608331
0.25153 0.803525 0.766506
0.359258 0.831601 0.788434
0.467903 0.857893 0.8038
0.557809 0.874571 0.803586
0.631769 0.886488 0.772045
0.708934 0.900069 0.722087
0.795987 0.91252 0.688121
0.890898 0.904418 0.677821
0.94052 0.900328 0.710628
0.355657 0.896681 0.859556
0.458488 0.916609 0.87599
0.552804 0.933257 0.887846
0.636637 0.943099 0.885313
0.709651 0.946624 0.859831
0.781826 0.949096 0.830396
0.846372 0.949462 0.814099
0.900496 0.945205 0.799695
0.941894 0.938216 0.794644
0.0181735 0.0398413 0.0939193
0.0474556 0.0387579 0.0959182
0.117952 0.0296788 0.0931106
0.254398 0.0259251 0.0820478
0.42002 0.0355688 0.0684215
0.566354 0.0485237 0.0624552
0.692424 0.0635386 0.0618601
0.810803 0.0823682 0.0619669
0.912764 0.0994278 0.0631876
0.0218509 0.0928206 0.114977
0.0584115 0.0995041 0.124895
0.149065 0.0969863 0.122911
0.298863 0.0984817 0.112718
0.460273 0.110079 0.0962997
0.600748 0.127764 0.0858778
0.721996 0.147173 0.0804761
0.839796 0.168139 0.0771496
0.926497 0.187533 0.076112
0.0384833 0.194705 0.17818
0.0786755 0.204776 0.193912
0.167452 0.210636 0.190768
0.31603 0.214923 0.162707
0.476249 0.228138 0.146792
0.614557 0.243107 0.138445
0.739986 0.261784 0.135836
0.860868 0.282567 0.135927
0.938201 0.298741 0.138628
0.0589151 0.333089 0.282322
0.104784 0.346502 0.315236
0.19736 0.361105 0.313939
0.329961 0.371603 0.283619
0.490272 0.377447 0.251179
0.628 0.385763 0.229099
0.75462 0.399466 0.221332
0.873716 0.418814 0.223896
0.948104 0.434119 0.229603
0.0861677 0.484642 0.429404
0.147707 0.502586 0.463188
0.248234 0.516381 0.467399
0.375753 0.530083 0.442191
0.513893 0.542504 0.393683
0.646006 0.546563 0.362814
0.765087 0.557992 0.348287
0.880659 0.569299 0.342489
0.948104 0.583413 0.351415
0.12636 0.61561 0.575189
0.213901 0.635569 0.598276
0.323049 0.650431 0.602625
0.43827 0.663066 0.587304
0.539208 0.681819 0.55201
0.660807 0.691417 0.496574
0.783215 0.695689 0.48867
0.887236 0.710536 0.492088
0.945678 0.726162 0.50341
0.191775 0.724651 0.685466
0.30132 0.749065 0.713237
0.410513 0.767239 0.725124
0.506691 0.78056 0.716381
0.589578 0.794873 0.690379
0.675105 0.81593 0.640604
0.794476 0.823529 0.596582
0.891661 0.826978 0.617227
0.94287 0.838788 0.645975
0.279896 0.824659 0.786282
0.395071 0.849592 0.811933
0.50071 0.872526 0.829084
0.585077 0.886381 0.833173
0.655741 0.895903 0.811231
0.727932 0.9075 0.764477
0.808179 0.918273 0.733333
0.893629 0.91165 0.720424
0.942565 0.908553 0.744274
0.393957 0.910658 0.878096
0.49514 0.927901 0.894881
0.586282 0.940307 0.906203
0.663691 0.947555 0.906447
0.733028 0.949966 0.885908
0.800244 0.951659 0.860777
0.859998 0.951019 0.84622
0.907393 0.94789 0.83447
0.944183 0.943175 0.824918
0.0269932 0.0708629 0.181918
0.0548257 0.0650187 0.189212
0.117098 0.0427558 0.189578
0.254185 0.0239261 0.18201
0.43006 0.0280919 0.152255
0.586435 0.0373693 0.129229
0.714855 0.0499275 0.116609
0.830457 0.0666361 0.110704
0.924605 0.0831464 0.108186
0.0187686 0.130327 0.206287
0.0556039 0.131853 0.218173
0.145434 0.11693 0.222477
0.296407 0.103838 0.212116
0.468727 0.107317 0.189685
0.615763 0.121126 0.16556
0.73959 0.1393 0.147555
0.854719 0.163088 0.138247
0.934661 0.18436 0.136645
0.033402 0.224781 0.245457
0.0701457 0.234806 0.25951
0.161242 0.239078 0.262455
0.312367 0.239918 0.239796
0.478096 0.244877 0.224964
0.622354 0.257038 0.211551
0.74725 0.276112 0.203723
0.866102 0.298924 0.200153
0.939544 0.318013 0.201801
0.0533761 0.360922 0.297337
0.100282 0.376898 0.341283
0.199451 0.390539 0.362692
0.34136 0.400061 0.355016
0.496635 0.404227 0.320211
0.631739 0.409171 0.288655
0.755886 0.424018 0.280903
0.874113 0.444694 0.284764
0.947005 0.461784 0.291554
0.0838941 0.515267 0.423774
0.14345 0.530709 0.468803
0.261784 0.542519 0.503685
0.399786 0.553155 0.49691
0.528206 0.564431 0.461463
0.651102 0.570336 0.42797
0.769818 0.577218 0.406882
0.88307 0.590173 0.40264
0.94934 0.604913 0.411307
0.119585 0.645701 0.564294
0.21236 0.6598 0.605814
0.338338 0.671107 0.62948
0.466789 0.68188 0.635065
0.563882 0.695705 0.611475
0.671794 0.707744 0.559808
0.788022 0.714504 0.545464
0.891402 0.726177 0.542748
0.946365 0.741939 0.553292
0.187427 0.753353 0.687083
0.319875 0.771374 0.730953
0.435843 0.786191 0.748943
0.534112 0.797559 0.751858
0.616083 0.809323 0.735988
0.692638 0.828077 0.69482
0.800656 0.836728 0.651316
0.895323 0.841566 0.661952
0.943496 0.851789 0.686671
0.29102 0.850919 0.796841
0.419455 0.869947 0.830213
0.533669 0.886778 0.853178
0.615198 0.898222 0.860456
0.681941 0.906645 0.847395
0.748486 0.915908 0.807721
0.822416 0.922988 0.779644
0.898421 0.918791 0.764904
0.944259 0.91725 0.780224
0.422004 0.926131 0.891569
0.52874 0.938201 0.910399
0.618997 0.946014 0.921508
0.690883 0.951354 0.924849
0.756878 0.953338 0.911254
0.819959 0.953735 0.888472
0.874037 0.952819 0.876524
0.915511 0.950942 0.867079
0.946853 0.948425 0.855406
0.0412604 0.117937 0.296681
0.068574 0.107744 0.311223
0.121141 0.0719158 0.317082
0.25272 0.0322576 0.317647
0.436835 0.0256962 0.299992
0.597131 0.0317845 0.263981
0.726589 0.0393683 0.226688
0.842817 0.0490272 0.20087
0.930968 0.0602426 0.185565
0.0186007 0.182452 0.319966
0.0566567 0.180102 0.338003
0.140902 0.153292 0.349584
0.290959 0.118242 0.35198
0.472129 0.108858 0.335973
0.626368 0.11339 0.306355
0.755261 0.122454 0.271519
0.868025 0.138369 0.244541
0.941878 0.157855 0.23566
0.0292058 0.270298 0.3608
0.0624094 0.28249 0.372732
0.142473 0.284627 0.379538
0.30428 0.267414 0.37528
0.484184 0.259586 0.362615
0.636652 0.264378 0.340642
0.761288 0.280552 0.320317
0.877668 0.303426 0.306966
0.94464 0.324727 0.304829
0.0436561 0.390677 0.390051
0.0885634 0.409613 0.412543
0.187549 0.423117 0.433021
0.33994 0.43006 0.439826
0.497032 0.434409 0.406653
0.635584 0.436301 0.384176
0.760922 0.449226 0.375525
0.876738 0.469673 0.375189
0.946517 0.488807 0.380468
0.0632029 0.54052 0.452445
0.109651 0.555688 0.478462
0.237125 0.567452 0.524407
0.401328 0.578424 0.547723
0.537942 0.588785 0.537057
0.655436 0.593606 0.497597
0.772717 0.599451 0.473259
0.883177 0.612772 0.470665
0.950484 0.629053 0.480659
0.0983749 0.672511 0.554986
0.17377 0.684642 0.596582
0.319631 0.694163 0.639246
0.475868 0.703334 0.667491
0.585275 0.712703 0.66479
0.684627 0.724086 0.627665
0.793332 0.732769 0.602991
0.893767 0.743725 0.596536
0.94699 0.758709 0.605661
0.150729 0.786374 0.667582
0.275639 0.797711 0.71902
0.424979 0.806989 0.755337
0.552987 0.816358 0.780102
0.641032 0.826032 0.779583
0.71458 0.840131 0.747326
0.811429 0.849653 0.709926
0.89955 0.856214 0.709987
0.944106 0.864729 0.728954
0.25687 0.88127 0.783368
0.405478 0.893614 0.8309
0.548302 0.902144 0.866239
0.640925 0.909789 0.881987
0.707073 0.917189 0.876677
0.772259 0.923278 0.848157
0.839979 0.927626 0.826459
0.905135 0.926253 0.810971
0.945373 0.926543 0.818921
0.404623 0.94226 0.885161
0.538018 0.94757 0.913848
0.645975 0.951308 0.932128
0.719448 0.954543 0.937987
0.780102 0.956436 0.931487
0.837308 0.956069 0.913649
0.887694 0.95491 0.90341
0.924041 0.954376 0.896498
0.950164 0.95349 0.883894
0.057557 0.171633 0.421286
0.0860914 0.162982 0.442985
0.132662 0.125124 0.455665
0.244648 0.0564736 0.46302
0.429526 0.027512 0.457176
0.599054 0.0286259 0.436301
0.730526 0.035111 0.403204
0.845838 0.0421912 0.361273
0.931411 0.0486 0.332052
0.0213626 0.23447 0.436484
0.0577096 0.235691 0.459052
0.137331 0.205493 0.479942
0.279469 0.144503 0.496574
0.46688 0.11902 0.495277
0.628901 0.122225 0.47689
0.75935 0.126345 0.446921
0.871427 0.134203 0.411337
0.943496 0.147005 0.390433
0.0267491 0.328191 0.49305
0.0569619 0.341054 0.506142
0.127199 0.342184 0.501518
0.29044 0.303426 0.512093
0.481224 0.276448 0.514229
0.642603 0.279622 0.502052
0.771634 0.289754 0.479912
0.885664 0.305806 0.456397
0.947433 0.325292 0.448569
0.0417487 0.43447 0.519768
0.0827192 0.452781 0.533333
0.172213 0.464332 0.540154
0.318883 0.467475 0.545159
0.490318 0.463462 0.538231
0.643793 0.461204 0.527001
0.773693 0.469551 0.513115
0.884978 0.486275 0.502754
0.948135 0.505714 0.503517
0.0413519 0.560067 0.537133
0.0939193 0.577783 0.556664
0.209796 0.591943 0.578286
0.382803 0.603418 0.600107
0.5402 0.612924 0.60911
0.660822 0.618509 0.582788
0.777005 0.622171 0.563714
0.885359 0.636622 0.561776
0.950652 0.653544 0.568582
0.0695811 0.690684 0.597269
0.133486 0.704921 0.619348
0.266758 0.715557 0.646433
0.446006 0.724544 0.681193
0.589014 0.732555 0.701579
0.695338 0.742351 0.6907
0.798596 0.752056 0.660334
0.894575 0.762737 0.653117
0.94699 0.776959 0.661814
0.116426 0.811322 0.672221
0.211597 0.822492 0.70779
0.368048 0.830945 0.74432
0.535561 0.836744 0.785367
0.652094 0.844404 0.809522
0.735485 0.854414 0.795163
0.822522 0.86273 0.767666
0.903288 0.870161 0.759747
0.94461 0.877562 0.771984
0.202472 0.908461 0.763638
0.341497 0.91635 0.807324
0.508095 0.918959 0.852094
0.638193 0.92224 0.886152
0.727169 0.927169 0.898131
0.793606 0.93077 0.882033
0.858152 0.932769 0.86685
0.912444 0.933471 0.854398
0.946822 0.93579 0.857466
0.355337 0.954986 0.860334
0.507637 0.95642 0.89749
0.642985 0.956558 0.929229
0.733516 0.957748 0.942931
0.800137 0.958663 0.945037
0.853559 0.958419 0.934249
0.900526 0.957351 0.925139
0.932204 0.957778 0.921004
0.953689 0.958068 0.911574
0.0692607 0.223743 0.539925
0.0994736 0.218753 0.563714
0.147219 0.185199 0.5776
0.229114 0.102327 0.590723
0.411719 0.037583 0.597635
0.589654 0.0296635 0.589136
0.727718 0.035172 0.572045
0.845701 0.0419318 0.545754
0.929107 0.0481575 0.519417
0.0235447 0.28188 0.542168
0.0567788 0.285603 0.564889
0.132631 0.264149 0.591608
0.260655 0.190784 0.620935
0.451514 0.128115 0.630884
0.62266 0.132219 0.622644
0.758541 0.144305 0.608362
0.870237 0.151324 0.584268
0.942245 0.162295 0.567193
0.0209964 0.380056 0.605356
0.0441749 0.391501 0.614374
0.110323 0.389517 0.603754
0.268147 0.34934 0.627588
0.470771 0.292744 0.648829
0.640391 0.294224 0.646387
0.773465 0.310063 0.632929
0.885832 0.324498 0.614801
0.946471 0.339467 0.605295
0.0466011 0.485527 0.654124
0.0856336 0.500832 0.662562
0.170245 0.512367 0.663783
0.299458 0.513375 0.65362
0.479515 0.4878 0.658198
0.647044 0.479881 0.663157
0.781201 0.49102 0.655482
0.890593 0.503548 0.641215
0.948577 0.521645 0.638056
0.0428168 0.589715 0.650278
0.0961318 0.607492 0.665553
0.206943 0.62295 0.678752
0.362036 0.633646 0.685069
0.521965 0.641123 0.689479
0.660349 0.640314 0.688457
0.787381 0.64448 0.680461
0.892073 0.655924 0.675746
0.950973 0.671336 0.679332
0.0521553 0.707103 0.674006
0.127581 0.722087 0.69015
0.257527 0.735256 0.705852
0.420356 0.7458 0.721141
0.573343 0.755123 0.736904
0.696101 0.764782 0.747097
0.802747 0.771298 0.732982
0.896162 0.781003 0.727367
0.947219 0.795316 0.733684
0.0968643 0.826612 0.728283
0.187152 0.839567 0.746136
0.329671 0.84979 0.763928
0.495598 0.857572 0.790951
0.634455 0.86389 0.820249
0.744091 0.870726 0.83267
0.832471 0.877226 0.820203
0.907347 0.884276 0.811124
0.945159 0.890837 0.816602
0.166583 0.924681 0.792294
0.297002 0.929686 0.816938
0.455863 0.932815 0.84332
0.60116 0.934936 0.874998
0.719463 0.936538 0.903655
0.803647 0.938033 0.906172
0.871702 0.9393 0.898985
0.920134 0.94081 0.892287
0.948928 0.944183 0.891752
0.317388 0.961364 0.859098
0.469276 0.961349 0.888609
0.607813 0.960784 0.917678
0.718288 0.9608 0.938491
0.805341 0.960571 0.949584
0.865034 0.960464 0.947509
0.910338 0.95993 0.941238
0.939635 0.960769 0.94023
0.956573 0.961379 0.935195
0.0757916 0.271321 0.644755
0.107286 0.269947 0.670344
0.161364 0.241184 0.68838
0.223316 0.166934 0.69984
0.383276 0.0634012 0.716457
0.576226 0.0312352 0.713146
0.716838 0.0396887 0.701259
0.840726 0.047776 0.687556
0.927657 0.0541085 0.673823
0.0246281 0.327047 0.637095
0.0547036 0.332235 0.657938
0.133257 0.32108 0.68925
0.241627 0.255451 0.723873
0.418708 0.152361 0.747524
0.612482 0.135195 0.747723
0.749172 0.158968 0.73666
0.866194 0.173907 0.724926
0.941329 0.185809 0.7149
0.0155032 0.42623 0.698787
0.0294804 0.434623 0.701411
0.0921798 0.431067 0.689387
0.241733 0.401541 0.720806
0.437781 0.324681 0.75761
0.630838 0.299931 0.769558
0.770031 0.327367 0.761746
0.883268 0.350378 0.752102
0.945022 0.365774 0.746456
0.052369 0.534386 0.772824
0.090837 0.548272 0.776913
0.168246 0.555932 0.770077
0.279225 0.551614 0.743252
0.459648 0.523537 0.760739
0.642054 0.493065 0.781125
0.780728 0.505974 0.778332
0.89134 0.52665 0.769284
0.947707 0.543999 0.767849
0.055024 0.627634 0.769818
0.114321 0.645502 0.784421
0.219974 0.660426 0.7935
0.360586 0.671 0.794568
0.502983 0.672862 0.78349
0.653971 0.662425 0.791562
0.791012 0.660716 0.795666
0.894575 0.67248 0.791684
0.949523 0.686351 0.794339
0.0626383 0.729732 0.771847
0.141787 0.746334 0.78735
0.267689 0.760403 0.799435
0.420356 0.773312 0.809461
0.564477 0.784237 0.818814
0.686427 0.78851 0.823743
0.806104 0.789364 0.823743
0.899062 0.797894 0.823163
0.94847 0.809613 0.82742
0.0978408 0.84181 0.801434
0.201205 0.85481 0.817563
0.344366 0.866194 0.831586
0.49546 0.874647 0.842756
0.625605 0.881315 0.854688
0.739986 0.887022 0.872786
0.835676 0.891463 0.874006
0.909865 0.897002 0.867964
0.945785 0.903746 0.867964
0.172305 0.933242 0.853803
0.305089 0.93724 0.868208
0.454276 0.940856 0.880568
0.588373 0.943404 0.894499
0.702449 0.943755 0.910704
0.799603 0.944289 0.923613
0.876814 0.945815 0.925673
0.926146 0.947768 0.921706
0.9514 0.950256 0.919524
0.320165 0.964279 0.902083
0.464195 0.963684 0.914565
0.589761 0.963058 0.925719
0.695323 0.962707 0.938354
0.787854 0.962173 0.949081
0.861845 0.962112 0.954086
0.915724 0.962234 0.95378
0.945205 0.962798 0.95198
0.959014 0.963333 0.950668
0.0795758 0.319097 0.741726
0.113313 0.318914 0.767712
0.173205 0.29514 0.7897
0.229557 0.23389 0.799298
0.349233 0.11313 0.818296
0.556054 0.0371252 0.829374
0.707179 0.041825 0.817227
0.82945 0.0567178 0.805936
0.922759 0.0686351 0.799481
0.0237736 0.373404 0.725307
0.0525826 0.379232 0.745373
0.131884 0.372396 0.777966
0.236469 0.326513 0.815183
0.372152 0.202304 0.842161
0.585672 0.14078 0.857069
0.741924 0.160479 0.849302
0.857114 0.190005 0.838926
0.938323 0.211902 0.833051
0.011368 0.468605 0.77734
0.0181125 0.472587 0.771817
0.0857252 0.469673 0.76704
0.221378 0.449577 0.794781
0.396307 0.375586 0.841901
0.602152 0.312871 0.872908
0.763302 0.332021 0.872084
0.877394 0.369436 0.863951
0.943236 0.394614 0.858946
0.0589151 0.577356 0.871138
0.0953994 0.587503 0.870588
0.162463 0.588296 0.850065
0.260975 0.576959 0.809323
0.434348 0.560296 0.831693
0.620706 0.514931 0.872938
0.775357 0.514504 0.883375
0.889677 0.544289 0.88069
0.94667 0.569284 0.878294
0.0734874 0.66949 0.882795
0.136339 0.683955 0.891814
0.234699 0.696071 0.89395
0.358755 0.702235 0.88336
0.484459 0.696803 0.852461
0.63859 0.686061 0.867094
0.786404 0.671382 0.888258
0.894453 0.685054 0.89073
0.947799 0.705028 0.892134
0.0879988 0.757183 0.875731
0.164569 0.772915 0.886519
0.284871 0.787427 0.894316
0.42768 0.799939 0.900786
0.561395 0.808942 0.901884
0.677714 0.809079 0.895018
0.80441 0.802258 0.899794
0.899855 0.81004 0.902281
0.948516 0.825833 0.905623
0.112657 0.858839 0.883009
0.221332 0.871458 0.89456
0.359808 0.882368 0.903716
0.502022 0.890623 0.908064
0.626627 0.897093 0.914046
0.735042 0.901045 0.919448
0.83299 0.902098 0.923659
0.910643 0.90631 0.922805
0.947356 0.914961 0.922637
0.207218 0.9393 0.910094
0.341573 0.943191 0.91841
0.480995 0.946639 0.92517
0.604273 0.948943 0.930037
0.707393 0.948928 0.934966
0.798108 0.949447 0.941161
0.874846 0.950668 0.945006
0.928405 0.952865 0.945357
0.953582 0.954772 0.942977
0.365698 0.965362 0.937545
0.495506 0.964431 0.941848
0.60708 0.96379 0.945098
0.699504 0.963516 0.949111
0.781796 0.963272 0.95349
0.855207 0.963317 0.957916
0.912551 0.963592 0.960037
0.94696 0.963928 0.959808
0.960967 0.964141 0.959167
0.0840925 0.355871 0.817716
0.115846 0.353902 0.838148
0.177569 0.332128 0.860197
0.233158 0.27808 0.871473
0.31986 0.161334 0.892164
0.525368 0.0484321 0.918196
0.697047 0.0433967 0.91487
0.821347 0.0634012 0.904128
0.914336 0.0857252 0.896849
0.0214694 0.406683 0.791043
0.0504005 0.409277 0.804669
0.128939 0.40267 0.83154
0.23772 0.369192 0.867826
0.342046 0.248478 0.895689
0.555306 0.154757 0.927062
0.732784 0.159976 0.933608
0.850263 0.198245 0.928328
0.932464 0.233936 0.92224
0.00445563 0.491279 0.820981
0.0133822 0.494194 0.815244
0.0809491 0.491203 0.812985
0.211658 0.477287 0.836744
0.373495 0.415442 0.883848
0.573404 0.332372 0.924697
0.754391 0.332479 0.940017
0.872389 0.37406 0.938033
0.94107 0.416571 0.935836
0.0586862 0.599619 0.929397
0.0946059 0.605539 0.919356
0.152438 0.600244 0.885283
0.249622 0.588983 0.844739
0.415503 0.579461 0.866072
0.599557 0.536065 0.91783
0.765759 0.52108 0.93991
0.889021 0.550332 0.943969
0.94519 0.586465 0.942428
0.0853742 0.693309 0.955245
0.14815 0.705455 0.958343
0.240482 0.713054 0.949416
0.352956 0.712489 0.922316
0.470665 0.705531 0.88368
0.624567 0.702785 0.900343
0.780331 0.683955 0.936751
0.894774 0.692287 0.946181
0.946609 0.72079 0.945281
0.102983 0.775433 0.941741
0.179278 0.789364 0.9458
0.294835 0.802625 0.950545
0.431891 0.815076 0.953796
0.559213 0.821088 0.942626
0.67245 0.819776 0.928527
0.80145 0.814313 0.938994
0.900847 0.817975 0.948501
0.947738 0.837385 0.950271
0.129274 0.868849 0.940337
0.236088 0.880232 0.94316
0.373007 0.890318 0.945708
0.51133 0.899138 0.949172
0.632029 0.904692 0.952865
0.736797 0.907942 0.951919
0.832578 0.908614 0.951263
0.909438 0.911757 0.951705
0.948425 0.922164 0.953323
0.23595 0.943252 0.945296
0.37116 0.946914 0.950149
0.505074 0.950256 0.952605
0.619501 0.951766 0.953277
0.714839 0.951919 0.954528
0.799802 0.952773 0.956405
0.87216 0.953933 0.957488
0.926116 0.955642 0.958785
0.954314 0.957412 0.959258
0.421363 0.965164 0.953994
0.538659 0.964431 0.95552
0.636744 0.964218 0.957229
0.718853 0.964141 0.958526
0.79321 0.964126 0.959991
0.858824 0.964233 0.961807
0.911574 0.964401 0.963149
0.945937 0.964385 0.963668
0.960601 0.964446 0.963195
