LUT预设1/LUT全系打包/6.FAKE5207&淡雅系列/淡雅LUT/rec709/淡雅std709.cube
TITLE "Generated by Resolve"
LUT_3D_SIZE 5
0.0153811 0.0202487 0.0333104
0.132128 0.0229953 0.025864
0.420249 0.0436866 0.0242618
0.681544 0.0720226 0.0310826
0.911772 0.104265 0.0366674
0.0427253 0.166262 0.142046
0.181125 0.182437 0.12192
0.494026 0.20557 0.0898604
0.754604 0.238788 0.0833295
0.946242 0.271809 0.0878767
0.0839246 0.446311 0.414984
0.234119 0.487587 0.398383
0.519448 0.514824 0.302449
0.781643 0.532906 0.278141
0.95378 0.556359 0.281895
0.18262 0.696651 0.66157
0.387732 0.745174 0.681331
0.569375 0.783062 0.611948
0.813993 0.799496 0.530877
0.94905 0.823255 0.598901
0.366201 0.894194 0.853864
0.56141 0.93228 0.879362
0.71667 0.945068 0.838239
0.855146 0.947707 0.793088
0.948486 0.934691 0.782147
0.0261997 0.0611276 0.159304
0.127443 0.0346227 0.162158
0.448707 0.0297704 0.1196
0.726253 0.0543526 0.0972763
0.932387 0.0899214 0.0941634
0.0377508 0.214282 0.221775
0.183032 0.22797 0.233738
0.500618 0.240833 0.190433
0.763317 0.275807 0.176669
0.946838 0.315435 0.177691
0.0937667 0.506142 0.428275
0.287068 0.533562 0.495033
0.547829 0.555993 0.426307
0.791089 0.569924 0.381903
0.95639 0.597711 0.390265
0.218585 0.743587 0.697643
0.45243 0.77937 0.741024
0.622583 0.804486 0.709438
0.825605 0.829023 0.623575
0.94963 0.84773 0.674769
0.444251 0.921462 0.890959
0.62536 0.944884 0.916136
0.762539 0.95172 0.894087
0.879667 0.951156 0.859663
0.951965 0.945296 0.839933
0.0561685 0.157992 0.393408
0.138048 0.103044 0.423972
0.456168 0.0243229 0.417288
0.745998 0.0361181 0.351781
0.940505 0.0499275 0.282307
0.0300755 0.312932 0.4607
0.148638 0.322957 0.468727
0.511238 0.26807 0.471748
0.789883 0.284825 0.428092
0.953933 0.324742 0.401511
0.0504921 0.552117 0.50724
0.241901 0.582589 0.55639
0.566659 0.604425 0.583017
0.796201 0.614023 0.524163
0.957458 0.646876 0.535225
0.13843 0.80354 0.666819
0.42501 0.821317 0.752239
0.669688 0.83714 0.799069
0.838041 0.857282 0.73959
0.950378 0.872694 0.757046
0.411841 0.951003 0.877089
0.677897 0.954131 0.937148
0.805905 0.957443 0.937926
0.905638 0.955825 0.914717
0.957137 0.956039 0.896666
0.0769513 0.258259 0.619776
0.16556 0.21883 0.660319
0.417105 0.0430915 0.685954
0.737469 0.0390784 0.664637
0.937133 0.0513771 0.631189
0.0175937 0.412436 0.673014
0.111833 0.413642 0.662226
0.484306 0.298344 0.730404
0.792203 0.325704 0.721157
0.951797 0.356207 0.70367
0.0563058 0.613962 0.732204
0.238865 0.64712 0.756237
0.536751 0.659037 0.751675
0.814389 0.656153 0.75491
0.956237 0.68069 0.754498
0.11194 0.83389 0.773358
0.372122 0.858717 0.805753
0.653788 0.872862 0.83682
0.854215 0.885863 0.849226
0.950729 0.898939 0.843168
0.34786 0.963027 0.886656
0.620096 0.962036 0.921294
0.814069 0.961303 0.950179
0.923919 0.961196 0.94818
0.960388 0.962753 0.944488
0.0855879 0.347158 0.800946
0.187182 0.319249 0.847883
0.346716 0.130694 0.879576
0.720455 0.0438544 0.887358
0.927733 0.0821393 0.867658
0.00648508 0.48539 0.80975
0.0978866 0.483513 0.803067
0.409537 0.386603 0.88394
0.782757 0.335531 0.923079
0.949462 0.41445 0.914794
0.0907454 0.687938 0.937636
0.259876 0.708247 0.933272
0.50071 0.700389 0.871595
0.810681 0.673716 0.930999
0.95314 0.718425 0.929534
0.143999 0.865614 0.925368
0.399863 0.887526 0.933501
0.653452 0.901823 0.941939
0.852567 0.90454 0.942153
0.953216 0.921355 0.944595
0.43035 0.964981 0.948989
0.646876 0.963851 0.953674
0.806012 0.963684 0.957931
0.922988 0.964126 0.96231
0.962829 0.964355 0.961425
