LUT预设1/LUT全系打包/6.FAKE5207&淡雅系列/淡雅LUT/rec709/淡雅warm709.cube
TITLE "Generated by Resolve"
LUT_3D_SIZE 33
0.018204 0.0188144 0.0295262
0.0230716 0.0192416 0.029633
0.0302739 0.0196078 0.0294957
0.0437476 0.019913 0.0287022
0.0571298 0.0201572 0.0277562
0.0706798 0.0201572 0.0264744
0.0908064 0.0208133 0.0253758
0.117968 0.0218967 0.0242924
0.144381 0.0228428 0.0231022
0.172183 0.0238346 0.0217441
0.208896 0.0266117 0.0216831
0.246479 0.0293736 0.0215763
0.283696 0.0320134 0.0213779
0.321721 0.0350195 0.0217136
0.359075 0.038117 0.0223087
0.396109 0.0408942 0.022797
0.432029 0.0441138 0.0233921
0.467338 0.0476387 0.0243992
0.501472 0.0508278 0.0251926
0.535134 0.0544594 0.0262303
0.567361 0.0581674 0.0272068
0.599069 0.0615396 0.0278782
0.63003 0.0652934 0.0286259
0.660548 0.0691386 0.0292821
0.691463 0.0730907 0.0299992
0.721447 0.0769513 0.0305028
0.752132 0.0811017 0.0311437
0.783123 0.0853895 0.0318456
0.812619 0.0894636 0.032578
0.843153 0.0939193 0.0334783
0.87129 0.0979477 0.0342718
0.893858 0.101091 0.0349126
0.916625 0.104417 0.0356298
0.0196536 0.0252232 0.0333715
0.0241398 0.0256809 0.0335546
0.034638 0.0258946 0.032578
0.0479744 0.0261234 0.0311437
0.0612192 0.0269169 0.0301518
0.0742962 0.0274357 0.028809
0.0995346 0.0290837 0.0280308
0.126635 0.0307164 0.027039
0.153277 0.0320897 0.0258183
0.184024 0.0339818 0.0248875
0.221973 0.0373083 0.0247959
0.26009 0.0403296 0.0251316
0.298207 0.0430457 0.024918
0.336278 0.0463111 0.0258946
0.374594 0.0495766 0.0266575
0.413123 0.0524758 0.0268711
0.448081 0.0558328 0.0278019
0.483909 0.0592355 0.0285496
0.518547 0.0623026 0.0290532
0.55079 0.0657664 0.0298314
0.583001 0.0691844 0.0305486
0.614893 0.0725109 0.0310979
0.64506 0.0761273 0.0316472
0.675914 0.0798962 0.0322423
0.706264 0.0836194 0.0327611
0.736553 0.0875563 0.0332341
0.767559 0.091783 0.0337835
0.797803 0.095964 0.0344549
0.82768 0.100237 0.0352483
0.857847 0.104646 0.0360723
0.881956 0.107973 0.0366979
0.904479 0.111238 0.0372778
0.92604 0.114504 0.0379034
0.0218357 0.0369421 0.0406958
0.0276341 0.037995 0.0411078
0.0397345 0.038941 0.0401617
0.0519875 0.0398871 0.0392462
0.0643778 0.0407111 0.0381628
0.0814527 0.0414282 0.0367437
0.107042 0.0429236 0.0354925
0.133608 0.0441444 0.0344854
0.159747 0.0450141 0.0330968
0.195697 0.0476387 0.032639
0.234409 0.0505531 0.0321965
0.273289 0.0532235 0.0313115
0.311635 0.0560159 0.030808
0.350545 0.0592813 0.0309606
0.390127 0.062562 0.030808
0.427176 0.0655528 0.0306859
0.462409 0.0689403 0.0311131
0.499001 0.0722667 0.0314946
0.532418 0.0753033 0.031754
0.564599 0.0785077 0.0323491
0.597177 0.0818341 0.0328985
0.627756 0.0848554 0.0332647
0.658564 0.0884108 0.0337682
0.689357 0.0920272 0.0342412
0.719478 0.0956436 0.0346685
0.750134 0.099733 0.0351873
0.781476 0.103883 0.0357366
0.810849 0.107866 0.0364691
0.840818 0.112291 0.0372931
0.8692 0.116381 0.0380865
0.891127 0.119722 0.0386206
0.913741 0.123613 0.0393072
0.929915 0.126696 0.0398108
0.0242618 0.0512703 0.0496071
0.0328679 0.0525826 0.049546
0.0439918 0.053254 0.0484321
0.0555276 0.0542763 0.0479896
0.066865 0.0551156 0.0476081
0.0890974 0.0560922 0.0462959
0.114565 0.0571908 0.0447089
0.140612 0.0580911 0.0427558
0.16936 0.0590982 0.0404974
0.208057 0.0618296 0.0392615
0.247333 0.0644541 0.0376287
0.286244 0.0666667 0.0355535
0.32517 0.0700236 0.0350195
0.365072 0.0734874 0.0343633
0.404715 0.0773327 0.0339361
0.44004 0.0806134 0.0340276
0.475273 0.084596 0.0344854
0.512398 0.0885481 0.0347753
0.543816 0.0916609 0.035111
0.576318 0.0953078 0.0356909
0.608927 0.09897 0.0361639
0.638727 0.102205 0.0366217
0.669017 0.106096 0.0372168
0.699916 0.110063 0.0377508
0.729885 0.113893 0.0382391
0.761074 0.11841 0.038819
0.791562 0.122835 0.0395056
0.821149 0.127153 0.0402228
0.851331 0.131945 0.0410315
0.876402 0.136065 0.0416571
0.898955 0.139452 0.0420844
0.921981 0.143297 0.0425879
0.933379 0.146014 0.0428931
0.0271916 0.0661479 0.058854
0.0374914 0.0674754 0.0588388
0.0476234 0.0682994 0.0582589
0.05832 0.0699931 0.0587167
0.0725567 0.0717479 0.0585794
0.0966201 0.0730144 0.0563668
0.120821 0.0746471 0.0540475
0.145586 0.0759289 0.0511635
0.178683 0.0779583 0.0492256
0.217517 0.0809186 0.0480354
0.256825 0.083711 0.0467231
0.295323 0.0864271 0.0453346
0.334096 0.0901808 0.0444648
0.375021 0.0939956 0.0432136
0.413687 0.0975509 0.0419776
0.449561 0.101411 0.0419013
0.485939 0.105531 0.0416876
0.521538 0.109133 0.0412146
0.553719 0.112734 0.0414282
0.586358 0.116411 0.0415808
0.61796 0.119615 0.0415351
0.648249 0.123476 0.0419165
0.678904 0.127138 0.0421912
0.709667 0.131151 0.0425574
0.739986 0.134966 0.0428931
0.771237 0.139239 0.0432746
0.801373 0.143572 0.0437934
0.831357 0.147951 0.0442969
0.860716 0.152682 0.0448615
0.88365 0.156024 0.0451362
0.907073 0.160006 0.0455177
0.925628 0.163348 0.0458228
0.937224 0.165728 0.0459602
0.0323644 0.0871138 0.0753185
0.0418555 0.0889448 0.0754864
0.0516518 0.0906233 0.0753643
0.0616007 0.0922103 0.0751354
0.0802625 0.0940566 0.0729992
0.102068 0.095079 0.0692607
0.124163 0.0966812 0.0654917
0.149462 0.0979477 0.0616312
0.185946 0.100069 0.0604715
0.224781 0.102495 0.0592966
0.264698 0.104555 0.0579385
0.303441 0.107607 0.0560922
0.343603 0.111437 0.0542611
0.385473 0.115251 0.0519112
0.422461 0.1187 0.0505226
0.459297 0.12285 0.0497292
0.496178 0.127199 0.0488136
0.530129 0.130495 0.0481117
0.563104 0.134401 0.0478981
0.596551 0.138369 0.0475624
0.626947 0.141573 0.0473335
0.657618 0.145266 0.0473793
0.688624 0.148775 0.047303
0.718441 0.152667 0.0475013
0.749538 0.156954 0.0478065
0.780346 0.161563 0.048127
0.810071 0.165652 0.0483558
0.840635 0.170596 0.0487984
0.867018 0.175113 0.0493324
0.8907 0.178882 0.0497139
0.914656 0.183185 0.0502632
0.928603 0.186496 0.0508125
0.940978 0.18912 0.0511635
0.0374151 0.109743 0.0923781
0.0460975 0.11136 0.0918441
0.0553445 0.113466 0.0917983
0.0666361 0.11519 0.0908522
0.0865187 0.116854 0.0865949
0.106264 0.117861 0.0815595
0.126024 0.119005 0.0764172
0.156893 0.120928 0.0739605
0.194537 0.122347 0.0725567
0.233509 0.124086 0.0713512
0.272679 0.126848 0.0699321
0.311559 0.130282 0.067277
0.352102 0.134447 0.0648203
0.393378 0.138079 0.0621042
0.429114 0.142077 0.0608377
0.466133 0.146639 0.0596323
0.503151 0.151125 0.0582895
0.535836 0.154635 0.057435
0.569512 0.158984 0.0568093
0.602518 0.162982 0.0560464
0.632868 0.166262 0.0555581
0.663844 0.170108 0.0551766
0.694804 0.174182 0.0551156
0.725109 0.17789 0.0550088
0.756298 0.182162 0.0550393
0.78648 0.186221 0.0551156
0.817334 0.191012 0.0555428
0.848173 0.195789 0.0559091
0.872587 0.199756 0.0563058
0.897353 0.203952 0.0567025
0.918471 0.207889 0.0572976
0.931716 0.210483 0.0576791
0.945281 0.21387 0.0584115
0.0416876 0.133364 0.10898
0.0500191 0.135378 0.109453
0.0589914 0.137942 0.110826
0.0736095 0.14049 0.109545
0.0910964 0.142107 0.105638
0.10898 0.144503 0.102403
0.127337 0.146548 0.0990158
0.162203 0.147936 0.0959182
0.197498 0.150027 0.0925002
0.232914 0.15198 0.0880293
0.27126 0.154116 0.0842451
0.312078 0.157595 0.0816052
0.353582 0.160876 0.0786603
0.393362 0.164462 0.0759899
0.430961 0.168399 0.0737774
0.469947 0.172839 0.0715648
0.505364 0.176379 0.0694743
0.539879 0.180545 0.0682841
0.574639 0.184451 0.0669261
0.606531 0.187961 0.0658427
0.63801 0.192081 0.0654612
0.669703 0.195956 0.0647898
0.700343 0.199664 0.0643473
0.731426 0.203662 0.0640116
0.763058 0.208026 0.063798
0.793423 0.212024 0.0637522
0.82504 0.216632 0.0639048
0.853681 0.221286 0.0643168
0.87895 0.225193 0.0646067
0.904707 0.229587 0.0652628
0.921355 0.233127 0.0661784
0.935485 0.236423 0.0671244
0.948623 0.239933 0.0682383
0.0467384 0.161837 0.135592
0.0548409 0.164172 0.137133
0.0639048 0.166735 0.138949
0.0800031 0.169451 0.13608
0.095201 0.171344 0.13254
0.111025 0.173739 0.129519
0.134615 0.175952 0.125414
0.16611 0.176761 0.118181
0.198062 0.178607 0.110719
0.231037 0.180377 0.10309
0.271382 0.182513 0.099733
0.313481 0.185367 0.0966354
0.356435 0.187686 0.0929274
0.394934 0.191241 0.090074
0.434836 0.195315 0.0872816
0.475547 0.199329 0.084184
0.509071 0.202991 0.0825208
0.544854 0.207355 0.0810559
0.57998 0.211643 0.0796368
0.610941 0.215656 0.079118
0.643336 0.219944 0.0785687
0.675273 0.224186 0.0780957
0.705867 0.227848 0.0776226
0.737362 0.23212 0.0774395
0.768429 0.236088 0.0771954
0.799893 0.240604 0.0773938
0.831327 0.245365 0.0776837
0.857877 0.249348 0.0779278
0.884352 0.25388 0.0785229
0.908522 0.258183 0.079118
0.923781 0.261082 0.0796826
0.939483 0.264561 0.0805524
0.949065 0.268025 0.0818494
0.051545 0.191073 0.16321
0.0591897 0.193469 0.165652
0.0704204 0.196399 0.16582
0.084123 0.199023 0.163104
0.097673 0.201144 0.160021
0.111559 0.203403 0.157229
0.140108 0.206058 0.14992
0.168566 0.207507 0.140703
0.197009 0.2103 0.13257
0.232624 0.213245 0.127321
0.273304 0.215473 0.122438
0.314916 0.21825 0.116793
0.355505 0.220798 0.111391
0.396109 0.22446 0.108766
0.437552 0.227848 0.105867
0.476143 0.230793 0.102968
0.511971 0.235111 0.10135
0.548867 0.239322 0.0994125
0.582315 0.242786 0.0975967
0.614832 0.246509 0.0963302
0.647715 0.250462 0.0951095
0.678843 0.253681 0.0939651
0.710613 0.257847 0.0935531
0.742535 0.261769 0.0930495
0.773709 0.265599 0.0926528
0.805798 0.270024 0.092546
0.836088 0.274098 0.0923323
0.863081 0.278447 0.0926223
0.890517 0.28278 0.0928054
0.910628 0.286397 0.0932326
0.927489 0.28954 0.0937972
0.943954 0.293141 0.0946212
0.950118 0.295689 0.0956283
0.0561532 0.221744 0.192996
0.0639048 0.225467 0.19762
0.076936 0.229191 0.196353
0.0899367 0.231739 0.194156
0.103243 0.234409 0.192233
0.121492 0.237552 0.188617
0.145983 0.240299 0.180804
0.171191 0.244327 0.173785
0.196078 0.248066 0.166766
0.23508 0.249668 0.157565
0.275181 0.252094 0.14757
0.314839 0.254139 0.136385
0.355352 0.256153 0.131914
0.398016 0.258717 0.128954
0.441535 0.260914 0.12549
0.478111 0.263813 0.122774
0.515068 0.267826 0.120439
0.553262 0.271427 0.117723
0.585534 0.274266 0.115526
0.618555 0.277638 0.113619
0.651469 0.280858 0.111574
0.682902 0.284871 0.111116
0.715297 0.289174 0.110674
0.746654 0.292576 0.109728
0.778775 0.297368 0.109865
0.810925 0.302098 0.109926
0.839506 0.305791 0.109621
0.867826 0.310445 0.110079
0.895018 0.314931 0.110536
0.912779 0.318074 0.111101
0.931289 0.321813 0.112047
0.944045 0.324681 0.112886
0.951324 0.327947 0.11458
0.0614633 0.256031 0.227436
0.071046 0.259754 0.229755
0.0836194 0.263416 0.228809
0.0958572 0.265919 0.226947
0.108278 0.2692 0.225956
0.129122 0.273945 0.220768
0.150088 0.277546 0.213901
0.171756 0.28217 0.207553
0.200702 0.285069 0.197894
0.23798 0.286732 0.184085
0.275929 0.289311 0.170657
0.314488 0.292226 0.160784
0.356329 0.293919 0.156802
0.400763 0.295659 0.151476
0.442573 0.297108 0.145892
0.480446 0.300801 0.144076
0.519219 0.304112 0.142
0.556054 0.306538 0.139406
0.589319 0.310628 0.137469
0.623117 0.314397 0.135241
0.654841 0.317708 0.133349
0.686778 0.32134 0.132235
0.718715 0.324895 0.131044
0.750271 0.328298 0.130114
0.782666 0.33254 0.129976
0.813993 0.335943 0.129168
0.843168 0.340154 0.129488
0.872465 0.344518 0.129747
0.896086 0.347692 0.129946
0.916045 0.351278 0.130968
0.936126 0.354498 0.131685
0.945083 0.357717 0.133471
0.953582 0.361196 0.135531
0.0665751 0.2907 0.262547
0.0776226 0.294743 0.26215
0.0891432 0.298451 0.261387
0.101472 0.302037 0.260838
0.11632 0.306523 0.259449
0.136217 0.310918 0.252888
0.156985 0.316426 0.247333
0.178515 0.321416 0.240925
0.210391 0.324697 0.229252
0.24303 0.328618 0.217411
0.275441 0.333242 0.205829
0.314611 0.334539 0.195819
0.358373 0.335561 0.185748
0.403098 0.336233 0.173648
0.443259 0.337362 0.168719
0.483711 0.339864 0.167452
0.52401 0.341085 0.165484
0.559487 0.344549 0.162982
0.593164 0.348486 0.160281
0.62681 0.351263 0.156603
0.658198 0.354589 0.155077
0.689921 0.357748 0.153277
0.721614 0.360037 0.151003
0.753872 0.364126 0.150912
0.786557 0.368185 0.150896
0.817105 0.371878 0.150759
0.847501 0.376135 0.151354
0.877241 0.379538 0.151171
0.898207 0.383612 0.152605
0.919799 0.387594 0.153918
0.936385 0.390326 0.154681
0.945968 0.393973 0.156847
0.95555 0.397498 0.158846
0.0721599 0.328176 0.296925
0.0835737 0.332784 0.297261
0.0953994 0.33608 0.296651
0.107881 0.340444 0.297459
0.125551 0.345922 0.293645
0.144915 0.350805 0.287114
0.165087 0.356466 0.281376
0.188891 0.361746 0.273701
0.216251 0.3664 0.26305
0.243748 0.372457 0.253208
0.273198 0.376242 0.241413
0.316609 0.376593 0.226642
0.360433 0.376501 0.210315
0.403281 0.376257 0.195743
0.444831 0.378271 0.195926
0.487617 0.379767 0.193973
0.52842 0.380774 0.18999
0.56289 0.384253 0.187594
0.59765 0.387427 0.185473
0.630838 0.390143 0.183169
0.662089 0.393652 0.181689
0.69308 0.396475 0.179385
0.725307 0.400473 0.1785
0.757473 0.404593 0.177874
0.78909 0.407538 0.176135
0.819654 0.411765 0.176455
0.85069 0.415915 0.176638
0.877668 0.419074 0.176562
0.900343 0.422599 0.177569
0.922957 0.425361 0.177935
0.936126 0.428687 0.17966
0.947311 0.431922 0.181506
0.956405 0.434852 0.183261
0.0783246 0.366522 0.33257
0.0898451 0.371099 0.333364
0.101946 0.374914 0.333684
0.115831 0.379873 0.333501
0.134035 0.385214 0.32784
0.153445 0.390829 0.322805
0.17319 0.396124 0.317922
0.197559 0.401328 0.308995
0.223194 0.407401 0.299809
0.248905 0.413123 0.290272
0.282719 0.415778 0.277272
0.322362 0.418219 0.263249
0.360464 0.421408 0.249577
0.401984 0.422034 0.238758
0.446967 0.422431 0.231083
0.492287 0.421347 0.220493
0.531777 0.422889 0.216327
0.5682 0.425193 0.215732
0.60383 0.426429 0.214298
0.635584 0.429938 0.212604
0.666117 0.433341 0.210086
0.697185 0.437125 0.207736
0.728847 0.441215 0.206287
0.760021 0.444129 0.203769
0.791577 0.447822 0.202518
0.823178 0.451621 0.20235
0.854017 0.454688 0.201709
0.879164 0.458366 0.202777
0.902968 0.460945 0.203082
0.924224 0.464225 0.204364
0.936645 0.467613 0.206455
0.949248 0.469947 0.20763
0.955657 0.473503 0.210437
0.0843977 0.403983 0.36849
0.0961013 0.408087 0.36965
0.108659 0.413367 0.372412
0.125536 0.418921 0.370031
0.143664 0.423926 0.365637
0.163104 0.429374 0.361669
0.183169 0.434012 0.356054
0.207477 0.440421 0.346883
0.23154 0.447074 0.338094
0.25597 0.452201 0.327489
0.29073 0.457206 0.315389
0.324315 0.462867 0.303288
0.356695 0.467796 0.290303
0.40473 0.466697 0.276814
0.452415 0.464759 0.261097
0.498817 0.463554 0.246693
0.535348 0.465003 0.247684
0.573129 0.46511 0.245808
0.609674 0.466606 0.243519
0.640406 0.470619 0.242252
0.671153 0.472984 0.240116
0.702342 0.476783 0.238895
0.733257 0.480385 0.236698
0.764263 0.484459 0.234714
0.795193 0.488472 0.234028
0.825986 0.491402 0.232425
0.855238 0.495155 0.23183
0.880323 0.497902 0.231846
0.905837 0.501045 0.232212
0.923461 0.504158 0.233478
0.937621 0.506508 0.234623
0.950942 0.509544 0.236469
0.955444 0.512825 0.239261
0.0904555 0.440528 0.404471
0.102861 0.446387 0.408133
0.116808 0.452323 0.41088
0.134646 0.45716 0.407004
0.153323 0.462852 0.40444
0.172595 0.468071 0.40209
0.193988 0.473503 0.394446
0.217807 0.47982 0.385992
0.241856 0.485481 0.37731
0.269703 0.490761 0.367132
0.301549 0.496742 0.356054
0.332357 0.501732 0.343664
0.369558 0.505394 0.33135
0.413336 0.506432 0.316411
0.454475 0.507652 0.300923
0.495491 0.508659 0.291264
0.537514 0.508034 0.284459
0.580941 0.505837 0.274372
0.615076 0.507744 0.272374
0.645701 0.509392 0.272297
0.677531 0.511803 0.273487
0.707607 0.516396 0.271489
0.737499 0.521065 0.269337
0.767865 0.525689 0.267445
0.797955 0.528344 0.264637
0.828962 0.531991 0.262394
0.856382 0.535302 0.26183
0.882856 0.537728 0.261372
0.908034 0.540764 0.26186
0.923888 0.542855 0.263066
0.940307 0.545663 0.264927
0.950179 0.548959 0.26775
0.955795 0.551431 0.270344
0.0972763 0.477806 0.441688
0.110506 0.484337 0.446632
0.12694 0.490089 0.447211
0.145525 0.494652 0.444831
0.164721 0.499855 0.44416
0.184466 0.504372 0.441657
0.208225 0.51017 0.433997
0.232593 0.515785 0.426444
0.256764 0.52047 0.418601
0.286107 0.527199 0.408118
0.315038 0.532982 0.396048
0.344533 0.539422 0.384878
0.381292 0.543999 0.371466
0.416815 0.548363 0.357198
0.452354 0.553841 0.342824
0.497734 0.552117 0.330495
0.54374 0.548791 0.315145
0.587366 0.547005 0.302968
0.618036 0.547478 0.304234
0.650919 0.548394 0.305394
0.683085 0.55082 0.304906
0.712337 0.554665 0.303151
0.741939 0.559258 0.302663
0.771817 0.562631 0.300496
0.80209 0.566705 0.298497
0.831678 0.570733 0.296773
0.858442 0.573266 0.29575
0.885908 0.576791 0.295613
0.907118 0.579202 0.295811
0.925124 0.582177 0.297597
0.943008 0.58555 0.299748
0.949828 0.587884 0.301991
0.956909 0.591226 0.305364
0.10573 0.513924 0.478004
0.120729 0.521874 0.484169
0.138659 0.526421 0.483268
0.157946 0.531914 0.48394
0.17702 0.536263 0.483925
0.199313 0.541802 0.479896
0.22359 0.547311 0.473716
0.247898 0.551446 0.466651
0.274327 0.556741 0.458289
0.303212 0.563149 0.44715
0.331487 0.568582 0.436072
0.362737 0.574014 0.424399
0.395071 0.579171 0.411185
0.427909 0.584894 0.398199
0.464363 0.588144 0.384985
0.504631 0.587533 0.369146
0.544228 0.588708 0.353887
0.581613 0.588037 0.344823
0.619501 0.586694 0.340703
0.6589 0.584863 0.334783
0.688853 0.587564 0.334569
0.718395 0.591501 0.336492
0.747265 0.595224 0.337606
0.776638 0.59997 0.335454
0.806012 0.605402 0.333776
0.83389 0.608804 0.331884
0.861601 0.61239 0.330999
0.888594 0.615061 0.329274
0.908034 0.618006 0.331609
0.927687 0.621088 0.333745
0.941711 0.623392 0.335683
0.949935 0.626566 0.339559
0.958206 0.629252 0.342504
0.115663 0.551125 0.515496
0.132235 0.556405 0.517769
0.151797 0.561547 0.518639
0.172015 0.566522 0.519463
0.192523 0.571359 0.51957
0.217258 0.576104 0.513573
0.241474 0.580377 0.508186
0.266987 0.584512 0.502861
0.295201 0.590326 0.494057
0.323171 0.595117 0.484092
0.353185 0.600244 0.474662
0.38201 0.606134 0.463554
0.410651 0.612512 0.45153
0.439414 0.619135 0.43975
0.472694 0.622309 0.424582
0.507179 0.626429 0.408743
0.540337 0.631067 0.39321
0.582742 0.626932 0.382849
0.625818 0.623697 0.37229
0.663142 0.622141 0.364538
0.692439 0.625086 0.367605
0.723125 0.626596 0.369421
0.752377 0.629755 0.36907
0.781674 0.634302 0.368872
0.810071 0.637995 0.368627
0.837491 0.641581 0.368597
0.865049 0.645655 0.368978
0.888762 0.649088 0.369528
0.909148 0.652964 0.371679
0.929442 0.656382 0.372808
0.940047 0.660136 0.376608
0.949737 0.66334 0.379782
0.956954 0.667231 0.384344
0.126146 0.581003 0.545251
0.14612 0.587182 0.547524
0.167269 0.593713 0.550393
0.187915 0.599298 0.552682
0.21146 0.605097 0.551675
0.236011 0.609537 0.547509
0.260487 0.613565 0.543587
0.286946 0.618204 0.538506
0.314595 0.62269 0.529976
0.343557 0.627253 0.521706
0.372168 0.632059 0.512444
0.398047 0.637888 0.500862
0.425391 0.644053 0.490013
0.45359 0.649134 0.476768
0.484565 0.654047 0.460792
0.514626 0.659632 0.44448
0.547631 0.661768 0.43003
0.586709 0.661707 0.41799
0.624033 0.661723 0.404562
0.658808 0.661753 0.4009
0.694087 0.660594 0.399817
0.729305 0.658427 0.397086
0.757946 0.662455 0.400137
0.786099 0.665385 0.402731
0.814084 0.66949 0.405356
0.841306 0.674647 0.406775
0.867979 0.679393 0.40763
0.889647 0.684077 0.409583
0.910643 0.687755 0.410529
0.928283 0.692012 0.413626
0.939284 0.695262 0.417044
0.950637 0.699184 0.421424
0.955123 0.703059 0.427207
0.140719 0.611933 0.574777
0.161852 0.618845 0.578592
0.183047 0.62504 0.581949
0.206088 0.631388 0.584939
0.230503 0.635935 0.581994
0.254353 0.639872 0.578958
0.279683 0.644526 0.576989
0.306081 0.648478 0.569879
0.333791 0.652827 0.562707
0.36173 0.657267 0.556466
0.388144 0.661875 0.546349
0.415412 0.667552 0.536446
0.442191 0.672419 0.526284
0.469352 0.67834 0.51136
0.495277 0.685283 0.495445
0.519295 0.691951 0.47921
0.55285 0.695415 0.466224
0.58613 0.698711 0.451713
0.620859 0.701045 0.439292
0.659709 0.697322 0.435157
0.697856 0.693919 0.429236
0.731365 0.694316 0.428443
0.760479 0.695689 0.431174
0.79147 0.697139 0.434318
0.818647 0.701198 0.436805
0.84509 0.704967 0.439323
0.870054 0.709087 0.442817
0.89102 0.713481 0.445686
0.912581 0.718334 0.449561
0.926574 0.722911 0.454246
0.938872 0.727367 0.459113
0.949065 0.732219 0.464866
0.953475 0.736126 0.470497
0.156649 0.639704 0.601678
0.177874 0.646464 0.606012
0.200885 0.653696 0.610956
0.225147 0.6598 0.612177
0.248768 0.664424 0.610697
0.27396 0.670039 0.61059
0.299565 0.675242 0.608835
0.32549 0.678843 0.602136
0.352209 0.683085 0.596994
0.378439 0.686793 0.59086
0.405798 0.691737 0.581735
0.432486 0.696056 0.572595
0.458579 0.701106 0.562661
0.48246 0.708232 0.548638
0.505577 0.714397 0.53431
0.531929 0.720226 0.520912
0.561868 0.725078 0.505501
0.590723 0.730159 0.488792
0.624628 0.731762 0.477897
0.660609 0.731182 0.46891
0.696742 0.732235 0.459358
0.729793 0.730648 0.459464
0.764614 0.729274 0.460319
0.796811 0.728801 0.461906
0.823041 0.731472 0.46714
0.849653 0.734264 0.473335
0.871992 0.73846 0.478157
0.893217 0.744045 0.484077
0.912428 0.748943 0.48896
0.925933 0.75378 0.494285
0.939498 0.758816 0.500313
0.946929 0.762814 0.506065
0.952483 0.76733 0.51313
0.173175 0.667735 0.629328
0.19588 0.675242 0.634913
0.220066 0.682399 0.639735
0.243687 0.687526 0.639475
0.26894 0.69337 0.640192
0.295033 0.699413 0.641505
0.320165 0.703471 0.637873
0.347112 0.707927 0.634348
0.372793 0.711467 0.630777
0.399069 0.716243 0.625147
0.424414 0.720806 0.617761
0.449302 0.724987 0.610758
0.473121 0.730755 0.600427
0.495674 0.736278 0.58764
0.518471 0.742229 0.576379
0.543481 0.748516 0.560281
0.567498 0.755367 0.542947
0.591913 0.762554 0.525444
0.626429 0.764172 0.513893
0.661143 0.766949 0.501717
0.695476 0.767071 0.492454
0.731884 0.764538 0.490974
0.768109 0.762478 0.488045
0.797131 0.762753 0.491112
0.825772 0.763561 0.496284
0.852995 0.764218 0.500832
0.874693 0.768368 0.507912
0.896086 0.771679 0.514824
0.912322 0.776425 0.522683
0.926375 0.781231 0.530358
0.938949 0.78587 0.537957
0.945449 0.790555 0.545785
0.95201 0.795026 0.553307
0.19086 0.694011 0.655131
0.214755 0.701808 0.661265
0.238453 0.707988 0.663966
0.264195 0.714733 0.666316
0.290501 0.721721 0.669306
0.316167 0.727306 0.670161
0.342382 0.732174 0.668605
0.368154 0.736599 0.666957
0.394415 0.741405 0.665766
0.418967 0.745907 0.659846
0.442603 0.749477 0.653223
0.467231 0.753979 0.64683
0.489189 0.75906 0.635431
0.511971 0.764416 0.624857
0.534524 0.769833 0.612833
0.557 0.77644 0.596994
0.579568 0.782986 0.581735
0.605859 0.787839 0.566552
0.63563 0.792599 0.551873
0.663813 0.797498 0.53547
0.697353 0.798291 0.528679
0.732418 0.79855 0.522026
0.765896 0.798596 0.516304
0.797604 0.796674 0.5196
0.830045 0.793683 0.521782
0.855879 0.79472 0.529107
0.877501 0.796628 0.538216
0.898573 0.799313 0.548043
0.912932 0.803967 0.556695
0.927489 0.807813 0.565087
0.937438 0.812207 0.5738
0.944778 0.816007 0.581384
0.951583 0.820371 0.590249
0.209842 0.720882 0.68162
0.233356 0.727962 0.687007
0.259403 0.735164 0.690349
0.285878 0.742351 0.693935
0.311772 0.749111 0.697215
0.33872 0.754742 0.697597
0.364767 0.759747 0.697322
0.392432 0.765072 0.697581
0.417975 0.770138 0.694896
0.44094 0.773999 0.689525
0.464958 0.778302 0.68481
0.486793 0.782681 0.677134
0.5084 0.787503 0.668391
0.5299 0.791852 0.659297
0.551125 0.797436 0.646983
0.57229 0.803708 0.634363
0.592523 0.80885 0.621195
0.617456 0.815457 0.604364
0.641321 0.821714 0.58703
0.668544 0.826673 0.572641
0.701976 0.828428 0.563256
0.733669 0.830396 0.552468
0.766217 0.829572 0.550118
0.799008 0.82681 0.549691
0.831022 0.825498 0.55021
0.855009 0.825452 0.557412
0.880201 0.825071 0.564523
0.899489 0.826535 0.57322
0.914336 0.82919 0.583535
0.929061 0.831647 0.594385
0.936889 0.835264 0.603861
0.94493 0.839216 0.614496
0.94995 0.84268 0.623377
0.229053 0.746151 0.70634
0.254032 0.753597 0.711192
0.280705 0.761303 0.715404
0.3066 0.768139 0.719112
0.334173 0.77554 0.722988
0.361288 0.781445 0.724269
0.389487 0.787869 0.726421
0.417868 0.794354 0.728344
0.440131 0.79852 0.724132
0.46334 0.802777 0.720134
0.486015 0.806531 0.715419
0.507103 0.81117 0.708171
0.528344 0.815427 0.700969
0.548623 0.819181 0.69218
0.569116 0.824521 0.680049
0.589105 0.82919 0.667643
0.610666 0.834638 0.654536
0.633188 0.840375 0.638727
0.655665 0.846372 0.623804
0.6822 0.850385 0.611231
0.709392 0.854627 0.5991
