LUT预设1/LUT全系打包/6.FAKE5207&淡雅系列/淡雅LUT/rec709/淡雅warm709.cube
TITLE "Generated by Resolve"
LUT_3D_SIZE 5
0.018204 0.0188144 0.0295262
0.144381 0.0228428 0.0231022
0.432029 0.0441138 0.0233921
0.691463 0.0730907 0.0299992
0.916625 0.104417 0.0356298
0.0467384 0.161837 0.135592
0.198062 0.178607 0.110719
0.509071 0.202991 0.0825208
0.768429 0.236088 0.0771954
0.949065 0.268025 0.0818494
0.0904555 0.440528 0.404471
0.241856 0.485481 0.37731
0.537514 0.508034 0.284459
0.797955 0.528344 0.264637
0.955795 0.551431 0.270344
0.19086 0.694011 0.655131
0.394415 0.741405 0.665766
0.579568 0.782986 0.581735
0.830045 0.793683 0.521782
0.951583 0.820371 0.590249
0.374594 0.892409 0.848249
0.567849 0.930999 0.869947
0.722438 0.943877 0.818311
0.863142 0.945525 0.77557
0.950866 0.933165 0.778195
0.0276341 0.0550546 0.143328
0.141482 0.0316625 0.143114
0.460914 0.0325628 0.104051
0.733059 0.059144 0.0875715
0.934951 0.093904 0.0856794
0.0441291 0.207904 0.210163
0.201633 0.220798 0.215534
0.51696 0.237263 0.174044
0.777295 0.273274 0.162341
0.949798 0.310597 0.164538
0.103029 0.497581 0.433738
0.299153 0.526299 0.477806
0.56321 0.548684 0.402319
0.807431 0.564691 0.36405
0.958068 0.592126 0.374716
0.236332 0.737682 0.696773
0.458793 0.773968 0.729122
0.628214 0.802731 0.684779
0.841154 0.823178 0.611521
0.952041 0.844404 0.664775
0.451164 0.918669 0.886809
0.628824 0.943481 0.909072
0.766979 0.950256 0.877501
0.884276 0.949416 0.844312
0.953902 0.943923 0.834394
0.0556802 0.145586 0.369574
0.147875 0.0866865 0.39498
0.473075 0.0248112 0.380865
0.757168 0.0378729 0.310323
0.943923 0.0530556 0.249943
0.0346227 0.299367 0.430579
0.17293 0.303441 0.440543
0.530465 0.262791 0.433005
0.801877 0.28394 0.386587
0.955505 0.326009 0.367559
0.0644694 0.54757 0.488151
0.275654 0.575708 0.547707
0.580346 0.596628 0.555215
0.813077 0.608103 0.500542
0.959274 0.640421 0.513436
0.170779 0.794965 0.67689
0.464408 0.813458 0.759777
0.67541 0.832044 0.778881
0.851316 0.852598 0.720119
0.952743 0.868833 0.745327
0.45452 0.946593 0.890089
0.685283 0.952544 0.935561
0.80882 0.956115 0.927001
0.907897 0.954559 0.904219
0.958068 0.954925 0.890867
0.0789807 0.247028 0.598886
0.167788 0.197971 0.636713
0.442725 0.0373693 0.658259
0.752865 0.0382391 0.6327
0.940795 0.0504463 0.593011
0.0218662 0.400916 0.650156
0.138064 0.397696 0.646754
0.513817 0.290227 0.701595
0.808148 0.320378 0.68632
0.954192 0.349294 0.666331
0.0622416 0.604578 0.702983
0.258686 0.636728 0.725155
0.56321 0.646845 0.725063
0.829908 0.650278 0.720714
0.958343 0.677745 0.721889
0.12726 0.829633 0.754543
0.396384 0.85301 0.789288
0.674861 0.867704 0.830411
0.865751 0.880934 0.828717
0.953292 0.894575 0.82945
0.379858 0.961425 0.877455
0.649592 0.960754 0.923598
0.83061 0.960449 0.949462
0.927001 0.960204 0.94258
0.960922 0.962051 0.938613
0.0883803 0.336782 0.783123
0.191028 0.303258 0.828855
0.378073 0.107332 0.860548
0.735622 0.0452277 0.858244
0.934478 0.0777905 0.839429
0.00981155 0.47747 0.795056
0.118013 0.474083 0.793881
0.444251 0.361334 0.875135
0.799924 0.340017 0.899565
0.952697 0.407385 0.890455
0.0977035 0.680461 0.915145
0.276158 0.701259 0.910994
0.530343 0.694835 0.864378
0.829953 0.671183 0.913817
0.955734 0.713649 0.910796
0.159213 0.862074 0.906416
0.42089 0.884291 0.918135
0.670222 0.898421 0.928008
0.867765 0.901366 0.930861
0.955352 0.917647 0.932952
0.435401 0.964553 0.942733
0.653391 0.963455 0.949096
0.816876 0.963165 0.956146
0.930739 0.96379 0.960922
0.963272 0.964218 0.959152
