LUT预设1/LUT全系打包/6.FAKE5207&淡雅系列/淡雅LUT/rec709/淡雅std709.cube
TITLE "Generated by Resolve"
LUT_3D_SIZE 9
0.0153811 0.0202487 0.0333104
0.0501259 0.0213626 0.0315404
0.132128 0.0229953 0.025864
0.270237 0.0316777 0.0228733
0.420249 0.0436866 0.0242618
0.55729 0.0573739 0.0281987
0.681544 0.0720226 0.0310826
0.802945 0.0884413 0.0335088
0.911772 0.104265 0.0366674
0.0240177 0.0691844 0.0630655
0.0634775 0.0743572 0.0646982
0.163607 0.0795758 0.0546731
0.318914 0.0910506 0.0489204
0.47306 0.1066 0.0449683
0.6065 0.121065 0.0442359
0.727916 0.136233 0.0451972
0.850248 0.154391 0.0469062
0.933318 0.168338 0.0479438
0.0427253 0.166262 0.142046
0.0858015 0.175448 0.143221
0.181125 0.182437 0.12192
0.338735 0.190707 0.102022
0.494026 0.20557 0.0898604
0.62977 0.222675 0.0850233
0.754604 0.238788 0.0833295
0.874571 0.257099 0.0845502
0.946242 0.271809 0.0878767
0.0620127 0.297063 0.27245
0.108873 0.311208 0.272953
0.196231 0.329168 0.247288
0.338354 0.341482 0.201251
0.507347 0.345724 0.177447
0.642954 0.358785 0.165545
0.77084 0.372137 0.160388
0.888334 0.388128 0.161837
0.953658 0.402502 0.167956
0.0839246 0.446311 0.414984
0.145144 0.467445 0.421363
0.234119 0.487587 0.398383
0.353231 0.510185 0.356466
0.519448 0.514824 0.302449
0.662074 0.516091 0.288182
0.781643 0.532906 0.278141
0.897566 0.54551 0.273915
0.95378 0.556359 0.281895
0.118395 0.585199 0.553002
0.203754 0.609751 0.565316
0.306172 0.625925 0.548684
0.417762 0.644984 0.515068
0.529152 0.666941 0.456352
0.676371 0.666896 0.415061
0.798474 0.672786 0.420172
0.90042 0.691096 0.424353
0.952804 0.707103 0.439551
0.18262 0.696651 0.66157
0.282277 0.725353 0.679667
0.387732 0.745174 0.681331
0.48394 0.760769 0.658473
0.569375 0.783062 0.611948
0.677012 0.803632 0.55108
0.813993 0.799496 0.530877
0.90425 0.806912 0.565103
0.94905 0.823255 0.598901
0.263401 0.800046 0.760922
0.371374 0.828962 0.780835
0.479072 0.855482 0.792706
0.564477 0.870588 0.784497
0.6383 0.883986 0.742809
0.720516 0.89929 0.691081
0.813809 0.909728 0.661418
0.909483 0.896773 0.662089
0.946883 0.896345 0.705211
0.366201 0.894194 0.853864
0.468544 0.915053 0.869093
0.56141 0.93228 0.879362
0.643961 0.941787 0.870451
0.71667 0.945068 0.838239
0.78999 0.948013 0.807538
0.855146 0.947707 0.793088
0.911086 0.941451 0.777523
0.948486 0.934691 0.782147
0.0186465 0.0341039 0.0781262
0.0517586 0.0332341 0.0783551
0.129946 0.0262303 0.0743267
0.27332 0.0267185 0.062501
0.437095 0.0382696 0.0536965
0.578363 0.052369 0.0518959
0.702052 0.0680552 0.0524605
0.821073 0.087068 0.0530861
0.92137 0.103349 0.0548562
0.0250401 0.0854353 0.0981155
0.0669413 0.0922408 0.106279
0.165606 0.0918593 0.101106
0.320943 0.097261 0.0906233
0.47953 0.111666 0.0768139
0.615335 0.129931 0.0706035
0.73518 0.149172 0.0674754
0.85304 0.16939 0.0652628
0.934691 0.186954 0.0642557
0.0429389 0.187427 0.167117
0.0889601 0.196918 0.180316
0.185275 0.202884 0.170703
0.342016 0.208515 0.142397
0.499214 0.223743 0.128603
0.633326 0.239811 0.121813
0.758236 0.258534 0.120134
0.877516 0.278614 0.120745
0.946441 0.293385 0.123857
0.0637217 0.324086 0.28748
0.116091 0.337453 0.308995
0.213321 0.352483 0.294804
0.351324 0.36286 0.255772
0.514931 0.368521 0.227268
0.648646 0.378759 0.208865
0.775616 0.393317 0.203815
0.891737 0.411917 0.206775
0.955444 0.426001 0.21265
0.0924086 0.475151 0.435142
0.159792 0.493584 0.458137
0.261234 0.507988 0.447913
0.390631 0.523735 0.414481
0.535134 0.534234 0.360662
0.667094 0.537697 0.340017
0.786099 0.551431 0.325658
0.89926 0.562905 0.322225
0.955276 0.576471 0.332372
0.140749 0.607752 0.577752
0.229038 0.628901 0.592172
0.336538 0.643748 0.586496
0.449516 0.658076 0.5626
0.551766 0.678569 0.517708
0.68545 0.683116 0.465812
0.803952 0.689326 0.469841
0.904707 0.706004 0.472724
0.952956 0.721599 0.486488
0.209522 0.718166 0.684886
0.314641 0.744121 0.706432
0.420844 0.761257 0.712367
0.514549 0.775021 0.695872
0.596094 0.792157 0.661448
0.690196 0.813626 0.606424
0.822995 0.813642 0.572747
0.907485 0.821241 0.605295
0.949279 0.835203 0.635431
0.295872 0.819318 0.782712
0.408225 0.845792 0.805661
0.510018 0.869474 0.819196
0.590845 0.882155 0.817411
0.661173 0.892515 0.784268
0.737804 0.905959 0.733242
0.823209 0.915709 0.706264
0.910185 0.905119 0.702266
0.948531 0.904723 0.737743
0.405768 0.907332 0.873716
0.504326 0.926009 0.889021
0.593347 0.939254 0.898894
0.669856 0.946151 0.893431
0.739559 0.948333 0.865446
0.806882 0.950423 0.841428
0.867063 0.949325 0.826902
0.915465 0.944686 0.813535
0.949996 0.939864 0.810788
0.0261997 0.0611276 0.159304
0.0574655 0.0547799 0.163714
0.127443 0.0346227 0.162158
0.275013 0.0219577 0.151293
0.448707 0.0297704 0.1196
0.600885 0.0400702 0.103105
0.726253 0.0543526 0.0972763
0.841306 0.0732128 0.0948653
0.932387 0.0899214 0.0941634
0.0218509 0.118715 0.1823
0.0634623 0.119615 0.191638
0.162631 0.106493 0.192401
0.320485 0.0994736 0.177859
0.489876 0.107973 0.154025
0.631205 0.124804 0.133257
0.752132 0.145251 0.120821
0.86656 0.170779 0.116197
0.941161 0.191226 0.116869
0.0377508 0.214282 0.221775
0.0813306 0.223316 0.23595
0.183032 0.22797 0.233738
0.33901 0.231159 0.203525
0.500618 0.240833 0.190433
0.638895 0.255528 0.180804
0.763317 0.275807 0.176669
0.881178 0.298238 0.175326
0.946838 0.315435 0.177691
0.0598611 0.353109 0.285542
0.11429 0.367681 0.331792
0.220951 0.380941 0.344823
0.364508 0.390005 0.325444
0.520989 0.394034 0.289448
0.653437 0.400458 0.263737
0.777356 0.416999 0.257954
0.892393 0.437476 0.261875
0.954681 0.453025 0.268544
0.0937667 0.506142 0.428275
0.166033 0.521508 0.473625
0.287068 0.533562 0.495033
0.419333 0.544747 0.472724
0.547829 0.555993 0.426307
0.672175 0.561028 0.400595
0.791089 0.569924 0.381903
0.901366 0.583383 0.37998
0.95639 0.597711 0.390265
0.13817 0.63595 0.578012
0.241428 0.65095 0.610498
0.362463 0.663249 0.621866
0.481209 0.674586 0.615656
0.574182 0.691356 0.579782
0.694408 0.700328 0.523995
0.808972 0.707469 0.523674
0.908583 0.721157 0.52256
0.953353 0.737301 0.535607
0.218585 0.743587 0.697643
0.349874 0.764446 0.73196
0.45243 0.77937 0.741024
0.542779 0.79089 0.734768
0.622583 0.804486 0.709438
0.703288 0.825788 0.662165
0.825605 0.829023 0.623575
0.910689 0.835752 0.647807
0.94963 0.84773 0.674769
0.324025 0.842084 0.801999
0.442588 0.863951 0.828458
0.543725 0.882765 0.84593
0.619654 0.89398 0.847364
0.685939 0.902632 0.825177
0.755337 0.91371 0.778531
0.833646 0.920714 0.752544
0.912291 0.913161 0.744503
0.949966 0.913558 0.772015
0.444251 0.921462 0.890959
0.540993 0.935836 0.907134
0.62536 0.944884 0.916136
0.695598 0.950164 0.915648
0.762539 0.95172 0.894087
0.826734 0.952193 0.870634
0.879667 0.951156 0.859663
0.921508 0.948196 0.847913
0.951965 0.945296 0.839933
0.0395209 0.10515 0.269841
0.0697185 0.0924544 0.281376
0.129305 0.0559548 0.28333
0.274372 0.0250858 0.281559
0.459022 0.0256046 0.258167
0.613687 0.0334478 0.219318
0.740703 0.0417945 0.184924
0.855726 0.0527657 0.16614
0.939025 0.0654154 0.156298
0.0209201 0.168566 0.292454
0.0641642 0.16347 0.308385
0.157626 0.135714 0.31635
0.317311 0.108385 0.313146
0.49749 0.105364 0.291279
0.644419 0.112612 0.258091
0.770672 0.125368 0.224399
0.881041 0.144976 0.204028
0.948394 0.165286 0.200488
0.0325933 0.255787 0.328237
0.0717327 0.266514 0.338582
0.164385 0.266865 0.344259
0.334417 0.254841 0.333959
0.510079 0.252796 0.317113
0.654368 0.261326 0.294041
0.77702 0.280507 0.276478
0.891585 0.305348 0.267369
0.950927 0.325917 0.267887
0.0497139 0.379858 0.360174
0.102876 0.398306 0.386145
0.213596 0.411475 0.408072
0.371008 0.418997 0.408042
0.522789 0.422202 0.361746
0.654841 0.427573 0.3411
0.778897 0.443412 0.337392
0.893248 0.46482 0.340612
0.953826 0.48275 0.347021
0.0754864 0.533883 0.437247
0.132296 0.548394 0.470237
0.275563 0.558984 0.519554
0.432441 0.569665 0.53106
0.556985 0.579965 0.503746
0.676036 0.583551 0.465034
0.794842 0.591134 0.445869
0.901976 0.605188 0.44445
0.957595 0.621149 0.455604
0.116823 0.664317 0.556985
0.210254 0.675746 0.602167
0.367147 0.685252 0.643931
0.501472 0.695384 0.658351
0.598703 0.706065 0.642191
0.702754 0.717815 0.590097
0.81384 0.725612 0.578134
0.910567 0.737804 0.575662
0.953796 0.753399 0.587213
0.182849 0.775723 0.683055
0.330755 0.787121 0.733593
0.466499 0.798184 0.760006
0.570779 0.808865 0.771679
0.64715 0.819806 0.755474
0.723629 0.836515 0.717632
0.83061 0.843961 0.680476
0.914137 0.850446 0.693492
0.950027 0.860227 0.715541
0.305135 0.87039 0.800214
0.456992 0.884642 0.843259
0.573648 0.896376 0.867109
0.649775 0.905272 0.874144
0.71075 0.91313 0.859022
0.778454 0.920317 0.823011
0.848386 0.92549 0.801846
0.916213 0.921477 0.789364
0.950896 0.922911 0.807935
0.454902 0.936355 0.89807
0.569955 0.944015 0.91928
0.65745 0.949615 0.930159
0.723796 0.953384 0.932158
0.784268 0.955001 0.918502
0.843549 0.954421 0.898085
0.892515 0.953307 0.88954
0.928252 0.952163 0.880385
0.954635 0.950713 0.86743
0.0561685 0.157992 0.393408
0.0870527 0.145754 0.413611
0.138048 0.103044 0.423972
0.266911 0.0400854 0.428321
0.456168 0.0243229 0.417288
0.619333 0.0290074 0.390463
0.745998 0.0361181 0.351781
0.860212 0.0434577 0.30869
0.940505 0.0499275 0.282307
0.0237583 0.22121 0.41033
0.0656748 0.218967 0.431922
0.154086 0.182483 0.450294
0.3075 0.126436 0.461112
0.495293 0.115389 0.453849
0.650507 0.117693 0.42948
0.776791 0.122133 0.393378
0.886183 0.132006 0.357275
0.950927 0.146471 0.339849
0.0300755 0.312932 0.4607
0.0666514 0.324666 0.472511
0.148638 0.322957 0.468727
0.323888 0.283757 0.476463
0.511238 0.26807 0.471748
0.66511 0.272862 0.453925
0.789883 0.284825 0.428092
0.900832 0.303914 0.4056
0.953933 0.324742 0.401511
0.0451209 0.420661 0.482872
0.0937514 0.438834 0.497032
0.195529 0.449393 0.504875
0.353735 0.452689 0.511055
0.520562 0.452583 0.496254
0.666041 0.451804 0.479805
0.791836 0.463096 0.465446
0.900221 0.482444 0.458061
0.954787 0.502297 0.461326
0.0504921 0.552117 0.50724
0.110628 0.569207 0.529305
0.241901 0.582589 0.55639
0.422339 0.593805 0.58056
0.566659 0.604425 0.583017
0.680018 0.608743 0.541192
0.796201 0.614023 0.524163
0.902083 0.629999 0.525917
0.957458 0.646876 0.535225
0.0860914 0.684581 0.579416
0.159655 0.698314 0.606577
0.311986 0.707805 0.642267
0.491173 0.71635 0.678935
0.615396 0.724544 0.68954
0.710765 0.73518 0.661799
0.818936 0.744488 0.633692
0.911269 0.755978 0.629877
0.95378 0.771069 0.640711
0.13843 0.80354 0.666819
0.256794 0.813367 0.710246
0.42501 0.821317 0.752239
0.581979 0.827176 0.794842
0.669688 0.83714 0.799069
0.74696 0.848341 0.769757
0.838041 0.857282 0.73959
0.917082 0.864424 0.740917
0.950378 0.872694 0.757046
0.245716 0.900084 0.772839
0.405478 0.908186 0.824475
0.561852 0.911543 0.866743
0.668757 0.916548 0.891646
0.734554 0.9234 0.887007
0.800885 0.927291 0.863294
0.86566 0.930037 0.846906
0.921096 0.929442 0.833707
0.951736 0.932311 0.8448
0.411841 0.951003 0.877089
0.559579 0.953048 0.914107
0.677897 0.954131 0.937148
0.748455 0.956405 0.942824
0.805905 0.957443 0.937926
0.858961 0.956863 0.921752
0.905638 0.955825 0.914717
0.93518 0.956085 0.908248
0.957137 0.956039 0.896666
0.0692912 0.210758 0.513649
0.102113 0.202197 0.536767
0.151049 0.162753 0.548501
0.248341 0.0757763 0.561273
0.442679 0.0282139 0.563272
0.613321 0.0290684 0.551461
0.746929 0.0342412 0.529107
0.860441 0.0415503 0.496147
0.938231 0.0475166 0.467735
0.026215 0.26923 0.518029
0.0650492 0.270237 0.541146
0.148089 0.240467 0.567178
0.289525 0.161959 0.592294
0.48629 0.119539 0.594827
0.646738 0.130343 0.582986
0.778622 0.138323 0.564095
0.885405 0.144717 0.534676
0.949813 0.156237 0.516701
0.0243992 0.366293 0.577417
0.0540932 0.377127 0.585061
0.132738 0.372198 0.576333
0.304387 0.323995 0.59997
0.506981 0.280644 0.613291
0.664134 0.292515 0.604898
0.793912 0.30338 0.587137
0.901808 0.317281 0.565682
0.953368 0.332708 0.556863
0.0491493 0.470893 0.618067
0.0948348 0.486198 0.626139
0.189792 0.496849 0.627588
0.331441 0.495583 0.619516
0.514946 0.472724 0.623026
0.672053 0.474479 0.621881
0.80235 0.483101 0.610452
0.90631 0.496849 0.595315
0.955261 0.516136 0.594461
0.0467689 0.579446 0.615595
0.108339 0.596826 0.630884
0.231754 0.61178 0.644434
0.397299 0.621744 0.651957
0.555627 0.629282 0.658152
0.685618 0.630945 0.650584
0.80766 0.635889 0.637797
0.907683 0.650462 0.634699
0.957443 0.667811 0.639948
0.0636454 0.699657 0.647044
0.147295 0.714351 0.663569
0.289189 0.726879 0.68159
0.457771 0.736522 0.700587
0.60708 0.744961 0.719692
0.719432 0.755993 0.71902
0.822385 0.763638 0.697856
0.911437 0.774853 0.69456
0.953384 0.790494 0.702892
0.113817 0.820829 0.707591
0.213046 0.833356 0.727962
0.368185 0.842664 0.750698
0.537957 0.849378 0.786984
0.665949 0.856504 0.817212
0.762371 0.864424 0.81445
0.84744 0.871046 0.795041
0.920363 0.87866 0.789273
0.950729 0.885603 0.799176
0.196292 0.9196 0.777569
0.341848 0.924605 0.809567
0.504234 0.927443 0.843915
0.645045 0.929442 0.883345
0.746899 0.932418 0.903716
0.818036 0.9346 0.893904
0.880446 0.93579 0.883177
0.927031 0.937301 0.875013
0.953079 0.941253 0.878798
0.364172 0.959243 0.854597
0.517021 0.959335 0.893034
0.65066 0.958877 0.925444
0.751171 0.959457 0.944045
0.823529 0.959548 0.949035
0.873167 0.959258 0.940169
0.915801 0.958495 0.932982
0.942153 0.95967 0.931823
0.958755 0.960067 0.923995
0.0769513 0.258259 0.619776
0.111315 0.253941 0.644984
0.16556 0.21883 0.660319
0.235538 0.134157 0.672282
0.417105 0.0430915 0.685954
0.601923 0.0298161 0.677363
0.737469 0.0390784 0.664637
0.858885 0.0455787 0.647547
0.937133 0.0513771 0.631189
0.0276188 0.313405 0.613169
0.0630808 0.316274 0.634607
0.148806 0.298589 0.666682
0.264851 0.218662 0.699092
0.461936 0.129137 0.716945
0.640726 0.135164 0.710369
0.771023 0.157733 0.699168
0.884199 0.167117 0.684199
0.948882 0.178302 0.672602
0.0175937 0.412436 0.673014
0.0372931 0.419959 0.673335
0.111833 0.413642 0.662226
0.277699 0.373648 0.698985
0.484306 0.298344 0.730404
0.66302 0.297093 0.731807
0.792203 0.325704 0.721157
0.900969 0.342092 0.70956
0.951797 0.356207 0.70367
0.0539101 0.519463 0.738598
0.0989548 0.533639 0.742336
0.186465 0.541527 0.736339
0.310216 0.535775 0.713191
0.500832 0.500694 0.733486
0.67483 0.484031 0.745159
0.803845 0.50312 0.736843
0.908415 0.519402 0.725658
0.95436 0.536065 0.724804
0.0563058 0.613962 0.732204
0.122652 0.632059 0.746548
0.238865 0.64712 0.756237
0.389609 0.657496 0.758831
0.536751 0.659037 0.751675
0.685252 0.650141 0.758053
0.814389 0.656153 0.75491
0.911223 0.666606 0.750378
0.956237 0.68069 0.754498
0.0669108 0.720821 0.737392
0.156634 0.736568 0.75285
0.292912 0.749798 0.764569
0.450401 0.762539 0.775341
0.593759 0.773281 0.787366
0.713634 0.777996 0.793805
0.828504 0.782467 0.787717
0.914137 0.791165 0.786496
0.95436 0.804746 0.792508
0.11194 0.83389 0.773358
0.221912 0.847349 0.790204
0.372122 0.858717 0.805753
0.525063 0.866606 0.819562
0.653788 0.872862 0.83682
0.764996 0.879911 0.856855
0.854215 0.885863 0.849226
0.921569 0.891814 0.840909
0.950729 0.898939 0.843168
0.187915 0.929961 0.832242
0.32784 0.934005 0.84802
0.481849 0.937346 0.864515
0.615717 0.939696 0.885771
0.728252 0.940368 0.907195
0.821561 0.941527 0.917433
0.890105 0.942992 0.913436
0.932525 0.945037 0.90753
0.954833 0.947875 0.907958
0.34786 0.963027 0.886656
0.494392 0.962585 0.904738
0.620096 0.962036 0.921294
0.725353 0.961776 0.939132
0.814069 0.961303 0.950179
0.879683 0.961227 0.951385
0.923919 0.961196 0.94818
0.948165 0.962081 0.946197
0.960388 0.962753 0.944488
0.0811475 0.305287 0.717266
0.118364 0.303227 0.74406
0.179141 0.274189 0.764126
0.238056 0.203387 0.7729
0.382193 0.0814832 0.791959
0.590249 0.0306859 0.795254
0.727886 0.0425269 0.780209
0.849012 0.0548104 0.769558
0.935149 0.0632639 0.762387
0.0270085 0.360296 0.702678
0.0608377 0.36466 0.724041
0.148196 0.354101 0.759258
0.253574 0.29276 0.794995
0.413397 0.166629 0.819821
0.62414 0.134463 0.825574
0.763043 0.163867 0.812573
0.876005 0.187823 0.802579
0.947799 0.203754 0.796353
0.0135042 0.456352 0.755184
0.0242008 0.459876 0.747814
0.103029 0.455711 0.744854
0.251606 0.427192 0.779446
0.44007 0.342367 0.826612
0.645167 0.301808 0.845838
0.788022 0.335592 0.836805
0.895415 0.368109 0.828229
0.951019 0.385977 0.823178
0.0612497 0.565591 0.84332
0.104067 0.576181 0.842542
0.179629 0.577295 0.822248
0.289754 0.565744 0.78584
0.474922 0.541787 0.817288
0.660151 0.497734 0.851453
0.802152 0.513039 0.851026
0.906981 0.542947 0.844358
0.953902 0.5617 0.843641
0.0749676 0.657115 0.84921
0.146044 0.672938 0.859998
0.253849 0.685985 0.863554
0.386191 0.692958 0.854734
0.517632 0.686976 0.829679
0.673686 0.671839 0.84831
0.814771 0.664622 0.86099
0.911223 0.682597 0.858289
0.954864 0.698375 0.861433
0.0916152 0.747692 0.843137
0.178134 0.763882 0.854963
0.309026 0.778836 0.864561
0.455802 0.791318 0.872084
0.588235 0.800229 0.874891
0.705684 0.799741 0.871962
0.830869 0.795026 0.875196
0.91516 0.806561 0.875029
0.954467 0.819974 0.880064
0.12578 0.852811 0.855222
0.243259 0.86569 0.868666
0.387076 0.87657 0.87895
0.529244 0.884794 0.885084
0.650904 0.891508 0.893507
0.758343 0.895552 0.901869
0.854475 0.897414 0.905715
0.923644 0.903426 0.901579
0.952117 0.910613 0.903014
0.223438 0.935912 0.890547
0.361608 0.94023 0.900832
0.5019 0.943847 0.909407
0.623941 0.946044 0.916121
0.72723 0.946136 0.925414
0.818341 0.946929 0.934524
0.891676 0.94847 0.937209
0.936812 0.950988 0.934218
0.956664 0.952804 0.931044
0.375753 0.964843 0.926726
0.508995 0.963928 0.932769
0.621912 0.963256 0.938323
0.715206 0.962966 0.944869
0.799435 0.962676 0.951644
0.872663 0.962737 0.956817
0.924773 0.963012 0.957259
0.951782 0.963546 0.956085
0.962173 0.963851 0.955306
0.0855879 0.347158 0.800946
0.122118 0.344747 0.824735
0.187182 0.319249 0.847883
0.242054 0.257282 0.857877
0.346716 0.130694 0.879576
0.56672 0.0359045 0.898878
0.720455 0.0438544 0.887358
0.840177 0.0638743 0.874723
0.927733 0.0821393 0.867658
0.0254368 0.399344 0.778302
0.0593576 0.401221 0.794781
0.146441 0.39202 0.825528
0.255024 0.346532 0.861875
0.370993 0.214069 0.888106
0.598138 0.142412 0.91426
0.75671 0.163424 0.911589
0.868833 0.20058 0.903166
0.943587 0.230472 0.896452
0.00648508 0.48539 0.80975
0.0189975 0.487465 0.802487
0.0978866 0.483513 0.803067
0.239017 0.463584 0.833799
0.409537 0.386603 0.88394
0.615122 0.314061 0.917342
0.782757 0.335531 0.923079
0.890517 0.378515 0.917601
0.949462 0.41445 0.914794
0.0623789 0.594217 0.914382
0.103136 0.599603 0.902983
0.166537 0.59324 0.866896
0.275166 0.582116 0.831861
0.453391 0.567849 0.866636
0.638865 0.517281 0.917037
0.79678 0.517845 0.927932
0.906279 0.553826 0.926055
0.952224 0.584604 0.924483
0.0907454 0.687938 0.937636
0.161334 0.700999 0.942596
0.259876 0.708247 0.933272
0.376165 0.706645 0.904067
0.50071 0.700389 0.871595
0.660883 0.692576 0.899687
0.810681 0.673716 0.930999
0.911482 0.691905 0.931517
0.95314 0.718425 0.929534
0.111772 0.770825 0.924651
0.196399 0.785336 0.930724
0.319951 0.799069 0.937072
0.45977 0.811582 0.940932
0.583398 0.816144 0.928115
0.699077 0.813169 0.917906
0.829084 0.805249 0.930175
0.916808 0.815625 0.936416
0.953079 0.835904 0.937179
0.143999 0.865614 0.925368
0.258625 0.877287 0.929839
0.399863 0.887526 0.933501
0.536751 0.896406 0.937606
0.653452 0.901823 0.941939
0.757168 0.904662 0.941695
0.852567 0.90454 0.942153
0.923827 0.909819 0.942641
0.953216 0.921355 0.944595
0.2533 0.941543 0.935012
0.39173 0.94548 0.941253
0.525216 0.948837 0.944518
0.63769 0.95024 0.946029
0.732067 0.950469 0.948562
0.817105 0.951415 0.9514
0.887984 0.952621 0.953216
0.936812 0.954604 0.954253
0.958404 0.956771 0.953765
0.43035 0.964981 0.948989
0.54876 0.964141 0.951263
0.646876 0.963851 0.953674
0.730159 0.963699 0.95555
0.806012 0.963684 0.957931
0.872129 0.963836 0.960662
0.922988 0.964126 0.96231
0.952483 0.964218 0.962371
0.962829 0.964355 0.961425
