LUT预设1/LUT全系打包/6.FAKE5207&淡雅系列/淡雅LUT/rec709/淡雅cold709.cube
TITLE "Generated by Resolve"
LUT_3D_SIZE 5
0.0141451 0.023331 0.0422065
0.119829 0.0241703 0.0359808
0.405509 0.0416114 0.0297398
0.670878 0.0695354 0.035462
0.901747 0.102647 0.0403754
0.0391699 0.172229 0.148272
0.165148 0.188479 0.139361
0.472297 0.209247 0.102281
0.736217 0.242802 0.0938735
0.937896 0.27718 0.0978561
0.078645 0.454063 0.41857
0.224201 0.493492 0.422431
0.495689 0.52314 0.332723
0.760708 0.53843 0.297368
0.946181 0.56318 0.298695
0.171771 0.700725 0.666697
0.377935 0.75021 0.696208
0.561913 0.784115 0.64419
0.786892 0.809064 0.551125
0.942321 0.826368 0.608331
0.355657 0.896681 0.859556
0.552804 0.933257 0.887846
0.709651 0.946624 0.859831
0.846372 0.949462 0.814099
0.941894 0.938216 0.794644
0.0269932 0.0708629 0.181918
0.117098 0.0427558 0.189578
0.43006 0.0280919 0.152255
0.714855 0.0499275 0.116609
0.924605 0.0831464 0.108186
0.033402 0.224781 0.245457
0.161242 0.239078 0.262455
0.478096 0.244877 0.224964
0.74725 0.276112 0.203723
0.939544 0.318013 0.201801
0.0838941 0.515267 0.423774
0.261784 0.542519 0.503685
0.528206 0.564431 0.461463
0.769818 0.577218 0.406882
0.94934 0.604913 0.411307
0.187427 0.753353 0.687083
0.435843 0.786191 0.748943
0.616083 0.809323 0.735988
0.800656 0.836728 0.651316
0.943496 0.851789 0.686671
0.422004 0.926131 0.891569
0.618997 0.946014 0.921508
0.756878 0.953338 0.911254
0.874037 0.952819 0.876524
0.946853 0.948425 0.855406
0.057557 0.171633 0.421286
0.132662 0.125124 0.455665
0.429526 0.027512 0.457176
0.730526 0.035111 0.403204
0.931411 0.0486 0.332052
0.0267491 0.328191 0.49305
0.127199 0.342184 0.501518
0.481224 0.276448 0.514229
0.771634 0.289754 0.479912
0.947433 0.325292 0.448569
0.0413519 0.560067 0.537133
0.209796 0.591943 0.578286
0.5402 0.612924 0.60911
0.777005 0.622171 0.563714
0.950652 0.653544 0.568582
0.116426 0.811322 0.672221
0.368048 0.830945 0.74432
0.652094 0.844404 0.809522
0.822522 0.86273 0.767666
0.94461 0.877562 0.771984
0.355337 0.954986 0.860334
0.642985 0.956558 0.929229
0.800137 0.958663 0.945037
0.900526 0.957351 0.925139
0.953689 0.958068 0.911574
0.0757916 0.271321 0.644755
0.161364 0.241184 0.68838
0.383276 0.0634012 0.716457
0.716838 0.0396887 0.701259
0.927657 0.0541085 0.673823
0.0155032 0.42623 0.698787
0.0921798 0.431067 0.689387
0.437781 0.324681 0.75761
0.770031 0.327367 0.761746
0.945022 0.365774 0.746456
0.055024 0.627634 0.769818
0.219974 0.660426 0.7935
0.502983 0.672862 0.78349
0.791012 0.660716 0.795666
0.949523 0.686351 0.794339
0.0978408 0.84181 0.801434
0.344366 0.866194 0.831586
0.625605 0.881315 0.854688
0.835676 0.891463 0.874006
0.945785 0.903746 0.867964
0.320165 0.964279 0.902083
0.589761 0.963058 0.925719
0.787854 0.962173 0.949081
0.915724 0.962234 0.95378
0.959014 0.963333 0.950668
0.0840925 0.355871 0.817716
0.177569 0.332128 0.860197
0.31986 0.161334 0.892164
0.697047 0.0433967 0.91487
0.914336 0.0857252 0.896849
0.00445563 0.491279 0.820981
0.0809491 0.491203 0.812985
0.373495 0.415442 0.883848
0.754391 0.332479 0.940017
0.94107 0.416571 0.935836
0.0853742 0.693309 0.955245
0.240482 0.713054 0.949416
0.470665 0.705531 0.88368
0.780331 0.683955 0.936751
0.946609 0.72079 0.945281
0.129274 0.868849 0.940337
0.373007 0.890318 0.945708
0.632029 0.904692 0.952865
0.832578 0.908614 0.951263
0.948425 0.922164 0.953323
0.421363 0.965164 0.953994
0.636744 0.964218 0.957229
0.79321 0.964126 0.959991
0.911574 0.964401 0.963149
0.960601 0.964446 0.963195
