LUT预设1/LUT全系打包/6.FAKE5207&淡雅系列/淡雅LUT/rec709/淡雅cold709.cube
TITLE "Generated by Resolve"
LUT_3D_SIZE 33
0.0141451 0.023331 0.0422065
0.0177768 0.0238041 0.0427253
0.0233616 0.0241703 0.0429236
0.0342107 0.0242466 0.0422217
0.0449378 0.0242771 0.0413672
0.0558022 0.0240177 0.040116
0.0729229 0.0241093 0.038941
0.0967422 0.0242161 0.0375372
0.119829 0.0241703 0.0359808
0.144045 0.0241093 0.0342718
0.179751 0.0262608 0.0333104
0.216342 0.0283818 0.0321813
0.252537 0.0303807 0.0309148
0.291096 0.0330205 0.0303502
0.329732 0.0359655 0.0301366
0.368215 0.0385748 0.0297398
0.405509 0.0416114 0.0297398
0.442252 0.0449683 0.030518
0.477852 0.0479896 0.0309758
0.512535 0.0514839 0.0319066
0.545495 0.0550393 0.0328832
0.577966 0.0582589 0.0334173
0.609247 0.0619211 0.0341039
0.639872 0.0656748 0.0347448
0.670878 0.0695354 0.035462
0.700526 0.0733806 0.0357824
0.730785 0.0775006 0.0362707
0.761456 0.0818036 0.0368353
0.791348 0.0861372 0.0374304
0.822309 0.0908522 0.0382544
0.851606 0.0952163 0.0389868
0.87657 0.0988327 0.0396124
0.901747 0.102647 0.0403754
0.0149844 0.0304112 0.0464027
0.0182803 0.0309453 0.0471809
0.026566 0.0310063 0.0464179
0.0371557 0.0310216 0.0451514
0.047715 0.0316014 0.0443885
0.0581064 0.0318761 0.0432136
0.0799878 0.0326696 0.0421759
0.103487 0.033341 0.0408637
0.126482 0.033753 0.039353
0.154604 0.0348211 0.0377966
0.191302 0.0375372 0.0367132
0.228107 0.0399023 0.0363317
0.265202 0.0419623 0.0352178
0.304494 0.0451209 0.0356451
0.344015 0.048249 0.0357519
0.383764 0.0509651 0.0350652
0.420233 0.0542458 0.0356909
0.457633 0.0576028 0.0359655
0.493858 0.0606088 0.035874
0.526986 0.0639811 0.0365148
0.560113 0.0673381 0.0370642
0.592859 0.0705882 0.0373388
0.623087 0.0740978 0.0378271
0.654017 0.0777447 0.0383459
0.684291 0.0813764 0.0387427
0.714168 0.0852827 0.0390326
0.744717 0.0894636 0.0394446
0.775036 0.0937514 0.0399481
0.805417 0.0982681 0.0406195
0.836088 0.102922 0.0413367
0.862348 0.106676 0.0419471
0.887404 0.110475 0.0424964
0.911559 0.11426 0.0431373
0.0168765 0.0428321 0.053727
0.0213169 0.0439765 0.0547036
0.030869 0.0447547 0.0540475
0.0405127 0.0455329 0.0535439
0.0502174 0.0461738 0.052903
0.0643015 0.0464637 0.0516365
0.086244 0.0471656 0.0501411
0.10898 0.0475929 0.0491035
0.131273 0.0476387 0.0476844
0.165316 0.0495918 0.0466621
0.202396 0.0517586 0.045655
0.239567 0.0536049 0.0441596
0.277668 0.0558938 0.0429236
0.31754 0.0589609 0.042359
0.358083 0.0620127 0.0413214
0.396338 0.0648814 0.0403601
0.433158 0.0683299 0.0401312
0.471443 0.0717327 0.039826
0.506233 0.0748302 0.0394598
0.539483 0.0780499 0.0397803
0.573129 0.0814374 0.0399786
0.604273 0.0844282 0.0400549
0.635126 0.087892 0.0403906
0.665949 0.0914626 0.04065
0.695781 0.0949874 0.0408637
0.725963 0.0990158 0.0411841
0.756817 0.103105 0.0415656
0.78674 0.107286 0.0421454
0.817243 0.111955 0.0428168
0.846708 0.11635 0.0435035
0.871336 0.12018 0.0440223
0.896727 0.12462 0.0447242
0.915862 0.128222 0.0452735
0.0191501 0.0579538 0.0622416
0.025803 0.0592813 0.0627604
0.0344091 0.0598154 0.0621653
0.0432898 0.0607614 0.0625315
0.0519722 0.0615396 0.0631113
0.0706798 0.0619821 0.0619669
0.0922408 0.0624247 0.0604562
0.114244 0.0626535 0.0586252
0.13959 0.0628977 0.056199
0.176349 0.0647898 0.054551
0.213565 0.0664988 0.0524453
0.250401 0.067689 0.0498512
0.289937 0.0707713 0.0485084
0.330587 0.0739452 0.0469215
0.370993 0.0774548 0.0456092
0.407828 0.0807965 0.044892
0.444694 0.0849317 0.0446326
0.483558 0.0890059 0.0440986
0.516182 0.092256 0.0439155
0.549889 0.0960861 0.0440986
0.583719 0.0999466 0.0441291
0.613703 0.10312 0.0443122
0.644083 0.107012 0.0447089
0.674998 0.110994 0.0449531
0.70454 0.114748 0.0452125
0.735225 0.119249 0.0455787
0.765667 0.123735 0.046067
0.795819 0.128252 0.0465858
0.826535 0.133272 0.0471962
0.853666 0.137865 0.0477302
0.879011 0.141787 0.0480812
0.904875 0.146212 0.0485084
0.919646 0.149447 0.0488289
0.0217441 0.0737011 0.071046
0.0295262 0.0750134 0.0720989
0.0371252 0.0757916 0.0724956
0.045243 0.0775006 0.0743267
0.0566567 0.079118 0.075288
0.0768749 0.0798199 0.0733959
0.0971084 0.0809033 0.0715496
0.117678 0.0816205 0.0693065
0.148074 0.0828717 0.0672007
0.184451 0.0849012 0.0656291
0.221134 0.0867018 0.0638743
0.258335 0.0886549 0.0618143
0.297719 0.0920119 0.06009
0.3393 0.0953536 0.0578775
0.378851 0.098558 0.0556344
0.416297 0.102541 0.0546578
0.454276 0.106767 0.0534981
0.491402 0.110506 0.0520638
0.524788 0.114427 0.0517433
0.558663 0.118441 0.0513466
0.591119 0.121889 0.0507668
0.621515 0.125917 0.0507973
0.652308 0.129732 0.0506905
0.682841 0.133852 0.0507057
0.712703 0.137667 0.0506752
0.743435 0.142 0.0506905
0.773953 0.146532 0.0509041
0.804486 0.151141 0.0511177
0.834638 0.156191 0.0514076
0.860471 0.160067 0.0515297
0.886793 0.164675 0.0517281
0.908629 0.168597 0.0519417
0.923842 0.171481 0.0520485
0.0259556 0.095552 0.0882429
0.0332952 0.0973526 0.0898756
0.0409247 0.0990005 0.09131
0.0487221 0.100572 0.0927749
0.06392 0.102144 0.0915999
0.081651 0.102785 0.0885786
0.0995193 0.104036 0.0857557
0.120638 0.10486 0.0827039
0.154376 0.106172 0.0808576
0.190143 0.107744 0.0789502
0.226764 0.108888 0.0767987
0.265415 0.11136 0.0740215
0.306004 0.114641 0.0712902
0.348272 0.117861 0.0679332
0.386419 0.121141 0.0655375
0.424781 0.125383 0.0636759
0.463157 0.129824 0.0616464
0.498451 0.13341 0.0601053
0.532616 0.137804 0.0592508
0.567254 0.14229 0.0582132
0.598001 0.1458 0.0574502
0.628763 0.149798 0.0570382
0.659907 0.153643 0.0564889
0.689342 0.157488 0.0563058
0.720043 0.161776 0.0562448
0.750729 0.166415 0.0562753
0.781109 0.170611 0.0562295
0.812284 0.175662 0.0564889
0.840681 0.180392 0.0570687
0.867369 0.184527 0.057496
0.894316 0.189227 0.0581521
0.912093 0.192874 0.0589456
0.928313 0.19585 0.0594339
0.0302892 0.118883 0.105913
0.037232 0.120455 0.107073
0.0446784 0.12256 0.10898
0.0537575 0.124269 0.109926
0.0694285 0.12578 0.106737
0.0848859 0.126619 0.102907
0.100237 0.127672 0.0992142
0.127245 0.129168 0.0968643
0.161471 0.129854 0.094377
0.196765 0.130877 0.0920272
0.233371 0.132952 0.0898451
0.272511 0.135744 0.0864729
0.313161 0.139269 0.0832532
0.354574 0.14229 0.0795758
0.39176 0.146227 0.0773327
0.430274 0.150698 0.0751659
0.468788 0.155123 0.0728923
0.502754 0.158923 0.0713512
0.537697 0.163577 0.0701152
0.571786 0.167819 0.0687572
0.602548 0.171328 0.0678416
0.633951 0.175418 0.0670787
0.66508 0.179538 0.0668345
0.695094 0.183169 0.0664378
0.725978 0.187396 0.0663005
0.756466 0.19147 0.0661631
0.787869 0.196323 0.0664988
0.819257 0.20116 0.066743
0.846525 0.205524 0.0671397
0.874144 0.210147 0.0675212
0.898528 0.214527 0.0681926
0.915755 0.217517 0.0686046
0.933379 0.221347 0.0694743
0.0342565 0.143023 0.122454
0.0411383 0.145052 0.124956
0.0485389 0.147692 0.128496
0.060029 0.150256 0.128969
0.0735943 0.151766 0.126726
0.0876326 0.154055 0.125566
0.102296 0.155947 0.124483
0.133379 0.156878 0.120897
0.164645 0.158572 0.117266
0.195712 0.160189 0.112871
0.232364 0.161761 0.108217
0.272511 0.164614 0.104341
0.31313 0.167269 0.0999771
0.353277 0.170413 0.096025
0.392401 0.174029 0.0928054
0.432959 0.178119 0.0895705
0.46981 0.181521 0.0865644
0.505669 0.185733 0.0847944
0.541833 0.189609 0.0828107
0.574624 0.19324 0.081239
0.60676 0.197574 0.0805982
0.639139 0.201663 0.0796063
0.669612 0.205417 0.0788891
0.700359 0.209476 0.0783551
0.731762 0.213947 0.0780041
0.762554 0.218006 0.0776989
0.794553 0.222721 0.0776532
0.824613 0.227649 0.0779889
0.852644 0.231998 0.0781872
0.881193 0.236835 0.0787976
0.901732 0.240818 0.0797284
0.920027 0.244541 0.0806897
0.937224 0.248463 0.0818647
0.0391699 0.172229 0.148272
0.0458381 0.17464 0.151888
0.0532235 0.177325 0.155962
0.0659953 0.179904 0.155474
0.0782177 0.181582 0.154574
0.0911574 0.183764 0.154711
0.111269 0.185824 0.152514
0.13814 0.186572 0.1458
0.165148 0.188479 0.139361
0.193454 0.190219 0.132647
0.23238 0.191745 0.127428
0.272786 0.194034 0.122408
0.313817 0.195804 0.116533
0.353765 0.19881 0.112673
0.395193 0.202319 0.108904
0.437446 0.205692 0.104723
0.472297 0.209247 0.102281
0.509529 0.213474 0.100053
0.54609 0.217624 0.0979019
0.577798 0.22182 0.0970321
0.610956 0.226291 0.0961318
0.643381 0.230655 0.0953536
0.673762 0.234394 0.0946517
0.705043 0.238773 0.0943313
0.736217 0.242802 0.0938735
0.768002 0.247395 0.093904
0.799725 0.252262 0.0941024
0.828656 0.256565 0.0941939
0.857786 0.261494 0.0947433
0.885023 0.266194 0.0952926
0.90457 0.26952 0.0957198
0.924636 0.273442 0.0965286
0.937896 0.27718 0.0978561
0.0439307 0.202319 0.174304
0.0501259 0.204852 0.178988
0.0592966 0.207736 0.181933
0.0707256 0.210101 0.182544
0.0822766 0.211902 0.183169
0.0943923 0.213809 0.184543
0.117891 0.216709 0.17879
0.141115 0.218265 0.171344
0.16437 0.221057 0.165515
0.196536 0.223758 0.160143
0.234638 0.225742 0.153429
0.273228 0.228397 0.146273
0.312352 0.230671 0.139467
0.35404 0.233783 0.13521
0.396384 0.236606 0.130449
0.436133 0.239063 0.125994
0.473701 0.243 0.123568
0.512444 0.246754 0.12076
0.547234 0.249973 0.118242
0.580636 0.253742 0.116518
0.614435 0.257664 0.114824
0.645716 0.260899 0.113329
0.677333 0.265141 0.112734
0.709102 0.269123 0.112062
0.740566 0.27303 0.111513
0.772915 0.277577 0.111345
0.804211 0.281849 0.11104
0.833707 0.286519 0.111238
0.863645 0.291173 0.111345
0.887526 0.295186 0.11162
0.908827 0.298741 0.112001
0.929671 0.302739 0.112673
0.939437 0.305394 0.113558
0.0483864 0.233936 0.203204
0.0544289 0.237903 0.210925
0.0655985 0.241306 0.213275
0.076936 0.243488 0.214771
0.0887007 0.245777 0.216739
0.104311 0.248692 0.216464
0.124331 0.251286 0.211063
0.145037 0.255085 0.206851
0.16582 0.258534 0.202899
0.200931 0.260517 0.192752
0.236728 0.263478 0.182193
0.271763 0.266133 0.170871
0.311925 0.267796 0.164279
0.354818 0.269902 0.158709
0.398291 0.271656 0.152392
0.436576 0.273915 0.148394
0.475685 0.277211 0.145052
0.516182 0.279973 0.141146
0.549523 0.282643 0.138293
0.583581 0.285832 0.135729
0.617395 0.288869 0.133028
0.648722 0.292912 0.132372
0.68098 0.29723 0.131716
0.712383 0.300679 0.130526
0.744686 0.305623 0.130602
0.77702 0.310491 0.130587
0.80737 0.314427 0.130114
0.83798 0.319463 0.130495
0.867658 0.324331 0.130877
0.889754 0.32781 0.131197
0.912703 0.331945 0.13193
0.92958 0.335058 0.132555
0.940887 0.338537 0.134142
0.0532082 0.269306 0.238773
0.0611276 0.273014 0.244694
0.0723278 0.276295 0.247288
0.0832685 0.278401 0.248905
0.0941787 0.2813 0.251286
0.111513 0.285664 0.249226
0.129122 0.288777 0.245624
0.147677 0.292866 0.243107
0.172702 0.295949 0.235615
0.204623 0.298665 0.222202
0.237171 0.302129 0.209613
0.271992 0.305409 0.199802
0.313222 0.306798 0.19295
0.356527 0.308431 0.184833
0.397787 0.309697 0.176944
0.437858 0.312551 0.173571
0.478752 0.315007 0.169558
0.517433 0.316716 0.165286
0.552132 0.320409 0.162753
0.587549 0.323674 0.159854
0.619944 0.326757 0.157366
0.65185 0.330388 0.155779
0.683757 0.333913 0.154055
0.715297 0.337346 0.152773
0.7476 0.341634 0.152377
0.779187 0.345113 0.151232
0.810422 0.349737 0.151507
0.841718 0.354528 0.151705
0.868605 0.358022 0.151751
0.893004 0.361929 0.152575
0.917494 0.365469 0.153094
0.930816 0.368963 0.154818
0.943786 0.372732 0.156832
0.0578012 0.305074 0.275807
0.0675822 0.308659 0.278294
0.0776684 0.311894 0.280537
0.0883192 0.315053 0.283482
0.100969 0.319127 0.285679
0.118288 0.322805 0.282506
0.136736 0.327565 0.280522
0.156252 0.331731 0.277974
0.183505 0.335622 0.26804
0.211398 0.340124 0.25832
0.239277 0.34522 0.249363
0.275502 0.347051 0.238407
0.316335 0.348852 0.226398
0.357504 0.350545 0.21268
0.397955 0.351385 0.205356
0.440208 0.353124 0.201053
0.482124 0.353597 0.195697
0.519493 0.356374 0.191897
0.555245 0.359533 0.188449
0.591104 0.361456 0.183825
0.622599 0.364736 0.181567
0.654459 0.367819 0.178927
0.686198 0.370001 0.175799
0.718044 0.373999 0.175265
0.750286 0.377905 0.174823
0.781796 0.381796 0.174472
0.813962 0.38645 0.175051
0.84535 0.390219 0.174716
0.870619 0.394598 0.176028
0.896635 0.398932 0.177203
0.917647 0.401968 0.177768
0.931975 0.405829 0.179797
0.946212 0.409552 0.181613
0.0626688 0.342275 0.31046
0.0725567 0.346624 0.313909
0.0826886 0.349676 0.317037
0.0932174 0.353841 0.322026
0.109117 0.358618 0.321477
0.127077 0.362509 0.318212
0.146014 0.367178 0.315984
0.167498 0.371984 0.311803
0.190921 0.376959 0.30428
0.214755 0.3832 0.298039
0.240635 0.387274 0.289174
0.279423 0.389227 0.27335
0.31812 0.390906 0.256489
0.35671 0.391882 0.241093
0.399786 0.393149 0.237446
0.443351 0.394293 0.231571
0.484794 0.39501 0.224201
0.521813 0.397467 0.220401
0.559182 0.399603 0.216495
0.594049 0.401556 0.212604
0.625788 0.404715 0.210483
0.657374 0.40708 0.207431
0.689403 0.410834 0.205997
0.720974 0.414816 0.204807
0.752056 0.417639 0.202411
0.783902 0.422156 0.202457
0.816114 0.426581 0.202289
0.845548 0.430045 0.201846
0.87248 0.433982 0.202655
0.899275 0.437171 0.202762
0.917327 0.440711 0.204242
0.933577 0.444129 0.205844
0.947143 0.44715 0.20734
0.0682231 0.380652 0.346258
0.0780041 0.385138 0.350927
0.0881514 0.388876 0.355673
0.100221 0.393515 0.359899
0.117662 0.397696 0.357031
0.136172 0.402243 0.355337
0.154986 0.406592 0.35433
0.176623 0.411597 0.348974
0.199695 0.41738 0.343236
0.223453 0.422583 0.337102
0.253605 0.425864 0.325658
0.288273 0.429725 0.312627
0.321462 0.43415 0.300679
0.360204 0.43566 0.288533
0.403677 0.436927 0.277409
0.446723 0.437079 0.26331
0.487205 0.438361 0.256107
0.526574 0.439475 0.252201
0.564996 0.439567 0.247074
0.59794 0.442329 0.244465
0.62948 0.444984 0.241428
0.661402 0.448035 0.238544
0.692317 0.452003 0.236408
0.722744 0.454795 0.233112
0.754253 0.458488 0.231159
0.786557 0.462409 0.230365
0.818067 0.465507 0.229007
0.846922 0.46952 0.22977
0.874708 0.472496 0.229725
0.900298 0.476112 0.230686
0.917937 0.479698 0.232517
0.93576 0.482246 0.233387
0.946105 0.485771 0.23595
0.0734722 0.417929 0.382269
0.08336 0.421912 0.387503
0.0939498 0.427039 0.39472
0.109651 0.431907 0.396201
0.12694 0.436149 0.395499
0.145449 0.440879 0.395865
0.164385 0.444892 0.394263
0.187503 0.450431 0.388205
0.210986 0.455985 0.382574
0.234989 0.459953 0.375204
0.264912 0.466117 0.365805
0.293797 0.472709 0.357
0.321599 0.478431 0.347555
0.365713 0.479515 0.330785
0.408927 0.480018 0.31223
0.451606 0.480766 0.295232
0.491325 0.480903 0.291798
0.531411 0.480156 0.285115
0.569574 0.48101 0.27924
0.601831 0.483955 0.276997
0.634302 0.485115 0.273365
0.665965 0.488151 0.271107
0.696345 0.49131 0.268452
0.726833 0.494835 0.266117
0.758083 0.498863 0.264775
0.789136 0.501839 0.262425
0.819608 0.505699 0.261173
0.848142 0.508782 0.260639
0.877012 0.512215 0.26041
0.899443 0.515663 0.261295
0.918914 0.51838 0.262165
0.937438 0.521767 0.263767
0.945754 0.524956 0.26627
0.078645 0.454063 0.41857
0.0893111 0.459815 0.426368
0.101625 0.465507 0.433539
0.118639 0.46981 0.433768
0.136385 0.475044 0.435676
0.154604 0.479912 0.438087
0.175799 0.484245 0.433509
0.199832 0.489189 0.427878
0.224201 0.493492 0.422431
0.250172 0.498451 0.415534
0.27837 0.504814 0.407233
0.30634 0.509773 0.397818
0.340291 0.514229 0.386618
0.379126 0.517479 0.371313
0.415259 0.520775 0.356374
0.454108 0.522942 0.344594
0.495689 0.52314 0.332723
0.537835 0.522194 0.317357
0.573358 0.523369 0.3122
0.606561 0.523445 0.309102
0.641093 0.524269 0.306859
0.670878 0.528023 0.304967
0.700542 0.531731 0.302968
0.730755 0.535714 0.300984
0.760708 0.53843 0.297368
0.79147 0.542092 0.294347
0.820966 0.545571 0.293004
0.850248 0.548165 0.291676
0.878599 0.551385 0.291447
0.89984 0.553948 0.292363
0.921691 0.557229 0.293919
0.936233 0.560693 0.296422
0.946181 0.56318 0.298695
0.0846418 0.49073 0.456214
0.0963149 0.497017 0.464988
0.111666 0.502449 0.469444
0.129366 0.506828 0.471077
0.147616 0.512001 0.474342
0.166598 0.516335 0.475639
0.190463 0.520974 0.471214
0.214801 0.52549 0.466941
0.238804 0.529198 0.462577
0.26688 0.53518 0.454673
0.295201 0.539879 0.445289
0.324819 0.544915 0.436774
0.356786 0.55111 0.425864
0.387015 0.557305 0.414893
0.417304 0.564462 0.404852
0.459586 0.565087 0.387518
0.501762 0.564477 0.366995
0.54255 0.564569 0.350271
0.576196 0.563333 0.347219
0.611566 0.562936 0.343664
0.644923 0.564309 0.340337
0.674647 0.566751 0.338231
0.704982 0.569787 0.337087
0.734829 0.572641 0.334524
0.764797 0.57641 0.332448
0.794461 0.580148 0.330678
0.823407 0.582895 0.328878
0.852918 0.586633 0.328023
0.877897 0.589364 0.32752
0.901015 0.592721 0.328603
0.923919 0.596445 0.329992
0.935561 0.598901 0.331884
0.947555 0.602426 0.334936
0.092195 0.525612 0.492378
0.10602 0.533257 0.501869
0.123171 0.537972 0.504524
0.141634 0.54377 0.508797
0.159869 0.548547 0.512322
0.18175 0.553597 0.511467
0.205722 0.558236 0.508797
0.229572 0.561624 0.505623
0.255863 0.565805 0.500496
0.285313 0.57055 0.491722
0.314168 0.574426 0.483101
0.344076 0.579339 0.474495
0.372198 0.585534 0.46511
0.401648 0.591821 0.456138
0.434653 0.596307 0.444083
0.469856 0.598428 0.426154
0.504082 0.602319 0.409903
0.539635 0.602792 0.397192
0.57789 0.601862 0.387015
0.616938 0.600931 0.374655
0.648432 0.602014 0.372137
0.680156 0.60383 0.372015
0.710826 0.605707 0.371359
0.739788 0.609766 0.370123
0.768719 0.614404 0.369589
0.797299 0.61767 0.367773
0.826383 0.62153 0.366232
0.854673 0.624506 0.363821
0.879011 0.627634 0.364858
0.90341 0.630869 0.365728
0.922301 0.633371 0.366812
0.935851 0.636774 0.370138
0.949233 0.639704 0.372503
0.101427 0.561379 0.529488
0.117174 0.56672 0.534691
0.135882 0.572274 0.538643
0.155261 0.577661 0.542306
0.175189 0.582666 0.545449
0.199329 0.586801 0.54316
0.222858 0.590692 0.541512
0.247608 0.594614 0.540246
0.276081 0.599207 0.534066
0.304402 0.602716 0.526696
0.334646 0.606607 0.520119
0.362142 0.612009 0.512352
0.389899 0.617624 0.503899
0.418677 0.623011 0.495705
0.446632 0.628397 0.482094
0.47454 0.635264 0.468574
0.501213 0.642466 0.456031
0.541909 0.64033 0.4383
0.582864 0.6392 0.420508
0.619104 0.638621 0.407187
0.651148 0.639521 0.407034
0.684184 0.639506 0.404944
0.714214 0.64152 0.403464
0.743877 0.644694 0.403555
0.772992 0.646891 0.403204
0.801556 0.650294 0.402884
0.830213 0.654017 0.403159
0.856443 0.657282 0.403265
0.880964 0.661295 0.40444
0.905165 0.664836 0.404654
0.920928 0.668864 0.407675
0.935775 0.672374 0.410025
0.947372 0.676509 0.413916
0.110658 0.589792 0.558434
0.129839 0.596429 0.563119
0.150408 0.603296 0.568597
0.170748 0.60911 0.573571
0.193759 0.614893 0.575891
0.217533 0.619379 0.575555
0.241245 0.62359 0.575494
0.267262 0.628031 0.573922
0.294957 0.63151 0.568109
0.323934 0.635172 0.562814
0.35259 0.639017 0.556832
0.379065 0.643458 0.548699
0.407324 0.648142 0.541543
0.434485 0.652735 0.53196
0.460014 0.659251 0.519448
0.485237 0.665858 0.507042
0.514061 0.669612 0.49221
0.54847 0.672526 0.475135
0.580468 0.675669 0.457374
0.614755 0.676417 0.448722
0.651087 0.675547 0.441657
0.687037 0.673884 0.432776
0.717617 0.675654 0.434546
0.748058 0.676188 0.435386
0.777844 0.678553 0.437171
0.80592 0.68275 0.439414
0.833402 0.686412 0.44126
0.858305 0.691081 0.442679
0.882673 0.694942 0.442802
0.904418 0.699351 0.444923
0.920531 0.702922 0.447196
0.937011 0.707103 0.450446
0.945144 0.711284 0.45568
0.123735 0.619852 0.586862
0.144549 0.627115 0.593027
0.165591 0.633555 0.598779
0.18851 0.64004 0.60444
0.212238 0.644907 0.605158
0.23563 0.64918 0.605753
0.260639 0.654215 0.607446
0.286976 0.65771 0.603525
0.31458 0.661555 0.599557
0.342306 0.66566 0.596674
0.369284 0.669169 0.590326
0.397574 0.673411 0.584482
0.425483 0.676829 0.578561
0.450324 0.682246 0.567788
0.473396 0.688563 0.556085
0.495232 0.694133 0.544182
0.522301 0.700801 0.529152
0.547921 0.70782 0.512779
0.576501 0.713283 0.497902
0.615534 0.711086 0.486168
0.652796 0.709606 0.472786
0.686946 0.709819 0.467063
0.718639 0.709316 0.466468
0.75201 0.709361 0.465568
0.780789 0.712016 0.467735
0.80911 0.714183 0.469932
0.836606 0.717021 0.472847
0.86067 0.720913 0.47538
0.885328 0.725093 0.479057
0.903777 0.729625 0.482948
0.920745 0.734142 0.486961
0.935271 0.739132 0.491936
0.943282 0.743435 0.497108
0.138735 0.647395 0.613596
0.159762 0.654246 0.619928
0.182666 0.661479 0.626917
0.206744 0.667796 0.631067
0.230289 0.672847 0.632929
0.255558 0.678935 0.636133
0.281285 0.684428 0.637629
0.307012 0.687907 0.634394
0.333486 0.692195 0.632761
0.359686 0.695705 0.630198
0.388128 0.699229 0.625086
0.41593 0.702235 0.619959
0.442527 0.706111 0.613886
0.46511 0.712001 0.604059
0.487373 0.716762 0.594278
0.51104 0.72256 0.583658
0.534539 0.729427 0.568475
0.557183 0.735973 0.553002
0.586755 0.739757 0.538613
0.618433 0.74229 0.523384
0.649119 0.746731 0.508049
0.683696 0.745281 0.502419
0.720104 0.744411 0.496773
0.754253 0.74374 0.493187
0.783856 0.74403 0.496422
0.814267 0.744289 0.500069
0.839658 0.74699 0.504585
0.863676 0.751263 0.510872
0.885969 0.755245 0.515755
0.903883 0.760067 0.520211
0.921813 0.76495 0.52546
0.933135 0.769177 0.530648
0.942489 0.774044 0.537133
0.154574 0.674876 0.641032
0.177096 0.682292 0.648234
0.201144 0.689372 0.654887
0.224857 0.694972 0.657633
0.250233 0.701289 0.661234
0.276493 0.70782 0.665263
0.301686 0.712016 0.664698
0.328801 0.716655 0.664378
0.354788 0.720439 0.663935
0.381903 0.724666 0.661738
0.40827 0.728359 0.657908
0.43415 0.731807 0.654353
0.458289 0.736355 0.648371
0.481086 0.740307 0.640528
0.504616 0.74461 0.634043
0.525612 0.750683 0.62092
0.545098 0.757015 0.607248
0.565209 0.763439 0.593866
0.592294 0.769375 0.577096
0.619348 0.77612 0.560555
0.649393 0.778988 0.546181
0.686213 0.778149 0.537133
0.721584 0.778225 0.52665
0.753124 0.777523 0.5252
0.785214 0.776898 0.525963
0.815702 0.77641 0.526375
0.841184 0.778775 0.532403
0.866621 0.780179 0.537865
0.887053 0.783917 0.544808
0.905287 0.788006 0.552163
0.92192 0.791974 0.559487
0.932174 0.796719 0.567056
0.942351 0.801175 0.574395
0.171771 0.700725 0.666697
0.195224 0.708186 0.674083
0.218784 0.714458 0.678767
0.244587 0.721645 0.683467
0.271031 0.72903 0.688609
0.297017 0.734966 0.691814
0.323934 0.7402 0.693187
0.350591 0.745052 0.694469
0.377935 0.75021 0.696208
0.403357 0.754208 0.693599
0.427832 0.757382 0.690318
0.453407 0.76141 0.687556
0.476066 0.764996 0.680735
0.499641 0.768948 0.674388
0.521828 0.773205 0.666285
0.541482 0.77882 0.654734
0.561913 0.784115 0.64419
0.58381 0.789548 0.630457
0.607019 0.796231 0.614923
0.628931 0.802457 0.598978
0.658503 0.805982 0.586618
0.688579 0.80975 0.57319
0.718013 0.812711 0.560906
0.75227 0.811185 0.557015
0.786892 0.809064 0.551125
0.81677 0.808896 0.553628
0.843748 0.808301 0.559442
0.87013 0.808682 0.566262
0.888319 0.812284 0.575174
0.907057 0.814923 0.583383
0.920958 0.818769 0.591867
0.93196 0.822293 0.599466
0.942321 0.826368 0.608331
0.190097 0.726925 0.692851
0.212955 0.733547 0.699168
0.239063 0.741161 0.704479
0.265568 0.748684 0.70988
0.291402 0.755657 0.714748
0.319005 0.7617 0.717723
0.345998 0.767178 0.720226
0.374762 0.773037 0.723354
0.401465 0.778195 0.723781
0.425666 0.782025 0.721721
0.451133 0.786419 0.720455
0.47393 0.790188 0.71635
0.496178 0.794034 0.711055
0.518273 0.797436 0.705303
0.53901 0.801755 0.697215
0.559899 0.806455 0.689097
0.580285 0.809934 0.680293
0.600244 0.816373 0.66627
0.619226 0.822278 0.652445
0.64126 0.828122 0.638941
0.667247 0.833906 0.623545
0.691646 0.839429 0.607752
0.722454 0.840711 0.598489
0.755001 0.839948 0.590066
0.786572 0.840436 0.583322
0.815259 0.83917 0.58558
0.844923 0.83798 0.587015
0.868955 0.838285 0.592218
0.889128 0.839277 0.600443
0.909438 0.840009 0.608896
0.921035 0.842817 0.618494
0.932921 0.845838 0.629267
0.940826 0.848829 0.638514
0.208789 0.751842 0.717586
0.233356 0.759228 0.723629
0.259556 0.766995 0.729091
0.285054 0.773785 0.733898
0.312673 0.781201 0.739269
0.340887 0.787655 0.743191
0.370306 0.794675 0.747951
0.400076 0.801724 0.75256
0.424002 0.80618 0.751659
0.448936 0.810819 0.75111
0.473136 0.814832 0.749859
0.494713 0.818692 0.745785
0.516579 0.822309 0.742
0.537408 0.825345 0.73695
0.557671 0.829267 0.729015
0.577356 0.832593 0.720577
0.597192 0.837064 0.710903
0.616632 0.841978 0.698268
0.6365 0.847013 0.686275
0.657893 0.852369 0.672343
0.679469 0.858213 0.658412
