LUT预设1/LUT全系打包/6.FAKE5207&淡雅系列/淡雅LUT/rec709/淡雅std709.cube
TITLE "Generated by Resolve"
LUT_3D_SIZE 33
0.0153811 0.0202487 0.0333104
0.0195773 0.0206912 0.0335088
0.0259251 0.0210727 0.0334173
0.0380713 0.0212406 0.0325628
0.0501259 0.0213626 0.0315404
0.0623178 0.0212253 0.0301366
0.0811322 0.0216526 0.0288396
0.107012 0.0224002 0.0274205
0.132128 0.0229953 0.025864
0.158495 0.023621 0.0241398
0.19527 0.0263371 0.0238041
0.232944 0.0290684 0.0233768
0.270237 0.0316777 0.0228733
0.308583 0.034638 0.0229953
0.34638 0.0377508 0.0234379
0.383932 0.0404974 0.0237736
0.420249 0.0436866 0.0242618
0.456031 0.0471199 0.0252842
0.490669 0.0502022 0.0260624
0.524742 0.0537575 0.0271458
0.55729 0.0573739 0.0281987
0.589288 0.0606699 0.0288701
0.620295 0.0643626 0.029633
0.650721 0.0681468 0.0303349
0.681544 0.0720226 0.0310826
0.711391 0.0758526 0.0315404
0.741939 0.0799573 0.0321355
0.772869 0.0842298 0.0327764
0.802945 0.0884413 0.0335088
0.834104 0.0930495 0.0344396
0.863233 0.0972763 0.0352483
0.887404 0.100679 0.0359045
0.911772 0.104265 0.0366674
0.0165408 0.0269169 0.0372168
0.0203403 0.0274052 0.0375677
0.0297093 0.0275425 0.0365301
0.0416571 0.0276493 0.0349584
0.0535286 0.028336 0.0339055
0.0652018 0.0287327 0.0324865
0.0890669 0.0300908 0.0314641
0.114687 0.0313878 0.0301823
0.139818 0.0324254 0.028687
0.169711 0.0340887 0.0274662
0.207721 0.0373693 0.0271
0.245884 0.0403143 0.0272831
0.284138 0.0429084 0.0268101
0.322789 0.0461433 0.0277562
0.361715 0.0493782 0.0284123
0.400854 0.0522469 0.0284276
0.436362 0.0555581 0.0293584
0.472755 0.0589456 0.0300603
0.507942 0.0619974 0.0304723
0.540459 0.0654002 0.0312657
0.572946 0.0687877 0.0319982
0.605066 0.0720531 0.032517
0.635126 0.0756085 0.0330663
0.665904 0.0793164 0.0336767
0.696117 0.0829786 0.0341802
0.726177 0.0869001 0.0345464
0.756924 0.0911116 0.0350195
0.787411 0.0953689 0.0356451
0.81796 0.0998093 0.0364385
0.848814 0.104402 0.0372778
0.874327 0.107958 0.0379187
0.898405 0.111513 0.0385138
0.921492 0.115038 0.0391546
0.0186465 0.0389868 0.0446021
0.0237125 0.0401007 0.0452277
0.0344701 0.04094 0.0443122
0.045304 0.0417792 0.043473
0.056199 0.0424964 0.0424964
0.071809 0.0430152 0.041062
0.0959029 0.0442206 0.0395819
0.120882 0.0451057 0.038468
0.145434 0.0456397 0.0369421
0.181155 0.048127 0.0362554
0.219867 0.0508888 0.035584
0.258732 0.0533913 0.0343938
0.297383 0.0560922 0.0336156
0.336858 0.0593576 0.0335546
0.377035 0.0626383 0.0331273
0.414649 0.0656596 0.0327916
0.450431 0.0691081 0.0330968
0.487602 0.0725414 0.0333562
0.521447 0.0756237 0.0334936
0.553872 0.0788128 0.0340429
0.586679 0.0821546 0.0345159
0.617334 0.0851301 0.0348363
0.648035 0.0886244 0.0353246
0.678721 0.092195 0.0357671
0.708614 0.0957504 0.0361028
0.738949 0.0998093 0.0365301
0.769924 0.103914 0.0369879
0.800015 0.10808 0.0377356
0.830716 0.112688 0.0385748
0.860044 0.117006 0.0393835
0.883558 0.120577 0.0399481
0.907805 0.124743 0.0406653
0.925399 0.128023 0.0411994
0.0211337 0.0537881 0.0536049
0.0286564 0.0551003 0.0538186
0.0383459 0.0556649 0.052903
0.0483558 0.0565805 0.0528115
0.0581521 0.0573129 0.052842
0.0788739 0.0580453 0.0514839
0.102739 0.058854 0.0497597
0.127108 0.0594492 0.0476539
0.154635 0.0601511 0.0451514
0.19324 0.0627146 0.043595
0.23238 0.0651408 0.0415961
0.271107 0.0671244 0.0391394
0.310506 0.0705119 0.0383001
0.350942 0.0740215 0.0372778
0.391104 0.0779126 0.0365606
0.426978 0.0812848 0.0364843
0.462745 0.08542 0.03682
0.500481 0.0895094 0.0369573
0.532189 0.0926375 0.0372015
0.564965 0.0963149 0.0377203
0.597864 0.100023 0.038117
0.627619 0.103166 0.038529
0.657832 0.106981 0.0391241
0.688609 0.110872 0.0396124
0.718303 0.114641 0.0400092
0.749218 0.119097 0.040528
0.779828 0.123552 0.0411841
0.810117 0.128023 0.0419013
0.840986 0.132982 0.04271
0.867399 0.137346 0.0433509
0.891615 0.140978 0.0437781
0.91635 0.145098 0.0442969
0.929122 0.147951 0.0446021
0.0240177 0.0691844 0.0630655
0.0328374 0.0704051 0.063508
0.041474 0.071107 0.0633555
0.0506752 0.0727245 0.0644236
0.0634775 0.0743572 0.0646982
0.0859083 0.0753643 0.0623331
0.108354 0.0767529 0.0598764
0.131182 0.0777752 0.0568399
0.163607 0.0795758 0.0546731
0.202152 0.0822919 0.0532845
0.241123 0.0847944 0.0517739
0.279637 0.0873121 0.0501411
0.318914 0.0910506 0.0489204
0.360388 0.0948196 0.0472725
0.399619 0.0983749 0.0456703
0.436072 0.102358 0.0453956
0.47306 0.1066 0.0449683
0.509209 0.110307 0.0442664
0.541711 0.114015 0.044358
0.574701 0.117815 0.0444038
0.6065 0.121065 0.0442359
0.636683 0.12488 0.0445411
0.667247 0.128466 0.0447089
0.697826 0.132448 0.0449683
0.727916 0.136233 0.0451972
0.758923 0.14049 0.0454719
0.789548 0.144945 0.0459297
0.820157 0.149477 0.0463874
0.850248 0.154391 0.0469062
0.874907 0.157977 0.0471504
0.900053 0.162234 0.0474861
0.920256 0.165805 0.0477913
0.933318 0.168338 0.0479438
0.0287022 0.0905318 0.0802472
0.0369573 0.0922408 0.0810254
0.0455482 0.0938125 0.0816052
0.0543374 0.0953231 0.0821698
0.0712749 0.0970321 0.0801709
0.0910201 0.0978866 0.0762493
0.110872 0.0993362 0.0723583
0.134096 0.100404 0.0683757
0.170275 0.10222 0.0670939
0.208743 0.104326 0.0658274
0.248264 0.10602 0.0643778
0.287404 0.108934 0.0621347
0.328069 0.112657 0.0598611
0.370474 0.116335 0.0570077
0.408042 0.119799 0.0552682
0.445533 0.124041 0.0541848
0.483085 0.128496 0.0529641
0.517494 0.13193 0.0520333
0.550866 0.136065 0.0516823
0.58471 0.140261 0.0511788
0.615076 0.143465 0.050782
0.645609 0.147097 0.05066
0.676478 0.150546 0.0503853
0.706096 0.154452 0.0504616
0.736965 0.158755 0.0506142
0.767758 0.163409 0.0508125
0.798077 0.16762 0.0509499
0.829206 0.172686 0.0513008
0.856794 0.177401 0.0518044
0.8822 0.181415 0.0521553
0.907881 0.185977 0.0526894
0.92343 0.189441 0.0532845
0.937392 0.192187 0.053666
0.033402 0.113512 0.0979629
0.0411688 0.115023 0.0982223
0.0495308 0.117052 0.0991531
0.0597086 0.118715 0.0991379
0.0771954 0.120317 0.0947433
0.0944076 0.121218 0.0895857
0.111452 0.122286 0.0843977
0.140963 0.12398 0.0819562
0.178256 0.125002 0.0804913
0.216892 0.126345 0.0792401
0.255879 0.128786 0.0776379
0.295186 0.132067 0.074464
0.336172 0.136065 0.0715038
0.377905 0.139544 0.0682689
0.414267 0.143603 0.0666667
0.451911 0.148226 0.0651255
0.48957 0.152789 0.0634623
0.522652 0.156466 0.0623636
0.556725 0.160998 0.0615091
0.590021 0.165118 0.060502
0.620371 0.168383 0.0598001
0.651362 0.172259 0.0592355
0.6822 0.176349 0.0590219
0.712215 0.180026 0.0587472
0.743084 0.184298 0.0586252
0.773571 0.188403 0.0585946
0.805005 0.193317 0.0589761
0.836439 0.198199 0.0592813
0.862547 0.202411 0.059678
0.889021 0.206836 0.0600595
0.911864 0.210986 0.0606851
0.926787 0.213687 0.0610819
0.942092 0.217197 0.0618753
0.0376135 0.137514 0.115038
0.045304 0.139422 0.116594
0.0536355 0.141909 0.119234
0.066453 0.144427 0.118532
0.0814374 0.145968 0.114839
0.0968185 0.148257 0.112032
0.11281 0.150164 0.109224
0.146899 0.151293 0.105852
0.181216 0.15317 0.102159
0.215366 0.154971 0.0973831
0.25359 0.156893 0.0931411
0.29482 0.160143 0.0900282
0.336736 0.16318 0.0865797
0.377081 0.166644 0.0834363
0.415351 0.170565 0.0808423
0.455039 0.174975 0.0782177
0.491005 0.178515 0.0757305
0.525933 0.182742 0.0742199
0.561135 0.186679 0.0725109
0.593286 0.190249 0.0711833
0.624918 0.194507 0.0706951
0.656794 0.198489 0.0699016
0.68719 0.202152 0.0692912
0.717937 0.206104 0.0688182
0.749371 0.210437 0.068513
0.780301 0.214511 0.0683909
0.812482 0.219196 0.068513
0.842176 0.224018 0.0689403
0.869123 0.228138 0.0692149
0.896559 0.232776 0.0699016
0.914992 0.236469 0.0708629
0.930922 0.239872 0.07187
0.945769 0.243503 0.0730449
0.0427253 0.166262 0.142046
0.050309 0.168536 0.144808
0.0587625 0.171084 0.147982
0.0726329 0.173724 0.145892
0.0858015 0.175448 0.143221
0.0996719 0.17763 0.141299
0.121614 0.17969 0.137575
0.151308 0.180499 0.129809
0.181125 0.182437 0.12192
0.212039 0.184298 0.113893
0.252811 0.18613 0.110002
0.295323 0.188693 0.106371
0.338735 0.190707 0.102022
0.377905 0.194141 0.0987259
0.418524 0.198093 0.0955062
0.460014 0.201953 0.0919356
0.494026 0.20557 0.0898604
0.530327 0.209873 0.088014
0.565972 0.214145 0.0862745
0.597162 0.218265 0.0856641
0.62977 0.222675 0.0850233
0.661768 0.226963 0.0844587
0.692119 0.230579 0.0838788
0.723369 0.234821 0.08365
0.754604 0.238788 0.0833295
0.786526 0.243366 0.0834821
0.818402 0.248173 0.0837568
0.846448 0.252338 0.0839551
0.874571 0.257099 0.0845502
0.900465 0.261616 0.0851453
0.917632 0.264652 0.0856794
0.935286 0.268284 0.0865492
0.946242 0.271809 0.0878767
0.047715 0.19585 0.170047
0.0549477 0.198245 0.173861
0.0650492 0.201129 0.175433
0.0771496 0.20354 0.174075
0.0893111 0.205356 0.172442
0.102022 0.207218 0.171206
0.128038 0.210025 0.163333
0.153674 0.211704 0.153811
0.179126 0.21471 0.1458
0.213687 0.217594 0.140307
0.25452 0.219654 0.134539
0.296056 0.222309 0.127886
0.336797 0.224704 0.12163
0.378271 0.228122 0.118517
0.420615 0.23122 0.115114
0.459998 0.233967 0.111757
0.496437 0.238239 0.109834
0.533974 0.242374 0.107607
0.567864 0.245808 0.105547
0.600595 0.249546 0.104128
0.633677 0.253498 0.102739
0.664714 0.256672 0.101488
0.696284 0.260838 0.101045
0.728008 0.264744 0.100526
0.759579 0.268574 0.100038
0.792065 0.272999 0.0998703
0.823148 0.27715 0.0995956
0.851743 0.281697 0.0998398
0.880766 0.286244 0.0999771
0.902754 0.290043 0.100328
0.921645 0.293324 0.100816
0.940108 0.297063 0.101564
0.947463 0.29958 0.102525
0.0523537 0.226993 0.200504
0.0595712 0.230808 0.20676
0.0713664 0.234226 0.206775
0.0833448 0.236362 0.205737
0.0957809 0.23856 0.204898
0.112535 0.241474 0.202075
0.134234 0.244434 0.194949
0.156542 0.248646 0.189014
0.17879 0.252491 0.183276
0.217151 0.2542 0.172671
0.256321 0.25684 0.161212
0.294728 0.259159 0.148516
0.335866 0.260899 0.143374
0.379507 0.263081 0.139879
0.424002 0.264881 0.135821
0.461341 0.267628 0.132769
0.499077 0.271519 0.130144
0.538109 0.274952 0.127047
0.570642 0.277714 0.124605
0.603876 0.28098 0.122423
0.636973 0.284108 0.120119
0.668223 0.288136 0.119631
0.700389 0.292439 0.119142
0.731792 0.295827 0.11809
0.764263 0.300618 0.118151
0.796765 0.305348 0.11812
0.826566 0.309178 0.117708
0.856397 0.314061 0.118105
0.885145 0.318746 0.118486
0.904982 0.322011 0.118914
0.925628 0.325887 0.119722
0.940124 0.328832 0.12047
0.948806 0.332189 0.122194
0.0573129 0.26186 0.236133
0.0661936 0.265461 0.23978
0.0780652 0.268635 0.23975
0.0897231 0.270665 0.238636
0.101518 0.273472 0.238422
0.119951 0.278279 0.234806
0.138491 0.281926 0.22974
0.157809 0.286534 0.225513
0.184939 0.289586 0.216144
0.220462 0.291752 0.200565
0.256428 0.29485 0.185626
0.293736 0.298024 0.174914
0.336431 0.299336 0.170153
0.381582 0.30074 0.163745
0.424033 0.301915 0.157168
0.462913 0.305364 0.155108
0.502785 0.308324 0.152773
0.540475 0.310475 0.149828
0.57406 0.314504 0.147616
0.60824 0.318212 0.145068
0.639994 0.321447 0.142916
0.671687 0.325002 0.141588
0.703365 0.328481 0.140169
0.735073 0.331868 0.139101
0.767651 0.336141 0.138872
0.799359 0.339605 0.137942
0.830014 0.344015 0.138186
0.860746 0.348547 0.138384
0.886198 0.351843 0.13846
0.908385 0.355535 0.139361
0.930709 0.358831 0.139925
0.941299 0.362234 0.141802
0.951431 0.365911 0.143969
0.0620127 0.297063 0.27245
0.0725719 0.300618 0.272526
0.0835279 0.303838 0.272419
0.095201 0.306981 0.272877
0.108873 0.311208 0.272953
0.126955 0.315435 0.26807
0.146242 0.320699 0.264057
0.166613 0.325307 0.259098
0.196231 0.329168 0.247288
0.226322 0.333761 0.23566
0.25597 0.339117 0.224735
0.294575 0.340505 0.213458
0.338354 0.341482 0.201251
0.382773 0.342214 0.186831
0.423774 0.343023 0.18114
0.465614 0.345037 0.179706
0.507347 0.345724 0.177447
0.543496 0.34905 0.174594
0.57763 0.352926 0.171527
0.611811 0.355612 0.167437
0.642954 0.358785 0.165545
0.674434 0.361761 0.163302
0.705974 0.363928 0.160632
0.738201 0.368063 0.160449
0.77084 0.372137 0.160388
0.802243 0.375937 0.160174
0.834043 0.380377 0.160754
0.865141 0.383978 0.160494
0.888334 0.388128 0.161837
0.912245 0.392218 0.163058
0.930907 0.395071 0.16376
0.942306 0.398856 0.165957
0.953658 0.402502 0.167956
0.067155 0.334417 0.306691
0.0778973 0.338643 0.308019
0.0889906 0.341604 0.308721
0.100633 0.345678 0.311116
0.117403 0.35082 0.308492
0.136141 0.355215 0.302922
0.155947 0.360296 0.298131
0.178515 0.365499 0.291646
0.202945 0.370947 0.282628
0.22742 0.377813 0.2748
0.254261 0.382284 0.264256
0.296971 0.382879 0.246464
0.339757 0.383124 0.227115
0.381704 0.383093 0.210254
0.424887 0.384512 0.210391
0.4692 0.385504 0.207767
0.511254 0.386114 0.202808
0.546441 0.389364 0.200076
0.581994 0.392218 0.197696
0.615564 0.394629 0.195041
0.646616 0.398032 0.193225
0.677424 0.400748 0.190539
0.709453 0.4047 0.189425
0.741421 0.408774 0.18854
0.772869 0.411673 0.186511
0.804608 0.416098 0.186786
0.836774 0.420493 0.186877
0.86537 0.423804 0.186694
0.890394 0.427466 0.18761
0.915343 0.430365 0.187869
0.930587 0.433783 0.189532
0.943801 0.437095 0.191318
0.954589 0.44004 0.192996
0.0728008 0.372702 0.342809
0.0835126 0.37702 0.345144
0.0947127 0.380636 0.347189
0.107866 0.385321 0.348547
0.126101 0.390005 0.343343
0.145525 0.394949 0.339117
0.165255 0.399603 0.335393
0.187381 0.405173 0.328313
0.210712 0.411643 0.320867
0.234623 0.417548 0.312734
0.266728 0.420615 0.299229
0.304234 0.423835 0.284138
0.339757 0.427939 0.27013
0.380804 0.428809 0.258137
0.427039 0.428962 0.248264
0.473426 0.427771 0.234974
0.513985 0.428916 0.229816
0.551553 0.430579 0.229191
0.588357 0.431128 0.227665
0.620111 0.434531 0.225727
0.650477 0.437949 0.222934
0.681346 0.441733 0.220295
0.712642 0.445731 0.218418
0.74345 0.448539 0.215427
0.77525 0.452277 0.213855
0.807752 0.456275 0.213565
0.83946 0.459464 0.212757
0.866804 0.463279 0.213718
0.892943 0.465995 0.213916
0.916533 0.469429 0.215091
0.931136 0.472862 0.21709
0.945953 0.475227 0.218143
0.953658 0.478721 0.220874
0.0783246 0.409964 0.379049
0.0892195 0.413901 0.381659
0.100954 0.419028 0.385901
0.117556 0.424109 0.384695
0.135637 0.428565 0.381567
0.155016 0.433463 0.379278
0.17464 0.437705 0.375311
0.197818 0.443931 0.367163
0.221286 0.450202 0.359182
0.24535 0.454841 0.349233
0.276799 0.461128 0.338048
0.306645 0.468162 0.327428
0.335058 0.47454 0.316228
0.384115 0.473487 0.299046
0.432502 0.471748 0.279393
0.479393 0.470741 0.261677
0.517311 0.471382 0.262913
0.556512 0.470726 0.260533
0.594034 0.471748 0.257496
0.624689 0.475608 0.256077
0.655421 0.477684 0.253864
0.686412 0.481285 0.252445
0.71693 0.484901 0.249912
0.747524 0.488991 0.247623
0.779019 0.493065 0.246616
0.810407 0.49601 0.244602
0.840711 0.499794 0.243656
0.867979 0.502708 0.243519
0.895659 0.506004 0.243717
0.915633 0.509209 0.244862
0.932174 0.511635 0.245899
0.947768 0.514733 0.247669
0.953384 0.517906 0.250294
0.0839246 0.446311 0.414984
0.0955825 0.452079 0.419928
0.108873 0.457832 0.423987
0.126619 0.462211 0.421851
0.145144 0.467445 0.421363
0.164218 0.472251 0.421439
0.185595 0.477089 0.414572
0.209644 0.482704 0.406485
0.234119 0.487587 0.398383
0.260456 0.493126 0.38941
0.289113 0.500221 0.379828
0.317372 0.505959 0.368948
0.353231 0.510185 0.356466
0.395789 0.512154 0.339803
0.43505 0.514519 0.323278
0.475898 0.515846 0.312123
0.519448 0.514824 0.302449
0.564309 0.512306 0.288823
0.598962 0.513664 0.286137
0.629877 0.514534 0.286473
0.662074 0.516091 0.288182
0.691676 0.520836 0.286046
0.721065 0.525643 0.283757
0.751217 0.530327 0.281605
0.781643 0.532906 0.278141
0.812955 0.536416 0.275196
0.841932 0.539803 0.274296
0.870375 0.542367 0.273625
0.897566 0.54551 0.273915
0.915999 0.547692 0.275029
0.935058 0.550607 0.276783
0.946777 0.553933 0.279469
0.95378 0.556359 0.281895
0.0903639 0.483391 0.451896
0.102983 0.489921 0.457862
0.119112 0.49546 0.459953
0.13753 0.499718 0.459541
0.156497 0.504707 0.460883
0.176104 0.508949 0.460197
0.200198 0.514046 0.453315
0.224887 0.518959 0.446571
0.249302 0.522988 0.439704
0.277333 0.529824 0.430289
0.305516 0.535439 0.419272
0.334936 0.54139 0.409064
0.368734 0.547448 0.396506
0.400473 0.553689 0.383734
0.431739 0.561227 0.371695
0.478523 0.559457 0.354452
0.525841 0.556176 0.333516
0.570169 0.55436 0.317143
0.601404 0.553735 0.319081
0.635065 0.553582 0.320363
0.667567 0.555474 0.319646
0.696361 0.559274 0.318029
0.725521 0.563699 0.31783
0.755398 0.567025 0.315343
0.785763 0.571084 0.312871
0.815641 0.575143 0.310704
0.844038 0.577722 0.309316
0.873075 0.581247 0.308766
0.896468 0.583719 0.308659
0.917174 0.586847 0.310216
0.937713 0.590372 0.312123
0.946242 0.592676 0.314244
0.955093 0.596033 0.31754
0.0986038 0.519219 0.48748
0.113222 0.527352 0.494713
0.130938 0.531762 0.495567
0.149996 0.537194 0.49807
0.168811 0.541543 0.499901
0.191211 0.546639 0.497017
0.215686 0.551492 0.492027
0.240055 0.555016 0.486427
0.266468 0.559701 0.479164
0.295705 0.565393 0.46862
0.324559 0.570047 0.458183
0.354925 0.575555 0.44773
0.383688 0.582177 0.436622
0.413413 0.589075 0.425849
0.448127 0.593179 0.41236
0.487205 0.593637 0.393286
0.52488 0.59617 0.375525
0.562264 0.595514 0.364385
0.601907 0.593225 0.357717
0.643214 0.590524 0.34847
0.673182 0.592676 0.348547
0.702525 0.596048 0.351537
0.731258 0.599283 0.353536
0.760418 0.604196 0.351171
0.789502 0.609781 0.34934
0.818006 0.613214 0.347051
0.846967 0.616709 0.345571
0.875166 0.619287 0.343221
0.897383 0.622354 0.345159
0.919753 0.625544 0.346868
0.93611 0.627924 0.348516
0.94638 0.631144 0.35227
0.956649 0.633921 0.355077
0.108446 0.556222 0.524193
0.124743 0.561563 0.527764
0.144106 0.566644 0.530266
0.164187 0.571664 0.532647
0.184588 0.576486 0.534203
0.209201 0.580667 0.529564
0.233112 0.584527 0.525582
0.258167 0.588312 0.521843
0.28687 0.593454 0.513787
0.315557 0.597513 0.504555
0.34641 0.601846 0.49601
0.373816 0.607935 0.486595
0.400992 0.61442 0.476509
0.428901 0.620813 0.466667
0.458946 0.625772 0.451194
0.489097 0.632288 0.435416
0.517647 0.639353 0.420554
0.562676 0.634348 0.404929
0.608148 0.630426 0.388891
0.646616 0.628458 0.377997
0.676005 0.63061 0.382254
0.707149 0.631266 0.384588
0.736446 0.634104 0.384237
0.765484 0.638483 0.384115
0.793698 0.641917 0.38407
0.822126 0.645396 0.383627
0.850629 0.649363 0.383703
0.875975 0.652811 0.383886
0.898833 0.656794 0.385504
0.921492 0.660304 0.386053
0.93431 0.664225 0.389639
0.946166 0.667628 0.392599
0.955016 0.671641 0.396963
0.118395 0.585199 0.553002
0.138445 0.591516 0.556802
0.159686 0.59823 0.561196
0.180438 0.604044 0.564935
0.203754 0.609751 0.565316
0.227726 0.613931 0.562615
0.25153 0.617807 0.560189
0.27776 0.622126 0.556374
0.306172 0.625925 0.548684
0.335851 0.629816 0.541436
0.364767 0.634043 0.533501
0.390341 0.639399 0.523827
0.417762 0.644984 0.515068
0.444892 0.650187 0.503502
0.471824 0.656855 0.488075
0.498009 0.663844 0.472358
0.529152 0.666941 0.456352
0.567773 0.667948 0.440558
0.603922 0.669444 0.423758
0.639323 0.669154 0.418219
0.676371 0.666896 0.415061
0.713436 0.663661 0.409918
0.742031 0.667018 0.413626
0.770169 0.669184 0.417044
0.798474 0.672786 0.420172
0.826291 0.677882 0.421714
0.853483 0.682551 0.422782
0.877226 0.687312 0.424155
0.90042 0.691096 0.424353
0.920302 0.695491 0.426841
0.933562 0.69897 0.429908
0.947204 0.703136 0.433906
0.952804 0.707103 0.439551
0.13283 0.615366 0.581979
0.154238 0.622629 0.587259
0.175662 0.62916 0.592004
0.19884 0.635752 0.596384
0.22266 0.640192 0.594888
0.246006 0.644099 0.593362
0.270863 0.648814 0.59295
0.297536 0.652338 0.586984
0.325551 0.656214 0.580911
0.353643 0.660243 0.575906
0.380423 0.664225 0.567773
0.408423 0.669108 0.560327
0.43621 0.67306 0.552804
0.46125 0.679225 0.538872
0.484199 0.686534 0.523262
0.505531 0.693233 0.507515
0.535988 0.699138 0.492851
0.565408 0.70547 0.476722
0.597482 0.709895 0.462226
0.639246 0.704845 0.453925
0.679622 0.700648 0.443854
0.714107 0.700374 0.441474
0.743725 0.700801 0.444541
0.77554 0.701274 0.447578
0.803311 0.704967 0.450202
0.830335 0.708309 0.452918
0.856367 0.712093 0.456413
0.879225 0.716472 0.458915
0.902632 0.721279 0.462516
0.918776 0.725994 0.466804
0.933257 0.730602 0.471229
0.945327 0.735607 0.4766
0.950881 0.739757 0.482231
0.148653 0.642908 0.608743
0.170123 0.649912 0.614237
0.193393 0.657374 0.620295
0.217563 0.6636 0.622904
0.240955 0.668376 0.62295
0.265949 0.67422 0.624399
0.291447 0.679515 0.624063
0.317281 0.682811 0.618585
0.343801 0.686839 0.614755
0.370092 0.690196 0.610162
0.398703 0.694163 0.603586
0.426581 0.697551 0.596979
0.452995 0.701946 0.588861
0.474861 0.708934 0.575784
0.496376 0.714733 0.563088
0.520592 0.72108 0.550439
0.5467 0.727932 0.533578
0.571572 0.734737 0.515755
0.604242 0.737301 0.50219
0.640009 0.737835 0.489448
0.675181 0.74052 0.476005
0.709972 0.737911 0.474403
0.747005 0.735393 0.473121
0.781048 0.733867 0.473198
0.807965 0.735637 0.478752
0.835325 0.737408 0.485283
0.859052 0.741283 0.490288
0.881788 0.746731 0.496406
0.902632 0.751583 0.501213
0.918303 0.756542 0.505898
0.934005 0.761669 0.511376
0.942946 0.765896 0.517006
0.949844 0.770687 0.52401
0.165072 0.670604 0.636011
0.188052 0.678264 0.642512
0.212406 0.685588 0.648325
0.23592 0.69099 0.649561
0.261067 0.697154 0.651682
0.287037 0.703578 0.654292
0.312139 0.70753 0.651881
0.339147 0.711833 0.649622
0.364965 0.715251 0.647349
0.391928 0.719509 0.643565
0.418051 0.72343 0.638132
0.44358 0.727047 0.632853
0.46714 0.732204 0.62472
0.489357 0.73698 0.614694
0.512306 0.742016 0.606363
0.534157 0.748882 0.590066
0.554253 0.756283 0.572595
0.574731 0.763836 0.55555
0.606928 0.768322 0.540337
0.639017 0.773877 0.524407
0.672663 0.775158 0.511666
0.711543 0.771756 0.506996
0.749538 0.769375 0.500648
0.779812 0.76878 0.502724
0.809949 0.76849 0.507179
0.838849 0.7682 0.510903
0.862119 0.771878 0.518074
0.8851 0.774609 0.525093
0.903166 0.779187 0.532815
0.919158 0.784009 0.540368
0.933532 0.788663 0.547906
0.941451 0.7935 0.555673
0.949416 0.798093 0.563149
0.18262 0.696651 0.66157
0.206546 0.704417 0.66836
0.230228 0.710781 0.672068
0.255955 0.717922 0.675593
0.282277 0.725353 0.679667
0.308064 0.731243 0.681636
0.334646 0.736049 0.681361
0.360891 0.740444 0.681086
0.387732 0.745174 0.681331
0.412695 0.749264 0.677012
0.436667 0.752483 0.67187
0.461646 0.756573 0.667124
0.48394 0.760769 0.658473
0.507103 0.765301 0.650278
0.529091 0.770214 0.639902
0.548928 0.776806 0.625208
0.569375 0.783062 0.611948
0.593088 0.788769 0.596506
0.619486 0.795316 0.579416
0.644053 0.801755 0.561151
0.677012 0.803632 0.55108
0.711254 0.805478 0.540413
0.744121 0.80679 0.530861
0.778546 0.803677 0.53167
0.813993 0.799496 0.530877
0.842039 0.799512 0.537102
0.865339 0.800427 0.546304
0.888151 0.802243 0.556237
0.90425 0.806912 0.565103
0.920562 0.810636 0.573693
0.932097 0.815 0.582406
0.940887 0.818845 0.58999
0.94905 0.823255 0.598901
0.201266 0.723125 0.687633
0.224628 0.730053 0.693446
0.250797 0.737743 0.697841
0.277287 0.745373 0.702358
0.30312 0.752468 0.706416
0.330495 0.758206 0.708125
0.357244 0.763333 0.709346
0.385794 0.768887 0.711238
0.411948 0.773877 0.710018
0.435264 0.777493 0.705943
0.459602 0.781567 0.702464
0.481697 0.785473 0.696422
0.503517 0.789715 0.689265
0.52517 0.793515 0.681514
0.54583 0.798489 0.671382
0.566766 0.803891 0.661646
0.587289 0.80798 0.651621
0.608377 0.81532 0.634302
0.628214 0.822232 0.616983
0.652232 0.828305 0.601785
0.683055 0.83267 0.587854
0.711788 0.837095 0.572869
0.744976 0.836576 0.567117
0.779644 0.8336 0.563302
0.813077 0.832334 0.560678
0.839582 0.831281 0.566644
0.867628 0.829892 0.571984
0.889235 0.830671 0.579873
0.905989 0.832807 0.590249
0.922667 0.834684 0.60116
0.931868 0.838209 0.610834
0.941299 0.842008 0.621714
0.947295 0.845457 0.630854
0.220325 0.748226 0.712261
0.245167 0.755795 0.717662
0.27155 0.763699 0.722454
0.297139 0.770672 0.726619
0.324773 0.778195 0.731243
0.352956 0.784482 0.734188
0.382422 0.791379 0.738109
0.412146 0.798337 0.741802
0.434745 0.802335 0.73872
0.458213 0.806424 0.735866
0.481086 0.81004 0.732403
0.502266 0.814252 0.726482
0.523583 0.818051 0.720623
0.543893 0.821302 0.713451
0.564233 0.825849 0.703777
0.584024 0.82977 0.693507
0.604288 0.834928 0.681727
0.624613 0.840589 0.667063
0.645411 0.846326 0.653422
0.669169 0.851606 0.638849
