LUT预设1/LUT全系打包/CINE系列lut/各机型LOG/N-cine3漂白.cube
TITLE "Generated by Resolve"
LUT_3D_SIZE 9
0.0280308 0.0272831 0.0280919
0.0165866 0.0221866 0.0228275
0.0130159 0.0176547 0.0181582
0.00900282 0.0123293 0.012726
0.00454719 0.00616464 0.00654612
0.0247501 0.00996414 0.0113222
0.11606 0.0302739 0.0289464
0.337423 0.073228 0.0571908
0.587625 0.124315 0.0864271
0.00756847 0.00642405 0.0087129
0.00393683 0.00514229 0.00547799
0.0113527 0.00691234 0.00747692
0.0323033 0.0118563 0.0137942
0.124926 0.0320439 0.0302434
0.326635 0.0710307 0.0558633
0.562661 0.119402 0.0839094
0.777066 0.163806 0.107103
0.857466 0.180682 0.120668
0.0181277 0.0224765 0.0162509
0.0227207 0.0296941 0.01944
0.0406653 0.0373541 0.0249485
0.147463 0.0538643 0.0369573
0.378698 0.0945144 0.0610361
0.620798 0.140093 0.0888685
0.822019 0.18233 0.115526
0.861173 0.188464 0.120821
0.860441 0.186709 0.121019
0.0911269 0.141695 0.0500954
0.107591 0.169665 0.0574502
0.123278 0.191348 0.0648356
0.211109 0.199969 0.0859693
0.477241 0.251423 0.107378
0.764569 0.321065 0.152102
0.937514 0.368002 0.181125
0.945495 0.375143 0.184405
0.947967 0.381842 0.18703
0.229953 0.398505 0.117342
0.251789 0.44094 0.12932
0.269261 0.474876 0.138979
0.373907 0.462394 0.183246
0.535058 0.527092 0.222232
0.885252 0.626368 0.269291
0.999954 0.674861 0.305501
1 0.695781 0.313832
0.999939 0.718105 0.320027
0.409125 0.734264 0.222751
0.433661 0.777249 0.24004
0.451392 0.807477 0.252964
0.582681 0.757336 0.292302
0.71017 0.802991 0.376181
0.852552 0.845029 0.369924
0.974136 0.871916 0.362921
0.979202 0.878676 0.364721
0.97998 0.884886 0.377707
0.479362 0.85272 0.271946
0.479362 0.85272 0.271946
0.536126 0.847486 0.286168
0.741283 0.860182 0.390372
0.801419 0.908995 0.438025
0.890929 0.940459 0.461143
0.968795 0.954864 0.533623
0.989548 0.962493 0.599939
0.992859 0.967926 0.68014
0.479362 0.85272 0.271946
0.551186 0.8477 0.296986
0.734264 0.865263 0.439124
0.832303 0.903807 0.58201
0.889311 0.943389 0.667918
0.958038 0.965484 0.733333
0.992294 0.976135 0.811017
1 0.981689 0.893889
0.999847 0.982315 0.951232
0.648829 0.882994 0.527092
0.787579 0.901732 0.642786
0.878035 0.931182 0.752712
0.937942 0.961791 0.844663
0.984283 0.978744 0.916152
0.997375 0.981903 0.953307
0.999863 0.982162 0.953231
0.999893 0.981842 0.953216
0.990524 0.980026 0.953307
0.0275273 0.0252079 0.0198062
0.0159762 0.0198062 0.0146334
0.0122377 0.0152895 0.0118105
0.00794995 0.0101015 0.00856031
0.00573739 0.00544747 0.00588998
0.0332341 0.0120851 0.0140841
0.155261 0.038056 0.0345312
0.389624 0.0838331 0.0635691
0.633341 0.133196 0.0907454
0.00621042 0.00555428 0.00602731
0.00404364 0.00523384 0.00563058
0.013077 0.00715648 0.0078584
0.0378882 0.0131991 0.0152438
0.147341 0.0364843 0.0334173
0.359747 0.0777752 0.0599527
0.594675 0.125689 0.0870985
0.80264 0.16968 0.110826
0.857679 0.180697 0.120562
0.0194858 0.0246128 0.0171969
0.0239261 0.0315862 0.0202792
0.0424659 0.0389715 0.0256199
0.159869 0.0563821 0.0381628
0.39826 0.0986648 0.0632944
0.641184 0.144167 0.0911879
0.836545 0.185565 0.117754
0.860746 0.187411 0.120623
0.860349 0.186511 0.120989
0.0961471 0.150042 0.0522316
0.111788 0.176959 0.0594492
0.12697 0.19823 0.0665446
0.218616 0.205783 0.0879835
0.49073 0.258824 0.110903
0.781964 0.329152 0.156039
0.941436 0.372335 0.183032
0.946822 0.378698 0.185809
0.949004 0.38468 0.188128
0.236271 0.410773 0.120806
0.257664 0.452369 0.13257
0.2748 0.485573 0.142061
0.381567 0.47126 0.187198
0.544076 0.536461 0.226337
0.896651 0.635813 0.273045
0.999939 0.682551 0.308415
0.999985 0.703365 0.315938
0.999969 0.723659 0.321126
0.416251 0.746777 0.22771
0.439902 0.78793 0.244572
0.451102 0.806989 0.25272
0.596124 0.759808 0.299763
0.715908 0.807813 0.378347
0.851896 0.844388 0.369574
0.970886 0.866529 0.364294
0.982803 0.878141 0.403281
0.986557 0.892882 0.476875
0.479362 0.85272 0.271946
0.479362 0.85272 0.271946
0.552239 0.84625 0.291524
0.741314 0.860716 0.400137
0.817014 0.910216 0.502617
0.899138 0.942702 0.602884
0.972717 0.958389 0.625467
0.992737 0.967361 0.681208
0.995193 0.972732 0.75346
0.438453 0.868208 0.335439
0.532967 0.869673 0.398245
0.750378 0.883955 0.561227
0.847486 0.911803 0.658991
0.906584 0.947494 0.737469
0.967529 0.969482 0.79704
0.993149 0.97879 0.865812
0.999924 0.982238 0.928817
0.999847 0.98233 0.953246
0.634607 0.899977 0.624063
0.787015 0.916274 0.706142
0.889265 0.940429 0.811475
0.95259 0.967102 0.887449
0.986938 0.979904 0.943877
0.999023 0.982193 0.953262
0.999863 0.982055 0.953231
0.999893 0.98175 0.953216
0.989441 0.979797 0.953292
0.0263676 0.0241093 0.0193332
0.0150149 0.0186618 0.0139162
0.0110018 0.0138094 0.0108797
0.00650034 0.00834669 0.00746166
0.0114443 0.00712596 0.00891127
0.0500649 0.0170748 0.0233921
0.196796 0.0473945 0.0482795
0.439353 0.0946822 0.0758679
0.674083 0.142657 0.103868
0.00471504 0.00520333 0.00563058
0.00375372 0.00581369 0.00820935
0.0149996 0.00924697 0.0154574
0.0475471 0.0174411 0.0287022
0.168872 0.0429999 0.0515755
0.389609 0.0856641 0.0797894
0.621912 0.13286 0.105623
0.81976 0.174548 0.123262
0.854505 0.181292 0.132219
0.0199893 0.0280919 0.027451
0.0234226 0.0352941 0.0327306
0.0426947 0.0424201 0.0405432
0.172076 0.0607767 0.0589151
0.412329 0.103075 0.0856336
0.659022 0.14786 0.105043
0.84361 0.18819 0.130404
0.858228 0.184283 0.124559
0.857893 0.187091 0.130053
0.0959945 0.159243 0.0628367
0.111696 0.185107 0.0689555
0.127367 0.205936 0.0735485
0.222843 0.210086 0.0910201
0.503883 0.264347 0.113878
0.797147 0.334218 0.158938
0.943145 0.373266 0.183856
0.94696 0.378973 0.185992
0.949142 0.385016 0.188312
0.241733 0.421592 0.123949
0.262684 0.462333 0.1355
0.279377 0.494545 0.144747
0.385595 0.477516 0.189197
0.54934 0.542428 0.228977
0.895445 0.638926 0.273701
0.999954 0.681941 0.310185
1 0.701488 0.338064
1 0.736431 0.408713
0.421836 0.756695 0.231754
0.444877 0.796399 0.248219
0.44799 0.802029 0.250736
0.591867 0.753613 0.299763
0.709316 0.797909 0.396933
0.845853 0.840238 0.443214
0.976501 0.87335 0.471992
0.992615 0.890166 0.534707
0.991974 0.904204 0.598428
0.466773 0.857664 0.290013
0.433417 0.870054 0.343786
0.515068 0.867826 0.377584
0.755795 0.877775 0.538643
0.848264 0.911604 0.630533
0.90956 0.945357 0.686351
0.978317 0.963211 0.706218
0.995132 0.972702 0.760037
0.996155 0.977066 0.820874
0.370626 0.889967 0.517693
0.508675 0.891707 0.549538
0.729671 0.901808 0.635309
0.856474 0.921035 0.727459
0.922515 0.951934 0.802976
0.97586 0.973434 0.854566
0.994064 0.980865 0.910323
0.999847 0.982315 0.950484
0.999847 0.98233 0.953246
0.627649 0.911971 0.731136
0.774701 0.931243 0.79324
0.893706 0.951339 0.860258
0.961837 0.972686 0.920943
0.991287 0.980819 0.953445
0.999847 0.9823 0.953246
0.999878 0.981964 0.953231
0.999542 0.981552 0.953216
0.988464 0.979599 0.953262
0.0252384 0.0229953 0.0187839
0.014023 0.0174411 0.0131533
0.00978103 0.0123293 0.00994888
0.00509651 0.00665293 0.00640879
0.0176242 0.00955215 0.0149233
0.0684825 0.0229801 0.0367895
0.238819 0.0578012 0.0733349
0.469108 0.104723 0.119539
0.693477 0.152575 0.166705
0.00370794 0.00515755 0.00593576
0.00296025 0.00672923 0.0129091
0.0171969 0.0121462 0.0269322
0.0565347 0.0227512 0.0533913
0.188708 0.0517891 0.103395
0.391653 0.0932174 0.161318
0.607919 0.139635 0.21117
0.787594 0.180377 0.257313
0.807172 0.185397 0.281788
0.0168154 0.0344701 0.0479591
0.016144 0.0444495 0.0677806
0.0334173 0.052903 0.0985733
0.178378 0.0680705 0.173388
0.388113 0.104417 0.22182
0.61445 0.149737 0.26334
0.789303 0.189548 0.304891
0.793545 0.18793 0.322148
0.790143 0.188693 0.335973
0.0731212 0.171481 0.155947
0.0861677 0.195468 0.186954
0.0914626 0.218875 0.203464
0.208011 0.210025 0.206363
0.473747 0.258625 0.236179
0.763943 0.340597 0.302968
0.914626 0.384649 0.337606
0.918807 0.391974 0.343389
0.922133 0.402579 0.355505
0.184222 0.442634 0.265812
0.196765 0.483909 0.29778
0.208408 0.515724 0.315099
0.363272 0.48748 0.300053
0.558999 0.535668 0.341894
0.919417 0.648157 0.409476
1 0.709895 0.505425
1 0.736492 0.549828
0.999985 0.765087 0.590311
0.3402 0.782742 0.378515
0.35938 0.822721 0.405188
0.345098 0.821469 0.442374
0.590951 0.777737 0.475013
0.755016 0.801144 0.593378
0.879088 0.845212 0.620752
0.988312 0.889387 0.638148
0.996887 0.904707 0.670924
0.998077 0.915862 0.715877
0.368368 0.890593 0.526482
0.363348 0.892393 0.576455
0.467369 0.893355 0.57203
0.726833 0.898863 0.632517
0.859098 0.916869 0.715679
0.921736 0.947829 0.764843
0.98378 0.969223 0.787518
0.995987 0.977722 0.833509
0.996979 0.980148 0.880171
0.363027 0.895155 0.676341
0.517449 0.902159 0.704982
0.697246 0.919829 0.744427
0.845045 0.935363 0.798047
0.92723 0.959182 0.862593
0.98085 0.977432 0.904631
0.994904 0.981353 0.941436
0.999847 0.98233 0.953246
0.999786 0.982315 0.953246
0.639628 0.919524 0.818845
0.780682 0.940993 0.867033
0.902419 0.959487 0.912184
0.970626 0.976898 0.946975
0.995941 0.981659 0.953338
0.999863 0.982193 0.953231
0.999878 0.981857 0.953216
0.999207 0.981369 0.953201
0.987671 0.979446 0.953246
0.024445 0.0221256 0.0180972
0.0129549 0.0161593 0.0123445
0.00849927 0.0107729 0.00898756
0.00376898 0.0049897 0.00540169
0.0244907 0.0126497 0.024506
0.0949264 0.0307317 0.0617075
0.270863 0.068864 0.136721
0.474144 0.112642 0.212284
0.685252 0.160784 0.279026
0.00331121 0.0059205 0.00932326
0.00332647 0.00910964 0.0214542
0.0192264 0.0172122 0.049897
0.0652476 0.0303197 0.109239
0.216632 0.0600595 0.207156
0.403845 0.0987259 0.279774
0.598581 0.141939 0.333211
0.761181 0.179995 0.392294
0.766888 0.180774 0.428428
0.00903334 0.045716 0.0953536
0.00540169 0.0580758 0.131029
0.0230869 0.067277 0.185504
0.192432 0.073579 0.319814
0.407263 0.104753 0.391867
0.609842 0.149157 0.427985
0.760998 0.181308 0.47335
0.766125 0.183795 0.500694
0.767132 0.181994 0.530739
0.0425116 0.197467 0.231266
0.043473 0.226383 0.259525
0.047425 0.249409 0.290883
0.155581 0.245991 0.305974
0.438346 0.259892 0.433845
0.699184 0.324208 0.472145
0.836332 0.362127 0.511879
0.833646 0.364004 0.525032
0.841443 0.38793 0.54406
0.182834 0.458824 0.444877
0.198123 0.498863 0.485206
0.211139 0.528298 0.517876
0.300526 0.510033 0.507225
0.549981 0.546853 0.538186
0.868681 0.640452 0.603571
0.988952 0.695857 0.664149
0.989013 0.719051 0.689342
0.987427 0.743267 0.715679
0.318776 0.799161 0.636408
0.334203 0.83125 0.671839
0.330404 0.822034 0.67306
0.517861 0.798474 0.683757
0.750652 0.812711 0.711498
0.876768 0.850385 0.738354
0.99382 0.900053 0.773907
0.999496 0.912276 0.79559
0.999786 0.923995 0.826185
0.366735 0.897169 0.728389
0.36791 0.897948 0.742428
0.468544 0.899825 0.743221
0.674418 0.918746 0.769772
0.844083 0.929503 0.795026
0.929335 0.952132 0.83917
0.986542 0.974975 0.862226
0.996826 0.980774 0.897215
0.997742 0.981353 0.924559
0.372915 0.900252 0.781949
0.533455 0.907835 0.809216
0.695766 0.928603 0.845808
0.834699 0.947066 0.876966
0.93547 0.964233 0.910903
0.981735 0.978805 0.938613
0.996017 0.981659 0.953338
0.999847 0.98233 0.953246
0.999176 0.982208 0.953262
0.666316 0.926574 0.876524
0.808682 0.947311 0.915267
0.917021 0.965408 0.935302
0.980423 0.978912 0.953689
0.998215 0.98204 0.953292
0.999863 0.982086 0.953231
0.999893 0.981765 0.953216
0.998917 0.981201 0.953201
0.986984 0.979324 0.953216
0.0234836 0.0211185 0.017319
0.011841 0.0148165 0.0115053
0.0071107 0.00907912 0.00791943
0.00720226 0.0068513 0.0107881
0.0319066 0.0165408 0.0399634
0.122774 0.0395666 0.116213
0.306371 0.078233 0.228763
0.49752 0.119142 0.307866
0.69012 0.163897 0.385565
0.00288396 0.00729381 0.0152438
0.00408942 0.0137484 0.0383307
0.0192416 0.0260624 0.0939651
0.0731823 0.0384985 0.183261
0.245151 0.0670939 0.327932
0.433097 0.103182 0.415641
0.623407 0.145678 0.476371
0.760037 0.179156 0.539834
0.772931 0.181109 0.590768
0.00250248 0.057847 0.157397
0.000259403 0.072343 0.210941
0.0121157 0.0835279 0.293965
0.197711 0.081651 0.468925
0.42359 0.108782 0.564385
0.641016 0.150973 0.614603
0.781079 0.180972 0.656931
0.78706 0.182452 0.686976
0.790982 0.180941 0.711803
0.00738537 0.226368 0.324422
0.00993362 0.256779 0.36286
0.00749218 0.281285 0.39733
0.133364 0.271763 0.462333
0.416098 0.277653 0.627405
0.702739 0.328725 0.68304
0.823407 0.362707 0.707347
0.827832 0.365454 0.733516
0.835111 0.401831 0.738476
0.150576 0.494362 0.535927
0.16376 0.534249 0.580285
0.173068 0.564446 0.612406
0.240558 0.551415 0.586664
0.460182 0.590402 0.668711
0.797528 0.612284 0.788128
0.909255 0.652216 0.794888
0.915663 0.678141 0.805051
0.926421 0.708202 0.819272
0.33196 0.813855 0.802441
0.343816 0.837369 0.825818
0.336156 0.822385 0.811307
0.533639 0.805768 0.817075
0.733867 0.827619 0.832944
0.866407 0.856046 0.851316
0.98201 0.886366 0.874495
0.99353 0.902022 0.88954
0.992874 0.915114 0.900114
0.376318 0.904814 0.851255
0.376196 0.904692 0.849317
0.492958 0.906157 0.848447
0.681483 0.924071 0.875731
0.815656 0.942107 0.892164
0.929885 0.95819 0.907591
0.987854 0.979339 0.921736
0.997574 0.981155 0.940108
0.998718 0.981445 0.952132
0.384253 0.90544 0.860578
0.567178 0.914549 0.87631
0.715099 0.934844 0.905516
0.842939 0.953826 0.926162
0.935439 0.970016 0.942611
0.98352 0.979461 0.953628
0.997147 0.981857 0.953307
0.999847 0.98233 0.953246
0.998611 0.982101 0.953277
0.695567 0.933028 0.912123
0.830076 0.952697 0.929747
0.931731 0.97055 0.949096
0.986297 0.97995 0.953582
0.999847 0.982315 0.953246
0.999878 0.981994 0.953231
0.999649 0.981613 0.953216
0.998642 0.981048 0.953201
0.986389 0.979232 0.953185
0.0223392 0.0199741 0.0164187
0.0105592 0.0132601 0.010544
0.0056611 0.00733959 0.00683604
0.0112917 0.00967422 0.019791
0.0396124 0.0226444 0.0722972
0.157473 0.0487831 0.197024
0.345159 0.0856489 0.331624
0.532876 0.125521 0.420981
0.712551 0.1682 0.508156
0.00357061 0.0103609 0.0258793
0.00418097 0.0224002 0.0733501
0.0161288 0.0367132 0.147997
0.0809796 0.0487678 0.273045
0.264332 0.0751202 0.456489
0.45951 0.108522 0.55874
0.658778 0.149355 0.629602
0.783566 0.180331 0.685298
0.791653 0.180911 0.715969
0.00015259 0.0711833 0.236393
0 0.0886854 0.313817
0.00320439 0.100267 0.409827
0.198871 0.0909438 0.592691
0.433463 0.115877 0.679408
0.66276 0.152239 0.715877
0.79176 0.183688 0.726986
0.793484 0.180896 0.72752
0.7935 0.181018 0.727565
0.00112917 0.251392 0.428519
0.000350958 0.280659 0.459831
0.000854505 0.30193 0.476738
0.122942 0.28368 0.561273
0.412543 0.289357 0.696757
0.70602 0.334874 0.760311
0.833219 0.361837 0.767926
0.834958 0.370352 0.769848
0.84535 0.409934 0.781003
0.110506 0.527596 0.572274
0.136736 0.558556 0.602838
0.157595 0.579858 0.627115
0.227909 0.565881 0.607736
0.44448 0.600107 0.70634
0.786236 0.621469 0.840436
0.911391 0.655253 0.854887
0.919814 0.682521 0.862684
0.927169 0.712383 0.87097
0.336156 0.822644 0.842252
0.34374 0.837476 0.850065
0.33579 0.819104 0.840421
0.544991 0.811032 0.841947
0.703532 0.838788 0.856962
0.854215 0.86244 0.898817
0.962051 0.879911 0.921126
0.979385 0.897688 0.92752
0.98616 0.915221 0.932769
0.378805 0.907118 0.882902
0.378897 0.907057 0.882307
0.520378 0.910338 0.889815
0.687282 0.928252 0.910933
0.820722 0.946258 0.927947
0.923903 0.966003 0.944915
0.987533 0.979614 0.953246
0.998566 0.981201 0.953216
0.999588 0.981598 0.953216
0.399847 0.907012 0.883268
0.588876 0.919234 0.899245
0.735714 0.939071 0.919097
0.857313 0.957916 0.938277
0.945266 0.9729 0.950683
0.986481 0.979995 0.953567
0.997986 0.98201 0.953292
0.999847 0.98233 0.953246
0.998077 0.98201 0.953292
0.725719 0.937697 0.917845
0.855512 0.957626 0.937987
0.951095 0.973892 0.951278
0.992401 0.981018 0.953429
0.999863 0.982223 0.953246
0.999878 0.981888 0.953231
0.999344 0.981445 0.953216
0.998383 0.980911 0.953201
0.985565 0.978683 0.953033
0.0210269 0.0187228 0.0154726
0.00927749 0.0117189 0.00956741
0.00427253 0.00564584 0.00578317
0.0158541 0.0138094 0.0352483
0.0521248 0.0314031 0.12575
0.191791 0.0575723 0.295415
0.380056 0.0928359 0.445853
0.574929 0.131228 0.549844
0.748516 0.173281 0.641077
0.00408942 0.0163424 0.0487373
0.00434882 0.0332341 0.12105
0.0099794 0.0485237 0.214237
0.0821698 0.0613565 0.381033
0.279591 0.0841993 0.575769
0.479698 0.115679 0.673396
0.684794 0.154147 0.717739
0.793088 0.180789 0.72752
0.793484 0.180865 0.72755
0 0.0868086 0.33402
0 0.104707 0.417105
7.62951e-05 0.109346 0.480827
0.203159 0.0958724 0.632563
0.443809 0.118746 0.697017
0.673625 0.152514 0.72137
0.79379 0.184024 0.727764
0.793698 0.182345 0.727733
0.793667 0.182162 0.727703
0 0.265873 0.478508
7.62951e-05 0.290425 0.482338
0 0.309117 0.484382
0.126192 0.289876 0.56376
0.415641 0.293553 0.700465
0.715557 0.339254 0.761639
0.833402 0.363256 0.768139
0.837903 0.38233 0.772992
0.8486 0.421042 0.784497
0.113939 0.534478 0.577218
0.142184 0.564279 0.608988
0.162997 0.585489 0.63357
0.23183 0.57026 0.611566
0.458244 0.605722 0.713863
0.786999 0.628702 0.841688
0.914565 0.664454 0.857832
0.922225 0.692271 0.865614
0.929747 0.722515 0.874159
0.33814 0.826505 0.844327
0.344274 0.83856 0.850584
0.33579 0.816526 0.839109
0.558709 0.814771 0.843824
0.713268 0.84271 0.860731
0.861082 0.867231 0.902617
0.962005 0.886259 0.923873
0.981201 0.904189 0.931868
0.987762 0.922057 0.938445
0.378805 0.907118 0.882948
0.380209 0.907012 0.882902
0.544915 0.912032 0.892836
0.702754 0.930587 0.913451
0.831083 0.948898 0.932296
0.931395 0.969757 0.948837
0.988159 0.979538 0.953262
0.999084 0.981292 0.953201
0.999893 0.98175 0.953216
0.424536 0.907073 0.883894
0.615808 0.922774 0.902922
0.758846 0.94258 0.923033
0.876143 0.961089 0.941268
0.956558 0.974838 0.951858
0.9897 0.980545 0.95349
0.998627 0.982116 0.953277
0.999817 0.982315 0.953246
0.997574 0.981933 0.953307
0.757794 0.942428 0.922881
0.882353 0.962158 0.94226
0.967849 0.976776 0.952865
0.997284 0.981872 0.953307
0.999863 0.982116 0.953231
0.999893 0.981811 0.953216
0.999069 0.981292 0.953201
0.998154 0.980774 0.953185
0.984161 0.977264 0.952651
0.0194858 0.0173037 0.0143893
0.00782788 0.00996414 0.00846876
0.00436408 0.00633249 0.0105745
0.0195163 0.0206607 0.0672007
0.0643778 0.0398108 0.192737
0.222919 0.0672465 0.403586
0.409751 0.100832 0.561227
0.611124 0.138018 0.667002
0.773983 0.176516 0.721859
0.00436408 0.0261234 0.0886549
0.00323491 0.044892 0.180194
0.00541695 0.0620127 0.299336
0.0819104 0.0734112 0.489525
0.293843 0.091371 0.654643
0.498589 0.119753 0.705333
0.701732 0.157977 0.72311
0.792889 0.180743 0.727535
0.793484 0.180865 0.72755
0 0.102022 0.427237
0 0.110597 0.460578
0.00349432 0.109209 0.481895
0.210376 0.0978103 0.635248
0.455253 0.119814 0.699077
0.686717 0.157717 0.722271
0.793698 0.182986 0.727687
0.793744 0.182727 0.727779
0.793561 0.18146 0.727626
0 0.272145 0.480995
0 0.296635 0.482902
0 0.315099 0.484794
0.128771 0.294163 0.563485
0.423682 0.294224 0.704265
0.725811 0.341146 0.762249
0.833143 0.362234 0.767849
0.84062 0.393362 0.775906
0.851728 0.431464 0.787869
0.119417 0.541146 0.582269
0.147372 0.569543 0.615045
0.168109 0.590692 0.639597
0.236835 0.574289 0.614755
0.46836 0.611032 0.719081
0.788968 0.635111 0.843122
0.91577 0.671656 0.859846
0.924163 0.700084 0.867811
0.931975 0.73138 0.876677
0.338247 0.826719 0.844434
0.34464 0.839277 0.85095
0.339071 0.814817 0.83827
0.569024 0.81738 0.845304
0.720958 0.845853 0.863279
0.865827 0.870466 0.904784
0.962661 0.890166 0.925185
0.98291 0.908827 0.933577
0.989044 0.927001 0.940047
0.378805 0.907118 0.882948
0.384436 0.906767 0.882872
0.562097 0.913603 0.89485
0.715389 0.932158 0.91516
0.839933 0.950515 0.933776
0.9364 0.97081 0.949294
0.988602 0.979629 0.953262
0.999298 0.981414 0.953201
0.999893 0.981826 0.953216
0.453941 0.907988 0.885542
0.6383 0.925841 0.90605
0.778164 0.945403 0.925887
0.890623 0.963577 0.943572
0.965179 0.976318 0.952667
0.992233 0.980987 0.953429
0.999115 0.982193 0.953262
0.999832 0.98233 0.953246
0.996582 0.981765 0.953323
0.786389 0.946624 0.927108
0.905791 0.966171 0.945983
0.980453 0.978943 0.953719
0.999435 0.982254 0.953262
0.999878 0.982025 0.953231
0.999771 0.981689 0.953216
0.998444 0.98114 0.953216
0.997253 0.980713 0.953201
0.982055 0.97557 0.949401
