LUT预设1/LUT全系打包/CINE系列lut/各机型LOG/N-cine3漂白.cube
TITLE "Generated by Resolve"
LUT_3D_SIZE 5
0.0280308 0.0272831 0.0280919
0.0130159 0.0176547 0.0181582
0.00454719 0.00616464 0.00654612
0.11606 0.0302739 0.0289464
0.587625 0.124315 0.0864271
0.0181277 0.0224765 0.0162509
0.0406653 0.0373541 0.0249485
0.378698 0.0945144 0.0610361
0.822019 0.18233 0.115526
0.860441 0.186709 0.121019
0.229953 0.398505 0.117342
0.269261 0.474876 0.138979
0.535058 0.527092 0.222232
0.999954 0.674861 0.305501
0.999939 0.718105 0.320027
0.479362 0.85272 0.271946
0.536126 0.847486 0.286168
0.801419 0.908995 0.438025
0.968795 0.954864 0.533623
0.992859 0.967926 0.68014
0.648829 0.882994 0.527092
0.878035 0.931182 0.752712
0.984283 0.978744 0.916152
0.999863 0.982162 0.953231
0.990524 0.980026 0.953307
0.0263676 0.0241093 0.0193332
0.0110018 0.0138094 0.0108797
0.0114443 0.00712596 0.00891127
0.196796 0.0473945 0.0482795
0.674083 0.142657 0.103868
0.0199893 0.0280919 0.027451
0.0426947 0.0424201 0.0405432
0.412329 0.103075 0.0856336
0.84361 0.18819 0.130404
0.857893 0.187091 0.130053
0.241733 0.421592 0.123949
0.279377 0.494545 0.144747
0.54934 0.542428 0.228977
0.999954 0.681941 0.310185
1 0.736431 0.408713
0.466773 0.857664 0.290013
0.515068 0.867826 0.377584
0.848264 0.911604 0.630533
0.978317 0.963211 0.706218
0.996155 0.977066 0.820874
0.627649 0.911971 0.731136
0.893706 0.951339 0.860258
0.991287 0.980819 0.953445
0.999878 0.981964 0.953231
0.988464 0.979599 0.953262
0.024445 0.0221256 0.0180972
0.00849927 0.0107729 0.00898756
0.0244907 0.0126497 0.024506
0.270863 0.068864 0.136721
0.685252 0.160784 0.279026
0.00903334 0.045716 0.0953536
0.0230869 0.067277 0.185504
0.407263 0.104753 0.391867
0.760998 0.181308 0.47335
0.767132 0.181994 0.530739
0.182834 0.458824 0.444877
0.211139 0.528298 0.517876
0.549981 0.546853 0.538186
0.988952 0.695857 0.664149
0.987427 0.743267 0.715679
0.366735 0.897169 0.728389
0.468544 0.899825 0.743221
0.844083 0.929503 0.795026
0.986542 0.974975 0.862226
0.997742 0.981353 0.924559
0.666316 0.926574 0.876524
0.917021 0.965408 0.935302
0.998215 0.98204 0.953292
0.999893 0.981765 0.953216
0.986984 0.979324 0.953216
0.0223392 0.0199741 0.0164187
0.0056611 0.00733959 0.00683604
0.0396124 0.0226444 0.0722972
0.345159 0.0856489 0.331624
0.712551 0.1682 0.508156
0.00015259 0.0711833 0.236393
0.00320439 0.100267 0.409827
0.433463 0.115877 0.679408
0.79176 0.183688 0.726986
0.7935 0.181018 0.727565
0.110506 0.527596 0.572274
0.157595 0.579858 0.627115
0.44448 0.600107 0.70634
0.911391 0.655253 0.854887
0.927169 0.712383 0.87097
0.378805 0.907118 0.882902
0.520378 0.910338 0.889815
0.820722 0.946258 0.927947
0.987533 0.979614 0.953246
0.999588 0.981598 0.953216
0.725719 0.937697 0.917845
0.951095 0.973892 0.951278
0.999863 0.982223 0.953246
0.999344 0.981445 0.953216
0.985565 0.978683 0.953033
0.0194858 0.0173037 0.0143893
0.00436408 0.00633249 0.0105745
0.0643778 0.0398108 0.192737
0.409751 0.100832 0.561227
0.773983 0.176516 0.721859
0 0.102022 0.427237
0.00349432 0.109209 0.481895
0.455253 0.119814 0.699077
0.793698 0.182986 0.727687
0.793561 0.18146 0.727626
0.119417 0.541146 0.582269
0.168109 0.590692 0.639597
0.46836 0.611032 0.719081
0.91577 0.671656 0.859846
0.931975 0.73138 0.876677
0.378805 0.907118 0.882948
0.562097 0.913603 0.89485
0.839933 0.950515 0.933776
0.988602 0.979629 0.953262
0.999893 0.981826 0.953216
0.786389 0.946624 0.927108
0.980453 0.978943 0.953719
0.999878 0.982025 0.953231
0.998444 0.98114 0.953216
0.982055 0.97557 0.949401
