LUT预设1/LUT全系打包/CINE系列lut/各机型LOG/N-cine3漂白.cube
TITLE "Generated by Resolve"
LUT_3D_SIZE 33
0.0280308 0.0272831 0.0280919
0.023209 0.0259251 0.0266728
0.0198978 0.0246586 0.0253147
0.0174868 0.0233005 0.0239872
0.0165866 0.0221866 0.0228275
0.0156863 0.0210574 0.0216678
0.014786 0.0199283 0.0204929
0.013901 0.0187991 0.0193332
0.0130159 0.0176547 0.0181582
0.0120394 0.0163729 0.016846
0.0110475 0.0150759 0.0155184
0.010071 0.0137789 0.0142061
0.00900282 0.0123293 0.012726
0.00791943 0.0108797 0.0112612
0.00680552 0.00933852 0.00972
0.00569161 0.00779736 0.00816358
0.00454719 0.00616464 0.00654612
0.00489815 0.0052491 0.00567636
0.0103914 0.00653086 0.00714122
0.0170138 0.00807202 0.00891127
0.0247501 0.00996414 0.0113222
0.0335546 0.0121614 0.0141909
0.052903 0.0168002 0.0183261
0.079118 0.0227054 0.023209
0.11606 0.0302739 0.0289464
0.161822 0.039353 0.035462
0.215839 0.0497749 0.0424353
0.275059 0.0609903 0.0496223
0.337423 0.073228 0.0571908
0.402304 0.0864118 0.065095
0.465583 0.099443 0.072755
0.527321 0.112306 0.0801556
0.587625 0.124315 0.0864271
0.0225528 0.0188144 0.0232395
0.0179751 0.0175326 0.0211643
0.0138857 0.0162814 0.0191653
0.010544 0.0150607 0.017319
0.00996414 0.0142367 0.0162966
0.0093843 0.0133974 0.0152743
0.00880446 0.0125734 0.0142367
0.00822461 0.0117342 0.0132143
0.00759899 0.0108186 0.0121157
0.0069276 0.00982681 0.0109255
0.0062562 0.00881971 0.00975052
0.00553903 0.00775158 0.00849927
0.00477607 0.0065919 0.00715648
0.00395209 0.00537118 0.00582895
0.00602731 0.00550851 0.00598154
0.0105745 0.00657664 0.007187
0.0161135 0.0078584 0.00866712
0.0226444 0.00944533 0.0106203
0.0302586 0.0113375 0.0131228
0.0431525 0.0144656 0.0163272
0.0634318 0.0193179 0.0205081
0.0937819 0.0257115 0.0254826
0.131487 0.033341 0.0311742
0.176532 0.0422675 0.0375525
0.230961 0.0526589 0.0443122
0.288808 0.0635691 0.0512551
0.349691 0.0757305 0.0587015
0.412833 0.0885481 0.0663615
0.473594 0.101106 0.0737163
0.534051 0.11371 0.0809491
0.592691 0.125307 0.0869154
0.650416 0.136645 0.0924697
0.706096 0.148272 0.0983749
0.0175174 0.0128634 0.0179446
0.0130465 0.0115816 0.0157626
0.00923171 0.0103761 0.0137942
0.00630198 0.00936904 0.0121309
0.00575265 0.00877394 0.0111543
0.00547799 0.00823987 0.0102693
0.00520333 0.00770581 0.00936904
0.00488289 0.00709544 0.00840772
0.00450141 0.00640879 0.00741588
0.0041352 0.00572213 0.00640879
0.00376898 0.0049897 0.00537118
0.00633249 0.0055848 0.00605783
0.00991836 0.00642405 0.00700389
0.0143282 0.0074464 0.00819409
0.0196078 0.00868238 0.00962844
0.0259861 0.0102693 0.0117189
0.0332952 0.0121004 0.0141146
0.049073 0.0158846 0.0175479
0.068574 0.0205386 0.021561
0.100618 0.0271 0.0265507
0.138064 0.0346532 0.032105
0.182834 0.043473 0.0383307
0.235508 0.0535286 0.0448768
0.292058 0.0641947 0.0516365
0.3514 0.0760815 0.0589151
0.41355 0.0886854 0.0664378
0.472969 0.100984 0.07364
0.532219 0.113329 0.0807355
0.589975 0.124773 0.086656
0.647028 0.135958 0.0921187
0.702007 0.147402 0.0979171
0.755398 0.158846 0.10396
0.800336 0.169146 0.110491
0.0119936 0.00831617 0.0126802
0.00849927 0.00737011 0.0108949
0.00595102 0.00665293 0.00943008
0.00424201 0.00608835 0.00819409
0.00384527 0.00576791 0.00735485
0.0037995 0.00547799 0.00660716
0.00376898 0.00520333 0.00585946
0.00411994 0.005066 0.00546273
0.00579843 0.00546273 0.0059205
0.00830091 0.00604257 0.00657664
0.0116426 0.00682078 0.00747692
0.0157626 0.0077821 0.00857557
0.0208438 0.00898756 0.0100404
0.026978 0.0105287 0.0120394
0.0339818 0.0122683 0.0143282
0.0497444 0.0160372 0.0176852
0.068574 0.0205386 0.021561
0.099443 0.0268711 0.0263676
0.13579 0.0341955 0.0317845
0.178546 0.042649 0.0377966
0.230213 0.0525063 0.0442206
0.285298 0.0629129 0.0508431
0.343313 0.0744335 0.0579232
0.404211 0.0867933 0.0653239
0.463691 0.0990463 0.0725109
0.522026 0.111208 0.0795148
0.579675 0.122759 0.0856489
0.636561 0.133837 0.0910658
0.691463 0.145159 0.0967575
0.745251 0.156634 0.102724
0.790738 0.166934 0.109087
0.826551 0.174929 0.114824
0.84712 0.178912 0.118776
0.00756847 0.00642405 0.0087129
0.00547799 0.00576791 0.00738537
0.00421149 0.00529488 0.00634775
0.00375372 0.00502022 0.00553903
0.00393683 0.00514229 0.00547799
0.00469978 0.00537118 0.00570687
0.0061799 0.00576791 0.00611887
0.0083772 0.00627146 0.00671397
0.0113527 0.00691234 0.00747692
0.0151369 0.00769055 0.00843824
0.019852 0.00874342 0.00972
0.0256199 0.0101778 0.0115969
0.0323033 0.0118563 0.0137942
0.045655 0.0150607 0.016846
0.0637064 0.019379 0.0205539
0.0912337 0.0251774 0.0250858
0.124926 0.0320439 0.0302434
0.166567 0.0402991 0.0361486
0.215595 0.0497292 0.0424048
0.269306 0.0599069 0.0489357
0.326635 0.0710307 0.0558633
0.386511 0.0832074 0.0631876
0.44683 0.0955367 0.0704662
0.504692 0.107591 0.0774548
0.562661 0.119402 0.0839094
0.619654 0.13051 0.0894484
0.67541 0.141726 0.0950027
0.728847 0.15314 0.100893
0.777066 0.163806 0.107103
0.818799 0.173297 0.113359
0.841688 0.177905 0.117754
0.854688 0.180301 0.120195
0.857466 0.180682 0.120668
0.00376898 0.00503548 0.00540169
0.00421149 0.0055848 0.00573739
0.00459297 0.00605783 0.00602731
0.0049897 0.00653086 0.00633249
0.0056611 0.00706493 0.00669871
0.00770581 0.00784314 0.00741588
0.0104219 0.00872816 0.00830091
0.0138094 0.00970474 0.00935378
0.0178683 0.0107576 0.0105592
0.0229038 0.0119936 0.0121004
0.029099 0.0133974 0.0139773
0.0366827 0.0151217 0.0161746
0.053666 0.0188602 0.0194247
0.0743877 0.0232547 0.0231479
0.105989 0.0293126 0.0278172
0.143984 0.0365454 0.0331731
0.188739 0.0450294 0.0391546
0.24155 0.0549477 0.0456245
0.297505 0.0653697 0.0522621
0.356695 0.0772106 0.0595407
0.418341 0.089662 0.0670176
0.47718 0.101854 0.0741588
0.536034 0.114122 0.081178
0.593057 0.125368 0.0869459
0.649729 0.136507 0.0923934
0.704372 0.147906 0.0981765
0.757198 0.159258 0.104219
0.801923 0.169512 0.110719
0.832486 0.17615 0.115938
0.851041 0.179644 0.119493
0.856168 0.180514 0.1205
0.857679 0.180697 0.120577
0.857771 0.180682 0.12018
0.00637827 0.00820935 0.00738537
0.00704967 0.00901808 0.00788891
0.00772107 0.00982681 0.00839246
0.00839246 0.0106355 0.00889601
0.00900282 0.0113832 0.00935378
0.0119631 0.012604 0.0105135
0.0154879 0.0138705 0.0118257
0.0194095 0.0150912 0.0132143
0.0243839 0.0164187 0.014847
0.0309911 0.0180056 0.0167697
0.0393683 0.019791 0.0188907
0.0566415 0.0232395 0.0218357
0.0797589 0.0275425 0.0253605
0.113008 0.0332494 0.0298161
0.153017 0.040238 0.0350195
0.200778 0.0487678 0.0408637
0.25565 0.0587472 0.0472419
0.313283 0.0694285 0.0539254
0.37496 0.0815137 0.0612192
0.437079 0.0938735 0.0685435
0.496391 0.106493 0.0757763
0.555383 0.118761 0.0824903
0.613199 0.13022 0.088304
0.669612 0.141604 0.0941329
0.72398 0.152956 0.100206
0.773251 0.163638 0.106783
0.816266 0.173098 0.113237
0.841215 0.17789 0.117708
0.854429 0.180255 0.120073
0.857511 0.180682 0.120562
0.857755 0.180728 0.120363
0.857816 0.180667 0.120012
0.857908 0.180652 0.119677
0.0111238 0.0139467 0.010956
0.0120699 0.0150912 0.0116732
0.0130159 0.0162356 0.0123903
0.013962 0.01738 0.0131075
0.0149081 0.0185245 0.0138247
0.0175784 0.0198215 0.0150912
0.0211032 0.02121 0.0166934
0.0247349 0.022446 0.0183413
0.0312963 0.0239109 0.0200809
0.0391089 0.0256962 0.0218051
0.055436 0.0287633 0.0242161
0.0773632 0.032517 0.0271611
0.112123 0.0378882 0.0311742
0.153475 0.0445411 0.0359503
0.203174 0.0530098 0.0415045
0.259617 0.0631418 0.0477607
0.319005 0.0740368 0.0543984
0.382376 0.0860914 0.0615854
0.444465 0.0982986 0.0688182
0.504982 0.110948 0.076112
0.564431 0.123018 0.0826581
0.623255 0.134569 0.088777
0.67892 0.145724 0.0948959
0.732921 0.156817 0.101381
0.781308 0.167437 0.108675
0.819471 0.175097 0.114565
0.847105 0.179934 0.118791
0.855329 0.180957 0.119814
0.858106 0.181186 0.119814
0.858503 0.181994 0.119707
0.85864 0.182315 0.119722
0.858381 0.181689 0.119631
0.857923 0.180896 0.119982
0.0181277 0.0224765 0.0162509
0.0192721 0.0242771 0.0170443
0.0204318 0.0260929 0.0178531
0.0215152 0.0278172 0.0186007
0.0227207 0.0296941 0.01944
0.0247807 0.0314946 0.0205234
0.0277867 0.0332799 0.0218357
0.031754 0.0350042 0.0231327
0.0406653 0.0373541 0.0249485
0.052842 0.0400244 0.0271763
0.069276 0.043122 0.0299992
0.104082 0.0478065 0.0331579
0.147463 0.0538643 0.0369573
0.198428 0.0619364 0.0417639
0.255146 0.0718547 0.0476539
0.31577 0.082887 0.0541238
0.378698 0.0945144 0.0610361
0.440269 0.106157 0.0682078
0.500938 0.117708 0.0753796
0.561013 0.12903 0.0821546
0.620798 0.140093 0.0888685
0.677577 0.150423 0.0952926
0.731655 0.161776 0.102373
0.781628 0.173358 0.109422
0.822019 0.18233 0.115526
0.849363 0.188159 0.119677
0.860136 0.190219 0.121248
0.861845 0.190066 0.121248
0.861173 0.188464 0.120821
0.860044 0.185733 0.120348
0.859144 0.183627 0.120241
0.860395 0.186603 0.120974
0.860441 0.186709 0.121019
0.0268864 0.0362554 0.0223392
0.0283055 0.038468 0.0233158
0.0297093 0.0406806 0.0242924
0.0311131 0.0428931 0.0252689
0.0330205 0.0460059 0.0261387
0.0351415 0.049073 0.0269627
0.037583 0.051545 0.0276341
0.0424201 0.0542611 0.0288243
0.0519722 0.0574197 0.0313115
0.0640726 0.0605325 0.0345006
0.0879988 0.0641184 0.0371862
0.131518 0.0688945 0.0387732
0.183307 0.0758068 0.0420691
0.237156 0.084596 0.0466011
0.297292 0.0950027 0.0526436
0.359655 0.105898 0.059205
0.421027 0.117891 0.0666819
0.482139 0.130434 0.0743572
0.54313 0.14313 0.0818952
0.603601 0.155505 0.0894789
0.66244 0.167086 0.0962844
0.719051 0.178714 0.103456
0.772412 0.189776 0.110628
0.819608 0.199619 0.117632
0.850721 0.205722 0.122423
0.869612 0.21004 0.125704
0.871244 0.211002 0.12607
0.871534 0.21146 0.126253
0.871595 0.211688 0.126497
0.871412 0.211444 0.126375
0.871397 0.211521 0.126268
0.871122 0.210941 0.126101
0.870787 0.210239 0.125902
0.0401312 0.0577096 0.0291905
0.0423896 0.0614176 0.0301518
0.0446479 0.0651102 0.0311284
0.0469673 0.0689403 0.0321202
0.0493629 0.0728771 0.0331426
0.0525521 0.0780652 0.0343786
0.0554971 0.0823835 0.0351415
0.0606699 0.0865187 0.0369116
0.0694591 0.0907912 0.0402686
0.0793317 0.0939803 0.0437324
0.106966 0.0982834 0.0467079
0.146761 0.103944 0.0492714
0.19469 0.11075 0.0500496
0.249699 0.119249 0.0523079
0.309804 0.128817 0.0575723
0.371542 0.139956 0.0647746
0.434882 0.152224 0.0728923
0.498589 0.165164 0.0814984
0.563104 0.178454 0.0902876
0.626307 0.191135 0.0984054
0.688106 0.204227 0.106462
0.747784 0.217639 0.114565
0.803677 0.231479 0.123354
0.84918 0.242618 0.130953
0.882109 0.25037 0.13666
0.889067 0.252293 0.137911
0.891402 0.253407 0.138506
0.892088 0.254383 0.138857
0.892348 0.25481 0.138872
0.892927 0.256123 0.139406
0.89305 0.256382 0.139483
0.89305 0.256382 0.139483
0.892989 0.256245 0.139437
0.0616464 0.092958 0.0379797
0.0653391 0.0989853 0.0394446
0.0691386 0.105196 0.0409247
0.0729229 0.111391 0.0424201
0.0769818 0.11809 0.0440833
0.0807202 0.124331 0.0456703
0.084123 0.129824 0.0469368
0.0888533 0.13463 0.0488289
0.0955978 0.138216 0.051667
0.102724 0.140673 0.0545663
0.123262 0.142321 0.0613718
0.157275 0.146273 0.0639963
0.195087 0.152605 0.0647135
0.252506 0.161044 0.0665446
0.314061 0.170733 0.0696269
0.381796 0.183017 0.0773785
0.450889 0.196704 0.0866255
0.520943 0.211414 0.0967575
0.590311 0.226474 0.106874
0.657908 0.241382 0.116426
0.723934 0.256229 0.125551
0.785809 0.271229 0.134859
0.842039 0.285405 0.14374
0.889555 0.297688 0.151476
0.908721 0.303243 0.155444
0.915084 0.306218 0.15729
0.91722 0.308141 0.158297
0.917769 0.309438 0.158862
0.918334 0.310582 0.159289
0.918822 0.311711 0.159716
0.919249 0.312688 0.160098
0.919554 0.31339 0.160372
0.919814 0.313954 0.160586
0.0911269 0.141695 0.0500954
0.0953536 0.148745 0.0518959
0.0995804 0.155779 0.0536812
0.103487 0.162524 0.0555123
0.107591 0.169665 0.0574502
0.111437 0.176349 0.0592813
0.115068 0.182437 0.0609751
0.118929 0.187732 0.0627756
0.123278 0.191348 0.0648356
0.132525 0.192279 0.0692149
0.151141 0.189441 0.0771344
0.174258 0.193164 0.0834974
0.211109 0.199969 0.0859693
0.259983 0.209339 0.0858625
0.325551 0.220813 0.0895399
0.397971 0.234607 0.0959335
0.477241 0.251423 0.107378
0.551904 0.268971 0.119295
0.625284 0.286778 0.131029
0.696345 0.304311 0.142107
0.764569 0.321065 0.152102
0.828611 0.337774 0.162036
0.883955 0.352667 0.17113
0.922621 0.363363 0.178073
0.937514 0.368002 0.181125
0.942733 0.370336 0.182437
0.943877 0.37171 0.183032
0.944656 0.373083 0.183612
0.945495 0.375143 0.184405
0.946227 0.377066 0.185168
0.946883 0.378851 0.185855
0.947417 0.380346 0.18645
0.947967 0.381842 0.18703
0.122103 0.194888 0.064332
0.126238 0.202441 0.0662394
0.130358 0.21001 0.0681468
0.134569 0.217716 0.0700847
0.13904 0.225895 0.0721294
0.14316 0.233463 0.0740368
0.147082 0.24065 0.0758526
0.15053 0.246784 0.0774548
0.154498 0.251438 0.0792401
0.162692 0.251606 0.0826581
0.181384 0.247211 0.0913405
0.209186 0.247486 0.102647
0.234516 0.255375 0.110155
0.281025 0.266819 0.112566
0.337362 0.280659 0.114687
0.411826 0.295888 0.119341
0.493629 0.315892 0.131243
0.576196 0.337148 0.144869
0.657816 0.359045 0.160098
0.733211 0.378058 0.172122
0.805188 0.396689 0.183246
0.870359 0.413535 0.193011
0.922942 0.427832 0.201633
0.954467 0.43624 0.207141
0.966186 0.439872 0.209461
0.969116 0.44152 0.210269
0.969818 0.443015 0.210758
0.970901 0.446036 0.211933
0.971939 0.448997 0.213062
0.972869 0.451652 0.214099
0.973632 0.454124 0.215091
0.974319 0.456443 0.216037
0.976059 0.462257 0.218387
0.15462 0.254826 0.0793317
0.15906 0.263127 0.0813916
0.163592 0.27158 0.0834974
0.168231 0.280324 0.0857404
0.173205 0.289769 0.0881971
0.177783 0.298421 0.0904555
0.182147 0.306691 0.092607
0.186023 0.313924 0.0944991
0.189441 0.319127 0.0961166
0.195819 0.31931 0.0985275
0.213962 0.313741 0.105516
0.244892 0.312795 0.120867
0.277501 0.318898 0.134249
0.310231 0.332616 0.142916
0.359426 0.347799 0.14548
0.424002 0.364385 0.147875
0.501991 0.383337 0.154131
0.590936 0.40737 0.169589
0.679973 0.431998 0.187182
0.764431 0.454963 0.202945
0.841886 0.475303 0.215976
0.907897 0.493034 0.226139
0.960418 0.507042 0.234684
0.984405 0.513542 0.238819
0.991531 0.516106 0.240253
0.992218 0.517449 0.240787
0.992538 0.520363 0.241993
0.993545 0.524117 0.243503
0.994232 0.527687 0.244984
0.994888 0.535439 0.248234
0.995636 0.544182 0.251911
0.996368 0.552941 0.255589
0.997131 0.561959 0.259373
0.1906 0.322774 0.096849
0.195514 0.332189 0.0993515
0.200519 0.341756 0.101884
0.2056 0.351476 0.104479
0.211002 0.361883 0.107301
0.216083 0.371679 0.109972
0.220829 0.38085 0.11249
0.22504 0.388983 0.114702
0.227893 0.394369 0.116182
0.230854 0.394705 0.117098
0.248692 0.387701 0.123293
0.28484 0.38323 0.138003
0.324453 0.3888 0.160632
0.355154 0.403082 0.174411
0.391272 0.419532 0.181903
0.441733 0.435828 0.183154
0.512795 0.452277 0.183459
0.599481 0.475212 0.194278
0.691417 0.500755 0.209537
0.786191 0.528878 0.229725
0.871305 0.553475 0.247669
0.942412 0.573632 0.260502
0.988571 0.586984 0.268635
0.999542 0.592676 0.271992
0.99968 0.594934 0.273136
1 0.598352 0.274556
1 0.60531 0.277424
1 0.612406 0.280354
1 0.619623 0.28333
1 0.626978 0.286366
1 0.634333 0.289387
1 0.641581 0.292317
1 0.648951 0.295293
0.229953 0.398505 0.117342
0.235233 0.408759 0.120226
0.240589 0.419165 0.123171
0.246021 0.429725 0.126131
0.251789 0.44094 0.12932
0.257115 0.451301 0.132265
0.262196 0.461204 0.135088
0.266361 0.469306 0.137377
0.269261 0.474876 0.138979
0.270314 0.474113 0.139178
0.282322 0.465873 0.141619
0.326452 0.460502 0.15964
0.373907 0.462394 0.183246
0.410819 0.473671 0.20531
0.436332 0.492607 0.218891
0.475807 0.510307 0.222156
0.535058 0.527092 0.222232
0.609079 0.545876 0.223621
0.696132 0.568505 0.229831
0.793851 0.598276 0.248646
0.885252 0.626368 0.269291
0.962615 0.650965 0.288746
0.990967 0.664912 0.299611
0.999741 0.671611 0.303731
0.999954 0.674861 0.305501
1 0.678752 0.307286
1 0.684474 0.309575
1 0.690181 0.311864
1 0.695781 0.313832
0.999985 0.701259 0.315358
0.999969 0.706737 0.316869
0.999954 0.712428 0.318456
0.999939 0.718105 0.320027
0.271717 0.479683 0.140368
0.277302 0.490455 0.143481
0.282887 0.501228 0.146578
0.288701 0.512428 0.149813
0.294652 0.523857 0.153155
0.300298 0.534707 0.156313
0.305638 0.544991 0.159319
0.310048 0.553399 0.161852
0.312367 0.557809 0.163195
0.312215 0.556207 0.162814
0.322408 0.546731 0.164675
0.367712 0.539376 0.180011
0.42385 0.53817 0.20647
0.467109 0.54818 0.233417
0.495811 0.567208 0.252369
0.526894 0.587854 0.26334
0.567864 0.607553 0.267124
0.629801 0.624277 0.265202
0.707835 0.643091 0.263401
0.789456 0.664332 0.26952
0.866789 0.687175 0.28127
0.932448 0.7084 0.295521
0.985153 0.726848 0.311589
0.994461 0.734066 0.319387
0.999603 0.73846 0.323095
0.999985 0.741375 0.324681
1 0.745708 0.325505
0.999435 0.749783 0.326131
0.998856 0.75404 0.326787
0.99826 0.758404 0.327443
0.997665 0.762753 0.328115
0.99704 0.767285 0.328817
0.996292 0.77174 0.329381
0.315496 0.563714 0.16495
0.321294 0.574716 0.168307
0.327108 0.585718 0.171649
0.333089 0.596918 0.175128
0.339452 0.608789 0.178836
0.345434 0.619989 0.182315
0.351141 0.630411 0.185718
0.356176 0.639597 0.188724
0.358343 0.643549 0.18996
0.357504 0.641489 0.18938
0.365072 0.630381 0.189181
0.410864 0.622415 0.203922
0.469886 0.62118 0.230137
0.522011 0.628611 0.259693
0.561013 0.644892 0.286107
0.586221 0.666239 0.304128
0.613474 0.68574 0.311208
0.661189 0.699611 0.309133
0.719966 0.712505 0.304906
0.782895 0.726467 0.301854
0.846571 0.741543 0.300633
0.906584 0.758556 0.306432
0.950637 0.772686 0.316167
0.980697 0.78323 0.325414
0.988632 0.787396 0.329549
0.992447 0.79089 0.331456
0.991836 0.794156 0.33228
0.991073 0.797604 0.333303
0.990311 0.801129 0.334356
0.989517 0.804746 0.335439
0.988708 0.808454 0.336538
0.987869 0.812253 0.337667
0.987106 0.815625 0.338857
0.361746 0.649729 0.192035
0.36791 0.660883 0.195819
0.373999 0.671839 0.199664
0.380377 0.683314 0.203693
0.386984 0.695109 0.207935
0.393042 0.705867 0.211902
0.398825 0.716136 0.215686
0.404334 0.725856 0.219409
0.406058 0.728893 0.220661
0.405447 0.727153 0.220096
0.412131 0.716152 0.219242
0.453101 0.708614 0.230503
0.521233 0.700633 0.25771
0.579965 0.702876 0.2907
0.620935 0.713512 0.319173
0.641794 0.731411 0.33756
0.664393 0.749126 0.345327
0.698436 0.76347 0.34699
0.741024 0.775647 0.34522
0.792218 0.785397 0.339818
0.844663 0.796323 0.334401
0.893507 0.807416 0.332006
0.937499 0.819013 0.335637
0.962737 0.826474 0.3402
0.981155 0.832486 0.344503
0.982284 0.834638 0.345586
0.982177 0.837293 0.346685
0.981903 0.840314 0.347982
0.981628 0.843412 0.349325
0.981491 0.845655 0.350256
0.981399 0.847913 0.351171
0.981353 0.850172 0.352087
0.981353 0.852338 0.352941
0.409125 0.734264 0.222751
0.415122 0.744793 0.226917
0.421103 0.755291 0.231128
0.427161 0.765881 0.235431
0.433661 0.777249 0.24004
0.439261 0.786847 0.244114
0.444495 0.795743 0.247929
0.449561 0.804349 0.251621
0.451392 0.807477 0.252964
0.444877 0.795392 0.247852
0.458183 0.776547 0.246159
0.516838 0.762249 0.262409
0.582681 0.757336 0.292302
0.635981 0.760861 0.323842
0.672068 0.771084 0.34992
0.691524 0.786801 0.366491
0.71017 0.802991 0.376181
0.732708 0.817746 0.380423
0.769131 0.82826 0.379278
0.809796 0.837217 0.375372
0.852552 0.845029 0.369924
0.895247 0.853239 0.364523
0.931395 0.860899 0.362097
0.960311 0.867964 0.362737
0.974136 0.871916 0.362921
0.977737 0.873671 0.362905
0.979477 0.875319 0.363058
0.979278 0.877043 0.363714
0.979202 0.878676 0.364721
0.979248 0.879927 0.365789
0.979324 0.880858 0.367147
0.979599 0.882567 0.371405
0.97998 0.884886 0.377707
0.45391 0.811734 0.254826
0.459464 0.82118 0.258946
0.464897 0.830365 0.262928
0.467536 0.83444 0.264546
0.470359 0.838788 0.26627
0.471992 0.841306 0.267292
0.472419 0.841978 0.267567
0.472145 0.841459 0.267308
0.468833 0.836133 0.26508
0.468315 0.824872 0.261692
0.509346 0.812833 0.269474
0.578744 0.803296 0.293919
0.637583 0.803113 0.324926
0.684703 0.808255 0.35436
0.715236 0.818738 0.377401
0.734691 0.832624 0.393759
0.747814 0.848219 0.403235
0.769146 0.861143 0.406775
0.79649 0.871687 0.407401
0.829236 0.880247 0.406012
0.86566 0.886839 0.400931
0.900999 0.892531 0.39527
0.934066 0.897795 0.389532
0.957916 0.901442 0.385626
0.969924 0.903243 0.383764
0.979919 0.905058 0.381949
0.979995 0.905409 0.381765
0.979843 0.905913 0.38262
0.979797 0.90695 0.385641
0.980056 0.908644 0.394125
0.980453 0.91078 0.405951
0.98085 0.913222 0.422827
0.981506 0.915831 0.443626
0.478843 0.851957 0.271656
0.478874 0.852003 0.271672
0.478889 0.852018 0.271672
0.478889 0.852018 0.271672
0.478889 0.852033 0.271687
0.478889 0.852033 0.271687
0.478828 0.851926 0.271641
0.477668 0.850187 0.27097
0.478584 0.846708 0.270161
0.502693 0.840696 0.274647
0.565682 0.833661 0.293462
0.630503 0.833234 0.322957
0.684794 0.838071 0.353704
0.725643 0.845487 0.380743
0.75288 0.855283 0.401953
0.76585 0.867887 0.415122
0.778058 0.881254 0.422232
0.795316 0.893462 0.426291
0.819364 0.903044 0.427497
0.847715 0.910033 0.425788
0.876936 0.915496 0.422721
0.907103 0.91928 0.417136
0.933761 0.922362 0.411749
0.953262 0.923888 0.406409
0.97203 0.92607 0.402121
0.977646 0.927443 0.406012
0.981537 0.929503 0.414588
0.982116 0.931029 0.425254
0.983017 0.933135 0.446189
0.984131 0.935225 0.466423
0.98526 0.937285 0.488136
0.986297 0.939391 0.511055
0.987213 0.941512 0.533578
0.479362 0.85272 0.271946
0.479362 0.85272 0.271946
0.479362 0.85272 0.271946
0.479362 0.85272 0.271946
0.479362 0.85272 0.271946
0.479362 0.85272 0.271946
0.479362 0.85272 0.271946
0.479683 0.852598 0.271977
0.496208 0.850217 0.275273
0.548852 0.845182 0.289631
0.614923 0.842649 0.315785
0.670436 0.845212 0.34522
0.716136 0.851179 0.373373
0.75079 0.860822 0.397604
0.772 0.873671 0.415747
0.783764 0.888411 0.42681
0.795682 0.900923 0.433585
0.810987 0.910979 0.436591
0.832303 0.918898 0.437308
0.85594 0.925292 0.436759
0.882826 0.929458 0.433814
0.908949 0.933715 0.431296
0.93286 0.938109 0.435126
0.956054 0.942901 0.439353
0.969497 0.94699 0.45359
0.978119 0.949966 0.472007
0.986633 0.9514 0.486152
0.988128 0.952026 0.507179
0.988235 0.952682 0.528634
0.988464 0.95346 0.549386
0.988815 0.954391 0.569406
0.989212 0.955489 0.589166
0.989776 0.956893 0.60911
0.479362 0.85272 0.271946
0.479362 0.85272 0.271946
0.479362 0.85272 0.271946
0.479362 0.85272 0.271946
0.479362 0.85272 0.271946
0.479362 0.85272 0.271946
0.479362 0.85272 0.271946
0.49221 0.851301 0.274342
0.536126 0.847486 0.286168
0.601144 0.84419 0.309453
0.657633 0.84625 0.338018
0.705562 0.851774 0.366384
0.741283 0.860182 0.390372
0.767895 0.870451 0.410483
0.779934 0.883741 0.423011
0.791455 0.896345 0.431952
0.801419 0.908995 0.438025
0.820157 0.919493 0.441779
0.841108 0.928603 0.446708
0.866087 0.935058 0.453834
0.890929 0.940459 0.461143
0.915572 0.944869 0.480186
0.938964 0.949065 0.498253
0.956817 0.952529 0.517311
0.968795 0.954864 0.533623
0.98172 0.957717 0.545083
0.987152 0.959884 0.561654
0.988907 0.961318 0.580438
0.989548 0.962493 0.599939
0.99028 0.96376 0.619623
0.991058 0.965057 0.639261
0.991913 0.966476 0.659541
0.992859 0.967926 0.68014
0.479362 0.85272 0.271946
0.479362 0.85272 0.271946
0.479362 0.85272 0.271946
0.479362 0.85272 0.271946
0.479362 0.85272 0.271946
0.479362 0.85272 0.271946
0.489372 0.851591 0.273671
0.534676 0.847471 0.285603
0.594903 0.844602 0.307179
0.649607 0.845273 0.333043
0.695583 0.849882 0.359823
0.732235 0.857267 0.383886
0.760464 0.866682 0.404456
0.77644 0.878813 0.419501
0.788327 0.892042 0.430274
0.799374 0.905364 0.443717
0.816251 0.916411 0.456138
0.832898 0.926635 0.471504
0.858106 0.933684 0.493782
0.881025 0.940551 0.515694
0.904356 0.946319 0.539025
0.92668 0.951598 0.560891
0.945129 0.956466 0.577371
0.96083 0.960189 0.587594
0.975845 0.9635 0.598703
0.986145 0.966186 0.612818
0.990143 0.967926 0.631296
0.992355 0.969314 0.651209
0.99324 0.970367 0.671916
0.994141 0.971435 0.692531
0.994949 0.972534 0.713466
0.995514 0.973632 0.735424
0.996094 0.974716 0.757229
0.479362 0.85272 0.271946
0.479362 0.85272 0.271946
0.479362 0.85272 0.271946
0.479362 0.85272 0.271946
0.479789 0.852674 0.272007
0.487098 0.851835 0.273182
0.537926 0.846891 0.285695
0.594888 0.844602 0.307378
