LUT预设1/LUT全系打包/繁花仿色lut/709专用/繁花709夜景-2.cube
TITLE "Generated by Resolve"
LUT_3D_SIZE 5
0.0279698 0.0463417 0.0498207
0.0880903 0.0610208 0.0513924
0.265675 0.0845197 0.0184024
0.508537 0.0501717 0
0.664637 0.0288243 0
0.000427253 0.0990768 0.0682994
0.124147 0.124819 0.0681315
0.396521 0.171267 0.0364385
0.661265 0.20238 0.00854505
0.773556 0.20882 0.00227359
0 0.244495 0.0842756
0.0984817 0.311559 0.0267491
0.571984 0.424338 0.04477
0.917693 0.490837 0.107698
0.996414 0.518547 0.117433
0.000564584 0.428031 0.0269017
0.0619059 0.5552 0.0009308
0.660075 0.722087 0.0161135
0.998672 0.810529 0.069749
1 0.816785 0.0737926
0.000793469 0.511574 0.00944533
0.0814832 0.656931 0.00111391
0.716762 0.836835 0.0124666
1 0.92546 0.051545
1 0.923934 0.0530251
0.0122835 0.05066 0.0881208
0.0915389 0.0640421 0.0968948
0.281941 0.083711 0.0811627
0.536828 0.0180056 0.0393225
0.689342 0.0239109 0.0241093
0 0.110933 0.126207
0.116716 0.139818 0.133516
0.391302 0.185595 0.120241
0.655207 0.18471 0.0585336
0.76463 0.173083 0.0367132
0 0.273671 0.172396
0.0625467 0.342031 0.165545
0.56524 0.438148 0.155474
0.903883 0.492836 0.153674
0.994156 0.518151 0.154238
0.000213626 0.466865 0.198352
0.0280613 0.579904 0.15314
0.638056 0.728771 0.0699626
0.993729 0.815061 0.0858473
1 0.820966 0.0794842
0.000335698 0.548943 0.238453
0.0391852 0.674632 0.191211
0.678904 0.828458 0.101976
0.997406 0.916823 0.0882582
1 0.913771 0.0840467
0 0.0272984 0.200366
0.0869764 0.0576181 0.225315
0.303532 0.0617838 0.253559
0.580682 0.00102235 0.275929
0.738811 0.00242618 0.289296
0 0.115908 0.277852
0.0756542 0.157107 0.303426
0.412711 0.189837 0.333242
0.699153 0.177401 0.334157
0.808057 0.166445 0.334173
0 0.313695 0.375463
0.0286564 0.388006 0.401648
0.530694 0.471397 0.428199
0.849546 0.535927 0.434424
0.938247 0.565377 0.44239
0 0.523995 0.450538
0.0142672 0.638819 0.472648
0.59234 0.765957 0.474708
0.990143 0.855497 0.527779
1 0.869642 0.541436
0 0.605737 0.513985
0.0106508 0.732525 0.536812
0.628428 0.86743 0.540688
0.986801 0.952132 0.573465
1 0.959915 0.58439
0 0.00062562 0.355489
0.0743267 0.00486763 0.385382
0.322042 0.00323491 0.43447
0.607614 0 0.473838
0.760128 0 0.496895
0 0.0530709 0.44126
0.0420844 0.156954 0.489281
0.421698 0.193774 0.54052
0.71458 0.166323 0.567239
0.821546 0.15494 0.580148
0 0.333974 0.581521
0.0166781 0.419028 0.625772
0.5149 0.501488 0.661799
0.846799 0.532845 0.687556
0.93695 0.562066 0.69839
0 0.56173 0.678706
0 0.681498 0.722942
0.551949 0.804746 0.746059
0.937377 0.869413 0.783871
0.999619 0.896956 0.808972
0 0.641932 0.737346
0 0.77174 0.779187
0.588708 0.902983 0.80235
0.948135 0.965087 0.823301
1 0.978882 0.840314
0 0.000854505 0.489494
0.0320592 0.000839246 0.521691
0.338094 0.000396735 0.579721
0.629038 9.15541e-05 0.626612
0.780514 0 0.652201
0 0.00396735 0.571618
0.0332799 0.13904 0.622568
0.426734 0.189654 0.685878
0.723186 0.154147 0.720836
0.831861 0.139147 0.73669
0 0.331289 0.71371
0.00645457 0.428458 0.767391
0.504463 0.516838 0.813977
0.84271 0.544976 0.844892
0.933516 0.567803 0.858289
0 0.575479 0.814908
0 0.696986 0.864866
0.521096 0.82388 0.898955
0.910964 0.874983 0.923156
0.989914 0.89572 0.93051
0 0.656138 0.857053
0 0.786786 0.902495
0.56463 0.918593 0.932754
0.933837 0.97641 0.955398
0.999451 0.98677 0.962493
