LUT预设1/LUT全系打包/繁花仿色lut/709专用/繁花白天709.cube
TITLE "Generated by Resolve"
LUT_3D_SIZE 5
0.0273136 0.0463264 0.0506294
0.0840772 0.0599985 0.052369
0.254154 0.0808118 0.0202487
0.495018 0.0446632 0
0.665675 0.0172885 0
9.15541e-05 0.100008 0.070985
0.10486 0.123873 0.0711681
0.365576 0.161044 0.034699
0.637339 0.186633 0
0.770642 0.189227 0
0.000274662 0.246952 0.0908217
0.0467231 0.307347 0.050309
0.502922 0.417868 0.0249027
0.87776 0.47567 0.0661021
0.994293 0.497215 0.0726787
0.000961318 0.426993 0.0562142
0.00579843 0.535073 0.00440986
0.554055 0.703197 0.00595102
0.979309 0.815366 0.0527504
1 0.827222 0.0639048
0.00123598 0.50222 0.0532082
0.0053254 0.621317 0.007187
0.583825 0.801297 0.00392157
0.986404 0.922316 0.0412909
1 0.927382 0.0478828
0.00782788 0.0506294 0.0969863
0.0838026 0.0632181 0.108721
0.269505 0.0812695 0.103792
0.523888 0.0105287 0.0759594
0.694026 0.0110018 0.0543221
0 0.113008 0.144656
0.0871443 0.140261 0.15668
0.35848 0.18117 0.149264
0.629633 0.179492 0.0983291
0.762356 0.156222 0.0744945
0.000274662 0.280278 0.207492
0.00793469 0.343648 0.216083
0.478813 0.434821 0.215961
0.838437 0.477806 0.200687
0.955779 0.493156 0.18822
0.00105287 0.473884 0.258335
0.00143435 0.573144 0.259632
0.503822 0.712093 0.200809
0.956466 0.81268 0.175433
1 0.828046 0.182391
0.00131228 0.552544 0.322545
0.00282292 0.660563 0.332769
0.51606 0.806546 0.296254
0.960235 0.911772 0.268299
1 0.924834 0.282582
0 0.0146029 0.225772
0.0750134 0.047715 0.254444
0.283345 0.0534524 0.290532
0.556909 0.00109865 0.321645
0.731563 0.000228885 0.344854
0 0.1075 0.314824
0.0294347 0.154772 0.347753
0.371817 0.193057 0.388602
0.669154 0.182635 0.408408
0.802884 0.160952 0.418326
0.000137331 0.31928 0.434211
0.00341802 0.389029 0.471824
0.445045 0.47599 0.501076
0.794873 0.523842 0.498985
0.910704 0.54406 0.499046
0.000900282 0.530648 0.528206
0.00120546 0.631647 0.566415
0.435676 0.76321 0.582483
0.912917 0.855329 0.621103
0.999969 0.878294 0.652567
0.00103761 0.606485 0.60087
0.00135805 0.715938 0.642634
0.429343 0.855451 0.659648
0.90695 0.943862 0.684581
1 0.97348 0.715099
0 0.000808728 0.389685
0.0450904 0.00144961 0.420188
0.299489 0.00177005 0.475563
0.582437 0.000701915 0.521355
0.753704 0.000656138 0.550134
0 0.0235752 0.48101
0.0135042 0.137835 0.531151
0.374777 0.192889 0.591318
0.680964 0.174136 0.628901
0.814008 0.142428 0.645487
0 0.32929 0.632044
0.000183108 0.408881 0.68394
0.41593 0.502403 0.725353
0.800198 0.543236 0.763058
0.924315 0.560067 0.777798
0.000457771 0.559091 0.73846
0.00077821 0.663539 0.790921
0.361547 0.794797 0.819867
0.862409 0.868162 0.851682
0.983673 0.891249 0.859129
0.000640879 0.633326 0.794018
0.000991836 0.743694 0.843946
0.360052 0.88278 0.871412
0.876554 0.962905 0.901289
0.997589 0.983612 0.917235
0 0.00106813 0.51635
0.0106203 0.00111391 0.548058
0.308598 0.000946059 0.606653
0.600732 0.000961318 0.657954
0.773419 0.0009308 0.687663
0 0.00204471 0.597665
0.00563058 0.110689 0.643641
0.374334 0.195666 0.711681
0.687953 0.176272 0.754528
0.825193 0.148974 0.772717
0 0.323629 0.735714
0 0.413672 0.7906
0.395666 0.515175 0.837232
0.795682 0.556069 0.877882
0.925078 0.572335 0.892668
0.000213626 0.566949 0.835019
0.000564584 0.670832 0.884901
0.316258 0.805829 0.918837
0.85069 0.875639 0.953368
0.980468 0.897139 0.96405
0.00047303 0.641581 0.869154
0.000839246 0.750759 0.915877
0.327688 0.889799 0.944457
0.86743 0.969909 0.977844
0.991043 0.988617 0.98584
