LUT预设1/LUT全系打包/繁花仿色lut/709专用/繁花709夜景1.cube
TITLE "Generated by Resolve"
LUT_3D_SIZE 33
0.00154116 0.062623 0.0905013
0.00898756 0.0644083 0.0908675
0.0189517 0.0664225 0.0913558
0.0337835 0.0692454 0.0917372
0.0496681 0.0720989 0.0921187
0.0658885 0.0756695 0.0920882
0.0827344 0.0792096 0.0920119
0.102968 0.0830396 0.0909133
0.123705 0.0868086 0.0897383
0.151461 0.090486 0.0869306
0.179202 0.0941024 0.0839551
0.208331 0.0974594 0.0798657
0.237461 0.100618 0.0755169
0.266819 0.102724 0.0695506
0.297078 0.104768 0.0633555
0.328893 0.105257 0.0550546
0.361028 0.105623 0.0473793
0.393317 0.104707 0.0426947
0.425345 0.103563 0.0378271
0.455161 0.100206 0.0358587
0.484825 0.0966201 0.0336004
0.511833 0.0894026 0.0333715
0.53846 0.0821241 0.0330816
0.562875 0.0718395 0.0330816
0.58761 0.0627604 0.0330816
0.608515 0.0573281 0.0330816
0.629267 0.0517433 0.0330816
0.644404 0.0507057 0.0330816
0.659602 0.0487068 0.0330816
0.670939 0.0483101 0.0330816
0.68191 0.047425 0.0330816
0.690303 0.0469978 0.0330816
0.698283 0.0463111 0.0330816
0.00184634 0.0698863 0.0928054
0.00701915 0.07187 0.0933242
0.0164645 0.0741131 0.0937514
0.0339513 0.0767071 0.0941024
0.0518349 0.0796826 0.0943313
0.0699779 0.0831311 0.0944533
0.0893263 0.0868849 0.0941176
0.108888 0.0907607 0.0937057
0.133791 0.0947738 0.0920729
0.161395 0.0988785 0.0899214
0.190326 0.102937 0.0869459
0.220264 0.107042 0.0835126
0.250492 0.110353 0.0783551
0.280964 0.11342 0.0725719
0.312398 0.115297 0.0649424
0.34461 0.116793 0.0564126
0.377218 0.117723 0.0498207
0.410224 0.11841 0.0431678
0.44155 0.117754 0.0391394
0.472511 0.116747 0.0357977
0.50135 0.11339 0.0341955
0.528969 0.109133 0.0336309
0.555001 0.103151 0.0332952
0.579705 0.0961471 0.0331731
0.601801 0.0892195 0.0330816
0.6224 0.0816968 0.0330816
0.640116 0.0751965 0.0330816
0.656092 0.0710307 0.0330816
0.670085 0.068925 0.0330816
0.681712 0.0683452 0.0330816
0.691951 0.0678569 0.0330816
0.700236 0.0679789 0.0330816
0.707759 0.0676127 0.0330816
0.00138857 0.0776989 0.0951858
0.00238041 0.0795758 0.0955215
0.0175479 0.0822003 0.0957504
0.0319677 0.0848707 0.095964
0.0531472 0.0882734 0.0961929
0.0747692 0.091783 0.0964523
0.0947585 0.0956283 0.096849
0.11632 0.0995804 0.0971847
0.14342 0.103929 0.0958419
0.171481 0.108354 0.0941634
0.202533 0.112902 0.0907454
0.233631 0.11722 0.0867628
0.264607 0.120928 0.0812238
0.296178 0.124315 0.0749981
0.328801 0.126741 0.0668193
0.361471 0.129046 0.0589914
0.394949 0.130907 0.0513008
0.427878 0.132616 0.0442054
0.459632 0.133791 0.0403906
0.490791 0.134325 0.0369726
0.519341 0.132631 0.0357824
0.54728 0.130327 0.0342107
0.572473 0.125002 0.0337682
0.597177 0.120226 0.0330968
0.618692 0.114382 0.0330968
0.639857 0.109483 0.0330816
0.656031 0.105623 0.0330816
0.672251 0.10193 0.0330816
0.68336 0.0993973 0.0330816
0.694316 0.0956283 0.0330816
0.702892 0.0939956 0.0330816
0.711696 0.0933852 0.0330816
0.718425 0.0950484 0.0330816
0 0.0857099 0.097322
0.0055848 0.087953 0.0975052
0.0140536 0.090486 0.0977035
0.0319829 0.0935683 0.098024
0.0563058 0.0969711 0.0985428
0.0780194 0.100786 0.0991836
0.098558 0.104799 0.0997482
0.124712 0.109056 0.0998856
0.152193 0.113298 0.100206
0.18349 0.118135 0.097673
0.215656 0.123186 0.0946212
0.247684 0.127687 0.0895247
0.279591 0.132189 0.0843824
0.312428 0.135561 0.0769513
0.345281 0.138857 0.0691997
0.378988 0.141726 0.0618296
0.412711 0.14461 0.0543526
0.44593 0.146914 0.0491646
0.479026 0.149264 0.0439002
0.509117 0.14992 0.040589
0.538766 0.150683 0.0372931
0.565713 0.14963 0.0353552
0.591913 0.148196 0.0338598
0.615412 0.144747 0.0334173
0.637736 0.141085 0.0332341
0.656672 0.137362 0.0330816
0.673564 0.133455 0.0330968
0.687709 0.130358 0.0330816
0.699565 0.128176 0.0330816
0.710002 0.127382 0.0330816
0.718791 0.127642 0.0330816
0.726711 0.129412 0.0330816
0.733227 0.133043 0.0330816
0.000259403 0.0938735 0.0999771
0.002121 0.0963607 0.100389
0.00772107 0.0990005 0.100679
0.0346227 0.102388 0.100938
0.0588235 0.10602 0.101198
0.0808423 0.110155 0.101625
0.105211 0.114351 0.102068
0.132479 0.118715 0.102785
0.162158 0.123354 0.102388
0.196048 0.128496 0.10042
0.229313 0.133501 0.0975814
0.262242 0.138613 0.0930495
0.295293 0.143297 0.0876173
0.328588 0.147463 0.0805982
0.362402 0.151568 0.0735027
0.397009 0.155352 0.0658122
0.431205 0.158831 0.0588846
0.465263 0.162097 0.0530404
0.498283 0.164813 0.0477607
0.528923 0.166461 0.0439612
0.558694 0.167636 0.0403906
0.585855 0.167376 0.0378424
0.612238 0.167071 0.0354009
0.635096 0.165331 0.0343786
0.657145 0.164034 0.0332036
0.675044 0.162524 0.0332036
0.692561 0.160586 0.0331426
0.70515 0.158877 0.0331273
0.717739 0.157427 0.0330816
0.727047 0.157534 0.0330816
0.736461 0.157565 0.0330816
0.743755 0.160143 0.0330816
0.751019 0.162936 0.0330816
0.000198367 0.103319 0.10338
0.000350958 0.105623 0.103563
0.0161593 0.108583 0.103548
0.0350958 0.111604 0.103349
0.0590066 0.115602 0.103365
0.085069 0.119799 0.103349
0.112184 0.124407 0.104173
0.138872 0.129351 0.10486
0.173617 0.13489 0.104326
0.209186 0.140246 0.104402
0.243427 0.145922 0.100923
0.277897 0.151659 0.0978408
0.312154 0.156466 0.0913558
0.346883 0.161379 0.0849622
0.381521 0.165637 0.0772412
0.416602 0.169848 0.0690471
0.451301 0.173816 0.0628214
0.486275 0.177798 0.0562753
0.518685 0.181262 0.0520943
0.551049 0.184619 0.0478523
0.579614 0.186252 0.0452277
0.607813 0.187564 0.0422522
0.632502 0.18764 0.0401923
0.656672 0.187549 0.0377966
0.677073 0.186648 0.0360418
0.696513 0.185779 0.0341344
0.711635 0.184955 0.0332952
0.725002 0.184482 0.0331273
0.736141 0.18471 0.0330816
0.746197 0.185657 0.0334478
0.755047 0.187411 0.0337072
0.762661 0.18967 0.033753
0.769238 0.192081 0.0336461
0 0.114092 0.106188
0.00375372 0.116747 0.10605
0.0136721 0.120073 0.105653
0.0297704 0.123857 0.105257
0.0588846 0.128496 0.10486
0.0873732 0.133303 0.104829
0.114366 0.138506 0.105104
0.146899 0.143633 0.105867
0.185092 0.148531 0.107652
0.222477 0.153887 0.107378
0.258595 0.160372 0.104555
0.294774 0.166537 0.0999619
0.330816 0.172549 0.0939803
0.367208 0.178302 0.0873426
0.403632 0.183642 0.079881
0.439765 0.1888 0.0733959
0.475807 0.19382 0.0675975
0.509865 0.198428 0.0634775
0.542718 0.202319 0.0596017
0.57377 0.205432 0.0556497
0.602533 0.207782 0.0519112
0.630457 0.209842 0.0484321
0.655772 0.211078 0.045594
0.679728 0.212238 0.0429999
0.70013 0.212482 0.04094
0.719387 0.21294 0.0392615
0.733745 0.213153 0.0390021
0.747631 0.213519 0.0383459
0.757855 0.21416 0.037644
0.767681 0.214527 0.0365148
0.775326 0.216464 0.0356451
0.782986 0.218326 0.0345159
0.78883 0.221912 0.0343633
0 0.126925 0.108415
0.000488289 0.130205 0.108003
0.000885023 0.133776 0.107851
0.0295109 0.138903 0.107424
0.0557259 0.143923 0.106798
0.0842756 0.149798 0.106432
0.114717 0.155795 0.106035
0.153185 0.161486 0.106371
0.191745 0.167193 0.106142
0.232151 0.173449 0.105257
0.27393 0.179675 0.104585
0.3131 0.186007 0.100114
0.35285 0.192309 0.0958877
0.390021 0.198459 0.089128
0.427298 0.205051 0.0833906
0.463844 0.211307 0.079118
0.500725 0.217563 0.0751354
0.535195 0.222705 0.0718242
0.570062 0.228077 0.0685588
0.600427 0.231617 0.0653086
0.630884 0.235279 0.0620127
0.657115 0.237308 0.0587778
0.682979 0.239399 0.0554513
0.704585 0.240467 0.0525978
0.726116 0.241703 0.0496529
0.742672 0.242298 0.0480659
0.758129 0.242756 0.0465858
0.770245 0.243442 0.0455329
0.781277 0.244465 0.0446632
0.790463 0.24625 0.0442359
0.798779 0.248554 0.0440681
0.806043 0.251682 0.0444038
0.812512 0.255634 0.0452125
6.10361e-05 0.144396 0.111376
0.00015259 0.148074 0.111055
0.0087129 0.152255 0.110414
0.0228428 0.157061 0.109346
0.0471046 0.162585 0.108309
0.0809339 0.168795 0.107225
0.117067 0.175067 0.105959
0.15642 0.181384 0.10457
0.199008 0.187961 0.103456
0.243534 0.194507 0.102358
0.286564 0.201648 0.0991226
0.329397 0.209155 0.0953384
0.370382 0.216571 0.0919509
0.410605 0.224002 0.0890364
0.450584 0.231037 0.0868544
0.489845 0.23801 0.0850843
0.527581 0.244327 0.0830091
0.563699 0.250477 0.0804913
0.597589 0.255741 0.0778821
0.629648 0.260319 0.075227
0.65922 0.264057 0.0725719
0.68629 0.266941 0.0697185
0.711086 0.269093 0.0670787
0.733303 0.270527 0.064271
0.753353 0.271916 0.0616922
0.769726 0.273274 0.0598306
0.784726 0.274586 0.0579995
0.795987 0.275898 0.0567025
0.806943 0.27747 0.0556954
0.815869 0.279759 0.0556344
0.824628 0.2822 0.0556344
0.831556 0.285863 0.0565499
0.838544 0.28954 0.0574655
0 0.162554 0.113802
0.000366217 0.166369 0.113252
0.00627146 0.171221 0.111879
0.0133974 0.176364 0.11043
0.0421302 0.182773 0.108614
0.0712902 0.189242 0.106691
0.114931 0.196277 0.104555
0.159777 0.203342 0.102586
0.20708 0.210376 0.0999313
0.253864 0.21767 0.0970626
0.299657 0.225742 0.0937209
0.344991 0.234012 0.0906233
0.387762 0.242435 0.0886091
0.430655 0.250736 0.0870222
0.472389 0.258885 0.0870527
0.514458 0.267048 0.0873579
0.554025 0.274083 0.0876326
0.593362 0.280903 0.0882277
0.627329 0.286061 0.0871901
0.661265 0.291035 0.0868696
0.688869 0.29427 0.0844129
0.717144 0.297688 0.0818189
0.740536 0.299916 0.0789502
0.764279 0.302251 0.0762493
0.782254 0.303944 0.0742657
0.800015 0.305486 0.0722667
0.813077 0.307012 0.0710002
0.825422 0.308537 0.0698253
0.835294 0.310719 0.0693828
0.844419 0.313069 0.0690929
0.852094 0.316213 0.0695201
0.858778 0.319493 0.0701762
0.865263 0.323384 0.0712749
0 0.181048 0.115709
0 0.185672 0.114473
0 0.190723 0.112917
0.0132601 0.196902 0.110948
0.0288701 0.203449 0.109056
0.0662547 0.210803 0.106661
0.112688 0.218479 0.103975
0.161685 0.226184 0.100023
0.212039 0.233997 0.0955215
0.261662 0.242557 0.0908064
0.31194 0.25124 0.0858778
0.359182 0.260273 0.0838636
0.405768 0.26981 0.0823072
0.450538 0.279042 0.08365
0.495415 0.288533 0.0860151
0.538277 0.296986 0.0887922
0.580331 0.304906 0.0928817
0.618799 0.311559 0.0947433
0.655833 0.317449 0.0958114
0.689113 0.322255 0.0954604
0.719875 0.326345 0.094377
0.747616 0.329671 0.0928817
0.772671 0.33225 0.0909743
0.794995 0.334676 0.0892042
0.814054 0.336996 0.0872969
0.830823 0.339208 0.0858167
0.844068 0.341085 0.0846723
0.855955 0.342702 0.0837262
0.865156 0.344625 0.0833295
0.874098 0.346868 0.0831464
0.881529 0.350301 0.0838483
0.88896 0.353887 0.0846418
0.895415 0.358404 0.0861067
0 0.200473 0.117647
0 0.205676 0.116442
0.000946059 0.211292 0.114885
0.00262455 0.218051 0.112261
0.0173953 0.225177 0.109285
0.0628367 0.233433 0.105623
0.107256 0.241733 0.101076
0.161593 0.250355 0.0948348
0.216571 0.259327 0.0882734
0.269886 0.268833 0.0811627
0.322164 0.278538 0.0754711
0.371878 0.288685 0.0737163
0.421347 0.298863 0.074464
0.468605 0.309056 0.0803388
0.515877 0.318807 0.0860761
0.561593 0.327871 0.092134
0.605692 0.336553 0.0968948
0.645777 0.343832 0.0995193
0.685084 0.350713 0.102037
0.718395 0.355886 0.102403
0.751583 0.360891 0.103151
0.778759 0.364477 0.102495
0.806561 0.368139 0.102296
0.827359 0.370413 0.101167
0.848524 0.372641 0.100374
0.862455 0.37406 0.0993973
0.876341 0.375265 0.0983597
0.88658 0.377111 0.0978256
0.89662 0.379416 0.0972915
0.904936 0.382681 0.0976272
0.9131 0.38645 0.0982986
0.920424 0.390906 0.0995193
0.927382 0.395697 0.100999
0 0.2215 0.119478
0 0.227008 0.118105
0.000457771 0.233585 0.115419
0.000686656 0.240482 0.112444
0.0239109 0.248646 0.107958
0.0466621 0.257206 0.10309
0.102373 0.266407 0.0954452
0.164523 0.275669 0.0871595
0.221256 0.28603 0.0776989
0.278721 0.296651 0.0689708
0.331518 0.307774 0.0679942
0.384848 0.319097 0.0672465
0.434485 0.330053 0.0719463
0.484199 0.341192 0.0766613
0.532876 0.351278 0.0829633
0.581735 0.361303 0.089662
0.62707 0.370153 0.0953536
0.672511 0.378775 0.101503
0.711681 0.385519 0.105562
0.749554 0.392126 0.109361
0.78146 0.397192 0.110765
0.811215 0.401587 0.11191
0.836408 0.404776 0.112139
0.859525 0.40766 0.112032
0.878706 0.409873 0.111772
0.894667 0.411902 0.111406
0.908354 0.413733 0.111177
0.919326 0.415747 0.111116
0.929595 0.41825 0.111406
0.938033 0.421454 0.112093
0.946365 0.425147 0.113069
0.953063 0.429633 0.114366
0.958968 0.434791 0.115587
0 0.243488 0.120241
0 0.24976 0.11812
0 0.257053 0.114687
0.00485237 0.264973 0.110216
0.0150607 0.273976 0.104204
0.0443275 0.283345 0.0967575
0.101488 0.2934 0.0876478
0.160159 0.303929 0.0783703
0.222797 0.315328 0.0690013
0.283619 0.327123 0.0628977
0.341009 0.339345 0.0604715
0.396353 0.351431 0.0607462
0.447791 0.363302 0.065156
0.499306 0.374945 0.070573
0.550118 0.386053 0.0781872
0.600092 0.39675 0.0856031
0.648249 0.406577 0.0932326
0.694713 0.416068 0.100359
0.735378 0.423529 0.106371
0.77496 0.430579 0.111757
0.808362 0.435721 0.11519
0.841108 0.44097 0.118807
0.867292 0.444175 0.120592
0.893294 0.447776 0.122484
0.910567 0.45008 0.122377
0.928771 0.452857 0.12285
0.940185 0.454932 0.122759
0.951919 0.457038 0.122988
0.959792 0.460594 0.123613
0.966781 0.463874 0.124315
0.972168 0.467872 0.125399
0.977172 0.472084 0.126619
0.981491 0.476692 0.127993
0 0.26714 0.11989
0 0.274281 0.116548
0 0.281804 0.113436
0 0.291127 0.106981
0 0.300557 0.100282
0.0482032 0.311162 0.0898146
0.0922255 0.321904 0.0793011
0.158572 0.334203 0.0693828
0.226108 0.346441 0.0591745
0.287236 0.359884 0.0558022
0.349187 0.373465 0.0516365
0.403372 0.386389 0.0547494
0.458427 0.399588 0.0573434
0.512322 0.411383 0.0648966
0.566201 0.423331 0.0729839
0.617777 0.434226 0.0826734
0.66891 0.445014 0.0916304
0.71429 0.45417 0.09897
0.759533 0.46334 0.106188
0.79765 0.470451 0.111604
0.834836 0.477378 0.117098
0.866209 0.482811 0.120989
0.896208 0.487587 0.124788
0.920302 0.491173 0.127428
0.941741 0.494179 0.129686
0.958526 0.496956 0.131472
0.971313 0.498848 0.132753
0.980117 0.500923 0.133547
0.984237 0.503838 0.133761
0.987533 0.506935 0.134173
0.990005 0.511131 0.134768
0.992096 0.515328 0.135439
0.993774 0.520516 0.136294
0 0.292622 0.118898
0 0.300343 0.115404
0 0.309041 0.109911
0 0.318746 0.102113
0.0156405 0.329305 0.0922255
0.0412604 0.340597 0.0805524
0.0896925 0.352773 0.0692607
0.159304 0.365881 0.0581979
0.225849 0.379644 0.0509804
0.29131 0.394232 0.0466163
0.353155 0.40856 0.0460822
0.411429 0.42298 0.0498817
0.467994 0.436606 0.0556954
0.52256 0.449592 0.0626535
0.577081 0.461814 0.0699779
0.631586 0.473594 0.078233
0.684077 0.484794 0.0863813
0.733455 0.495155 0.0949721
0.780285 0.504829 0.103319
0.82118 0.512963 0.110689
0.85951 0.520623 0.11722
0.892256 0.526238 0.122301
0.923262 0.531594 0.127153
0.946212 0.535027 0.130205
0.968338 0.538308 0.13344
0.979904 0.540627 0.134951
0.991226 0.54287 0.136797
0.993866 0.545434 0.137713
0.996109 0.547967 0.138811
0.997757 0.551965 0.139803
0.999054 0.555734 0.140841
0.999512 0.560098 0.141222
0.999512 0.564782 0.141161
0 0.318532 0.116747
0 0.326375 0.112963
0 0.336507 0.104005
0.000839246 0.346578 0.0951553
0.0124514 0.358602 0.0822461
0.0258946 0.370855 0.0692302
0.0901656 0.384695 0.0580758
0.152911 0.398779 0.047715
0.224186 0.414206 0.0457008
0.295048 0.429786 0.043534
0.357824 0.445197 0.0456245
0.420264 0.460441 0.047364
0.476493 0.474311 0.0526284
0.532952 0.488243 0.0572213
0.589303 0.500923 0.0650797
0.646265 0.514031 0.0724956
0.698802 0.525399 0.0813764
0.751888 0.537041 0.0901198
0.796872 0.546212 0.0983444
0.841962 0.555734 0.106676
0.87921 0.562631 0.113725
0.915801 0.569375 0.120882
0.944457 0.574563 0.12636
0.97055 0.578805 0.131258
0.985611 0.581552 0.134096
0.995483 0.583825 0.136217
0.999359 0.586053 0.137453
0.999451 0.58822 0.138109
0.999496 0.591028 0.138613
0.999512 0.594766 0.138903
0.999512 0.598642 0.139178
0.999512 0.603082 0.1393
0.999512 0.607279 0.139422
0 0.344411 0.113573
0 0.353704 0.106508
0 0.363821 0.0970016
0.000137331 0.375189 0.0845502
0.000259403 0.387793 0.0709697
0.0350652 0.401556 0.0607309
0.0838331 0.416083 0.0520333
0.148028 0.43151 0.0473793
0.223239 0.447501 0.0442206
0.293736 0.463645 0.0432441
0.363226 0.480278 0.043061
0.425956 0.49601 0.0450904
0.48481 0.511803 0.0481422
0.543435 0.526528 0.053315
0.602167 0.541039 0.0598001
0.658946 0.554009 0.0677195
0.714412 0.566003 0.0764935
0.765728 0.576867 0.0851911
0.813596 0.586664 0.0938735
0.858 0.595514 0.101961
0.896803 0.602884 0.109483
0.932265 0.609583 0.116396
0.960464 0.614771 0.122179
0.983871 0.619547 0.127352
0.992493 0.622538 0.130312
0.999481 0.625574 0.133181
0.999512 0.627894 0.134356
0.999512 0.629862 0.135256
0.999512 0.632746 0.135348
0.999512 0.635218 0.135546
0.999512 0.638468 0.135286
0.999512 0.641733 0.135027
0.999512 0.645563 0.134524
0 0.36817 0.109194
0 0.378622 0.0995346
0 0.389395 0.0896162
3.0518e-05 0.402564 0.0761883
0.00628672 0.416342 0.0636606
0.0349432 0.431586 0.0551003
0.0700542 0.447135 0.0471351
0.147066 0.463493 0.0435035
0.221302 0.479988 0.0400244
0.295537 0.497185 0.0394903
0.368887 0.51429 0.039353
0.431022 0.530617 0.0420386
0.493935 0.547173 0.0449836
0.552926 0.562127 0.0510414
0.611749 0.577249 0.0567941
0.6692 0.590433 0.0645304
0.727428 0.604181 0.0719005
0.779049 0.615305 0.0803388
0.831479 0.626535 0.0887312
0.873152 0.634516 0.0968795
0.915129 0.642664 0.104921
0.945815 0.648447 0.111482
0.975784 0.654231 0.117937
0.98822 0.657542 0.121843
0.99704 0.660761 0.1252
0.999512 0.662974 0.126894
0.999512 0.66453 0.128038
0.999512 0.666697 0.128695
0.999512 0.669139 0.129107
0.999512 0.671992 0.129213
0.999512 0.675181 0.129061
0.999512 0.678233 0.12871
0.999512 0.681376 0.128115
0 0.39202 0.1028
0 0.40235 0.0929274
0 0.414603 0.0810254
0 0.427985 0.0680247
0.0101472 0.442954 0.0580758
0.0201877 0.458656 0.0484932
0.0749523 0.475502 0.0429084
0.142336 0.492912 0.0383459
0.218585 0.510918 0.0366674
0.299931 0.529351 0.035935
0.370993 0.546899 0.0382239
0.43888 0.564019 0.0404212
0.500984 0.580041 0.0442054
0.5608 0.595956 0.0483558
0.62034 0.610941 0.0542153
0.680262 0.625498 0.0608835
0.736614 0.638651 0.0683604
0.791882 0.650919 0.0764324
0.841123 0.661585 0.0842756
0.88632 0.670848 0.0921492
0.925475 0.678706 0.0994888
0.957855 0.685389 0.106264
0.981659 0.690883 0.111879
0.991684 0.694194 0.115679
0.999512 0.696941 0.118944
0.999512 0.698528 0.120287
0.999512 0.700221 0.121523
0.999512 0.702022 0.121981
0.999512 0.703777 0.122393
0.999512 0.705959 0.12221
0.999512 0.707973 0.122026
0.999512 0.710704 0.121508
0.999512 0.713359 0.120974
0 0.414069 0.0954604
0 0.425132 0.0850996
0 0.438544 0.0717632
0.000656138 0.45272 0.0594186
0.00247196 0.468803 0.049836
0.0210574 0.485328 0.0417639
0.0759442 0.50309 0.0390784
0.136019 0.521126 0.0379339
0.219532 0.539544 0.038056
0.300237 0.557977 0.0377508
0.375051 0.576059 0.0384833
0.446281 0.593942 0.0394141
0.507851 0.61117 0.0424201
0.569177 0.628199 0.0458228
0.630304 0.64416 0.051545
0.690181 0.659632 0.0574655
0.747692 0.67306 0.0650492
0.804562 0.686687 0.0724041
0.851743 0.696605 0.0800793
0.899428 0.706813 0.0876173
0.933623 0.71371 0.0944381
0.968643 0.720714 0.101244
0.983154 0.725124 0.105653
0.99733 0.729641 0.110002
0.999512 0.731655 0.112016
0.999512 0.733532 0.113634
0.999512 0.735027 0.114443
0.999512 0.736049 0.115099
0.999512 0.737102 0.115312
0.999512 0.738399 0.115236
0.999512 0.740154 0.114961
0.999512 0.742214 0.114534
0.999512 0.744183 0.114107
0 0.434302 0.0873579
0 0.446983 0.0747845
0 0.460548 0.0608072
0.000244144 0.476753 0.0532082
0.000289921 0.493431 0.0467384
0.030808 0.511437 0.0438239
0.0624247 0.529458 0.04065
0.139559 0.548348 0.0390784
0.222919 0.567315 0.0371252
0.302968 0.586145 0.0368658
0.383185 0.60502 0.0366979
0.450187 0.623148 0.0386053
0.514641 0.641199 0.0407568
0.57673 0.658457 0.044892
0.6383 0.675547 0.0493629
0.698192 0.691249 0.0553902
0.75787 0.706554 0.0618753
0.811521 0.719493 0.0687572
0.862455 0.731151 0.0758373
0.905257 0.740276 0.0828412
0.943358 0.747936 0.0897536
0.971084 0.754498 0.0955673
0.988571 0.759533 0.10042
0.999496 0.763622 0.104036
0.999512 0.765728 0.105898
0.999512 0.7673 0.107439
0.999512 0.767865 0.10808
0.999512 0.768429 0.108568
0.999512 0.769085 0.108553
0.999512 0.769451 0.108553
0.999512 0.771038 0.108186
0.999512 0.772351 0.107912
0.999512 0.774166 0.107561
0 0.454322 0.0791791
0 0.467887 0.0676738
0 0.482414 0.0584878
0 0.499199 0.0522164
0.00828565 0.516594 0.0467689
0.0268559 0.535149 0.0429084
0.0675212 0.554238 0.0394293
0.145495 0.574166 0.0373541
0.224323 0.594125 0.0358587
0.30927 0.614206 0.0356146
0.387442 0.633616 0.0360723
0.455558 0.651942 0.037644
0.52282 0.670176 0.0400092
0.584314 0.687327 0.0436408
0.645365 0.704204 0.0475929
0.705959 0.720302 0.0533455
0.765225 0.735973 0.059144
0.818814 0.749264 0.0659495
0.871031 0.762264 0.0726024
0.912993 0.771634 0.0792706
0.95465 0.781445 0.0857557
0.976059 0.787823 0.0908675
0.998886 0.794827 0.0960708
0.999283 0.796613 0.0982986
0.999405 0.798627 0.100511
0.999451 0.798123 0.101549
0.999496 0.797665 0.102388
0.999512 0.797559 0.102693
0.999512 0.797375 0.102861
0.999512 0.798108 0.102754
0.999512 0.799207 0.102541
0.999512 0.800565 0.102251
0.999512 0.802472 0.101869
0 0.47393 0.0724346
0 0.487251 0.0618601
0 0.503471 0.0548714
0 0.51986 0.0476539
0.00755322 0.538369 0.0433661
0.0137942 0.556985 0.0387427
0.0772106 0.576989 0.0368505
0.139406 0.597269 0.0350347
0.224048 0.617685 0.0350347
0.3093 0.63801 0.0356603
0.385885 0.657328 0.0367285
0.463935 0.676921 0.0373388
0.528206 0.695262 0.0396277
0.591119 0.713726 0.041886
0.652811 0.731258 0.0462654
0.714504 0.74818 0.0510109
0.771801 0.763119 0.0570535
0.828641 0.777813 0.0634165
0.877211 0.789319 0.0699016
0.923262 0.799924 0.076463
0.956466 0.808423 0.0822461
0.983108 0.815534 0.0877546
0.996429 0.82034 0.0915694
0.997986 0.823102 0.0940414
0.999176 0.824948 0.0958114
0.999359 0.824994 0.0966354
0.999512 0.825254 0.0972
0.999512 0.824598 0.0974441
0.999512 0.824048 0.097673
0.999512 0.824155 0.0976577
0.999512 0.824552 0.0975967
0.999512 0.825742 0.0973831
0.999512 0.826871 0.0971695
0 0.489784 0.0673228
0 0.504021 0.0582132
0 0.520592 0.049836
0.000732433 0.538247 0.0429541
0.00120546 0.557534 0.0382849
0.0252842 0.577615 0.0366369
0.0724346 0.597787 0.0366979
0.137682 0.617899 0.0364385
0.224842 0.638361 0.0362097
0.309148 0.658335 0.035996
0.392493 0.678111 0.0362554
0.468284 0.697459 0.0371557
0.533043 0.71603 0.0390173
0.597528 0.734462 0.0416571
0.659907 0.752392 0.0455482
0.721157 0.769879 0.0499275
0.780072 0.786297 0.0556649
0.836378 0.801862 0.061387
0.885252 0.814069 0.0676738
0.930892 0.824918 0.0738994
0.960922 0.83241 0.0796063
0.989502 0.839796 0.0850385
0.993317 0.842817 0.0879835
0.998459 0.846403 0.0910201
0.998917 0.846159 0.0920882
0.999451 0.846159 0.0931411
0.999512 0.845762 0.0934768
0.999512 0.845273 0.0937209
0.999512 0.845563 0.0937057
0.999512 0.84596 0.0936141
0.999512 0.846998 0.0934157
0.999512 0.847868 0.0932479
0.999512 0.848371 0.0931563
0 0.502815 0.0612039
0 0.518593 0.0536049
0 0.534295 0.0470283
0 0.553124 0.0445869
0.000823987 0.571618 0.0414282
0.0340124 0.592142 0.040177
0.0641642 0.612558 0.0379797
0.147875 0.633951 0.0370642
0.229007 0.655177 0.0356909
0.316732 0.676234 0.0356756
0.404761 0.697047 0.0355383
0.471977 0.715877 0.0369573
0.540825 0.734966 0.0382696
0.604608 0.75317 0.0413977
0.667796 0.771282 0.0444343
0.727886 0.787961 0.0494087
0.787594 0.8047 0.0543832
0.840742 0.818509 0.0603494
0.892409 0.832059 0.066392
0.931289 0.84239 0.0722362
0.966293 0.85185 0.0779889
0.984192 0.858198 0.0821851
0.993301 0.862959 0.0855879
0.998154 0.865125 0.0877852
0.998993 0.865171 0.0890364
0.999512 0.864927 0.0899062
0.999512 0.864195 0.0902266
0.999512 0.863539 0.090486
0.999512 0.863294 0.0905318
0.999512 0.863172 0.090547
0.999512 0.863767 0.0904402
0.999512 0.864378 0.0903334
0.999512 0.86537 0.0901503
0 0.515496 0.0619669
0 0.53077 0.0555581
0 0.547433 0.0507515
0 0.565621 0.0464027
0.0109255 0.584817 0.0428473
0.027451 0.605051 0.0397345
0.0778058 0.625849 0.0374456
0.151995 0.647135 0.0359197
0.234211 0.668452 0.0351873
0.32343 0.689769 0.0351568
0.404425 0.710414 0.0357366
0.477943 0.730236 0.0368658
0.547372 0.749447 0.0385138
0.610483 0.768048 0.0408637
0.673411 0.78648 0.0440986
0.734661 0.803861 0.0485847
0.792782 0.82005 0.0534829
0.846616 0.83447 0.0593423
0.8963 0.847868 0.0651408
0.935378 0.858183 0.071046
0.969894 0.867765 0.0765087
0.98352 0.873198 0.0803845
