LUT预设1/LUT全系打包/繁花仿色lut/709专用/繁花709夜景1.cube
TITLE "Generated by Resolve"
LUT_3D_SIZE 9
0.00154116 0.062623 0.0905013
0.0496681 0.0720989 0.0921187
0.123705 0.0868086 0.0897383
0.237461 0.100618 0.0755169
0.361028 0.105623 0.0473793
0.484825 0.0966201 0.0336004
0.58761 0.0627604 0.0330816
0.659602 0.0487068 0.0330816
0.698283 0.0463111 0.0330816
0.000259403 0.0938735 0.0999771
0.0588235 0.10602 0.101198
0.162158 0.123354 0.102388
0.295293 0.143297 0.0876173
0.431205 0.158831 0.0588846
0.558694 0.167636 0.0403906
0.657145 0.164034 0.0332036
0.717739 0.157427 0.0330816
0.751019 0.162936 0.0330816
6.10361e-05 0.144396 0.111376
0.0471046 0.162585 0.108309
0.199008 0.187961 0.103456
0.370382 0.216571 0.0919509
0.527581 0.244327 0.0830091
0.65922 0.264057 0.0725719
0.753353 0.271916 0.0616922
0.806943 0.27747 0.0556954
0.838544 0.28954 0.0574655
0 0.2215 0.119478
0.0239109 0.248646 0.107958
0.221256 0.28603 0.0776989
0.434485 0.330053 0.0719463
0.62707 0.370153 0.0953536
0.78146 0.397192 0.110765
0.878706 0.409873 0.111772
0.929595 0.41825 0.111406
0.958968 0.434791 0.115587
0 0.318532 0.116747
0.0124514 0.358602 0.0822461
0.224186 0.414206 0.0457008
0.476493 0.474311 0.0526284
0.698802 0.525399 0.0813764
0.87921 0.562631 0.113725
0.985611 0.581552 0.134096
0.999496 0.591028 0.138613
0.999512 0.607279 0.139422
0 0.414069 0.0954604
0.00247196 0.468803 0.049836
0.219532 0.539544 0.038056
0.507851 0.61117 0.0424201
0.747692 0.67306 0.0650492
0.933623 0.71371 0.0944381
0.999512 0.731655 0.112016
0.999512 0.737102 0.115312
0.999512 0.744183 0.114107
0 0.489784 0.0673228
0.00120546 0.557534 0.0382849
0.224842 0.638361 0.0362097
0.533043 0.71603 0.0390173
0.780072 0.786297 0.0556649
0.960922 0.83241 0.0796063
0.998917 0.846159 0.0920882
0.999512 0.845563 0.0937057
0.999512 0.848371 0.0931563
0 0.533242 0.0621958
0.00260929 0.604334 0.0401923
0.237461 0.690013 0.0364538
0.556634 0.77171 0.0381933
0.804105 0.843687 0.0527504
0.971344 0.89102 0.0740215
0.999069 0.903136 0.0830396
0.999512 0.901564 0.0840009
0.999512 0.902159 0.0838941
0 0.560693 0.0730602
0.00143435 0.632578 0.0474556
0.264103 0.718502 0.0394903
0.579263 0.799863 0.0383001
0.823819 0.872129 0.0521096
0.974273 0.916945 0.0717632
0.999146 0.927733 0.0791333
0.999512 0.926879 0.0798505
0.999512 0.925628 0.0800488
0.00015259 0.0654612 0.11165
0.0478676 0.0752422 0.114519
0.128542 0.0894026 0.114382
0.243397 0.103197 0.103685
0.366949 0.103807 0.0845808
0.490715 0.0764019 0.0589456
0.596338 0.041886 0.0386969
0.670634 0.0332799 0.040589
0.709682 0.0310674 0.0337987
7.62951e-05 0.0990616 0.125841
0.0515755 0.111513 0.128527
0.161349 0.129992 0.12987
0.293309 0.150378 0.119402
0.428367 0.162173 0.0997177
0.55462 0.159869 0.0732433
0.650263 0.139345 0.0451209
0.712383 0.115831 0.0389258
0.74377 0.118883 0.0330816
0 0.15317 0.142962
0.0372625 0.171679 0.14284
0.195209 0.196963 0.144289
0.36376 0.224628 0.144152
0.514412 0.248905 0.127733
0.646494 0.262303 0.105104
0.741375 0.263905 0.081529
0.795361 0.266758 0.0731365
0.825833 0.277028 0.0699168
0 0.233906 0.158953
0.013611 0.261494 0.154696
0.210758 0.297642 0.144366
0.428138 0.33695 0.140551
0.61915 0.373236 0.147723
0.768048 0.395193 0.138964
0.866117 0.404959 0.125887
0.915068 0.411887 0.124666
0.942733 0.428733 0.127596
0 0.335012 0.169833
0.00502022 0.375158 0.155474
0.207568 0.425345 0.126848
0.46566 0.479149 0.111452
0.691005 0.527718 0.120455
0.87219 0.561471 0.132036
0.977203 0.578759 0.147326
0.997467 0.588235 0.149065
0.999344 0.603815 0.142855
0 0.432975 0.172381
0 0.48452 0.144808
0.199374 0.548104 0.104738
0.492317 0.614191 0.0801099
0.736233 0.67274 0.0819409
0.926574 0.71223 0.0977951
0.998932 0.730282 0.118303
0.999512 0.736492 0.120882
0.999512 0.744823 0.117617
0 0.50811 0.167041
0 0.570123 0.130343
0.190249 0.643168 0.0911727
0.51339 0.716442 0.0675975
0.765423 0.784344 0.0656443
0.951492 0.829328 0.0828412
0.99852 0.844648 0.0969863
0.999512 0.845411 0.0965896
0.999512 0.847456 0.0963455
0 0.550225 0.173449
0 0.61442 0.136156
0.197009 0.693233 0.096025
0.534859 0.769345 0.071931
0.786542 0.837873 0.0652934
0.963088 0.885649 0.0802777
0.998352 0.899031 0.0905776
0.999512 0.898283 0.0888991
0.999512 0.898985 0.08925
0 0.578729 0.197604
0.00189212 0.643412 0.162524
0.217075 0.721035 0.121782
0.553872 0.79559 0.0956588
0.800183 0.862333 0.0791791
0.965164 0.907683 0.0920272
0.998352 0.920989 0.0955825
0.999512 0.920027 0.0940108
0.999512 0.918776 0.0962081
0.000244144 0.068513 0.150622
0.0414893 0.0786145 0.155596
0.13312 0.0909133 0.16231
0.256214 0.102083 0.161608
0.383352 0.0991226 0.151019
0.510918 0.0612039 0.140658
0.621118 0.0273442 0.130755
0.695308 0.0172885 0.124605
0.734096 0.0170748 0.123201
0 0.105531 0.172
0.0400397 0.118547 0.176669
0.161868 0.136141 0.182483
0.300816 0.15462 0.178042
0.437232 0.164736 0.167849
0.566125 0.157351 0.153597
0.665949 0.126314 0.134386
0.727642 0.0941329 0.125002
0.758114 0.0989548 0.122728
0 0.164431 0.197528
0.0229038 0.183429 0.201465
0.185351 0.208576 0.206638
0.353811 0.236561 0.206332
0.505852 0.259678 0.200351
0.640101 0.271489 0.186542
0.733822 0.270771 0.168475
0.788205 0.26894 0.159365
0.816831 0.280522 0.159762
0 0.25005 0.224445
0.000396735 0.278691 0.227161
0.190341 0.313893 0.227375
0.41532 0.350027 0.235767
0.600153 0.385504 0.246036
0.743755 0.408774 0.234836
0.836835 0.415473 0.219028
0.88368 0.421027 0.21294
0.912215 0.438376 0.217533
0 0.355962 0.248493
0.00030518 0.397131 0.248157
0.180301 0.444999 0.239307
0.448722 0.49276 0.23505
0.677577 0.540352 0.248722
0.856718 0.574105 0.262348
0.956924 0.585885 0.255161
0.988632 0.595621 0.253147
0.998703 0.611521 0.260548
0 0.456764 0.267063
0 0.508812 0.261936
0.15903 0.568032 0.243305
0.469551 0.626047 0.222324
0.71667 0.679683 0.212726
0.911635 0.717586 0.222965
0.995392 0.733715 0.223056
0.999512 0.743145 0.232593
0.999512 0.752148 0.227329
0 0.533928 0.280186
6.10361e-05 0.59379 0.270604
0.141634 0.660304 0.24416
0.486122 0.725475 0.21265
0.739666 0.785107 0.192157
0.934569 0.826383 0.186328
0.997024 0.843626 0.191806
0.999512 0.847456 0.199878
0.999512 0.848493 0.197833
0 0.576028 0.29958
0.00131228 0.638834 0.288716
0.150988 0.70956 0.261677
0.504799 0.776837 0.231678
0.757168 0.836149 0.20267
0.944579 0.880079 0.197375
0.997147 0.896895 0.198215
0.999512 0.898299 0.198444
0.999512 0.898039 0.196979
0 0.605768 0.331487
0.00238041 0.668772 0.323812
0.164645 0.739162 0.303609
0.521569 0.805493 0.278843
0.76875 0.862547 0.262577
0.947082 0.90486 0.248157
0.997375 0.922805 0.254612
0.999512 0.92221 0.248951
0.999512 0.919722 0.243626
0 0.064744 0.206577
0.0330205 0.0781415 0.216205
0.134234 0.0907454 0.227863
0.264057 0.0990311 0.237934
0.398032 0.0880293 0.242832
0.529824 0.0477302 0.245319
0.642451 0.017731 0.247288
0.718761 0.00601205 0.250523
0.757168 0.00546273 0.25214
0 0.106859 0.237888
0.0271 0.124147 0.24596
0.15996 0.141573 0.258167
0.310109 0.155779 0.267491
0.455253 0.159228 0.270085
0.587976 0.149874 0.264866
0.690715 0.117464 0.259983
0.752651 0.0890364 0.257877
0.783413 0.0941024 0.258198
0 0.173205 0.27454
0.00628672 0.195254 0.281971
0.173693 0.220417 0.291646
0.357305 0.244251 0.299214
0.514244 0.263951 0.297551
0.652125 0.275303 0.291432
0.7505 0.275059 0.283055
0.803403 0.274327 0.279393
0.830167 0.28777 0.282521
0 0.266728 0.312963
0 0.297185 0.320668
0.168032 0.332174 0.326177
0.403143 0.365545 0.336248
0.583078 0.399695 0.341451
0.730755 0.424949 0.34049
0.825437 0.435157 0.332753
0.87306 0.441703 0.330724
0.899489 0.459281 0.337896
0 0.3785 0.348562
0 0.421012 0.356298
0.147387 0.467933 0.356878
0.432135 0.513054 0.363088
0.660502 0.558145 0.388067
0.832578 0.595224 0.408377
0.931548 0.611444 0.41149
0.970947 0.621714 0.412909
0.985107 0.638773 0.420645
0 0.482277 0.378439
0.000366217 0.535561 0.384833
0.11371 0.594354 0.381506
0.448646 0.649027 0.380423
0.698131 0.698741 0.39086
0.899107 0.742412 0.423178
0.993988 0.766247 0.451743
0.999496 0.773159 0.448661
0.999512 0.784726 0.451987
0 0.561975 0.401984
9.15541e-05 0.621195 0.406744
0.0971389 0.687007 0.400565
0.457191 0.749249 0.395117
0.717617 0.80174 0.392981
0.917983 0.846021 0.409308
0.9944 0.866087 0.433005
0.999512 0.870573 0.430823
0.999512 0.873976 0.432044
0 0.603677 0.427756
4.57771e-05 0.666773 0.431846
0.108034 0.736019 0.425803
0.47068 0.799771 0.42063
0.734127 0.853483 0.416846
0.926207 0.898192 0.430137
0.994766 0.918883 0.448829
0.999512 0.922118 0.446525
0.999512 0.923232 0.448569
0 0.632807 0.463935
0.000137331 0.695979 0.469032
0.116716 0.76527 0.464958
0.488884 0.828656 0.46276
0.746273 0.880888 0.462989
0.927642 0.924346 0.477638
0.99527 0.946914 0.494057
0.999512 0.949401 0.49572
0.999512 0.949096 0.499977
0 0.0428779 0.27219
0.0284428 0.0684672 0.285725
0.134264 0.0846876 0.302708
0.269627 0.0898451 0.317906
0.406531 0.0707561 0.329412
0.541161 0.0352789 0.339712
0.654902 0.0108949 0.349203
0.730373 0.00161746 0.357244
0.768719 0.000442512 0.363302
0 0.0978714 0.310582
0.00865187 0.125078 0.323659
0.154665 0.145357 0.340795
0.314473 0.157824 0.356909
0.463096 0.157351 0.368261
0.599313 0.142641 0.37557
0.70399 0.107149 0.378286
0.76553 0.0836042 0.381277
0.797223 0.0876631 0.385992
0 0.175982 0.3579
0 0.2038 0.370657
0.164157 0.231144 0.38468
0.358587 0.253269 0.400946
0.52285 0.265965 0.411399
0.665934 0.271763 0.414847
0.767208 0.270497 0.41352
0.821439 0.269902 0.413764
0.848142 0.285008 0.417594
0 0.279652 0.409308
0 0.312963 0.422782
0.138888 0.349004 0.432395
0.397696 0.380468 0.446967
0.582315 0.407126 0.454795
0.731838 0.429541 0.456153
0.831632 0.44033 0.45417
0.880583 0.449226 0.454963
0.904387 0.469032 0.462287
0 0.397818 0.456687
0.00015259 0.442252 0.470863
0.114839 0.489509 0.476753
0.415778 0.533654 0.48777
0.640299 0.572595 0.505394
0.806775 0.607553 0.51986
0.9066 0.627314 0.523735
0.949508 0.64239 0.52668
0.970748 0.65922 0.537514
0 0.50573 0.49575
0 0.559853 0.508934
0.0753033 0.618433 0.512642
0.419013 0.671427 0.519005
0.678523 0.716381 0.53312
0.878065 0.758846 0.571023
0.98497 0.78616 0.596933
0.998322 0.798978 0.607721
0.999496 0.811673 0.617792
0 0.586511 0.525917
0 0.646052 0.537728
0.070573 0.71191 0.539574
0.416602 0.772488 0.543221
0.698299 0.820691 0.550683
0.892241 0.861708 0.571481
0.992859 0.888563 0.600778
0.99942 0.895857 0.610681
0.999512 0.899855 0.61268
0 0.628107 0.553063
0 0.691371 0.56463
0.0725414 0.760128 0.566323
0.429297 0.822278 0.570123
0.715694 0.872938 0.576196
0.89926 0.912154 0.591012
0.990738 0.938216 0.614313
0.999451 0.945891 0.622446
0.999512 0.946487 0.624414
0 0.655924 0.587823
0 0.719478 0.599374
0.078172 0.788251 0.601617
0.451194 0.849973 0.607446
0.72871 0.899092 0.613947
0.902129 0.936355 0.625696
0.988907 0.961746 0.646555
0.999481 0.968551 0.6542
0.999512 0.968032 0.656382
0 0.0148013 0.341558
0.021088 0.045716 0.357107
0.13373 0.0633249 0.379156
0.275868 0.0675059 0.400076
0.41503 0.0471962 0.416617
0.551537 0.0247196 0.431586
0.665736 0.00573739 0.444541
0.739742 0.000701915 0.454383
0.777096 1.5259e-05 0.462242
0 0.0704814 0.383444
0.00117494 0.118746 0.402762
0.149294 0.14519 0.425986
0.318563 0.156649 0.447654
0.469505 0.154894 0.463645
0.606302 0.134722 0.475013
0.711391 0.0966964 0.482033
0.772015 0.0771801 0.487633
0.803555 0.0818799 0.49514
0 0.168933 0.441459
0.000534066 0.206317 0.460914
0.151934 0.239322 0.47924
0.358679 0.26125 0.500298
0.526986 0.272068 0.516182
0.671229 0.273259 0.527565
0.773983 0.267475 0.533089
0.828122 0.265904 0.537255
0.855192 0.281025 0.546532
0 0.286473 0.503761
0.000961318 0.323247 0.522026
0.11725 0.362722 0.536126
0.38854 0.394156 0.553857
0.582605 0.415885 0.569131
0.736431 0.42858 0.579904
0.838392 0.435676 0.582712
0.887236 0.443763 0.585931
0.911696 0.463706 0.593591
0 0.4121 0.559213
0 0.458106 0.577874
0.0915541 0.507408 0.588693
0.395651 0.551125 0.602274
0.627558 0.58378 0.616403
0.791089 0.610346 0.624567
0.893767 0.629664 0.627573
0.939406 0.643931 0.632074
0.960113 0.663523 0.640986
0 0.523674 0.603906
0 0.579171 0.622736
0.0589303 0.637842 0.630716
0.385077 0.69012 0.640879
0.662333 0.731853 0.655924
0.845258 0.764904 0.679225
0.951995 0.790341 0.695399
0.990417 0.805051 0.704601
0.998245 0.818586 0.713024
0 0.605142 0.637308
0 0.665888 0.655161
0.0496529 0.732525 0.661967
0.378607 0.791074 0.669764
0.681865 0.837201 0.681834
0.867964 0.871199 0.697383
0.97789 0.895613 0.724468
0.999496 0.90634 0.738491
0.999496 0.912062 0.741878
0 0.647044 0.664866
0 0.711055 0.682094
0.0535897 0.779599 0.687877
0.392187 0.840696 0.695567
0.699016 0.889189 0.707424
0.877317 0.921752 0.717617
0.976364 0.944411 0.735821
0.999298 0.954376 0.74789
0.999512 0.956069 0.751034
0 0.673609 0.695872
0 0.737911 0.712016
0.0588083 0.806607 0.717754
0.415518 0.867155 0.726757
0.713603 0.914885 0.738872
0.882994 0.945998 0.746807
0.974716 0.966659 0.761456
0.999069 0.975494 0.772381
0.999512 0.97612 0.774441
0 0.00256352 0.413458
0.00602731 0.0211795 0.429191
0.13225 0.0405585 0.454597
0.281682 0.0413825 0.479805
0.423545 0.0291142 0.50016
0.561944 0.0144656 0.518029
0.677012 0.00199893 0.533211
0.749508 0.000122072 0.543587
0.785916 1.5259e-05 0.551873
0 0.0337835 0.455787
0.00140383 0.104219 0.478248
0.142916 0.141009 0.504921
0.322225 0.151324 0.531258
0.474571 0.147967 0.550408
0.612833 0.122011 0.56434
0.718578 0.086183 0.574182
0.778988 0.0644999 0.58053
0.809567 0.0741894 0.588556
0 0.152422 0.516823
0.000686656 0.202136 0.541039
0.133288 0.243183 0.563256
0.356435 0.265797 0.588968
0.52929 0.275914 0.607904
0.674723 0.276127 0.6215
0.777798 0.268498 0.629648
0.831006 0.265888 0.634775
0.857374 0.281926 0.643351
0 0.286366 0.586419
0.00015259 0.328115 0.608774
0.100816 0.371496 0.625803
0.376577 0.403983 0.647272
0.580819 0.424735 0.666041
0.735912 0.434867 0.67953
0.837583 0.437034 0.68716
0.886992 0.442679 0.692622
0.910277 0.460883 0.701076
0 0.420325 0.647715
0 0.46833 0.669566
0.0751354 0.520043 0.683818
0.37734 0.563836 0.700816
0.620615 0.59411 0.717815
0.786358 0.612696 0.729717
0.889647 0.624033 0.736629
0.936019 0.63537 0.740337
0.956878 0.654337 0.747906
0 0.535348 0.695811
0 0.592065 0.717891
0.0440528 0.651926 0.73022
0.355322 0.704189 0.742824
0.650187 0.744259 0.759167
0.825833 0.769482 0.770443
0.925261 0.788418 0.77586
0.969772 0.804227 0.780041
0.986862 0.818509 0.78793
0 0.617746 0.729809
0 0.679561 0.750927
0.0378576 0.747539 0.762554
0.35024 0.804791 0.772305
0.668711 0.850156 0.78706
0.851713 0.880049 0.800153
0.956313 0.897749 0.817014
0.993378 0.909453 0.827482
0.99884 0.917372 0.83476
0 0.6598 0.75491
0 0.724437 0.775372
0.0306401 0.793805 0.785504
0.358328 0.854597 0.795544
0.686397 0.901793 0.809995
0.863172 0.93106 0.820813
0.961608 0.948684 0.831983
0.996429 0.957824 0.843137
0.999512 0.960922 0.847913
0 0.68513 0.780575
0 0.750469 0.800336
0.0254368 0.819638 0.809323
0.385718 0.879591 0.820279
0.701732 0.926757 0.835233
0.870924 0.955261 0.844495
0.962112 0.971267 0.852445
0.995834 0.979187 0.860929
0.999512 0.980774 0.864897
0 0.000518807 0.479377
0.00364691 0.00805676 0.495369
0.129381 0.0239719 0.521569
0.286412 0.0219272 0.549386
0.431083 0.0181277 0.573022
0.570886 0.00605783 0.592767
0.686458 0.000900282 0.608988
0.759243 1.5259e-05 0.62092
0.794705 1.5259e-05 0.628656
0 0.0110781 0.520851
0.0015259 0.0799115 0.543313
0.134447 0.133928 0.572457
0.323995 0.143694 0.601495
0.478111 0.135836 0.624018
0.617945 0.108034 0.639963
0.724407 0.0742657 0.650904
0.786007 0.0441749 0.659678
0.815579 0.0626383 0.666789
0 0.129702 0.578882
0 0.194263 0.607706
0.121202 0.244358 0.633204
0.353796 0.268025 0.660914
0.53106 0.278065 0.683864
0.67744 0.277211 0.698741
0.780545 0.268559 0.708156
0.834409 0.267491 0.714473
0.860853 0.283619 0.722011
0 0.281605 0.653239
0 0.329015 0.679225
0.090074 0.376638 0.698116
0.366766 0.410361 0.72221
0.579538 0.430869 0.744183
0.735958 0.440391 0.75874
0.837491 0.442329 0.766918
0.886976 0.447135 0.772808
0.91046 0.464836 0.779736
0 0.423667 0.718273
0 0.47422 0.742031
0.066865 0.528023 0.757839
0.360708 0.571527 0.777356
0.615427 0.601907 0.797116
0.783703 0.619745 0.810162
0.886 0.627375 0.818326
0.932189 0.635218 0.823438
0.953201 0.652827 0.829709
0 0.542214 0.767132
0 0.599512 0.790387
0.0310826 0.660487 0.803967
0.341131 0.713191 0.820279
0.641657 0.752499 0.838071
0.819913 0.77528 0.849409
0.919081 0.787381 0.855909
0.964279 0.798627 0.860273
0.981765 0.812512 0.864302
0 0.625315 0.799283
0 0.688273 0.821958
0.0204623 0.756024 0.835035
0.313756 0.813931 0.848554
0.659403 0.859266 0.865309
0.843153 0.886793 0.876661
0.939452 0.899763 0.88397
0.982147 0.910613 0.88954
0.994705 0.919707 0.893462
0 0.667735 0.821302
0 0.732754 0.842985
0.00979629 0.802976 0.855497
0.334035 0.863432 0.868162
0.676493 0.910353 0.884321
0.855497 0.938628 0.89482
0.950713 0.953429 0.903792
0.990585 0.960952 0.910491
0.998993 0.964828 0.914122
0 0.692271 0.840757
0 0.758083 0.861616
0.00883497 0.827863 0.873243
0.369268 0.887678 0.885969
0.693202 0.934646 0.902464
0.864515 0.96228 0.912383
0.954223 0.976318 0.919066
0.991623 0.98291 0.923827
0.999435 0.98468 0.926711
0 0.000488289 0.533455
0.00285344 0.00376898 0.549447
0.124773 0.0153201 0.575448
0.289952 0.0157168 0.60499
0.437278 0.0107424 0.629801
0.578653 0.00311284 0.652262
0.694057 0.000396735 0.668406
0.766537 1.5259e-05 0.679683
0.802396 1.5259e-05 0.688594
0 0.00479133 0.573251
0 0.0610819 0.593729
0.121889 0.128847 0.62504
0.325429 0.139345 0.655268
0.481758 0.129076 0.679011
0.622843 0.101671 0.697627
0.729519 0.0663615 0.709026
0.791562 0.038056 0.717418
0.820584 0.0530556 0.724712
0 0.112306 0.625452
0 0.189212 0.656672
0.116442 0.246052 0.685603
0.351781 0.271351 0.713909
0.533089 0.281224 0.738048
0.68043 0.279957 0.755184
0.783429 0.272053 0.764416
0.837781 0.271077 0.770687
0.864347 0.287846 0.778927
0 0.277394 0.700023
0 0.32874 0.728038
0.0847181 0.381125 0.748882
0.361166 0.415671 0.773587
0.579034 0.435859 0.797665
0.736538 0.445899 0.813916
0.838544 0.447654 0.822156
0.888319 0.452049 0.828244
0.911681 0.470115 0.835264
0 0.424949 0.764599
0 0.477836 0.791089
0.0574197 0.533181 0.807797
0.348547 0.576669 0.827619
0.612619 0.607538 0.850416
0.783062 0.625772 0.86511
0.884703 0.631952 0.872618
0.931029 0.639506 0.878294
0.951949 0.656474 0.884092
0 0.545892 0.813031
0 0.603922 0.83856
0.0209812 0.665995 0.853101
0.334188 0.718959 0.869535
0.637263 0.757534 0.890669
0.817166 0.78027 0.903029
0.916899 0.790722 0.910048
0.961242 0.79939 0.915328
0.979065 0.812055 0.918532
0 0.629389 0.844205
0 0.693385 0.868559
0.00720226 0.760998 0.882231
0.291264 0.819104 0.89601
0.654261 0.86508 0.916396
0.838422 0.8907 0.927352
0.934386 0.902129 0.932967
0.976608 0.911238 0.936721
0.99205 0.918898 0.938369
0 0.672038 0.863233
0 0.737484 0.886137
0.00140383 0.80827 0.899321
0.322423 0.868086 0.912322
0.671458 0.915526 0.931472
0.851774 0.943481 0.942107
0.944839 0.956817 0.948226
0.984894 0.96376 0.952712
0.997192 0.96791 0.954559
0 0.696223 0.878355
0 0.762402 0.899718
0.00370794 0.832319 0.911559
0.357137 0.892012 0.924926
0.688411 0.939101 0.94374
0.861494 0.966491 0.953902
0.950408 0.979965 0.959609
0.988434 0.985946 0.963714
0.998764 0.987701 0.965194
