LUT预设1/LUT全系打包/繁花仿色lut/709专用/繁花709夜景1.cube
TITLE "Generated by Resolve"
LUT_3D_SIZE 5
0.00154116 0.062623 0.0905013
0.123705 0.0868086 0.0897383
0.361028 0.105623 0.0473793
0.58761 0.0627604 0.0330816
0.698283 0.0463111 0.0330816
6.10361e-05 0.144396 0.111376
0.199008 0.187961 0.103456
0.527581 0.244327 0.0830091
0.753353 0.271916 0.0616922
0.838544 0.28954 0.0574655
0 0.318532 0.116747
0.224186 0.414206 0.0457008
0.698802 0.525399 0.0813764
0.985611 0.581552 0.134096
0.999512 0.607279 0.139422
0 0.489784 0.0673228
0.224842 0.638361 0.0362097
0.780072 0.786297 0.0556649
0.998917 0.846159 0.0920882
0.999512 0.848371 0.0931563
0 0.560693 0.0730602
0.264103 0.718502 0.0394903
0.823819 0.872129 0.0521096
0.999146 0.927733 0.0791333
0.999512 0.925628 0.0800488
0.000244144 0.068513 0.150622
0.13312 0.0909133 0.16231
0.383352 0.0991226 0.151019
0.621118 0.0273442 0.130755
0.734096 0.0170748 0.123201
0 0.164431 0.197528
0.185351 0.208576 0.206638
0.505852 0.259678 0.200351
0.733822 0.270771 0.168475
0.816831 0.280522 0.159762
0 0.355962 0.248493
0.180301 0.444999 0.239307
0.677577 0.540352 0.248722
0.956924 0.585885 0.255161
0.998703 0.611521 0.260548
0 0.533928 0.280186
0.141634 0.660304 0.24416
0.739666 0.785107 0.192157
0.997024 0.843626 0.191806
0.999512 0.848493 0.197833
0 0.605768 0.331487
0.164645 0.739162 0.303609
0.76875 0.862547 0.262577
0.997375 0.922805 0.254612
0.999512 0.919722 0.243626
0 0.0428779 0.27219
0.134264 0.0846876 0.302708
0.406531 0.0707561 0.329412
0.654902 0.0108949 0.349203
0.768719 0.000442512 0.363302
0 0.175982 0.3579
0.164157 0.231144 0.38468
0.52285 0.265965 0.411399
0.767208 0.270497 0.41352
0.848142 0.285008 0.417594
0 0.397818 0.456687
0.114839 0.489509 0.476753
0.640299 0.572595 0.505394
0.9066 0.627314 0.523735
0.970748 0.65922 0.537514
0 0.586511 0.525917
0.070573 0.71191 0.539574
0.698299 0.820691 0.550683
0.992859 0.888563 0.600778
0.999512 0.899855 0.61268
0 0.655924 0.587823
0.078172 0.788251 0.601617
0.72871 0.899092 0.613947
0.988907 0.961746 0.646555
0.999512 0.968032 0.656382
0 0.00256352 0.413458
0.13225 0.0405585 0.454597
0.423545 0.0291142 0.50016
0.677012 0.00199893 0.533211
0.785916 1.5259e-05 0.551873
0 0.152422 0.516823
0.133288 0.243183 0.563256
0.52929 0.275914 0.607904
0.777798 0.268498 0.629648
0.857374 0.281926 0.643351
0 0.420325 0.647715
0.0751354 0.520043 0.683818
0.620615 0.59411 0.717815
0.889647 0.624033 0.736629
0.956878 0.654337 0.747906
0 0.617746 0.729809
0.0378576 0.747539 0.762554
0.668711 0.850156 0.78706
0.956313 0.897749 0.817014
0.99884 0.917372 0.83476
0 0.68513 0.780575
0.0254368 0.819638 0.809323
0.701732 0.926757 0.835233
0.962112 0.971267 0.852445
0.999512 0.980774 0.864897
0 0.000488289 0.533455
0.124773 0.0153201 0.575448
0.437278 0.0107424 0.629801
0.694057 0.000396735 0.668406
0.802396 1.5259e-05 0.688594
0 0.112306 0.625452
0.116442 0.246052 0.685603
0.533089 0.281224 0.738048
0.783429 0.272053 0.764416
0.864347 0.287846 0.778927
0 0.424949 0.764599
0.0574197 0.533181 0.807797
0.612619 0.607538 0.850416
0.884703 0.631952 0.872618
0.951949 0.656474 0.884092
0 0.629389 0.844205
0.00720226 0.760998 0.882231
0.654261 0.86508 0.916396
0.934386 0.902129 0.932967
0.99205 0.918898 0.938369
0 0.696223 0.878355
0.00370794 0.832319 0.911559
0.688411 0.939101 0.94374
0.950408 0.979965 0.959609
0.998764 0.987701 0.965194
