LUT预设1/LUT全系打包/繁花仿色lut/709专用/繁花709夜景-2.cube
TITLE "Generated by Resolve"
LUT_3D_SIZE 9
0.0279698 0.0463417 0.0498207
0.0428321 0.0511177 0.0521706
0.0880903 0.0610208 0.0513924
0.160601 0.0740826 0.0432136
0.265675 0.0845197 0.0184024
0.389288 0.0831617 0
0.508537 0.0501717 0
0.609705 0.0272374 0
0.664637 0.0288243 0
0.0127108 0.0651255 0.056733
0.0419623 0.0720226 0.0591135
0.106386 0.0845045 0.0610208
0.200198 0.101411 0.0519875
0.320684 0.116594 0.0213321
0.457618 0.126772 0.00209049
0.576211 0.119203 0
0.658442 0.0852216 0
0.702083 0.0796216 0
0.000427253 0.0990768 0.0682994
0.0281529 0.107149 0.0691539
0.124147 0.124819 0.0681315
0.252735 0.147127 0.0632334
0.396521 0.171267 0.0364385
0.543832 0.194461 0.0214237
0.661265 0.20238 0.00854505
0.735119 0.201846 0.000686656
0.773556 0.20882 0.00227359
0 0.161379 0.07953
0.0115663 0.176699 0.0768902
0.120958 0.203861 0.0633249
0.303792 0.239033 0.0366979
0.494331 0.280659 0.052842
0.665095 0.311635 0.068101
0.781079 0.326284 0.0598154
0.846296 0.33373 0.052842
0.881773 0.347051 0.0543069
0 0.244495 0.0842756
0.0016022 0.269993 0.0727092
0.0984817 0.311559 0.0267491
0.343114 0.369223 0.0104829
0.571984 0.424338 0.04477
0.779812 0.467597 0.0863966
0.917693 0.490837 0.107698
0.981338 0.501869 0.112505
0.996414 0.518547 0.117433
0.000167849 0.345693 0.0704204
0.000503548 0.382269 0.0307774
0.0736248 0.44387 0.00198367
0.36556 0.519478 0.00437934
0.623316 0.589029 0.0258183
0.854734 0.640314 0.0650187
0.988006 0.667384 0.0962997
1 0.677699 0.104936
1 0.689204 0.104173
0.000564584 0.428031 0.0269017
0.00077821 0.478035 0.00300603
0.0619059 0.5552 0.0009308
0.381598 0.642115 0.00308232
0.660075 0.722087 0.0161135
0.897108 0.783322 0.0459602
0.998672 0.810529 0.069749
1 0.813764 0.0744945
1 0.816785 0.0737926
0.000732433 0.481666 0.00794995
0.000854505 0.537316 0.000961318
0.0665599 0.621668 0.00102235
0.40647 0.715679 0.00292973
0.690349 0.798764 0.0129702
0.920867 0.864103 0.0386358
0.999847 0.890745 0.0569467
1 0.889326 0.0593729
1 0.890517 0.059144
0.000793469 0.511574 0.00944533
0.000915541 0.570397 0.00143435
0.0814832 0.656931 0.00111391
0.435477 0.752605 0.00306706
0.716762 0.836835 0.0124666
0.937209 0.901778 0.0367285
1 0.92546 0.051545
1 0.924681 0.0528878
1 0.923934 0.0530251
0.0257725 0.0479744 0.0601511
0.0429999 0.053193 0.0627451
0.0902876 0.0627298 0.0624247
0.164996 0.0770275 0.0542458
0.271183 0.0856489 0.0352178
0.393164 0.0694743 0.00047303
0.516793 0.0313725 0
0.618585 0.0264897 0
0.672526 0.0291295 0
0.00753796 0.0686656 0.0690318
0.0361334 0.0754559 0.0725261
0.107439 0.0886091 0.0736553
0.203372 0.106218 0.0653239
0.324041 0.119661 0.043061
0.460319 0.119509 0.00643931
0.578592 0.100191 0
0.663981 0.0702373 0
0.706996 0.0637369 0
0.000122072 0.104128 0.0843366
0.0266117 0.113054 0.0863355
0.124041 0.131319 0.086183
0.254902 0.154055 0.0859693
0.396139 0.17673 0.0600595
0.546365 0.193042 0.0270085
0.664546 0.197024 0.00793469
0.736553 0.192599 0.00195315
0.775113 0.200153 0.000518807
0 0.169802 0.0998093
0.00816358 0.185962 0.0990768
0.114427 0.213748 0.0898146
0.306264 0.2477 0.0767376
0.498482 0.285786 0.0772564
0.668849 0.314199 0.0723735
0.785534 0.327596 0.0618296
0.849561 0.333761 0.0525063
0.885969 0.348379 0.0543526
0 0.257053 0.111482
0.000640879 0.283406 0.105104
0.0886091 0.323934 0.0724956
0.341634 0.378256 0.0350805
0.57528 0.431571 0.0530404
0.78706 0.474876 0.0873579
0.923384 0.497047 0.10779
0.984588 0.507881 0.113512
0.998428 0.525567 0.119432
9.15541e-05 0.361776 0.112337
0.00030518 0.397482 0.090074
0.0610971 0.456291 0.0305486
0.358755 0.530663 0.0129397
0.624842 0.598947 0.0256046
0.859937 0.650629 0.0640421
0.98883 0.676646 0.0948043
1 0.68632 0.103014
1 0.697551 0.102068
0.000381476 0.443946 0.0982834
0.00062562 0.490959 0.0536965
0.0530098 0.565789 0.0167697
0.376425 0.651987 0.00621042
0.659937 0.732235 0.0149996
0.900587 0.792889 0.0450141
0.997803 0.819791 0.0680552
1 0.822873 0.0725261
1 0.825055 0.0720836
0.000564584 0.494835 0.0885023
0.000762951 0.546593 0.0413977
0.0513466 0.629999 0.0144961
0.398138 0.722423 0.00358587
0.688045 0.805142 0.0121309
0.92311 0.871122 0.0378271
0.999405 0.896178 0.0559701
1 0.894987 0.05832
1 0.8963 0.0580758
0.000595102 0.524224 0.105226
0.000854505 0.578408 0.0540627
0.0590829 0.661677 0.02327
0.425254 0.755642 0.00550851
0.709819 0.838575 0.0115511
0.935836 0.90312 0.0359503
0.999924 0.927077 0.0510719
1 0.926101 0.0526436
1 0.924697 0.0528878
0.0122835 0.05066 0.0881208
0.0390021 0.0551614 0.0918593
0.0915389 0.0640421 0.0968948
0.173556 0.0768292 0.0957504
0.281941 0.083711 0.0811627
0.409003 0.0506447 0.0583505
0.536828 0.0180056 0.0393225
0.636576 0.0212253 0.0238041
0.689342 0.0239109 0.0241093
0.00236515 0.0726635 0.104692
0.0272526 0.0795453 0.108339
0.105653 0.0929885 0.11252
0.208042 0.110063 0.108568
0.330251 0.122515 0.0955978
0.466621 0.112062 0.0689555
0.588052 0.0628214 0.0390173
0.676356 0.0375219 0.0240024
0.720272 0.0295109 0.0236515
0 0.110933 0.126207
0.0187076 0.120958 0.130053
0.116716 0.139818 0.133516
0.249104 0.163836 0.131106
0.391302 0.185595 0.120241
0.54023 0.195743 0.0952926
0.655207 0.18471 0.0585336
0.728115 0.169375 0.038529
0.76463 0.173083 0.0367132
0 0.181582 0.150317
0.00328069 0.198642 0.153918
0.0972763 0.226398 0.152255
0.30074 0.259113 0.156954
0.483284 0.293568 0.164599
0.646097 0.319066 0.142763
0.762844 0.325063 0.110613
0.827192 0.328099 0.0916152
0.862043 0.340581 0.0907912
0 0.273671 0.172396
3.0518e-05 0.300984 0.174517
0.0625467 0.342031 0.165545
0.328588 0.390036 0.149325
0.56524 0.438148 0.155474
0.774899 0.477073 0.166079
0.903883 0.492836 0.153674
0.967453 0.503258 0.154223
0.994156 0.518151 0.154238
1.5259e-05 0.382269 0.189654
9.15541e-05 0.419089 0.186969
0.0399939 0.475364 0.164828
0.339956 0.539284 0.122545
0.60827 0.600641 0.101976
0.845502 0.647456 0.102693
0.985 0.672282 0.11664
1 0.682719 0.132631
1 0.694377 0.128618
0.000213626 0.466865 0.198352
0.000366217 0.512947 0.189578
0.0280613 0.579904 0.15314
0.347021 0.657176 0.100145
0.638056 0.728771 0.0699626
0.882979 0.786053 0.0656443
0.993729 0.815061 0.0858473
1 0.819745 0.0867781
1 0.820966 0.0794842
0.000335698 0.518029 0.211307
0.00047303 0.568521 0.199161
0.0321202 0.641489 0.157565
0.359121 0.723507 0.10367
0.662028 0.797955 0.0664836
0.90576 0.860243 0.0558328
0.996582 0.888426 0.078172
1 0.889158 0.0753033
1 0.88922 0.0657511
0.000335698 0.548943 0.238453
0.000457771 0.601694 0.230228
0.0391852 0.674632 0.191211
0.378653 0.756848 0.141405
0.678904 0.828458 0.101976
0.913558 0.888518 0.085359
0.997406 0.916823 0.0882582
1 0.916671 0.092668
1 0.913771 0.0840467
0.00254826 0.0490578 0.134234
0.024155 0.0555428 0.140276
0.0898451 0.0648203 0.14931
0.179217 0.0752117 0.159518
0.296483 0.0762341 0.162234
0.430564 0.0363775 0.159014
0.563439 0.007187 0.157137
0.665827 0.00970474 0.150378
0.718486 0.0119936 0.148516
0.000122072 0.0735332 0.160296
0.0154726 0.0827497 0.166171
0.0993515 0.0970169 0.175647
0.214939 0.111177 0.185519
0.347387 0.118532 0.185718
0.488472 0.104814 0.175067
0.616022 0.0522011 0.169055
0.706081 0.0199588 0.164828
0.750011 0.0119478 0.165042
0 0.117464 0.192248
0.0084535 0.129732 0.199619
0.100999 0.149187 0.208042
0.25417 0.170169 0.21619
0.402396 0.18912 0.210803
0.554925 0.197375 0.2009
0.675715 0.185397 0.183551
0.747509 0.166735 0.173266
0.782452 0.170886 0.172854
0 0.195605 0.228275
0.000244144 0.213901 0.237659
0.0690776 0.242557 0.243
0.291234 0.274342 0.25185
0.466667 0.3084 0.252476
0.634394 0.334279 0.246586
0.75378 0.343023 0.231327
0.816678 0.344396 0.221973
0.849622 0.356985 0.225406
0 0.294423 0.263981
0 0.32282 0.274083
0.0403754 0.365255 0.277256
0.314687 0.41059 0.27776
0.550256 0.454276 0.300313
0.748943 0.497337 0.318669
0.871229 0.514595 0.310887
0.927901 0.520546 0.302296
0.956573 0.538003 0.304234
0 0.407431 0.295796
3.0518e-05 0.445624 0.30425
0.0213931 0.503517 0.304265
0.308248 0.562844 0.295109
0.58819 0.616999 0.29369
0.832563 0.668284 0.318013
0.981033 0.694804 0.343801
1 0.702449 0.336599
1 0.717861 0.349264
0 0.495857 0.318959
0.000106813 0.542336 0.325704
0.0204471 0.609339 0.32137
0.296925 0.680842 0.305455
0.613306 0.741741 0.286397
0.858061 0.797162 0.287968
0.993317 0.823835 0.291463
1 0.830839 0.288792
1 0.835599 0.303685
7.62951e-05 0.547601 0.342535
0.000137331 0.599054 0.349386
0.0199893 0.670573 0.343221
0.300008 0.745525 0.325582
0.634119 0.810254 0.302678
0.873106 0.866392 0.30164
0.996002 0.89398 0.296071
1 0.899199 0.288273
1 0.900191 0.307179
6.10361e-05 0.578683 0.377737
0.000106813 0.632151 0.386435
0.0248112 0.704463 0.382025
0.314199 0.779828 0.368811
0.650309 0.843961 0.357382
0.880735 0.898329 0.355367
0.997772 0.92958 0.36936
1 0.931762 0.354635
1 0.931487 0.367163
0 0.0272984 0.200366
0.0113375 0.0417792 0.210636
0.0869764 0.0576181 0.225315
0.183032 0.0658885 0.240879
0.303532 0.0617838 0.253559
0.4439 0.0174563 0.264134
0.580682 0.00102235 0.275929
0.684764 0.00173953 0.284337
0.738811 0.00242618 0.289296
0 0.0579995 0.234272
0.00787366 0.0753033 0.246235
0.0910658 0.0971847 0.260868
0.217777 0.110353 0.277729
0.354955 0.113573 0.290745
0.503883 0.0902419 0.299367
0.634211 0.0405127 0.304082
0.723568 0.00920119 0.310201
0.768109 0.002533 0.315557
0 0.115908 0.277852
0.00146487 0.131762 0.291051
0.0756542 0.157107 0.303426
0.254627 0.177737 0.320546
0.412711 0.189837 0.333242
0.574044 0.190372 0.339147
0.699153 0.177401 0.334157
0.772839 0.159258 0.332677
0.808057 0.166445 0.334173
0 0.205478 0.326757
0 0.226841 0.342214
0.043061 0.258381 0.352743
0.286122 0.290303 0.365942
0.47155 0.314916 0.376669
0.643809 0.33846 0.37322
0.769604 0.348241 0.367056
0.833494 0.351171 0.363073
0.863706 0.366339 0.368414
0 0.313695 0.375463
0 0.344823 0.392432
0.0286564 0.388006 0.401648
0.292958 0.4327 0.409262
0.530694 0.471397 0.428199
0.723568 0.513832 0.435859
0.849546 0.535927 0.434424
0.906523 0.547601 0.432349
0.938247 0.565377 0.44239
0 0.432746 0.418769
0 0.472786 0.433997
0.0145571 0.53109 0.443503
0.260609 0.588983 0.444785
0.570031 0.639155 0.455589
0.813336 0.689662 0.496712
0.960311 0.723217 0.525109
0.996475 0.736919 0.534829
0.999939 0.751827 0.545617
0 0.523995 0.450538
0 0.571435 0.465354
0.0142672 0.638819 0.472648
0.244617 0.708598 0.470817
0.59234 0.765957 0.474708
0.832517 0.817716 0.491585
0.990143 0.855497 0.527779
1 0.86392 0.540169
1 0.869642 0.541436
0 0.575998 0.478233
0 0.628122 0.494057
0.0122988 0.699718 0.500084
0.244282 0.7729 0.497414
0.611902 0.835019 0.499977
0.845853 0.884886 0.509422
0.988449 0.921324 0.536736
1 0.930602 0.545815
1 0.931014 0.547082
0 0.605737 0.513985
0 0.659831 0.530358
0.0106508 0.732525 0.536812
0.256168 0.805936 0.536645
0.628428 0.86743 0.540688
0.854749 0.915892 0.548577
0.986801 0.952132 0.573465
1 0.961044 0.58265
1 0.959915 0.58439
0 0.00132753 0.275898
0.0056611 0.0107729 0.288029
0.0840162 0.0293126 0.30547
0.187808 0.0352789 0.326452
0.311635 0.026566 0.344671
0.457008 0.00434882 0.361501
0.594232 0 0.377966
0.696513 4.57771e-05 0.390127
0.749599 7.62951e-05 0.398886
0 0.0238346 0.312398
0.00323491 0.046067 0.327214
0.0811322 0.0897536 0.347768
0.220859 0.101625 0.370596
0.361089 0.10396 0.388876
0.513634 0.0690166 0.402762
0.645045 0.0296941 0.413931
0.733608 0.0027924 0.423636
0.776944 0.000213626 0.431006
0 0.095613 0.361456
0.000122072 0.121431 0.380667
0.0436561 0.161028 0.399649
0.254795 0.182528 0.422507
0.417456 0.194049 0.441382
0.581277 0.190753 0.454185
0.7084 0.171374 0.461173
0.781704 0.152865 0.465156
0.816922 0.161593 0.472755
0 0.206806 0.423468
0.000122072 0.232349 0.443412
0.0374456 0.269703 0.460594
0.275639 0.303532 0.478141
0.47332 0.326268 0.496681
0.651926 0.337835 0.509987
0.781888 0.34226 0.514
0.847333 0.343877 0.515419
0.879408 0.359533 0.523064
0 0.32752 0.484352
0 0.360342 0.504753
0.0224155 0.406516 0.520745
0.258595 0.451881 0.532128
0.52134 0.487709 0.549599
0.715999 0.517632 0.557504
0.848112 0.539055 0.558221
0.909545 0.550286 0.560296
0.936019 0.572686 0.567849
0 0.452659 0.535515
0 0.495003 0.556924
0.0117952 0.553445 0.571847
0.217426 0.611429 0.578729
0.554437 0.65951 0.594018
0.779599 0.699046 0.619089
0.919493 0.730877 0.634272
0.975357 0.746731 0.640269
0.996155 0.764797 0.650675
0 0.546349 0.572976
0 0.595056 0.594156
0.00686656 0.663325 0.60795
0.202747 0.731487 0.612543
0.572106 0.787701 0.623697
0.808255 0.832197 0.638804
0.9673 0.866789 0.675059
1 0.881895 0.69514
1 0.889647 0.69839
0 0.598932 0.602991
0 0.651652 0.624659
0.000869764 0.72343 0.637186
0.202838 0.795911 0.64094
0.589334 0.856046 0.65214
0.823331 0.899428 0.661677
0.968139 0.931548 0.684062
1 0.945739 0.701534
1 0.947646 0.704662
0 0.627192 0.636606
0 0.682078 0.657954
0.00047303 0.755199 0.670649
0.219883 0.827558 0.675395
0.607141 0.887739 0.687724
0.833997 0.930098 0.695506
0.966964 0.959442 0.71313
1 0.97293 0.729213
1 0.973327 0.731182
0 0.00062562 0.355489
0.00114443 0.000747692 0.369192
0.0743267 0.00486763 0.385382
0.192432 0.00257877 0.411154
0.322042 0.00323491 0.43447
0.470741 0.000366217 0.455177
0.607614 0 0.473838
0.708247 0 0.487358
0.760128 0 0.496895
0 0.00209049 0.393668
0.000961318 0.0125887 0.408942
0.0688487 0.0687114 0.430945
0.224033 0.0825055 0.459022
0.367193 0.0793164 0.481743
0.523156 0.0512245 0.50016
0.655711 0.0158083 0.515114
0.744244 0.000915541 0.525917
0.786114 0 0.534295
0 0.0530709 0.44126
0.00015259 0.0951095 0.463081
0.0420844 0.156954 0.489281
0.252979 0.183322 0.517403
0.421698 0.193774 0.54052
0.587106 0.188785 0.556939
0.71458 0.166323 0.567239
0.787015 0.146105 0.572702
0.821546 0.15494 0.580148
0 0.198459 0.511513
0 0.229252 0.535027
0.0303349 0.274571 0.557733
0.260014 0.312856 0.579553
0.47332 0.33489 0.602426
0.654215 0.345785 0.619074
0.782437 0.344793 0.628428
0.849348 0.34342 0.63415
0.879469 0.358831 0.642359
0 0.333974 0.581521
0 0.368338 0.604517
0.0166781 0.419028 0.625772
0.233402 0.466026 0.640513
0.5149 0.501488 0.661799
0.714092 0.523568 0.677546
0.846799 0.532845 0.687556
0.909697 0.542062 0.690776
0.93695 0.562066 0.69839
0 0.465782 0.638498
0 0.509361 0.662806
0.00738537 0.569451 0.683375
0.194949 0.628519 0.693767
0.540352 0.675441 0.712093
0.759838 0.706371 0.725536
0.893553 0.729213 0.730526
0.955398 0.746014 0.734997
0.979095 0.764263 0.743526
0 0.56173 0.678706
0 0.611215 0.702907
0 0.681498 0.722942
0.171832 0.748775 0.730632
0.551949 0.804746 0.746059
0.791043 0.844984 0.761059
0.937377 0.869413 0.783871
0.993225 0.885618 0.797513
0.999619 0.896956 0.808972
0 0.614878 0.708461
0 0.667826 0.732845
7.62951e-05 0.74107 0.751263
0.15935 0.813321 0.757931
0.56791 0.872129 0.77322
0.808194 0.912566 0.786053
0.946014 0.936858 0.799054
0.99823 0.949859 0.815656
1 0.954009 0.821469
0 0.641932 0.737346
0 0.697627 0.762051
0 0.77174 0.779187
0.165347 0.843534 0.786053
0.588708 0.902983 0.80235
0.820539 0.942901 0.814343
0.948135 0.965087 0.823301
0.996902 0.976944 0.835767
1 0.978882 0.840314
0 0.000747692 0.427771
0.000411994 0.000793469 0.442756
0.0486305 0.000762951 0.458595
0.194003 0.000549325 0.487617
0.33164 0.000640879 0.514794
0.482124 0.00015259 0.537896
0.619425 1.5259e-05 0.558358
0.720348 0 0.573465
0.770764 0 0.58291
0 0.000823987 0.46746
0.00108339 0.0037995 0.484184
0.0576638 0.0413977 0.504768
0.225696 0.054612 0.53579
0.373297 0.0510109 0.563424
0.530632 0.0319982 0.584558
0.665202 0.00509651 0.601968
0.754696 0 0.614969
0.795666 0 0.622721
0 0.0169223 0.513252
0 0.0567636 0.535042
0.0407721 0.147738 0.564584
0.250324 0.181064 0.596277
0.424491 0.190433 0.62446
0.591089 0.182803 0.642893
0.718837 0.157656 0.655375
0.791943 0.130205 0.662623
0.826917 0.142901 0.66981
0 0.180819 0.583474
0 0.219516 0.610224
0.0254368 0.2748 0.636973
0.2448 0.317922 0.662333
0.472709 0.340215 0.689555
0.655543 0.350149 0.708598
0.783963 0.348547 0.719768
0.850996 0.347158 0.726268
0.881514 0.362493 0.7337
0 0.333806 0.660014
0 0.370596 0.684901
0.0120394 0.425025 0.7093
0.217182 0.475349 0.727626
0.508675 0.510582 0.752163
0.711727 0.531792 0.770367
0.843366 0.53872 0.781308
0.906462 0.544823 0.786831
0.933562 0.562539 0.793851
0 0.472953 0.721096
0 0.516472 0.74583
0.00378424 0.578851 0.769345
0.159243 0.639063 0.783917
0.527779 0.685588 0.804364
0.753643 0.714534 0.820005
0.888411 0.728038 0.830137
0.950393 0.737804 0.835767
0.973617 0.755047 0.839826
0 0.570901 0.761349
0 0.620951 0.786267
0 0.691569 0.809293
0.142641 0.760494 0.821408
0.533074 0.816571 0.839078
0.780926 0.854154 0.854398
0.916045 0.87158 0.86302
0.974075 0.885542 0.868009
0.992935 0.899092 0.872267
0 0.62475 0.788647
0 0.677668 0.813535
0 0.752041 0.835599
0.11281 0.82475 0.845914
0.548791 0.883024 0.862715
0.798657 0.922515 0.876966
0.931975 0.94287 0.887251
0.989792 0.953033 0.898009
0.999741 0.958434 0.902708
0 0.65098 0.811048
0 0.706355 0.835843
0 0.781765 0.856916
0.135134 0.854017 0.866239
0.573419 0.9131 0.88394
0.812757 0.952132 0.897948
0.937911 0.971786 0.906111
0.990662 0.980804 0.912306
1 0.983352 0.916259
0 0.000854505 0.489494
3.0518e-05 0.000885023 0.504417
0.0320592 0.000839246 0.521691
0.192844 0.000549325 0.550652
0.338094 0.000396735 0.579721
0.491081 0.000244144 0.605875
0.629038 9.15541e-05 0.626612
0.729824 0 0.641779
0.780514 0 0.652201
0 0.000915541 0.527901
0.000274662 0.00167849 0.54464
0.0507668 0.0216831 0.565286
0.226688 0.0375067 0.59675
0.378637 0.0387884 0.626459
0.537545 0.0203861 0.650965
0.673396 0.00216678 0.669184
0.762219 1.5259e-05 0.681971
0.8038 0 0.691066
0 0.00396735 0.571618
0 0.0346838 0.591852
0.0332799 0.13904 0.622568
0.246708 0.180591 0.656001
0.426734 0.189654 0.685878
0.594751 0.180148 0.707835
0.723186 0.154147 0.720836
0.79678 0.117327 0.72842
0.831861 0.139147 0.73669
0 0.160678 0.635172
0 0.209201 0.663828
0.0212863 0.27451 0.69482
0.233494 0.322484 0.721584
0.472236 0.344701 0.751125
0.657115 0.354726 0.772702
0.785977 0.352743 0.784405
0.853544 0.351858 0.791653
0.88426 0.367407 0.799298
0 0.331289 0.71371
0 0.370047 0.740932
0.00645457 0.428458 0.767391
0.209216 0.481437 0.786282
0.504463 0.516838 0.813977
0.711131 0.537865 0.834165
0.84271 0.544976 0.844892
0.90634 0.550484 0.851591
0.933516 0.567803 0.858289
0 0.475746 0.775586
0 0.520104 0.802075
0.000869764 0.584268 0.826993
0.136217 0.645701 0.841184
0.520043 0.69131 0.865507
0.750408 0.7205 0.883116
0.886061 0.733089 0.893095
0.946868 0.740826 0.899535
0.970275 0.75584 0.903883
0 0.575479 0.814908
0 0.626368 0.841337
0 0.696986 0.864866
0.113558 0.767147 0.877409
0.521096 0.82388 0.898955
0.775662 0.859007 0.914916
0.910964 0.874983 0.923156
0.969741 0.8851 0.929351
0.989914 0.89572 0.93051
0 0.629755 0.839384
0 0.682658 0.864485
0 0.757961 0.887587
0.108461 0.830686 0.898466
0.540505 0.88922 0.918364
0.794247 0.928557 0.933715
0.925872 0.94728 0.942123
0.980087 0.9561 0.946593
0.997101 0.961898 0.949401
0 0.656138 0.857053
0 0.711086 0.880873
0 0.786786 0.902495
0.126375 0.859449 0.912657
0.56463 0.918593 0.932754
0.80882 0.957321 0.947555
0.933837 0.97641 0.955398
0.985611 0.984375 0.960266
0.999451 0.98677 0.962493
