LUT预设1/LUT全系打包/繁花仿色lut/709专用/繁花709夜景-2.cube
TITLE "Generated by Resolve"
LUT_3D_SIZE 33
0.0279698 0.0463417 0.0498207
0.031693 0.0471656 0.0502174
0.0359503 0.048188 0.0507362
0.0394903 0.0496529 0.0514382
0.0428321 0.0511177 0.0521706
0.0529183 0.0531167 0.05243
0.0629129 0.0550851 0.0527047
0.0754101 0.0580606 0.052079
0.0880903 0.0610208 0.0513924
0.101167 0.0642405 0.0505531
0.115419 0.0674601 0.049424
0.137865 0.0707561 0.0464485
0.160601 0.0740826 0.0432136
0.185977 0.077409 0.0384833
0.211933 0.0805676 0.0333715
0.238453 0.0826123 0.025803
0.265675 0.0845197 0.0184024
0.294835 0.0849165 0.00993362
0.324483 0.0850843 0.00210575
0.356893 0.0844129 0.00129702
0.389288 0.0831617 0
0.42121 0.0788434 0
0.452964 0.074403 0
0.48072 0.062089 0
0.508537 0.0501717 0
0.536675 0.039765 0
0.564446 0.0291752 0
0.586908 0.028687 0
0.609705 0.0272374 0
0.625834 0.0274662 0
0.641443 0.027863 0
0.65333 0.0283207 0
0.664637 0.0288243 0
0.027039 0.0492561 0.0515145
0.0317998 0.0501717 0.0521248
0.0360418 0.0512398 0.0527504
0.0394293 0.0525368 0.0533608
0.0457771 0.0540322 0.0538643
0.0543374 0.055787 0.0542916
0.0656901 0.05832 0.0541238
0.0791028 0.0612497 0.053727
0.0920882 0.0645304 0.0532235
0.10486 0.0680247 0.0526131
0.123522 0.0715953 0.0507515
0.144411 0.0752422 0.0484779
0.169039 0.0787671 0.0446326
0.195483 0.0822003 0.0402228
0.222065 0.085008 0.0339513
0.249073 0.0877089 0.0270848
0.277699 0.0892042 0.0184329
0.307012 0.0901045 0.00860609
0.338582 0.0905318 0.00418097
0.371374 0.0907759 0.0011902
0.404318 0.0895094 0
0.437186 0.0876326 0
0.467399 0.0809491 0
0.495857 0.0718853 0
0.523445 0.0601358 0
0.550607 0.0454261 0
0.575814 0.0356756 0
0.599908 0.0317998 0
0.620127 0.0294652 0
0.636515 0.0290837 0
0.651087 0.0284886 0
0.662684 0.0288243 0
0.673136 0.0291905 0
0.0250553 0.0530861 0.0534676
0.0307317 0.0539254 0.0540017
0.0351415 0.0551766 0.05449
0.0401465 0.0563821 0.054963
0.0471351 0.0579995 0.055375
0.0549477 0.0597848 0.0557259
0.069276 0.062501 0.0559243
0.0832532 0.0653697 0.0561227
0.0959335 0.0691539 0.0557107
0.110857 0.0730602 0.0551156
0.130694 0.0770886 0.0533608
0.152132 0.0809949 0.0509499
0.178714 0.0846876 0.0467079
0.205539 0.0881819 0.0417487
0.232944 0.0912184 0.0349584
0.260853 0.0937819 0.0274357
0.290211 0.0951858 0.01738
0.320348 0.0965438 0.00891127
0.353429 0.0977951 0.00440986
0.38674 0.0988937 0.000167849
0.420691 0.0989242 0.000213626
0.453712 0.097734 0
0.483101 0.0918441 0
0.5122 0.0854658 0
0.53933 0.0727092 0
0.565988 0.0608988 0
0.589654 0.0501869 0
0.61323 0.0376898 0
0.630426 0.0336461 0
0.647959 0.0289921 0
0.660243 0.0307622 0
0.672251 0.0330663 0
0.681025 0.0348516 0
0.0218357 0.0578622 0.0552071
0.027512 0.0590219 0.0556039
0.0335546 0.0603952 0.0559854
0.0394293 0.06215 0.0564279
0.044831 0.0641337 0.0569619
0.0569162 0.0667124 0.0574197
0.0713664 0.0694285 0.0578164
0.0859693 0.072755 0.0584573
0.100923 0.076112 0.0593881
0.118761 0.0799878 0.0583658
0.136584 0.0839246 0.0569772
0.162081 0.0878614 0.0531624
0.1888 0.0919356 0.0492256
0.216678 0.0956436 0.0431067
0.244739 0.0994125 0.0368048
0.274388 0.10222 0.0276646
0.304158 0.104982 0.0183261
0.336934 0.107408 0.0115969
0.36997 0.109606 0.00424201
0.404044 0.110857 0.00173953
0.438697 0.112169 0.000396735
0.470192 0.110506 0
0.500877 0.108324 3.0518e-05
0.529274 0.100587 0
0.556573 0.0916304 0
0.581949 0.0815747 0
0.605997 0.0714427 0
0.626398 0.0645609 0
0.643488 0.0588388 0
0.65803 0.05449 0
0.670085 0.0517586 0
0.680781 0.049546 0
0.689326 0.0486152 0
0.0127108 0.0651255 0.056733
0.0211032 0.0665751 0.0572824
0.029099 0.068101 0.057847
0.0342565 0.0699321 0.0585031
0.0419623 0.0720226 0.0591135
0.0568551 0.0745251 0.0595712
0.0724346 0.077348 0.0601205
0.0888533 0.080827 0.0608072
0.106386 0.0845045 0.0610208
0.124697 0.0885328 0.0609598
0.146258 0.0925917 0.0597848
0.172869 0.0970474 0.0564889
0.200198 0.101411 0.0519875
0.228916 0.10576 0.0458228
0.258457 0.109819 0.0386358
0.289128 0.113313 0.0296483
0.320684 0.116594 0.0213321
0.353826 0.119448 0.0132448
0.387854 0.122194 0.00686656
0.423224 0.124804 0.00444038
0.457618 0.126772 0.00209049
0.489601 0.126955 0.0010071
0.520897 0.126406 0
0.548867 0.122606 0
0.576211 0.119203 0
0.600137 0.111894 0
0.623346 0.103151 0
0.640864 0.0932784 0
0.658442 0.0852216 0
0.671107 0.082414 0
0.683757 0.0794232 0
0.693049 0.0796216 0
0.702083 0.0796216 0
0.00831617 0.0731823 0.0597238
0.0131838 0.0744793 0.0601663
0.0178988 0.0761883 0.0606394
0.022797 0.0779736 0.0610666
0.0375677 0.080354 0.0613107
0.054551 0.082826 0.0614481
0.073228 0.086183 0.0616922
0.0927749 0.0896315 0.0619059
0.111238 0.0935988 0.0628824
0.129412 0.0975814 0.063798
0.155779 0.102129 0.0619821
0.182406 0.106661 0.060914
0.211994 0.111452 0.0555886
0.242161 0.116442 0.0504311
0.273457 0.120729 0.0416724
0.305272 0.125139 0.0328069
0.33846 0.128954 0.0245975
0.371878 0.132769 0.0157473
0.407584 0.136538 0.0110781
0.44361 0.140505 0.00671397
0.477195 0.142702 0.00474556
0.510826 0.144854 0.00280766
0.540307 0.143984 0.00172427
0.568994 0.142763 0.000411994
0.595026 0.138506 0
0.620493 0.134112 0
0.641093 0.128969 0
0.659754 0.124193 0
0.674586 0.120089 0
0.687129 0.115877 0
0.698222 0.113588 0
0.707973 0.113252 0
0.716411 0.113954 0
0.00354009 0.0812238 0.0627604
0.0062562 0.0825055 0.0629892
0.0103304 0.0842756 0.0632334
0.0187076 0.086244 0.0633555
0.0333257 0.0886244 0.063386
0.0511177 0.0914931 0.0634012
0.0743267 0.095079 0.0634623
0.0955367 0.09897 0.063798
0.113878 0.103166 0.064332
0.137163 0.107485 0.0650187
0.164645 0.111864 0.066041
0.193759 0.116732 0.0638437
0.224796 0.122011 0.0594186
0.256733 0.127108 0.0528878
0.28925 0.132067 0.0442512
0.322454 0.136767 0.0356909
0.356771 0.141207 0.0261997
0.391699 0.145968 0.0196078
0.427939 0.150973 0.01561
0.463462 0.155261 0.0117952
0.49836 0.158953 0.00860609
0.531548 0.161364 0.00560006
0.56083 0.161608 0.00331121
0.589456 0.161242 0.00158694
0.615732 0.158984 0.0009308
0.640818 0.156695 0
0.660761 0.153262 0
0.679988 0.150576 0
0.693538 0.148806 0
0.706828 0.147631 0
0.716716 0.148592 0
0.726528 0.149722 0
0.733745 0.153552 0
0.000411994 0.0890822 0.065507
0.00230411 0.0907759 0.065507
0.00427253 0.092546 0.0655833
0.0155489 0.0949874 0.0657816
0.0260929 0.0973526 0.0659953
0.0516518 0.100816 0.0660105
0.0769818 0.104265 0.0660563
0.0969253 0.108583 0.0662089
0.11812 0.112856 0.0663005
0.144869 0.117266 0.0675364
0.17232 0.121828 0.0684215
0.205325 0.127153 0.0659342
0.238773 0.132494 0.0635843
0.271962 0.138384 0.0552834
0.305608 0.144457 0.047364
0.340673 0.149966 0.0383001
0.375647 0.155459 0.0296483
0.412192 0.161105 0.0255589
0.448722 0.16669 0.020676
0.484825 0.171023 0.01738
0.520912 0.17554 0.0140688
0.552087 0.177157 0.0107424
0.583032 0.178882 0.00715648
0.610636 0.178866 0.00416571
0.6383 0.179248 0.000839246
0.661067 0.178836 0.000976577
0.682918 0.178149 0.0010071
0.699413 0.177234 0.000717174
0.714015 0.176379 0.000244144
0.725765 0.17612 0
0.736004 0.176242 0
0.744823 0.1776 0
0.752529 0.180102 0
0.000427253 0.0990768 0.0682994
0.00106813 0.100633 0.0684672
0.00483711 0.102419 0.0687419
0.0109712 0.10454 0.0690776
0.0281529 0.107149 0.0691539
0.0529641 0.110536 0.0689097
0.0753033 0.114885 0.068513
0.0988022 0.119722 0.0680095
0.124147 0.124819 0.0681315
0.149691 0.130068 0.0683452
0.181491 0.135637 0.0677501
0.217258 0.141176 0.0674449
0.252735 0.147127 0.0632334
0.28809 0.153368 0.0574044
0.324193 0.159365 0.0503548
0.359899 0.16527 0.0425116
0.396521 0.171267 0.0364385
0.433845 0.17789 0.0311742
0.471443 0.184039 0.0272068
0.509041 0.189929 0.024445
0.543832 0.194461 0.0214237
0.57612 0.197787 0.0179904
0.606714 0.200275 0.0146944
0.635035 0.201556 0.01149
0.661265 0.20238 0.00854505
0.684321 0.202365 0.00578317
0.705303 0.202167 0.00283818
0.720531 0.201724 0.00132753
0.735119 0.201846 0.000686656
0.746197 0.202716 0.00164797
0.757015 0.203738 0.00209049
0.76527 0.206332 0.00234989
0.773556 0.20882 0.00227359
0.000122072 0.111223 0.0714275
0.000411994 0.112947 0.0715801
0.00407416 0.115297 0.0717632
0.00903334 0.117769 0.0718395
0.0265812 0.120943 0.071397
0.044007 0.124331 0.0708782
0.0730755 0.129122 0.0699779
0.102007 0.13402 0.0690318
0.126619 0.13991 0.0680095
0.153918 0.146075 0.0673533
0.190997 0.151949 0.0677348
0.227848 0.158221 0.0664836
0.265843 0.165286 0.0615549
0.304494 0.172244 0.0571145
0.342947 0.179583 0.0506447
0.382116 0.186938 0.0449073
0.421225 0.193881 0.0419165
0.460319 0.200626 0.0390936
0.498283 0.206897 0.0366979
0.536294 0.213062 0.0341955
0.569512 0.217578 0.0307622
0.603464 0.222644 0.0277104
0.632868 0.225345 0.0244602
0.66215 0.228199 0.0211643
0.686793 0.229374 0.0179446
0.711162 0.23035 0.0145266
0.728954 0.230976 0.0129244
0.745815 0.23154 0.0112764
0.758526 0.232319 0.010132
0.770031 0.233097 0.00872816
0.779507 0.234775 0.0075227
0.787869 0.236728 0.00628672
0.795453 0.239948 0.00669871
0 0.125368 0.074342
0.000823987 0.127718 0.074342
0.0019379 0.130388 0.074342
0.0096437 0.133761 0.0739605
0.0188754 0.137301 0.0735027
0.0408484 0.142123 0.0724041
0.066392 0.147311 0.070985
0.093843 0.153475 0.0694896
0.123339 0.159976 0.0679637
0.159045 0.166354 0.066041
0.19649 0.172641 0.0636301
0.237858 0.179385 0.0611887
0.280949 0.186587 0.058854
0.322271 0.194705 0.0537728
0.363912 0.203372 0.0476997
0.40502 0.211826 0.045716
0.446128 0.220172 0.0464485
0.486915 0.228092 0.0466773
0.527535 0.235599 0.0471351
0.56527 0.241978 0.0460365
0.60087 0.247608 0.0438087
0.63328 0.251957 0.04094
0.66273 0.255207 0.0373236
0.690181 0.257771 0.0336767
0.715602 0.259663 0.0302434
0.738125 0.261372 0.0274357
0.756542 0.262654 0.0252384
0.773007 0.263767 0.0231937
0.785229 0.264942 0.0219272
0.796765 0.266468 0.0208591
0.805798 0.26894 0.0207523
0.814527 0.271626 0.0207523
0.821378 0.275486 0.0217136
4.57771e-05 0.142931 0.0769207
0.000259403 0.145693 0.0768902
0.00129702 0.14873 0.0767834
0.00494392 0.152453 0.0764019
0.01355 0.156512 0.0755627
0.0337224 0.161669 0.0737316
0.0559091 0.16733 0.071809
0.0883192 0.174212 0.0695964
0.122759 0.181216 0.0667277
0.160937 0.188449 0.0628519
0.201587 0.195911 0.0583047
0.247181 0.203632 0.0521859
0.292973 0.211902 0.0461738
0.338079 0.221439 0.0422827
0.383642 0.23093 0.0412909
0.428199 0.240589 0.0472114
0.472068 0.249897 0.0518807
0.514977 0.25835 0.0548562
0.557443 0.266468 0.0578317
0.595666 0.272969 0.0568551
0.633631 0.279149 0.0563668
0.664714 0.283284 0.053727
0.696269 0.287465 0.0513771
0.722728 0.289876 0.0480812
0.749554 0.292638 0.0449073
0.768902 0.294453 0.0423743
0.788083 0.296193 0.0396735
0.801373 0.297734 0.0380407
0.814404 0.299199 0.0366217
0.824674 0.301259 0.0361181
0.834455 0.303731 0.0359503
0.842725 0.307103 0.0365759
0.850324 0.310918 0.037583
0 0.161379 0.07953
0 0.164233 0.07953
0.00123598 0.16788 0.079118
0.00228885 0.171786 0.0786603
0.0115663 0.176699 0.0768902
0.0200504 0.181888 0.0748455
0.0498817 0.1888 0.071809
0.082475 0.195895 0.0684672
0.120958 0.203861 0.0633249
0.162005 0.212055 0.0577859
0.208515 0.220417 0.0492103
0.256138 0.229023 0.040116
0.303792 0.239033 0.0366979
0.352224 0.249454 0.0334936
0.399542 0.259953 0.0388037
0.446998 0.270649 0.045594
0.494331 0.280659 0.052842
0.542611 0.290562 0.0614023
0.586252 0.298436 0.0655222
0.629206 0.305974 0.0686198
0.665095 0.311635 0.068101
0.698619 0.316701 0.066804
0.728634 0.3205 0.0646982
0.756817 0.323781 0.0621958
0.781079 0.326284 0.0598154
0.802228 0.328496 0.0574502
0.819944 0.330236 0.0554513
0.833722 0.331823 0.0539559
0.846296 0.33373 0.052842
0.856184 0.336019 0.0523232
0.86569 0.338888 0.0522316
0.873564 0.342718 0.0531167
0.881773 0.347051 0.0543069
0 0.180194 0.0820325
3.0518e-05 0.183459 0.0817884
0.000137331 0.18761 0.0811322
0.0021973 0.192203 0.0798199
0.00665293 0.197559 0.0776074
0.0186923 0.203708 0.0745708
0.0394293 0.211017 0.0704814
0.0698711 0.218814 0.0651102
0.116365 0.227558 0.0583047
0.164767 0.236698 0.0497292
0.214313 0.246281 0.0389563
0.264744 0.25658 0.0313878
0.315618 0.267704 0.0275883
0.366262 0.279149 0.0279545
0.416083 0.290837 0.0354162
0.466468 0.302266 0.043534
0.516945 0.313191 0.0538338
0.566659 0.32372 0.0629892
0.613581 0.332525 0.0693675
0.6589 0.34078 0.0752422
0.696147 0.346426 0.0769207
0.732754 0.351995 0.0787976
0.762707 0.355245 0.0778668
0.792432 0.358877 0.0770733
0.81503 0.361608 0.0746319
0.838407 0.364614 0.0728618
0.853361 0.366506 0.0713512
0.868666 0.368353 0.0700389
0.879927 0.370932 0.0696422
0.890669 0.37322 0.0692149
0.899611 0.376761 0.0698711
0.908125 0.380499 0.0707561
0.915419 0.384787 0.0721752
0 0.199512 0.0838483
1.5259e-05 0.203494 0.0831922
0 0.207813 0.0825666
0.000793469 0.213519 0.080354
0.00148013 0.219287 0.0782025
0.0133364 0.226749 0.0734569
0.0235142 0.234287 0.0686961
0.0641031 0.243595 0.0604562
0.100725 0.252872 0.0521859
0.158236 0.263493 0.0401007
0.218479 0.27425 0.027863
0.271839 0.286442 0.0225528
0.325933 0.298909 0.0160067
0.379538 0.31107 0.0229648
0.433524 0.323445 0.0303197
0.486473 0.335637 0.0419928
0.538811 0.347677 0.0536507
0.590036 0.358297 0.0632486
0.641642 0.368933 0.073167
0.684672 0.376715 0.0784161
0.726787 0.384237 0.0835737
0.762509 0.389883 0.0859846
0.796597 0.394736 0.087953
0.825406 0.398337 0.0885023
0.851804 0.401236 0.0884565
0.872847 0.403708 0.0882734
0.889632 0.405356 0.0876326
0.903746 0.407385 0.0869306
0.915099 0.410117 0.0863203
0.925582 0.413062 0.0862135
0.934585 0.417166 0.0869306
0.943084 0.42121 0.0878462
0.950515 0.426398 0.0895399
0 0.221256 0.0843366
0 0.225681 0.08365
0.000122072 0.230838 0.0823529
0.000289921 0.236698 0.0804303
0.00288396 0.243534 0.0768292
0.00628672 0.251194 0.07187
0.0214542 0.259876 0.0642863
0.0464637 0.269841 0.0538338
0.0942092 0.280735 0.0415198
0.159152 0.292561 0.0276646
0.219211 0.305257 0.0182345
0.277821 0.319036 0.0125277
0.335164 0.332799 0.0132753
0.390372 0.346777 0.0192111
0.445701 0.359838 0.0272679
0.500954 0.372 0.0380407
0.556497 0.383856 0.0491646
0.611948 0.395483 0.0614786
0.664805 0.406226 0.0727245
0.71194 0.415579 0.0812085
0.756054 0.424506 0.0881514
0.793317 0.430915 0.0920272
0.829313 0.437049 0.0959335
0.858274 0.441108 0.0974441
0.887037 0.44509 0.0995346
0.906325 0.447776 0.0999619
0.926131 0.450233 0.100862
0.938643 0.452155 0.101061
0.951553 0.453925 0.101518
0.961364 0.457359 0.102495
0.970962 0.460456 0.103456
0.977584 0.465064 0.10454
0.982513 0.470405 0.105577
0 0.244495 0.0842756
0 0.249119 0.0834363
0 0.255497 0.081178
0.000106813 0.261845 0.0787823
0.0016022 0.269993 0.0727092
0.00437934 0.27837 0.0660258
0.021622 0.28867 0.0534676
0.0412451 0.299214 0.0405737
0.0984817 0.311559 0.0267491
0.153353 0.324269 0.0138399
0.219715 0.338781 0.00956741
0.286137 0.353719 0.00593576
0.343114 0.369223 0.0104829
0.400488 0.384665 0.0145724
0.456962 0.39794 0.0240177
0.514015 0.411749 0.0328069
0.571984 0.424338 0.04477
0.630396 0.436912 0.0564126
0.682994 0.447807 0.0671092
0.736217 0.45919 0.078294
0.779812 0.467597 0.0863966
0.822644 0.475883 0.0948806
0.858564 0.48188 0.100725
0.892287 0.48716 0.105455
0.917693 0.490837 0.107698
0.940261 0.494011 0.109483
0.957565 0.496681 0.110674
0.971176 0.498985 0.111513
0.981338 0.501869 0.112505
0.986938 0.505501 0.113497
0.991135 0.50927 0.114687
0.994095 0.513863 0.115999
0.996414 0.518547 0.117433
0 0.269535 0.083238
0 0.275059 0.0814832
0 0.281422 0.0789349
9.15541e-05 0.288975 0.0735485
0.000198367 0.297505 0.0664683
0.00679026 0.307515 0.0547189
0.0154879 0.318486 0.0404974
0.0469825 0.331014 0.0276799
0.0873732 0.344472 0.0155337
0.14815 0.359197 0.0089723
0.22298 0.374868 0.0049897
0.288533 0.391028 0.00517281
0.348913 0.407965 0.00747692
0.40824 0.423728 0.0125429
0.46688 0.439399 0.019089
0.526619 0.453452 0.028275
0.587091 0.466255 0.0391394
0.645457 0.479072 0.050309
0.702586 0.491524 0.0622263
0.755337 0.50277 0.0729229
0.80148 0.512474 0.0823987
0.845151 0.521324 0.0911116
0.882841 0.528176 0.0982376
0.91812 0.534585 0.105058
0.94519 0.538872 0.109712
0.971405 0.543145 0.114656
0.986954 0.545769 0.117357
0.999893 0.54818 0.119432
1 0.550698 0.119738
1 0.553063 0.120241
1 0.556939 0.120409
1 0.560876 0.120684
1 0.566094 0.120867
1.5259e-05 0.295171 0.0799878
3.0518e-05 0.301808 0.0771649
6.10361e-05 0.308721 0.0737163
0.000122072 0.317296 0.0661631
0.000915541 0.326574 0.0571756
0.00375372 0.337942 0.0420539
0.0113985 0.34995 0.0278477
0.0394293 0.364004 0.0168765
0.0748302 0.3785 0.00723278
0.148287 0.39472 0.00433356
0.217838 0.411231 0.00216678
0.28661 0.428763 0.00386053
0.357031 0.44654 0.0059205
0.416297 0.463279 0.0108949
0.475944 0.480278 0.0157778
0.537423 0.494835 0.0245518
0.599588 0.510094 0.0329137
0.660792 0.523293 0.0442664
0.72285 0.536431 0.0554208
0.773297 0.547204 0.0665599
0.824384 0.558145 0.0775464
0.865995 0.566201 0.0865034
0.907393 0.574289 0.0954452
0.939559 0.579629 0.101991
0.970138 0.585 0.108309
0.986526 0.588495 0.112062
0.996536 0.591257 0.115084
1 0.593866 0.11693
1 0.596262 0.118135
1 0.599542 0.119097
1 0.603601 0.119783
1 0.607553 0.119829
1 0.611856 0.119341
7.62951e-05 0.321141 0.0755169
0.000106813 0.327657 0.0721447
0.00015259 0.33547 0.0653697
0.000213626 0.344259 0.0570993
0.00108339 0.355062 0.0441138
0.00190738 0.366781 0.0294804
0.0151827 0.380972 0.0183108
0.0298161 0.396262 0.00750744
0.0778821 0.412894 0.00328069
0.1337 0.430182 0.00151064
0.209461 0.448234 0.00181582
0.29427 0.466361 0.00271611
0.361624 0.484092 0.00529488
0.423316 0.501961 0.00825513
0.485679 0.518669 0.0139162
0.548058 0.534783 0.0206607
0.610849 0.549905 0.0294499
0.675059 0.564385 0.0395209
0.733822 0.577676 0.0497292
0.789654 0.589807 0.0604715
0.840604 0.600397 0.0707256
0.886152 0.609827 0.0806439
0.927199 0.618235 0.0897688
0.959838 0.62414 0.0974594
0.985687 0.628855 0.104082
0.993408 0.631434 0.107485
1 0.633997 0.110597
1 0.635752 0.111604
1 0.637736 0.112642
1 0.641016 0.112795
1 0.644297 0.113024
1 0.648478 0.112642
1 0.652659 0.112276
0.000167849 0.345693 0.0704204
0.000198367 0.352697 0.0655833
0.000259403 0.361227 0.0560769
0.000350958 0.370718 0.045243
0.000503548 0.382269 0.0307774
0.00337224 0.394965 0.0180819
0.0113222 0.410407 0.00926223
0.0299992 0.42649 0.00303655
0.0736248 0.44387 0.00198367
0.127642 0.461936 0.00115969
0.216068 0.48101 0.00177005
0.297581 0.50016 0.00267033
0.36556 0.519478 0.00437934
0.433234 0.538582 0.00662242
0.495552 0.556283 0.0115358
0.557702 0.573434 0.0169528
0.623316 0.589029 0.0258183
0.688212 0.604852 0.0344396
0.747066 0.617502 0.0448768
0.806989 0.630732 0.0550698
0.854734 0.640314 0.0650187
0.903227 0.649882 0.074876
0.939223 0.656764 0.0832074
0.974807 0.663691 0.0915084
0.988006 0.667384 0.0962997
0.997589 0.670985 0.100557
1 0.673487 0.102708
1 0.67541 0.104189
1 0.677699 0.104936
1 0.680354 0.105241
1 0.683238 0.105165
1 0.686229 0.104707
1 0.689204 0.104173
0.000259403 0.367056 0.0612497
0.000320439 0.37496 0.0525978
0.000381476 0.383627 0.0423133
0.000488289 0.39498 0.0300908
0.000579843 0.406912 0.0176852
0.0024567 0.422202 0.0102541
0.0040589 0.437934 0.00331121
0.0314336 0.455756 0.00175479
0.0601511 0.473854 0.000976577
0.134966 0.493095 0.0011902
0.213977 0.512596 0.00158694
0.291295 0.532479 0.00259403
0.372168 0.55259 0.00361639
0.439429 0.571542 0.00654612
0.502464 0.590219 0.0096437
0.567529 0.607874 0.0156252
0.633433 0.625345 0.0224002
0.697688 0.641276 0.0308995
0.761807 0.656413 0.0402228
0.817731 0.668574 0.0498054
0.869123 0.678889 0.0595254
0.913802 0.688014 0.0685893
0.951568 0.695384 0.0771801
0.978973 0.701671 0.0840925
0.991104 0.705913 0.0888228
1 0.709422 0.0927443
1 0.711421 0.0944686
1 0.713466 0.0959487
1 0.715297 0.0964523
1 0.716686 0.0969711
1 0.718791 0.0966354
1 0.720607 0.0963455
1 0.723339 0.0957198
0.000366217 0.388144 0.0489967
0.000427253 0.39675 0.0393225
0.000503548 0.406363 0.0301671
0.000564584 0.418235 0.0205997
0.000976577 0.431601 0.0126192
0.00170901 0.447456 0.00630198
0.0100404 0.464454 0.00189212
0.0278935 0.483223 0.00120546
0.0636149 0.502617 0.000869764
0.128206 0.522972 0.00115969
0.201068 0.543481 0.0016022
0.295384 0.564172 0.00230411
0.380514 0.584772 0.00349432
0.445075 0.604059 0.00550851
0.510567 0.623102 0.00842298
0.576074 0.641245 0.0138552
0.641596 0.659205 0.0196689
0.707393 0.676051 0.0280919
0.771664 0.69247 0.0363165
0.826932 0.704692 0.0454108
0.882231 0.717372 0.0542306
0.923308 0.72575 0.0627146
0.965621 0.734646 0.0711986
0.981491 0.739361 0.0767224
0.997894 0.744518 0.0822614
1 0.746578 0.0848096
1 0.748592 0.0869459
1 0.749798 0.0879377
1 0.750347 0.0886397
1 0.751431 0.0887007
1 0.752575 0.0884718
1 0.754177 0.0880903
1 0.756527 0.0874952
0.00047303 0.409216 0.0358129
0.000534066 0.417517 0.0281529
0.000595102 0.428794 0.0209506
0.000640879 0.440299 0.0134279
0.00077821 0.455726 0.00784314
0.000900282 0.471351 0.00196841
0.010193 0.49012 0.00120546
0.0180362 0.509255 0.000717174
0.0679026 0.529946 0.0009308
0.115816 0.550698 0.00114443
0.209613 0.572259 0.00169375
0.30779 0.594232 0.00224308
0.380911 0.614908 0.00337224
0.452811 0.635767 0.00436408
0.519005 0.655039 0.00769055
0.583993 0.673701 0.0112917
0.650645 0.691951 0.0178225
0.71812 0.710246 0.024918
0.778973 0.725292 0.0330053
0.838056 0.739605 0.0414893
0.88809 0.751186 0.0497902
0.934081 0.761028 0.0581674
0.966354 0.769085 0.0650797
0.987457 0.775326 0.0710918
1 0.78027 0.0755016
1 0.782696 0.077821
1 0.784665 0.0796063
1 0.784176 0.080415
1 0.783841 0.0810559
1 0.783932 0.0810712
1 0.78436 0.0809949
1 0.786068 0.0806287
1 0.787564 0.080293
0.000564584 0.428031 0.0269017
0.000610361 0.43743 0.0202945
0.000656138 0.448875 0.0131533
0.000717174 0.462257 0.00717174
0.00077821 0.478035 0.00300603
0.00222782 0.495644 0.00114443
0.00469978 0.514656 0.000946059
0.0251469 0.534371 0.00077821
0.0619059 0.5552 0.0009308
0.123629 0.576471 0.00122072
0.214069 0.598581 0.00167849
0.298558 0.620523 0.00228885
0.381598 0.642115 0.00308232
0.459983 0.663111 0.00459297
0.525673 0.682734 0.00701915
0.592218 0.702434 0.0104219
0.660075 0.722087 0.0161135
0.725963 0.741009 0.0220798
0.787808 0.757687 0.0298466
0.8477 0.772747 0.0377508
0.897108 0.783322 0.0459602
0.944945 0.793912 0.0538643
0.970535 0.800595 0.0603799
0.997635 0.807935 0.0669108
0.998672 0.810529 0.069749
0.999847 0.813413 0.0726024
1 0.813687 0.0736248
1 0.813504 0.074403
1 0.813764 0.0744945
1 0.813901 0.0744488
1 0.814954 0.0741894
1 0.81593 0.0739605
1 0.816785 0.0737926
0.00062562 0.44445 0.0164645
0.000671397 0.455238 0.01149
0.000717174 0.466056 0.00726329
0.000762951 0.481025 0.00480659
0.000823987 0.49572 0.00167849
0.00184634 0.514839 0.00123598
0.00325017 0.533913 0.000686656
0.0278019 0.55552 0.000793469
0.0494545 0.576974 0.000900282
0.127489 0.600198 0.0012665
0.202075 0.623026 0.0016022
0.298344 0.645029 0.00222782
0.396185 0.667369 0.00283818
0.465354 0.687419 0.00440986
0.533349 0.707515 0.00588998
0.600992 0.727062 0.0101472
0.668086 0.746609 0.0144045
0.733196 0.764706 0.021088
0.797681 0.78291 0.0280461
0.853986 0.797116 0.0355993
0.907698 0.810269 0.0432746
0.947372 0.820615 0.0503243
0.979843 0.829541 0.057023
0.995407 0.835233 0.0617838
0.998016 0.838331 0.0651865
1 0.839857 0.0675669
1 0.839307 0.0685435
1 0.838651 0.069276
1 0.838087 0.069398
1 0.837659 0.0694743
1 0.838331 0.069337
1 0.839048 0.0691844
1 0.840635 0.0688487
0.000701915 0.460365 0.0108492
0.000732433 0.470832 0.0080415
0.000762951 0.482994 0.00547799
0.000793469 0.496864 0.00267033
0.000869764 0.513191 0.00108339
0.000961318 0.531487 0.000793469
0.00985733 0.551369 0.000717174
0.0234073 0.572457 0.000793469
0.0663005 0.594598 0.000991836
0.129107 0.617472 0.00128176
0.211933 0.640665 0.00172427
0.31339 0.664134 0.00228885
0.4 0.68658 0.00309758
0.47068 0.707988 0.00401312
0.5411 0.729137 0.00596628
0.608591 0.748684 0.00920119
0.675181 0.767865 0.0135042
0.741375 0.786648 0.0198062
0.804868 0.804196 0.0263371
0.861601 0.818418 0.0338903
0.914519 0.832044 0.0412604
0.950591 0.841581 0.0482185
0.984314 0.85095 0.0548409
0.991485 0.855604 0.0586404
1 0.860426 0.062623
1 0.860365 0.0636759
1 0.860502 0.064744
1 0.860014 0.0649577
1 0.85893 0.0651713
1 0.858793 0.0652018
