LUT预设1/LUT全系打包/繁花仿色lut/709专用/繁花白天709.cube
TITLE "Generated by Resolve"
LUT_3D_SIZE 33
0.0273136 0.0463264 0.0506294
0.0309148 0.0471351 0.0510872
0.0350652 0.048127 0.0516518
0.0380407 0.0495308 0.0523995
0.0408179 0.0509346 0.0531624
0.0500343 0.0527657 0.0535286
0.0590982 0.054551 0.0539101
0.0715343 0.0572824 0.0531472
0.0840772 0.0599985 0.052369
0.0961776 0.0630655 0.0515755
0.109392 0.0661021 0.0504921
0.130526 0.0690776 0.0476234
0.15201 0.0720836 0.0445411
0.176806 0.0750286 0.0399176
0.20209 0.0777752 0.0349126
0.227802 0.079408 0.0275425
0.254154 0.0808118 0.0202487
0.281941 0.0802319 0.0110933
0.310246 0.0794842 0.00265507
0.341558 0.0777295 0.0016022
0.372992 0.0754864 0
0.40531 0.0715953 0
0.43743 0.0676127 0
0.466178 0.0559548 0
0.495018 0.0446632 0
0.523552 0.0343938 0
0.552148 0.0238499 0
0.577539 0.0211032 0
0.603021 0.0175784 0
0.621302 0.0171206 0
0.639078 0.0168307 0
0.652689 0.0169985 0
0.665675 0.0172885 0
0.0258793 0.0493019 0.0524605
0.0305638 0.0501717 0.0530861
0.0346075 0.051194 0.0537423
0.037644 0.05243 0.0543984
0.0432288 0.0538186 0.0549477
0.0505379 0.0554208 0.055436
0.0613718 0.0577249 0.0552987
0.0746319 0.0603494 0.0548714
0.0869917 0.0634318 0.0543984
0.09897 0.066743 0.0537728
0.11635 0.0700847 0.0520333
0.135607 0.0734722 0.049958
0.159197 0.0766003 0.0462348
0.184787 0.0796063 0.0419013
0.21062 0.0819867 0.0358587
0.236988 0.0843061 0.0293278
0.264424 0.0850385 0.020264
0.292256 0.0850843 0.00973526
0.322423 0.0842908 0.00489815
0.353765 0.0830701 0.00140383
0.386389 0.0813306 0
0.419516 0.0793622 0
0.450507 0.0734874 0
0.480018 0.0659648 0
0.508782 0.0551308 0
0.537392 0.0408026 0
0.564569 0.0301061 0
0.590875 0.0242771 0
0.613367 0.020676 0
0.632059 0.0193332 0
0.648798 0.0179141 0
0.662257 0.0178073 0
0.674418 0.017792 0
0.023209 0.0532082 0.0545052
0.0287175 0.0540017 0.0550851
0.0330205 0.0551919 0.0556344
0.0379187 0.0563211 0.0561532
0.0437018 0.0578012 0.0566262
0.0504921 0.0594186 0.057023
0.064332 0.0618448 0.0572518
0.0777447 0.0644236 0.0574807
0.0898756 0.0680247 0.0569924
0.103944 0.0717174 0.0563821
0.122042 0.0755016 0.0548867
0.141985 0.079118 0.0527047
0.167422 0.0823987 0.0485847
0.19321 0.0854658 0.0438239
0.220035 0.0881208 0.0374762
0.247135 0.0901503 0.0301061
0.274952 0.0906691 0.0194553
0.303487 0.0910201 0.0106355
0.334905 0.0907454 0.00529488
0.366949 0.090547 3.0518e-05
0.401053 0.0899214 4.57771e-05
0.434287 0.0884565 0
0.464775 0.084123 0
0.495048 0.0790417 0
0.523659 0.0675669 0
0.551858 0.0571145 0
0.578027 0.0455634 0
0.604196 0.032517 0
0.62388 0.0266117 0
0.643992 0.0198825 0
0.658198 0.0207828 0
0.672084 0.0224155 0
0.682399 0.0240024 0
0.0191501 0.0580606 0.0563973
0.0246738 0.0591592 0.0568704
0.0307012 0.0604715 0.0573281
0.0358129 0.0621195 0.0578317
0.0401312 0.0639811 0.0584268
0.0512551 0.0663615 0.0589151
0.0647288 0.0688792 0.0593271
0.0788739 0.0719615 0.0598306
0.0936599 0.0750591 0.0605631
0.110231 0.078645 0.0598306
0.126635 0.0823377 0.0587778
0.150591 0.085893 0.0551308
0.175753 0.0895247 0.0514229
0.202838 0.0927749 0.0458076
0.230152 0.0961166 0.0400702
0.258427 0.0980545 0.0304875
0.286809 0.0999619 0.0207218
0.317937 0.100923 0.0124208
0.349218 0.101534 0.00291447
0.382696 0.101686 0.000595102
0.416907 0.101869 0.000167849
0.44918 0.100649 0
0.481147 0.099382 0
0.510887 0.0933547 0
0.539544 0.0861524 0
0.567025 0.0763714 0
0.593515 0.0660563 0
0.616541 0.0583963 0
0.636591 0.0515297 0
0.653712 0.0463417 0
0.667842 0.0427863 0
0.680461 0.0398413 0
0.690669 0.0383612 0
0.00967422 0.0654307 0.0581979
0.0174105 0.066804 0.0588083
0.024506 0.0682536 0.0594186
0.0289311 0.0699779 0.0601663
0.035584 0.071931 0.0608072
0.0490883 0.0742657 0.061265
0.0636454 0.0768597 0.0617685
0.0800031 0.0800946 0.0623331
0.0969863 0.0835431 0.0624704
0.113939 0.0873274 0.0623484
0.134142 0.0910353 0.0613107
0.159274 0.0949264 0.0586557
0.185336 0.0987411 0.0547799
0.213031 0.102586 0.0491188
0.241474 0.105959 0.0419471
0.270893 0.108583 0.0326085
0.300984 0.110719 0.0232853
0.332372 0.11191 0.0123445
0.364996 0.113085 0.00421149
0.399603 0.11426 0.00213626
0.433738 0.115236 0
0.466758 0.115572 0
0.499138 0.115297 0
0.528572 0.112657 0
0.557626 0.110307 0
0.584009 0.103975 0
0.60972 0.0959793 0
0.630503 0.0857557 0
0.651316 0.0773632 0
0.666255 0.0735943 0
0.681315 0.0697337 0
0.692271 0.068986 0
0.702953 0.0679789 0
0.00608835 0.0736095 0.0614328
0.0102541 0.074815 0.0619211
0.0135348 0.0764172 0.0624704
0.0164797 0.0780499 0.0629282
0.02916 0.0802472 0.0632639
0.0437934 0.0825055 0.0635386
0.0623178 0.0857099 0.0636606
0.0819562 0.0889906 0.0637675
0.099382 0.0927138 0.0644846
0.116625 0.0964981 0.0651408
0.141375 0.100465 0.0638132
0.166278 0.104417 0.0631113
0.194842 0.108553 0.0584573
0.224048 0.11284 0.0540169
0.254032 0.116243 0.0451972
0.284474 0.119799 0.0365148
0.31603 0.12192 0.0251469
0.347799 0.123934 0.0129854
0.382376 0.125978 0.00743114
0.417334 0.128054 0.00134279
0.451423 0.129747 0.000411994
0.485832 0.131456 0.000106813
0.516777 0.131273 0
0.547127 0.130953 0
0.575296 0.127504 0
0.602991 0.123857 0
0.626642 0.119112 0
0.648737 0.114611 0
0.666575 0.110414 0
0.681819 0.105608 0
0.695048 0.102159 0
0.706371 0.100237 0
0.716228 0.0994736 0
0.00228885 0.0817578 0.0647288
0.00401312 0.082948 0.0650492
0.00608835 0.0845808 0.0653544
0.0120394 0.0863813 0.065568
0.0231785 0.0885023 0.0657511
0.0388495 0.0911269 0.0658732
0.0617227 0.0944381 0.06598
0.0822919 0.0981308 0.0661784
0.0999924 0.102296 0.066331
0.122042 0.10631 0.0668498
0.14757 0.110124 0.0678416
0.175204 0.114336 0.0660868
0.205219 0.118776 0.062623
0.235966 0.122972 0.0567025
0.26714 0.127047 0.0487678
0.298848 0.130388 0.0389868
0.331441 0.132891 0.0262303
0.364889 0.135775 0.0163882
0.399847 0.13875 0.00823987
0.434867 0.141573 0.00263981
0.470405 0.144503 0.0012665
0.504692 0.146593 4.57771e-05
0.535698 0.147372 4.57771e-05
0.566155 0.147601 0
0.594568 0.14609 0
0.622095 0.144366 0
0.645441 0.141039 0
0.667979 0.138247 0
0.684367 0.135729 0
0.700465 0.133745 0
0.712093 0.133242 0
0.72369 0.132937 0
0.731991 0.135286 0
0.00015259 0.0897993 0.0678874
0.000640879 0.0913558 0.0679942
0.0011902 0.0929885 0.0681315
0.0081178 0.095201 0.068452
0.0141756 0.0973526 0.0687877
0.0383154 0.100481 0.068925
0.0616922 0.103593 0.0690776
0.0814679 0.107805 0.0689708
0.102434 0.11191 0.0688334
0.126848 0.11606 0.0695048
0.152056 0.120378 0.0698405
0.1841 0.12462 0.0684215
0.216617 0.128832 0.0671092
0.248386 0.133822 0.0601053
0.28072 0.138903 0.0531014
0.314107 0.142519 0.0407263
0.347417 0.146242 0.0293889
0.382635 0.149737 0.0204166
0.417746 0.153079 0.0106203
0.454307 0.15642 0.00642405
0.490852 0.159792 0.000991836
0.523629 0.161624 0.000335698
0.556283 0.163592 3.0518e-05
0.58587 0.163851 0
0.615503 0.164401 0
0.641352 0.164096 0
0.66659 0.163485 0
0.68629 0.162341 0
0.704158 0.161166 0
0.718379 0.160159 0
0.730663 0.159304 0
0.741131 0.15964 0
0.750134 0.161044 0
9.15541e-05 0.100008 0.070985
0.000213626 0.101442 0.0712749
0.00154116 0.103059 0.0716564
0.00325017 0.104997 0.0721141
0.016495 0.107317 0.072343
0.0373388 0.110307 0.072282
0.0580606 0.114351 0.071931
0.081239 0.118898 0.0714427
0.10486 0.123873 0.0711681
0.128267 0.129137 0.0708324
0.158236 0.134157 0.0703441
0.192035 0.138964 0.0701305
0.226291 0.143847 0.0667582
0.261112 0.148699 0.0623636
0.296193 0.153002 0.0542611
0.330419 0.157153 0.044419
0.365576 0.161044 0.034699
0.401389 0.165301 0.0239719
0.438422 0.169665 0.0155642
0.47631 0.174151 0.00917067
0.512123 0.177966 0.00547799
0.546197 0.181353 0.0037232
0.578576 0.183948 0.0019379
0.608728 0.18555 0.000869764
0.637339 0.186633 0
0.663737 0.186725 0
0.688121 0.186572 0
0.70695 0.185916 0
0.72491 0.185718 0
0.738186 0.18584 0
0.751186 0.186145 0
0.760876 0.187716 0
0.770642 0.189227 0
1.5259e-05 0.112413 0.074403
6.10361e-05 0.114031 0.0746777
0.000717174 0.116213 0.0749981
0.0027924 0.118502 0.0752575
0.0144656 0.121279 0.0750591
0.0264286 0.124269 0.0747845
0.0537575 0.128603 0.0741283
0.0806439 0.13315 0.0733806
0.103639 0.139162 0.0721752
0.129015 0.145251 0.0713207
0.163363 0.150744 0.0712596
0.197925 0.156481 0.0700542
0.235325 0.162112 0.0662852
0.273198 0.167605 0.0620432
0.310491 0.172976 0.0530404
0.348623 0.178195 0.0445106
0.386542 0.18265 0.0357824
0.424689 0.186954 0.0273747
0.462928 0.191455 0.0219425
0.501167 0.195895 0.0168765
0.536065 0.200259 0.0120851
0.571786 0.205051 0.00741588
0.603067 0.208103 0.00622568
0.634379 0.211261 0.00444038
0.66215 0.212589 0.00306706
0.689693 0.213748 0.000671397
0.711101 0.214328 0.000122072
0.731731 0.214878 1.5259e-05
0.747265 0.215259 0
0.76141 0.215579 0
0.772824 0.216495 0
0.782788 0.217502 0
0.791547 0.219669 0
3.0518e-05 0.126879 0.0776226
3.0518e-05 0.129076 0.0778058
4.57771e-05 0.131579 0.0780194
0.00326543 0.134646 0.0779431
0.0068513 0.137819 0.0778821
0.0244907 0.142168 0.0771344
0.0451667 0.146822 0.0760662
0.0695048 0.152743 0.0747997
0.0962844 0.15903 0.0735332
0.129046 0.165438 0.0718853
0.1635 0.171939 0.0698405
0.203296 0.177798 0.0673381
0.24509 0.183795 0.0649729
0.285771 0.189899 0.0577401
0.326955 0.196338 0.0484627
0.367086 0.202426 0.0407111
0.406912 0.208347 0.0347906
0.447181 0.214099 0.0310674
0.48777 0.219425 0.0286717
0.526864 0.224552 0.0257267
0.564813 0.229435 0.0225376
0.599649 0.233524 0.0192569
0.631556 0.236927 0.015198
0.661768 0.239673 0.0102846
0.690028 0.24181 0.00564584
0.715785 0.243671 0.00354009
0.738109 0.244984 0.00395209
0.75816 0.24596 0.00352483
0.773281 0.246677 0.00257877
0.787518 0.247654 0.0011902
0.798245 0.24921 0.00062562
0.808637 0.251011 0
0.816434 0.253971 0
6.10361e-05 0.144717 0.0806744
6.10361e-05 0.14725 0.0808576
0.000183108 0.150042 0.0810101
7.62951e-05 0.15349 0.0810712
0.00427253 0.157168 0.0806744
0.0172885 0.161715 0.0793011
0.0333715 0.166842 0.0778515
0.0609293 0.173312 0.076112
0.0903487 0.180026 0.0739147
0.125322 0.18735 0.0710613
0.163302 0.194629 0.0675212
0.207248 0.20174 0.0626078
0.251789 0.20911 0.0559396
0.296651 0.216739 0.0464027
0.341726 0.224155 0.0391241
0.384909 0.231128 0.0369421
0.427802 0.237888 0.0350195
0.470512 0.243931 0.03505
0.513069 0.249836 0.0347906
0.553796 0.255283 0.0331426
0.594415 0.26041 0.0319371
0.628382 0.264576 0.0289006
0.663111 0.268696 0.026276
0.692622 0.271122 0.0222477
0.722469 0.273747 0.0184329
0.745876 0.275517 0.0155947
0.769253 0.277256 0.0117342
0.78587 0.278538 0.00817884
0.802136 0.279789 0.00567636
0.814557 0.281163 0.00538643
0.826215 0.282765 0.00553903
0.835828 0.285267 0.00611887
0.844526 0.288228 0.00671397
9.15541e-05 0.163226 0.0836652
9.15541e-05 0.165805 0.0838636
9.15541e-05 0.169146 0.0838636
0.000106813 0.172747 0.0838636
0.00341802 0.177111 0.0827192
0.00511177 0.181735 0.0813916
0.0261234 0.188037 0.0790265
0.0485695 0.194476 0.0763867
0.0832837 0.20235 0.0729839
0.120012 0.210437 0.0694591
0.164309 0.218509 0.0625925
0.210254 0.22678 0.0552071
0.257603 0.235492 0.0465095
0.305928 0.244694 0.037583
0.352483 0.253147 0.0346838
0.399207 0.261738 0.0322728
0.44535 0.269154 0.0336004
0.492058 0.276219 0.0364385
0.537346 0.28217 0.0385595
0.583093 0.288029 0.0410315
0.622248 0.29305 0.0403906
0.659373 0.297795 0.0393072
0.692744 0.301335 0.0368658
0.724178 0.304448 0.0337987
0.752392 0.306828 0.0306401
0.778042 0.308965 0.0273899
0.799939 0.310536 0.0244755
0.817441 0.311864 0.0219272
0.833249 0.313313 0.019913
0.845258 0.314687 0.0185702
0.856672 0.316609 0.0172427
0.865782 0.319585 0.0167697
0.875135 0.323125 0.0169223
0.000122072 0.182132 0.0865187
0.000122072 0.185077 0.0865797
0.000137331 0.188876 0.0864118
0.00030518 0.193057 0.085771
0.000656138 0.197894 0.084535
0.0062562 0.203464 0.0825666
0.016022 0.210071 0.0796216
0.0365454 0.217319 0.0760052
0.0736858 0.225681 0.0716716
0.11548 0.234333 0.0652171
0.163699 0.243381 0.0563821
0.213245 0.253117 0.0472725
0.263966 0.263584 0.037232
0.314626 0.273945 0.0300755
0.364218 0.284245 0.0277256
0.413947 0.294041 0.0274357
0.462715 0.302495 0.0317388
0.511788 0.31075 0.0360723
0.560037 0.317296 0.0407874
0.607172 0.323522 0.0446632
0.648829 0.328405 0.0460975
0.689845 0.333196 0.0475776
0.723629 0.336126 0.0464942
0.757351 0.339437 0.045594
0.784665 0.342046 0.0425727
0.812833 0.3449 0.0402686
0.832044 0.346654 0.0377508
0.851881 0.348348 0.0355688
0.865721 0.350149 0.0341344
0.878981 0.351553 0.0327153
0.889403 0.354009 0.0322881
0.899214 0.356603 0.0320592
0.907378 0.359884 0.032517
0.00015259 0.201617 0.0885939
0.000167849 0.205188 0.0885023
0.000183108 0.209079 0.0885786
0.000198367 0.214313 0.087541
0.000213626 0.219623 0.0865339
0.00201419 0.226337 0.0832227
0.0033875 0.233127 0.0800336
0.0305028 0.241856 0.0746929
0.0521401 0.250492 0.0693675
0.10428 0.260395 0.0588693
0.157458 0.27039 0.0485695
0.212284 0.281788 0.0362554
0.26836 0.293339 0.0223087
0.322545 0.305425 0.020264
0.377111 0.31809 0.0188907
0.42858 0.328389 0.0249485
0.479484 0.338689 0.03093
0.530785 0.346853 0.0367437
0.582559 0.354955 0.0426032
0.629114 0.361395 0.0462501
0.675273 0.36762 0.0498817
0.714961 0.372534 0.0515297
0.753262 0.376761 0.0530404
0.786984 0.37995 0.0532082
0.818692 0.382513 0.0529183
0.844984 0.384695 0.0523079
0.86717 0.386023 0.051194
0.88542 0.387457 0.049836
0.899565 0.389395 0.0482795
0.912505 0.391409 0.0472267
0.923003 0.3944 0.0468605
0.932906 0.39736 0.0468147
0.941115 0.401663 0.0476081
0.000213626 0.223575 0.0899825
0.000228885 0.227481 0.0898909
0.000244144 0.232105 0.0893873
0.000259403 0.237415 0.0885634
0.000457771 0.24361 0.0865187
0.000564584 0.250553 0.08365
0.00462348 0.258473 0.0789807
0.0110628 0.267643 0.072221
0.0449531 0.277623 0.0622873
0.0977188 0.288441 0.0496223
0.152453 0.300099 0.0362554
0.212146 0.312718 0.0225528
0.270375 0.326116 0.0161746
0.327245 0.340398 0.0150759
0.383215 0.353475 0.0168612
0.437644 0.365728 0.0222782
0.492683 0.376898 0.0281224
0.547845 0.386297 0.0351568
0.601724 0.39498 0.0418097
0.652079 0.402396 0.0473487
0.699763 0.409857 0.0521096
0.74165 0.415503 0.0552682
0.782361 0.420905 0.0581826
0.816373 0.42443 0.059205
0.850233 0.427756 0.0606088
0.87538 0.430182 0.0606088
0.901259 0.432334 0.0610971
0.917617 0.433463 0.0606699
0.934691 0.434424 0.0605936
0.946563 0.436622 0.0607462
0.95819 0.438376 0.0609445
0.966522 0.441993 0.0612955
0.973434 0.44654 0.0616922
0.000274662 0.246952 0.0908217
0.000289921 0.250996 0.0905318
0.00030518 0.256764 0.0894331
0.000320439 0.26247 0.088304
0.000350958 0.26981 0.0850538
0.000686656 0.277348 0.0813764
0.00297551 0.286687 0.0733043
0.00846876 0.296193 0.0646982
0.0467231 0.307347 0.050309
0.0828107 0.318837 0.036286
0.147417 0.331945 0.0243229
0.211337 0.345602 0.0132753
0.271656 0.361425 0.0112001
0.33283 0.376989 0.00849927
0.388846 0.391287 0.0133516
0.445579 0.40621 0.0175631
0.502922 0.417868 0.0249027
0.560662 0.430106 0.0322118
0.616129 0.439368 0.0390326
0.672389 0.449104 0.0461128
0.720043 0.456184 0.0513924
0.766995 0.463096 0.0567178
0.807538 0.468025 0.0607309
0.846143 0.472374 0.0642863
0.87776 0.47567 0.0661021
0.90695 0.478584 0.0675517
0.929885 0.48072 0.0682994
0.948867 0.482368 0.0687419
0.964477 0.484321 0.0692607
0.975906 0.486839 0.0697642
0.985016 0.489616 0.0705272
0.990173 0.49337 0.0715038
0.994293 0.497215 0.0726787
0.000350958 0.272175 0.0907301
0.000366217 0.277058 0.0899672
0.000381476 0.282704 0.0887617
0.000411994 0.289403 0.0860151
0.000427253 0.296986 0.0826123
0.000488289 0.305882 0.0752422
0.000549325 0.315633 0.0657206
0.0146334 0.326818 0.0529793
0.031754 0.338903 0.0386969
0.078584 0.3523 0.0267491
0.142306 0.366659 0.0153964
0.206622 0.382132 0.00915541
0.272892 0.398611 0.00543221
0.334722 0.414984 0.00584421
0.393637 0.43209 0.00885023
0.453178 0.447242 0.0144045
0.512581 0.461036 0.021622
0.57145 0.473579 0.0289158
0.631052 0.484886 0.0365454
0.687114 0.495277 0.0434119
0.737972 0.504051 0.0495308
0.786542 0.512047 0.0552377
0.829023 0.517861 0.0598917
0.869429 0.523354 0.0643015
0.902846 0.527001 0.0675059
0.935439 0.53051 0.0709087
0.958099 0.532448 0.0730907
0.979782 0.534279 0.0750439
0.988968 0.536095 0.0756542
0.997299 0.537682 0.0764782
0.99881 0.540856 0.0770275
0.999847 0.544137 0.0777142
0.999939 0.54905 0.0783551
0.000442512 0.297734 0.0889448
0.000457771 0.303593 0.0876478
0.00047303 0.309682 0.0860609
0.000503548 0.317235 0.0828565
0.000549325 0.325399 0.0782635
0.000610361 0.335302 0.0677806
0.0016022 0.345785 0.056672
0.00549325 0.358236 0.0417639
0.0200351 0.37116 0.0276646
0.0751659 0.386069 0.0170748
0.128298 0.401389 0.00743114
0.199542 0.418326 0.00456245
0.271015 0.435737 0.00239567
0.334722 0.453391 0.00476081
0.399222 0.471138 0.0069276
0.458579 0.487083 0.0124056
0.51873 0.503792 0.017319
0.581796 0.5178 0.0251164
0.645502 0.532265 0.0329442
0.701381 0.542351 0.0402075
0.758022 0.553048 0.0475319
0.804395 0.560052 0.053193
0.850645 0.567285 0.0588998
0.889601 0.571847 0.0633555
0.927611 0.576501 0.0677195
0.954986 0.579629 0.0707866
0.978302 0.582147 0.0735485
0.991073 0.58439 0.0755322
0.996963 0.586389 0.0771954
0.999725 0.589136 0.078645
0.999969 0.592538 0.0798505
1 0.596048 0.0806897
1 0.600153 0.081117
0.000534066 0.323491 0.0867781
0.000549325 0.329107 0.0851911
0.000579843 0.335851 0.0822766
0.000610361 0.343496 0.0787366
0.000671397 0.352667 0.0699168
0.000717174 0.362524 0.0596475
0.00167849 0.374823 0.0456397
0.00230411 0.388098 0.0291905
0.0265049 0.403311 0.0175631
0.0524453 0.419409 0.00724804
0.117006 0.436759 0.00436408
0.195743 0.4542 0.0031281
0.266896 0.471977 0.00315862
0.337636 0.490227 0.0033875
0.401968 0.507942 0.00593576
0.463432 0.525322 0.00929274
0.526375 0.541665 0.0148318
0.590692 0.557565 0.0217899
0.652354 0.57203 0.0289616
0.713893 0.585473 0.0367895
0.770459 0.596872 0.0440375
0.821622 0.606394 0.0506752
0.869352 0.614694 0.0568551
0.910307 0.619715 0.0619974
0.947066 0.623957 0.0667582
0.970748 0.626719 0.0700542
0.991516 0.629557 0.0733043
0.99588 0.631312 0.0752728
1 0.633371 0.0773175
1 0.636179 0.0784619
1 0.639063 0.0797436
1 0.64303 0.0803388
1 0.647028 0.0809644
0.00062562 0.347692 0.0844129
0.000640879 0.353674 0.082475
0.000686656 0.360906 0.0781415
0.000717174 0.368872 0.071931
0.00077821 0.378317 0.0610056
0.000839246 0.388846 0.048661
0.000915541 0.402029 0.0322881
0.00578317 0.41622 0.0195468
0.0188602 0.43238 0.0124056
0.0470436 0.449241 0.00636301
0.118379 0.467445 0.00442512
0.187686 0.48603 0.00251774
0.265751 0.505699 0.00213626
0.341543 0.525231 0.00216678
0.405463 0.543694 0.00387579
0.469703 0.561791 0.00631724
0.533928 0.579004 0.0122988
0.597848 0.596323 0.0179751
0.66183 0.611017 0.0258335
0.726421 0.626322 0.0335393
0.780423 0.636866 0.0406043
0.835492 0.647913 0.0478065
0.881071 0.654856 0.0537728
0.926863 0.662043 0.0598306
0.956085 0.666484 0.0643168
0.98294 0.671092 0.0687114
0.993255 0.67425 0.0717632
0.998169 0.676661 0.0743572
1 0.678874 0.0761578
1 0.68127 0.0775158
1 0.683925 0.0784009
1 0.686519 0.0788281
1 0.689143 0.0790723
0.000701915 0.368597 0.0795148
0.000732433 0.375189 0.0756695
0.000762951 0.382406 0.0712902
0.000823987 0.391638 0.0608682
0.000885023 0.401312 0.0496834
0.000961318 0.414191 0.0362707
0.00103761 0.42742 0.0225834
0.00329595 0.443626 0.0151369
0.00535592 0.460166 0.00770581
0.0536507 0.478355 0.00476081
0.103151 0.496834 0.00239567
0.179309 0.516686 0.00177005
0.263432 0.536919 0.00154116
0.336782 0.556542 0.00225834
0.409125 0.576104 0.00300603
0.475196 0.594675 0.00605783
0.538186 0.612894 0.00953689
0.603693 0.63064 0.0153811
0.67097 0.648371 0.0225071
0.732479 0.662898 0.0298466
0.791135 0.675776 0.0373999
0.844785 0.68661 0.0443427
0.893523 0.694957 0.0508736
0.934737 0.702495 0.0567178
0.964767 0.70808 0.0616312
0.988159 0.712932 0.0661326
0.994598 0.716243 0.069276
1 0.719554 0.072221
1 0.721553 0.0738384
1 0.723156 0.0754406
1 0.724788 0.0759289
1 0.726009 0.0763256
1 0.727962 0.0761578
0.000793469 0.389105 0.0726482
0.000823987 0.396124 0.0671092
0.000869764 0.403891 0.0603037
0.0009308 0.413428 0.0508278
0.000991836 0.424338 0.0408179
0.00105287 0.437461 0.0284581
0.00141909 0.45211 0.0179446
0.0019379 0.469123 0.0105745
0.0142672 0.486961 0.00497444
0.0399939 0.506142 0.00296025
0.0866865 0.525841 0.00166323
0.17644 0.546456 0.00158694
0.260868 0.567193 0.00178531
0.338811 0.587396 0.00207523
0.413352 0.607263 0.0027924
0.477394 0.625956 0.0049897
0.542809 0.644724 0.0077821
0.610117 0.663417 0.0136263
0.676234 0.681697 0.0192874
0.738277 0.697322 0.026627
0.800534 0.713542 0.033814
0.853162 0.724239 0.0408026
0.907347 0.735897 0.0479591
0.941772 0.742229 0.0535897
0.97734 0.749126 0.0592966
0.988876 0.75288 0.0631571
0.997818 0.756924 0.0669261
1 0.75906 0.0691234
1 0.760372 0.0709087
1 0.761379 0.0717784
1 0.761929 0.0721599
1 0.762783 0.0722972
1 0.764263 0.0721904
0.000885023 0.409354 0.0638743
0.0009308 0.415976 0.0588235
0.000976577 0.424857 0.051133
0.0010071 0.433906 0.0434119
0.00106813 0.446433 0.031754
0.00112917 0.459037 0.0189822
0.0011902 0.475731 0.011902
0.00125124 0.492744 0.00479133
0.0138247 0.512093 0.00314336
0.0235447 0.531533 0.00263981
0.0987564 0.552575 0.00267033
0.176196 0.573953 0.00216678
0.258976 0.595529 0.00201419
0.344564 0.617533 0.00183108
0.414145 0.637385 0.00254826
0.481605 0.656489 0.00335698
0.548913 0.675654 0.00698863
0.616053 0.694865 0.0110781
0.681102 0.712642 0.0170748
0.746059 0.730343 0.0237583
0.804746 0.745022 0.0305638
0.861067 0.758114 0.0376745
0.90866 0.768917 0.0441749
0.950515 0.777615 0.0504158
0.979889 0.785306 0.0558175
0.991577 0.79089 0.0601511
1 0.795682 0.063798
0.999954 0.796521 0.0657664
1 0.797101 0.0674144
1 0.796307 0.0678416
1 0.795956 0.0682078
1 0.796567 0.0681163
1 0.797024 0.06804
0.000961318 0.426993 0.0562142
0.000991836 0.434379 0.0502785
0.00103761 0.44329 0.0419318
0.00108339 0.453849 0.0318761
0.00112917 0.466361 0.0197604
0.0011902 0.481239 0.0122225
0.00123598 0.497948 0.00839246
0.00294499 0.515724 0.00572213
0.00579843 0.535073 0.00440986
0.0374914 0.555108 0.00308232
0.0971084 0.576226 0.00241093
0.166201 0.597955 0.00187686
0.25507 0.620417 0.00180056
0.338689 0.642222 0.0019379
0.413611 0.66273 0.00228885
0.487221 0.683238 0.00340276
0.554055 0.703197 0.00595102
0.62034 0.723003 0.0090486
0.686732 0.742443 0.014725
0.751812 0.760327 0.0206455
0.810254 0.774777 0.0277256
0.867948 0.789212 0.0346227
0.914839 0.798795 0.0412604
0.963165 0.809232 0.0478981
0.979309 0.815366 0.0527504
0.996674 0.822003 0.0576944
0.999191 0.824491 0.0601816
0.999832 0.826566 0.0624399
1 0.827054 0.0632792
1 0.826917 0.0637675
1 0.827344 0.0638895
1 0.827298 0.0639048
1 0.827222 0.0639048
0.00102235 0.442222 0.0476844
0.00106813 0.450538 0.0399329
0.00109865 0.45893 0.0332799
0.00114443 0.470817 0.0252537
0.0011902 0.482444 0.0174105
0.00125124 0.498695 0.0130465
0.00132753 0.514733 0.00767529
0.00205997 0.5346 0.00546273
0.00285344 0.554192 0.00260929
0.0394903 0.576074 0.00196841
0.0704356 0.597513 0.00140383
0.163897 0.620142 0.00155642
0.25597 0.642908 0.00172427
0.338735 0.664149 0.0018616
0.421942 0.685542 0.00198367
0.490455 0.705242 0.00341802
0.557183 0.724804 0.00476081
0.625071 0.744549 0.00888075
0.692576 0.764508 0.0132601
0.755337 0.782116 0.0191806
0.816495 0.799313 0.0255436
0.872297 0.813397 0.0321813
0.925414 0.826001 0.0389563
0.960449 0.835554 0.044892
0.982635 0.842863 0.0503853
0.996231 0.847959 0.0545815
0.998199 0.850248 0.0572061
1 0.851469 0.0592203
1 0.85066 0.0598764
1 0.849958 0.0604562
1 0.849622 0.060502
1 0.849393 0.0605478
1 0.850355 0.0604105
0.00109865 0.456748 0.0401617
0.00112917 0.46482 0.0351263
0.00115969 0.474266 0.0297246
0.00120546 0.485039 0.0226291
0.00123598 0.498177 0.0165103
0.00128176 0.5131 0.0106203
0.00132753 0.530343 0.00642405
0.00138857 0.549279 0.00363165
0.0138705 0.569589 0.00205997
0.0324865 0.590921 0.0016022
0.0873274 0.613367 0.00146487
0.172229 0.636561 0.0018616
0.257023 0.659495 0.00195315
0.343771 0.682368 0.00196841
0.423682 0.704417 0.00222782
0.492454 0.724132 0.00285344
0.561563 0.743938 0.00456245
0.629709 0.763821 0.00798047
0.696391 0.783169 0.0119783
0.759777 0.801205 0.0178988
