LUT预设1/LUT全系打包/繁花仿色lut/709专用/繁花白天709.cube
TITLE "Generated by Resolve"
LUT_3D_SIZE 9
0.0273136 0.0463264 0.0506294
0.0408179 0.0509346 0.0531624
0.0840772 0.0599985 0.052369
0.15201 0.0720836 0.0445411
0.254154 0.0808118 0.0202487
0.372992 0.0754864 0
0.495018 0.0446632 0
0.603021 0.0175784 0
0.665675 0.0172885 0
0.00967422 0.0654307 0.0581979
0.035584 0.071931 0.0608072
0.0969863 0.0835431 0.0624704
0.185336 0.0987411 0.0547799
0.300984 0.110719 0.0232853
0.433738 0.115236 0
0.557626 0.110307 0
0.651316 0.0773632 0
0.702953 0.0679789 0
9.15541e-05 0.100008 0.070985
0.016495 0.107317 0.072343
0.10486 0.123873 0.0711681
0.226291 0.143847 0.0667582
0.365576 0.161044 0.034699
0.512123 0.177966 0.00547799
0.637339 0.186633 0
0.72491 0.185718 0
0.770642 0.189227 0
9.15541e-05 0.163226 0.0836652
0.00341802 0.177111 0.0827192
0.0832837 0.20235 0.0729839
0.257603 0.235492 0.0465095
0.44535 0.269154 0.0336004
0.622248 0.29305 0.0403906
0.752392 0.306828 0.0306401
0.833249 0.313313 0.019913
0.875135 0.323125 0.0169223
0.000274662 0.246952 0.0908217
0.000350958 0.26981 0.0850538
0.0467231 0.307347 0.050309
0.271656 0.361425 0.0112001
0.502922 0.417868 0.0249027
0.720043 0.456184 0.0513924
0.87776 0.47567 0.0661021
0.964477 0.484321 0.0692607
0.994293 0.497215 0.0726787
0.00062562 0.347692 0.0844129
0.00077821 0.378317 0.0610056
0.0188602 0.43238 0.0124056
0.265751 0.505699 0.00213626
0.533928 0.579004 0.0122988
0.780423 0.636866 0.0406043
0.956085 0.666484 0.0643168
1 0.678874 0.0761578
1 0.689143 0.0790723
0.000961318 0.426993 0.0562142
0.00112917 0.466361 0.0197604
0.00579843 0.535073 0.00440986
0.25507 0.620417 0.00180056
0.554055 0.703197 0.00595102
0.810254 0.774777 0.0277256
0.979309 0.815366 0.0527504
1 0.827054 0.0632792
1 0.827222 0.0639048
0.00114443 0.475685 0.0401312
0.00129702 0.518807 0.0119326
0.00355535 0.592416 0.00370794
0.256825 0.684337 0.00183108
0.570123 0.770581 0.00434882
0.827985 0.84596 0.0218509
0.984512 0.891859 0.0449073
1 0.899001 0.0525368
1 0.897734 0.0528267
0.00123598 0.50222 0.0532082
0.00135805 0.547555 0.0223239
0.0053254 0.621317 0.007187
0.265202 0.714122 0.00205997
0.583825 0.801297 0.00392157
0.838117 0.876234 0.0198672
0.986404 0.922316 0.0412909
1 0.929854 0.0474556
1 0.927382 0.0478828
0.0230564 0.0482032 0.0628367
0.0399634 0.0531014 0.0657969
0.085008 0.0616464 0.067277
0.155352 0.0749676 0.0590677
0.2589 0.0827955 0.0418097
0.376654 0.0650492 0.00784314
0.502724 0.0232395 0
0.612421 0.0153201 0
0.674601 0.0169528 0
0.00462348 0.069337 0.0737621
0.0273442 0.0755474 0.0780499
0.0957504 0.0877241 0.0803388
0.186206 0.104005 0.07187
0.302937 0.115633 0.0531472
0.434226 0.111086 0.0136416
0.557794 0.0888838 0.000885023
0.655879 0.0550851 0
0.707759 0.0433356 0
0 0.105455 0.0919509
0.014313 0.11368 0.0956283
0.100771 0.1308 0.0961624
0.22591 0.151369 0.0954147
0.360967 0.169757 0.0732738
0.507424 0.178897 0.031632
0.634821 0.179599 0.00482185
0.720897 0.171389 0
0.765911 0.171481 0
7.62951e-05 0.172488 0.111711
0.00129702 0.187259 0.114244
0.0715343 0.212894 0.108827
0.254582 0.245457 0.101228
0.441688 0.274266 0.0911116
0.613672 0.293812 0.0690166
0.746166 0.305089 0.0450294
0.826032 0.308568 0.0273289
0.869032 0.316884 0.0174258
0.000289921 0.260914 0.129198
0.000366217 0.28452 0.129107
0.0312505 0.32195 0.113664
0.261341 0.371695 0.0774853
0.495903 0.422812 0.0689555
0.716457 0.458106 0.0686656
0.873198 0.47599 0.0766003
0.958938 0.483009 0.0761425
0.994583 0.495445 0.0745861
0.000671397 0.365743 0.13994
0.000793469 0.396262 0.13434
0.00807202 0.447501 0.0958114
0.241382 0.515511 0.0536812
0.521462 0.583032 0.0353399
0.773556 0.640009 0.0450752
0.952331 0.669108 0.0669718
1 0.679698 0.0751965
1 0.690898 0.0786908
0.0010071 0.446387 0.143008
0.00115969 0.484199 0.128145
0.00259403 0.546944 0.0822919
0.225528 0.626749 0.0442512
0.536446 0.705226 0.0178225
0.79852 0.775387 0.0307317
0.97261 0.816083 0.0531167
1 0.829297 0.0625315
1 0.828702 0.0642863
0.0011902 0.494652 0.153079
0.00134279 0.534447 0.136141
0.00151064 0.602472 0.090135
0.216968 0.686961 0.0497292
0.546487 0.767681 0.0169223
0.811475 0.842817 0.0281071
0.978805 0.887541 0.0460059
1 0.896849 0.0526741
1 0.896208 0.054612
0.00128176 0.522423 0.18085
0.00141909 0.565072 0.170703
0.00276188 0.631586 0.128359
0.216846 0.714885 0.0797894
0.55314 0.793927 0.0442817
0.813107 0.866575 0.0414282
0.978866 0.912291 0.051133
1 0.921859 0.0488441
1 0.920211 0.0588846
0.00782788 0.0506294 0.0969863
0.0329595 0.0550851 0.101793
0.0838026 0.0632181 0.108721
0.16141 0.0750439 0.112963
0.269505 0.0812695 0.103792
0.392859 0.0521248 0.0888838
0.523888 0.0105287 0.0759594
0.631952 0.00921645 0.0628367
0.694026 0.0110018 0.0543221
0.000915541 0.0731975 0.118013
0.0164034 0.0797589 0.123003
0.0899825 0.0924392 0.129702
0.189731 0.107805 0.132631
0.310277 0.119234 0.122423
0.443549 0.11075 0.101701
0.571694 0.0637522 0.080827
0.671931 0.0269169 0.0682231
0.726436 0.0125429 0.0642252
0 0.113008 0.144656
0.00691234 0.122408 0.151278
0.0871443 0.140261 0.15668
0.219455 0.162036 0.157488
0.35848 0.18117 0.149264
0.504875 0.187945 0.127398
0.629633 0.179492 0.0983291
0.717449 0.160235 0.0789807
0.762356 0.156222 0.0744945
3.0518e-05 0.186221 0.176165
7.62951e-05 0.201785 0.183963
0.0478676 0.227741 0.186343
0.242588 0.259907 0.190677
0.424399 0.287465 0.196078
0.586694 0.30692 0.173693
0.715297 0.313558 0.145953
0.796811 0.314061 0.123415
0.837888 0.321645 0.121477
0.000274662 0.280278 0.207492
0.000350958 0.304799 0.215534
0.00793469 0.343648 0.216083
0.238499 0.390127 0.211734
0.478813 0.434821 0.215961
0.694423 0.465507 0.222843
0.838437 0.477806 0.200687
0.919356 0.483391 0.18851
0.955779 0.493156 0.18822
0.000701915 0.389868 0.236408
0.000839246 0.421393 0.242908
0.00207523 0.473762 0.240391
0.205646 0.534539 0.225116
0.49482 0.59266 0.202487
0.750484 0.644938 0.198901
0.932723 0.668452 0.191211
0.99678 0.676783 0.200763
1 0.687709 0.207324
0.00105287 0.473884 0.258335
0.00120546 0.512169 0.263966
0.00143435 0.573144 0.259632
0.17145 0.644282 0.231342
0.503822 0.712093 0.200809
0.766506 0.772976 0.179126
0.956466 0.81268 0.175433
0.999954 0.827131 0.181674
1 0.828046 0.182391
0.00123598 0.523262 0.284047
0.00137331 0.564431 0.290364
0.00274662 0.629038 0.286595
0.156298 0.704112 0.259648
0.510781 0.77499 0.228122
0.773037 0.837095 0.198962
0.960647 0.881514 0.200961
0.999985 0.895369 0.197238
1 0.894865 0.194461
0.00131228 0.552544 0.322545
0.00143435 0.596307 0.332479
0.00282292 0.660563 0.332769
0.152911 0.735973 0.314305
0.51606 0.806546 0.296254
0.773648 0.865873 0.281132
0.960235 0.911772 0.268299
0.999695 0.927214 0.285023
1 0.924834 0.282582
0.000869764 0.0444495 0.151202
0.0142977 0.0528572 0.159396
0.0799573 0.0621195 0.170779
0.16376 0.0724804 0.18471
0.277821 0.0752117 0.19443
0.408377 0.038819 0.199802
0.543374 0.00410468 0.20531
0.655787 0.00166323 0.209216
0.718273 0.00282292 0.209522
0 0.0697032 0.183673
0.00613413 0.0801709 0.192782
0.0795605 0.0954147 0.204547
0.190875 0.109895 0.219516
0.321202 0.118013 0.230747
0.46273 0.10692 0.230716
0.594247 0.0576791 0.230945
0.696178 0.019028 0.235721
0.749966 0.00373846 0.239429
0 0.117174 0.224186
0.000411994 0.129198 0.23534
0.0627909 0.149447 0.246143
0.216892 0.170565 0.261143
0.368872 0.18674 0.271519
0.522927 0.191974 0.264317
0.654658 0.181918 0.254734
0.741894 0.163546 0.247059
0.785779 0.159884 0.247761
0 0.199603 0.270161
0 0.216709 0.283818
0.0202945 0.244785 0.294133
0.226413 0.277043 0.305821
0.414374 0.305974 0.310521
0.584482 0.325078 0.302007
0.71754 0.333059 0.287251
0.799023 0.333272 0.279591
0.839155 0.340703 0.281529
0.000228885 0.3019 0.317037
0.000320439 0.327626 0.332189
0.002121 0.368322 0.343725
0.208652 0.413611 0.349691
0.460548 0.455207 0.363149
0.66305 0.486503 0.369421
0.803632 0.502922 0.360082
0.878523 0.508858 0.349676
0.91635 0.521752 0.352743
0.000686656 0.416876 0.36083
0.000823987 0.449348 0.37499
0.00178531 0.503792 0.386923
0.153719 0.562799 0.388266
0.471748 0.617044 0.391745
0.728588 0.667506 0.414145
0.908629 0.692073 0.437873
0.98201 0.698283 0.438499
0.996857 0.709682 0.447044
0.00103761 0.504433 0.394354
0.00115969 0.543145 0.408835
0.00202945 0.604776 0.420142
0.112886 0.675212 0.418769
0.47538 0.738506 0.417792
0.73872 0.794308 0.423499
0.941161 0.838651 0.453544
0.998138 0.852277 0.466758
1 0.85832 0.472404
0.00117494 0.554025 0.42649
0.00129702 0.595987 0.44239
0.00154116 0.660594 0.454078
0.0987411 0.734203 0.452064
0.47512 0.802167 0.451148
0.744854 0.857816 0.452735
0.942885 0.904463 0.477104
0.998276 0.923919 0.492988
1 0.927184 0.497627
0.00120546 0.582361 0.467567
0.00132753 0.626551 0.485695
0.00154116 0.691264 0.498939
0.0896315 0.764904 0.498589
0.474952 0.832822 0.501961
0.748562 0.887877 0.506233
0.939544 0.933532 0.525414
0.998047 0.955352 0.544732
1 0.957794 0.551141
0 0.0146029 0.225772
0.00457771 0.0281376 0.237522
0.0750134 0.047715 0.254444
0.166278 0.0558022 0.273793
0.283345 0.0534524 0.290532
0.41915 0.016907 0.305379
0.556909 0.00109865 0.321645
0.669001 0.000274662 0.33518
0.731563 0.000228885 0.344854
0 0.0429999 0.264469
0.00163272 0.0615091 0.278584
0.0675975 0.092195 0.296422
0.190738 0.106111 0.317769
0.325795 0.112581 0.335882
0.471885 0.0937514 0.349218
0.606439 0.0482643 0.360418
0.706935 0.0128328 0.370016
0.760723 0.00166323 0.379187
0 0.1075 0.314824
0 0.124315 0.33164
0.0294347 0.154772 0.347753
0.210819 0.177752 0.369375
0.371817 0.193057 0.388602
0.533623 0.194934 0.402365
0.669154 0.182635 0.408408
0.758328 0.162509 0.412589
0.802884 0.160952 0.418326
0 0.205112 0.374029
0 0.226078 0.393698
0.00503548 0.258213 0.409888
0.211688 0.292378 0.425849
0.414008 0.319783 0.445121
0.596353 0.335409 0.456596
0.736553 0.341131 0.455329
0.819944 0.340215 0.453712
0.85861 0.349187 0.454292
0.000137331 0.31928 0.434211
0.000213626 0.346868 0.454505
0.00341802 0.389029 0.471824
0.170581 0.43534 0.482887
0.445045 0.47599 0.501076
0.65153 0.506584 0.506828
0.794873 0.523842 0.498985
0.872404 0.531853 0.490715
0.910704 0.54406 0.499046
0.000595102 0.439872 0.487221
0.000701915 0.474357 0.507317
0.000946059 0.529259 0.526146
0.104082 0.58819 0.53402
0.448005 0.641535 0.547021
0.70457 0.68455 0.567178
0.870222 0.70721 0.578973
0.950179 0.715831 0.581216
0.978225 0.727749 0.586938
0.000900282 0.530648 0.528206
0.000991836 0.56968 0.54789
0.00120546 0.631647 0.566415
0.0742504 0.701839 0.573388
0.435676 0.76321 0.582483
0.715129 0.813718 0.593561
0.912917 0.855329 0.621103
0.994354 0.869734 0.643534
0.999969 0.878294 0.652567
0.00102235 0.580255 0.562371
0.00112917 0.622202 0.583169
0.00132753 0.686976 0.602014
0.0572976 0.760372 0.608927
0.430152 0.826551 0.616861
0.723323 0.878294 0.627222
0.911345 0.917571 0.645319
0.995926 0.941939 0.669566
1 0.947265 0.678523
0.00103761 0.606485 0.60087
0.00114443 0.65098 0.623163
0.00135805 0.715938 0.642634
0.0590524 0.789731 0.651041
0.429343 0.855451 0.659648
0.727504 0.90779 0.671183
0.90695 0.943862 0.684581
0.993881 0.968322 0.706554
1 0.97348 0.715099
0 0.000640879 0.308232
0.000488289 0.00175479 0.321477
0.0673533 0.0132601 0.339086
0.169162 0.0154574 0.363302
0.291096 0.0126802 0.385977
0.431601 0.00347906 0.406744
0.570108 0.000564584 0.426444
0.680797 0.00047303 0.442008
0.74255 0.000442512 0.453803
0 0.00880446 0.348928
0.000183108 0.0199588 0.364355
0.0533608 0.0754711 0.386435
0.190829 0.0908522 0.413245
0.330312 0.0973373 0.436652
0.480064 0.0686961 0.45568
0.61651 0.0346838 0.471077
0.717372 0.00485237 0.483803
0.770291 0.00122072 0.494347
0 0.0697795 0.400763
0 0.0989395 0.421927
0.00552377 0.151629 0.446677
0.204105 0.180346 0.472694
0.373907 0.195483 0.497841
0.539773 0.196277 0.516808
0.675868 0.180941 0.528344
0.764858 0.158984 0.535973
0.808804 0.158831 0.544503
0 0.200076 0.472221
0 0.224079 0.494636
0.00764477 0.264134 0.518441
0.190387 0.303624 0.537774
0.411063 0.330648 0.562509
0.598871 0.346197 0.5823
0.742809 0.349554 0.593744
0.827756 0.34696 0.600107
0.868132 0.355383 0.609918
1.5259e-05 0.328313 0.542962
6.10361e-05 0.357061 0.565835
0.00181582 0.403082 0.589197
0.13434 0.451865 0.602991
0.430945 0.492287 0.625315
0.648356 0.520928 0.644236
0.803052 0.534646 0.651087
0.88539 0.539879 0.65481
0.921859 0.553521 0.659159
0.000381476 0.455634 0.602014
0.00047303 0.491844 0.626581
0.000671397 0.546914 0.649317
0.0807813 0.607111 0.661448
0.420996 0.660166 0.679362
0.682231 0.698665 0.695979
0.846723 0.720043 0.701656
0.926589 0.731411 0.697414
0.95964 0.744976 0.702007
0.000671397 0.548745 0.645792
0.00077821 0.588678 0.670039
0.000991836 0.651408 0.69279
0.0541848 0.721004 0.704295
0.396582 0.782406 0.718441
0.697368 0.830915 0.73402
0.882124 0.861051 0.75198
0.975036 0.873426 0.767437
0.996292 0.883833 0.776562
0.000808728 0.59884 0.679591
0.000915541 0.640986 0.703853
0.00112917 0.705745 0.726101
0.0423743 0.779553 0.737453
0.383307 0.844709 0.750851
0.704448 0.894789 0.765682
0.886244 0.926726 0.777691
0.983032 0.946197 0.796384
0.999832 0.953216 0.807446
0.000823987 0.623453 0.712871
0.000961318 0.668116 0.737408
0.00115969 0.733471 0.759701
0.0332494 0.807309 0.771191
0.384619 0.872511 0.785046
0.709957 0.923415 0.800381
0.887358 0.954162 0.810941
0.978424 0.972076 0.824903
0.999939 0.979538 0.834577
0 0.000808728 0.389685
0 0.000839246 0.404913
0.0450904 0.00144961 0.420188
0.169146 0.00077821 0.448478
0.299489 0.00177005 0.475563
0.44329 0.000900282 0.499336
0.582437 0.000701915 0.521355
0.692653 0.000671397 0.538079
0.753704 0.000656138 0.550134
0 0.000946059 0.432166
7.62951e-05 0.00184634 0.448173
0.0377356 0.045304 0.468437
0.190387 0.0650187 0.499367
0.334051 0.06421 0.526986
0.487312 0.0472725 0.549798
0.62562 0.0171664 0.569039
0.728222 0.00239567 0.583032
0.780224 0.00120546 0.59379
0 0.0235752 0.48101
0 0.0559701 0.501701
0.0135042 0.137835 0.531151
0.195331 0.178363 0.562509
0.374777 0.192889 0.591318
0.542748 0.192294 0.613321
0.680964 0.174136 0.628901
0.77055 0.148608 0.637293
0.814008 0.142428 0.645487
0 0.183169 0.554299
0 0.212512 0.579187
0.00514229 0.262043 0.607782
0.169665 0.30901 0.631662
0.406119 0.336645 0.659434
0.598306 0.351766 0.682521
0.743984 0.354788 0.697673
0.831052 0.351583 0.705287
0.870954 0.360281 0.713893
0 0.32929 0.632044
0 0.358907 0.655985
0.000183108 0.408881 0.68394
0.1131 0.461265 0.701289
0.41593 0.502403 0.725353
0.642786 0.530022 0.748241
0.800198 0.543236 0.763058
0.886534 0.54786 0.769787
0.924315 0.560067 0.777798
0.000137331 0.463676 0.694987
0.000228885 0.500206 0.719722
0.000427253 0.55697 0.747753
0.0633402 0.618936 0.762264
0.390097 0.671717 0.781521
0.670375 0.70898 0.802838
0.839673 0.728756 0.814832
0.928145 0.738231 0.819226
0.963775 0.750332 0.825345
0.000457771 0.559091 0.73846
0.000579843 0.598962 0.762936
0.00077821 0.663539 0.790921
0.0406653 0.733089 0.804028
0.361547 0.794797 0.819867
0.683223 0.843549 0.841001
0.862409 0.868162 0.851682
0.952483 0.879911 0.857114
0.983673 0.891249 0.859129
0.000610361 0.610056 0.76878
0.000732433 0.651881 0.793408
0.000946059 0.71751 0.819638
0.00985733 0.791959 0.832639
0.34876 0.856291 0.847166
0.689845 0.906355 0.867536
0.872648 0.935821 0.877714
0.966033 0.949645 0.888014
0.997894 0.956237 0.897704
0.000640879 0.633326 0.794018
0.00077821 0.677623 0.819165
0.000991836 0.743694 0.843946
0.00695811 0.817945 0.856672
0.360052 0.88278 0.871412
0.695949 0.933471 0.891402
0.876554 0.962905 0.901289
0.965515 0.97731 0.909026
0.997589 0.983612 0.917235
0 0.000946059 0.460517
0 0.000976577 0.476448
0.0176547 0.000991836 0.492149
0.16437 0.000885023 0.520821
0.305196 0.000900282 0.551293
0.451972 0.000869764 0.576898
0.592416 0.000854505 0.600153
0.70425 0.000823987 0.618799
0.764324 0.000823987 0.629618
0 0.00103761 0.502434
0 0.0011902 0.51986
0.0267338 0.0202029 0.538231
0.187945 0.042359 0.569619
0.337591 0.0443275 0.601236
0.492638 0.0300298 0.625742
0.633463 0.00708019 0.646387
0.737972 0.00141909 0.662699
0.789364 0.00105287 0.671962
0 0.00567636 0.549249
0 0.0217746 0.568658
0.0120851 0.120699 0.597208
0.188571 0.175555 0.631098
0.37464 0.190555 0.663951
0.544274 0.188617 0.686946
0.683986 0.168688 0.703822
0.775036 0.135622 0.713985
0.819455 0.12874 0.721187
0 0.156786 0.615961
0 0.198001 0.642145
0.00218204 0.257633 0.673396
0.151858 0.312032 0.700267
0.401022 0.340871 0.730938
0.597192 0.355764 0.755199
0.744091 0.358434 0.771588
0.832654 0.355581 0.780774
0.873854 0.364034 0.787839
0 0.325994 0.697047
0 0.357382 0.720821
0 0.410773 0.749859
0.102937 0.466743 0.769741
0.403708 0.508644 0.795529
0.638148 0.536065 0.819608
0.797314 0.548791 0.835706
0.885374 0.553857 0.843793
0.924422 0.565545 0.850141
0 0.467018 0.76025
7.62951e-05 0.503197 0.783429
0.000259403 0.56173 0.811749
0.0412451 0.625071 0.829801
0.373251 0.677806 0.849348
0.662608 0.714931 0.871626
0.834699 0.735042 0.886641
0.924987 0.743496 0.894087
0.962188 0.754559 0.899275
0.00030518 0.564431 0.8009
0.000427253 0.604395 0.824125
0.000640879 0.66833 0.851743
0.0216983 0.739757 0.868727
0.332189 0.801877 0.884581
0.672984 0.848905 0.906142
0.854765 0.873106 0.919936
0.94612 0.884688 0.925292
0.982177 0.895582 0.927993
0.00047303 0.615686 0.826276
0.000595102 0.657023 0.849119
0.000823987 0.722988 0.875898
0.00317388 0.798169 0.891905
0.331533 0.862043 0.905699
0.679728 0.912154 0.926497
0.865675 0.941695 0.940169
0.956024 0.95378 0.945266
0.990753 0.96051 0.948638
0.000534066 0.638926 0.843854
0.000671397 0.682383 0.867094
0.000885023 0.748669 0.89276
0.00332647 0.823423 0.907256
0.342336 0.887877 0.920867
0.686641 0.938323 0.941741
0.870848 0.967956 0.954437
0.959609 0.981521 0.959609
0.993774 0.986786 0.963699
0 0.00106813 0.51635
0 0.00109865 0.531106
0.0106203 0.00111391 0.548058
0.157382 0.000991836 0.575204
0.308598 0.000946059 0.606653
0.458228 0.000976577 0.634531
0.600732 0.000961318 0.657954
0.712627 0.000946059 0.675898
0.773419 0.0009308 0.687663
0 0.00114443 0.554894
0 0.00117494 0.571084
0.0204623 0.0100099 0.589822
0.184131 0.0318761 0.619699
0.340505 0.0402075 0.652583
0.497505 0.0246738 0.679667
0.639628 0.00598154 0.700603
0.743816 0.00141909 0.716258
0.796506 0.00111391 0.726452
0 0.00204471 0.597665
0 0.0117494 0.615396
0.00563058 0.110689 0.643641
0.182406 0.178927 0.678264
0.374334 0.195666 0.711681
0.546654 0.1944 0.737575
0.687953 0.176272 0.754528
0.779843 0.146731 0.764431
0.825193 0.148974 0.772717
0 0.142336 0.656306
0 0.190707 0.682902
1.5259e-05 0.257984 0.716884
0.140505 0.318013 0.744228
0.396994 0.347845 0.77586
0.596948 0.363485 0.802029
0.745541 0.366476 0.818204
0.83505 0.364401 0.827619
0.876982 0.373144 0.83476
0 0.323629 0.735714
0 0.357855 0.761074
0 0.413672 0.7906
0.0971542 0.472663 0.810071
0.395666 0.515175 0.837232
0.635798 0.542855 0.862516
0.795682 0.556069 0.877882
0.885054 0.560861 0.886549
0.925078 0.572335 0.892668
0 0.469108 0.797238
1.5259e-05 0.505287 0.820844
0.00015259 0.564904 0.848981
0.0194553 0.629526 0.865644
0.364965 0.681498 0.887144
0.657511 0.719036 0.91014
0.832074 0.739208 0.924773
0.922606 0.747112 0.932723
0.960891 0.75877 0.937407
0.000213626 0.566949 0.835019
0.000335698 0.60766 0.858473
0.000564584 0.670832 0.884901
0.0106355 0.743267 0.90164
0.316258 0.805829 0.918837
0.666621 0.850797 0.940154
0.85069 0.875639 0.953368
0.943099 0.887938 0.960708
0.980468 0.897139 0.96405
0.000396735 0.617777 0.856413
0.000518807 0.659648 0.878416
0.000762951 0.725933 0.904707
0.00251774 0.800671 0.920546
0.318822 0.864469 0.934997
0.674037 0.914809 0.956039
0.861524 0.943496 0.968734
0.952636 0.95584 0.975296
0.988403 0.962509 0.977569
0.00047303 0.641581 0.869154
0.000610361 0.685512 0.891585
0.000839246 0.750759 0.915877
0.00254826 0.826017 0.930999
0.327688 0.889799 0.944457
0.681727 0.940352 0.965408
0.86743 0.969909 0.977844
0.956786 0.983505 0.983841
0.991043 0.988617 0.98584
