LUT预设1/LUT全系打包/CINE系列lut/709/N-CINE4墨绿709.cube
TITLE "Generated by Resolve"
LUT_3D_SIZE 5
0.0387274 0.0870069 0.0738079
0.149477 0.106737 0.0712444
0.324987 0.117968 0.0358587
0.517128 0.0989853 0.0132906
0.669795 0.0470283 0.00569161
0.0150301 0.17406 0.0937514
0.189166 0.206607 0.0751354
0.413993 0.238499 0.0327306
0.628519 0.251194 0.00708019
0.772534 0.243885 0.00573739
0.00077821 0.310918 0.0942702
0.189929 0.370001 0.0480354
0.496727 0.430289 0.0175174
0.735912 0.461814 0.00585946
0.877195 0.471275 0.00170901
0 0.472389 0.0828107
0.159274 0.56144 0.0318761
0.568902 0.652049 0.00950637
0.839139 0.703807 0.00202945
0.982605 0.727184 9.15541e-05
0 0.563653 0.13875
0.146181 0.660685 0.0586099
0.599786 0.762432 0.0135958
0.888441 0.831785 1.5259e-05
0.997253 0.848112 0.000915541
0.0296178 0.0945754 0.157778
0.154849 0.115053 0.168093
0.342519 0.122637 0.163561
0.534127 0.0779736 0.147372
0.686229 0.0172122 0.134844
0.00500496 0.197375 0.213199
0.180301 0.230228 0.214267
0.427527 0.255573 0.203235
0.640192 0.252613 0.177905
0.776806 0.232151 0.160754
0 0.354696 0.264897
0.148913 0.410468 0.255741
0.495949 0.457908 0.236561
0.737011 0.476112 0.20238
0.870756 0.477363 0.184787
0 0.529122 0.321904
0.103944 0.609979 0.308431
0.548806 0.682811 0.271839
0.822278 0.719997 0.229755
0.959548 0.737072 0.201434
0 0.619821 0.402136
0.0792401 0.708797 0.384466
0.563653 0.793454 0.358572
0.857649 0.844251 0.320104
0.986435 0.86392 0.317143
0.0144045 0.0804456 0.291585
0.150835 0.113008 0.312337
0.353048 0.115984 0.321309
0.549111 0.0633097 0.3178
0.700862 0.014435 0.32459
0.00062562 0.212238 0.377539
0.155596 0.249622 0.390036
0.429923 0.274205 0.395285
0.649775 0.269902 0.392416
0.785107 0.250126 0.390738
0 0.393988 0.467506
0.0979629 0.452293 0.474449
0.485634 0.498039 0.475807
0.737163 0.514351 0.47219
0.871122 0.517784 0.476188
0 0.58085 0.554665
0.0603647 0.662654 0.56109
0.513252 0.732082 0.555337
0.810636 0.770825 0.552468
0.947188 0.787579 0.563668
0 0.666331 0.635081
0.0369116 0.756664 0.640604
0.519097 0.838697 0.63859
0.835767 0.890227 0.64239
0.974411 0.914656 0.654871
0.00410468 0.0252537 0.438148
0.139864 0.0759899 0.466194
0.358633 0.0788281 0.48629
0.560876 0.039292 0.494636
0.714031 0.00483711 0.507546
0.000137331 0.199161 0.538781
0.120073 0.257786 0.563149
0.424567 0.282673 0.582086
0.651896 0.275898 0.58761
0.789746 0.255573 0.594858
0 0.413733 0.648615
0.0629892 0.478935 0.667185
0.465782 0.525917 0.677485
0.732891 0.543511 0.688304
0.870985 0.549767 0.702617
0 0.613062 0.74641
0.023331 0.696529 0.760952
0.46595 0.767132 0.76643
0.800244 0.81471 0.787243
0.941329 0.830503 0.800656
0 0.692607 0.807538
0.00375372 0.785077 0.822232
0.466697 0.868208 0.832334
0.818036 0.925429 0.852705
0.967407 0.953536 0.871748
0.000854505 0.00354009 0.557244
0.126268 0.0395056 0.58526
0.360174 0.0357671 0.614206
0.570825 0.0194858 0.632212
0.729366 0.000106813 0.651926
4.57771e-05 0.167971 0.647944
0.092668 0.25391 0.682383
0.417929 0.281819 0.704921
0.65301 0.275868 0.723217
0.793072 0.251972 0.734234
0 0.420066 0.76318
0.047715 0.489632 0.784054
0.441581 0.540444 0.799969
0.730526 0.56173 0.823346
0.873091 0.569192 0.839551
0 0.625803 0.848112
0.00300603 0.709758 0.866728
0.424369 0.784619 0.880186
0.788174 0.834058 0.908354
0.939178 0.853544 0.926604
0 0.699809 0.883803
0.00706493 0.79353 0.903731
0.430488 0.879255 0.916503
0.807935 0.941405 0.947234
0.96405 0.970321 0.96553
