LUT预设1/LUT全系打包/CINE系列lut/709/N-CINE4墨绿709.cube
TITLE "Generated by Resolve"
LUT_3D_SIZE 33
0.0387274 0.0870069 0.0738079
0.050782 0.0888075 0.0742199
0.0632486 0.0910048 0.074464
0.0766308 0.0936141 0.0745251
0.0902571 0.0961929 0.0745251
0.104112 0.0989548 0.0742504
0.117662 0.101717 0.0736553
0.131212 0.104494 0.0730144
0.149477 0.106737 0.0712444
0.170169 0.108675 0.0688945
0.191165 0.110735 0.0665751
0.212329 0.112459 0.0626841
0.234134 0.114015 0.0577401
0.255879 0.115633 0.0530404
0.278614 0.116625 0.0475776
0.301762 0.117266 0.0416724
0.324987 0.117968 0.0358587
0.34931 0.117556 0.0316014
0.373754 0.116899 0.0278935
0.398535 0.116167 0.0237736
0.422751 0.113817 0.0213931
0.447242 0.111086 0.0193027
0.471534 0.108461 0.0167086
0.494499 0.103899 0.0149691
0.517128 0.0989853 0.0132906
0.539849 0.0941329 0.0111849
0.560937 0.0874495 0.00946059
0.581537 0.0800793 0.00776684
0.602167 0.0722972 0.00582895
0.620432 0.0647593 0.00451667
0.637781 0.0581216 0.00471504
0.655436 0.0517891 0.00508125
0.669795 0.0470283 0.00569161
0.0378271 0.0956283 0.0764324
0.0489815 0.0972152 0.0766155
0.0635233 0.0998703 0.0765087
0.0784009 0.102525 0.0763104
0.0932174 0.105272 0.0760967
0.106813 0.108293 0.0753338
0.120394 0.111315 0.0745251
0.135073 0.11426 0.07364
0.155901 0.116625 0.0720836
0.176562 0.119036 0.0706188
0.197742 0.121386 0.0684825
0.219791 0.123232 0.0635233
0.241993 0.125231 0.058854
0.264866 0.127001 0.0538338
0.288289 0.128115 0.0478981
0.311513 0.129305 0.0421302
0.335424 0.130343 0.0369421
0.360449 0.130282 0.032929
0.385534 0.130297 0.0286564
0.410315 0.129992 0.0247654
0.435203 0.128618 0.0222629
0.459907 0.127214 0.0192569
0.48423 0.125093 0.0162356
0.507256 0.121035 0.0141756
0.53048 0.117342 0.011841
0.553262 0.113039 0.00943008
0.574243 0.106691 0.00767529
0.595239 0.100694 0.00720226
0.615534 0.094789 0.00679026
0.633143 0.0891585 0.00706493
0.651072 0.0835737 0.00703441
0.668009 0.0783856 0.00688182
0.681117 0.0730144 0.00689708
0.0360266 0.105104 0.0784619
0.0485084 0.107332 0.0783093
0.0640879 0.109865 0.0779431
0.0800336 0.112474 0.0774701
0.0946822 0.115358 0.0771649
0.108675 0.118547 0.0770275
0.122652 0.121798 0.0769055
0.141085 0.124636 0.0759136
0.161807 0.127291 0.0744793
0.182849 0.130022 0.0730602
0.204852 0.132372 0.0692302
0.227817 0.134554 0.0642557
0.250645 0.136782 0.059556
0.274083 0.138567 0.054078
0.297871 0.14023 0.0484321
0.321767 0.142046 0.0426642
0.346731 0.142901 0.0380407
0.371801 0.143496 0.0336004
0.397238 0.144137 0.0287327
0.422324 0.143709 0.0253147
0.447791 0.143114 0.0218204
0.473106 0.142535 0.0179294
0.497185 0.140505 0.0151369
0.520958 0.138201 0.012604
0.544778 0.136202 0.0116732
0.566659 0.132387 0.0110323
0.5879 0.128176 0.0102846
0.609216 0.124269 0.0091249
0.628031 0.119615 0.00869764
0.64625 0.114763 0.0081178
0.66453 0.109453 0.00717174
0.679088 0.10338 0.0065156
0.692409 0.0967727 0.00611887
0.0328069 0.114855 0.0798962
0.0490272 0.117372 0.0799878
0.0654917 0.119966 0.0801404
0.081529 0.122576 0.0802625
0.0954147 0.125856 0.0801251
0.109972 0.129168 0.0799878
0.125597 0.132418 0.0797284
0.146288 0.135286 0.0783551
0.167361 0.138247 0.076997
0.188891 0.141161 0.0750134
0.212009 0.143603 0.070161
0.235325 0.146105 0.065507
0.259251 0.148562 0.0606394
0.283467 0.150668 0.0547189
0.307805 0.152941 0.0488136
0.33225 0.15491 0.0433051
0.357946 0.156054 0.0383459
0.383688 0.157259 0.0330205
0.409232 0.158251 0.0280156
0.435203 0.158389 0.024094
0.461021 0.158709 0.0201724
0.486473 0.158953 0.0177615
0.510643 0.158083 0.0168307
0.534905 0.157076 0.0155795
0.558663 0.155444 0.0143435
0.58024 0.152102 0.0132296
0.601968 0.14876 0.0117494
0.623178 0.145205 0.010193
0.641718 0.139971 0.00936904
0.66067 0.134676 0.00822461
0.678599 0.129595 0.0068513
0.692424 0.124819 0.00602731
0.706172 0.120302 0.0049897
0.0327306 0.1252 0.083299
0.0481117 0.127779 0.0833295
0.0631113 0.130343 0.0833143
0.0781415 0.133318 0.083238
0.0941024 0.136568 0.0831464
0.110719 0.13994 0.0830243
0.129992 0.143114 0.0820172
0.151232 0.146304 0.0806134
0.172595 0.149523 0.0792248
0.195468 0.152438 0.0755474
0.219638 0.155245 0.0707866
0.243748 0.158083 0.0662699
0.268299 0.160754 0.0607156
0.293095 0.163363 0.0546578
0.317937 0.166125 0.0485542
0.343557 0.1682 0.042649
0.369238 0.170138 0.0366674
0.395331 0.172 0.0310063
0.421363 0.173129 0.0277714
0.447868 0.173968 0.0249332
0.474189 0.174823 0.021973
0.499382 0.174655 0.0202945
0.524285 0.174105 0.0188449
0.54934 0.173571 0.0170748
0.57232 0.171542 0.0156863
0.594583 0.169192 0.0139925
0.616968 0.166766 0.0119478
0.637018 0.163256 0.0103761
0.656519 0.159319 0.00877394
0.676219 0.155627 0.00680552
0.691997 0.1523 0.00534066
0.706142 0.149737 0.00396735
0.7205 0.147234 0.00236515
0.0316472 0.13576 0.0864576
0.0454719 0.138216 0.086305
0.0589456 0.140764 0.0860914
0.0763561 0.144152 0.0859846
0.0943923 0.147539 0.0858473
0.112947 0.151019 0.08542
0.133974 0.15465 0.0838636
0.155306 0.158328 0.0822766
0.177401 0.161959 0.0800793
0.201709 0.165164 0.0749828
0.226307 0.168383 0.0699474
0.251514 0.171603 0.0645914
0.276738 0.174655 0.0580148
0.302159 0.177722 0.0513161
0.327581 0.180636 0.0455787
0.353994 0.18291 0.0408026
0.38056 0.185214 0.0360113
0.406989 0.187289 0.0317388
0.434012 0.188571 0.0289311
0.460853 0.189883 0.0259709
0.487465 0.190921 0.0231632
0.513024 0.190921 0.0215
0.53875 0.190997 0.0194553
0.564004 0.190875 0.017319
0.58674 0.189258 0.0154421
0.609445 0.187808 0.0131838
0.631708 0.186099 0.0107118
0.651453 0.183261 0.00885023
0.671641 0.180468 0.00674449
0.690852 0.177874 0.00466926
0.705562 0.175463 0.00347906
0.720378 0.17348 0.00225834
0.734783 0.171389 0.00114443
0.028687 0.147601 0.0894636
0.0391394 0.150225 0.089128
0.0536812 0.153475 0.0887922
0.0724804 0.157137 0.088304
0.0917067 0.160769 0.087602
0.112749 0.164416 0.0863203
0.135012 0.168261 0.0845655
0.157641 0.172137 0.0828107
0.181933 0.175677 0.0786297
0.207645 0.179049 0.0731212
0.233356 0.182406 0.0677653
0.259174 0.185809 0.0622721
0.285191 0.18909 0.0561837
0.311406 0.192523 0.0503243
0.33817 0.195422 0.0453498
0.365225 0.198108 0.0406195
0.391913 0.201114 0.0357824
0.419226 0.203418 0.0323186
0.446418 0.205432 0.0293126
0.473716 0.207462 0.0260929
0.50013 0.208545 0.0237583
0.526329 0.209247 0.0215
0.552712 0.210163 0.0188296
0.576867 0.209674 0.0164187
0.600198 0.208759 0.0136721
0.623713 0.207919 0.0104677
0.645319 0.20618 0.00808728
0.665995 0.204181 0.00610361
0.68716 0.202304 0.00399786
0.704341 0.200626 0.00263981
0.719783 0.198917 0.00215152
0.735012 0.197055 0.002533
0.747433 0.195315 0.0031281
0.0221866 0.160586 0.0920424
0.0290379 0.16321 0.0916609
0.0491646 0.166903 0.0907759
0.0694285 0.170459 0.0898451
0.090074 0.174105 0.0886091
0.113313 0.178119 0.086717
0.13698 0.182177 0.0848554
0.160861 0.186374 0.0823682
0.186694 0.190005 0.0770275
0.212879 0.193866 0.0719768
0.23975 0.197833 0.066743
0.266255 0.201862 0.0605325
0.293065 0.205936 0.0543679
0.31989 0.209873 0.0486458
0.347326 0.21326 0.0439307
0.374945 0.216678 0.0390784
0.402457 0.219715 0.0346838
0.430488 0.222095 0.031693
0.458335 0.224475 0.0285039
0.486046 0.226612 0.0252995
0.512886 0.22771 0.0227665
0.54023 0.228824 0.019791
0.56643 0.229694 0.0166171
0.590372 0.229343 0.0133822
0.614511 0.229114 0.00968948
0.638285 0.228748 0.00604257
0.659678 0.227543 0.0043183
0.681315 0.22652 0.00366217
0.701793 0.225208 0.00373846
0.717494 0.223682 0.0043946
0.733211 0.222202 0.00477607
0.748531 0.220737 0.00491341
0.759808 0.219257 0.00520333
0.0150301 0.17406 0.0937514
0.0268559 0.177417 0.0926986
0.0451057 0.181125 0.091249
0.0617838 0.184878 0.0896315
0.0826886 0.189075 0.0880446
0.108171 0.193484 0.0864118
0.134432 0.198062 0.0846876
0.161349 0.20235 0.0804456
0.189166 0.206607 0.0751354
0.217243 0.210773 0.0701305
0.244999 0.215152 0.0642863
0.27277 0.219562 0.0579843
0.300877 0.223987 0.0514382
0.32903 0.227985 0.0462348
0.357275 0.231785 0.0413672
0.385367 0.235584 0.0363317
0.413993 0.238499 0.0327306
0.442374 0.241276 0.0295415
0.470756 0.24419 0.0261692
0.498405 0.246204 0.0231785
0.526192 0.247868 0.0200809
0.553857 0.249607 0.0166934
0.579049 0.25037 0.0133211
0.603754 0.250782 0.00973526
0.628519 0.251194 0.00708019
0.651408 0.250675 0.00656138
0.67332 0.249805 0.00663767
0.695674 0.248951 0.00642405
0.71397 0.247959 0.00648508
0.730556 0.246845 0.0065156
0.747158 0.245777 0.00633249
0.760769 0.2448 0.00605783
0.772534 0.243885 0.00573739
0.0107271 0.188754 0.094255
0.024033 0.192462 0.0932631
0.035874 0.196307 0.0923323
0.0477302 0.200046 0.0911574
0.0758526 0.204837 0.0890516
0.104799 0.209689 0.0869001
0.134173 0.214359 0.0841993
0.163348 0.218967 0.0786908
0.192599 0.223606 0.0733959
0.221881 0.228199 0.0677653
0.25066 0.233066 0.0611734
0.279652 0.237949 0.0547646
0.308629 0.242725 0.0488289
0.337377 0.247013 0.0440833
0.366384 0.251179 0.0389563
0.395178 0.255314 0.0341955
0.424292 0.258625 0.0308232
0.453254 0.261982 0.0271305
0.482139 0.265126 0.0232853
0.510597 0.267247 0.0200504
0.538918 0.269444 0.016556
0.566567 0.271336 0.014786
0.591806 0.272114 0.0129854
0.616983 0.272984 0.0106966
0.6421 0.273411 0.00868238
0.664942 0.272969 0.00863661
0.687739 0.272648 0.00834669
0.710048 0.272297 0.00787366
0.727092 0.271672 0.00759899
0.744244 0.271077 0.00704967
0.761196 0.270451 0.00624094
0.773312 0.269825 0.00567636
0.785595 0.269261 0.00494392
0.00936904 0.204181 0.0966201
0.0174563 0.207904 0.0952926
0.0244907 0.21178 0.0940871
0.0441596 0.216205 0.0917678
0.072282 0.221241 0.0888838
0.0999008 0.226322 0.0856641
0.12932 0.231266 0.0809796
0.160311 0.236347 0.0753796
0.19266 0.24152 0.0695964
0.223819 0.246616 0.0637827
0.254566 0.251911 0.0576486
0.285939 0.257221 0.0512703
0.316197 0.262165 0.0459754
0.346029 0.266789 0.0408942
0.375692 0.27158 0.0354925
0.40557 0.275669 0.0311284
0.435111 0.279484 0.026978
0.464836 0.28336 0.0230259
0.494148 0.286152 0.0213474
0.522866 0.288731 0.0197452
0.551598 0.291432 0.0179141
0.578363 0.293202 0.0160525
0.60441 0.294575 0.013962
0.63035 0.296025 0.0114595
0.654704 0.296513 0.0104677
0.678218 0.29659 0.0100404
0.701656 0.296742 0.009308
0.721508 0.296574 0.00851453
0.739696 0.295979 0.00755322
0.757961 0.295705 0.00627146
0.772915 0.295415 0.0052491
0.785901 0.295125 0.0043946
0.798917 0.294942 0.00344854
0.00807202 0.22002 0.0977951
0.0125124 0.223865 0.0964523
0.017319 0.227863 0.0948196
0.0426032 0.232959 0.0911727
0.0666361 0.238148 0.0872816
0.0906233 0.243427 0.083299
0.124849 0.248798 0.0772564
0.159426 0.254353 0.0714275
0.194614 0.259831 0.0656443
0.227207 0.265492 0.0594339
0.260731 0.271305 0.053193
0.293278 0.27689 0.0472877
0.323629 0.282231 0.0420386
0.354376 0.287633 0.0363317
0.384924 0.292897 0.0320439
0.415244 0.297154 0.0300145
0.44535 0.30161 0.0276646
0.475746 0.305821 0.0249638
0.504891 0.308888 0.0233158
0.534203 0.312001 0.0212558
0.563165 0.314656 0.0189822
0.58996 0.316442 0.0168765
0.616678 0.318288 0.0144961
0.643397 0.319951 0.0120241
0.667567 0.320409 0.0112306
0.691661 0.320943 0.0101625
0.715434 0.321431 0.00880446
0.734295 0.321401 0.00743114
0.753628 0.321187 0.00578317
0.772366 0.321294 0.00396735
0.785733 0.321386 0.0031281
0.799207 0.321599 0.00236515
0.812589 0.321889 0.00161746
0.0039826 0.236179 0.0987259
0.00534066 0.240146 0.0972457
0.0178988 0.244999 0.093904
0.0381323 0.250324 0.0893111
0.0562905 0.255818 0.0848249
0.0852216 0.261463 0.079118
0.121599 0.267506 0.0728771
0.159228 0.273487 0.0665904
0.194598 0.279637 0.0603037
0.22945 0.285893 0.0541848
0.26511 0.292027 0.047776
0.2981 0.298085 0.0436866
0.330098 0.304021 0.0401923
0.362295 0.309773 0.0366827
0.393881 0.314992 0.0336767
0.424674 0.31989 0.0311589
0.455726 0.32462 0.0283513
0.486275 0.328588 0.0257877
0.516197 0.332113 0.0234989
0.546319 0.335683 0.0208133
0.574777 0.338354 0.0184329
0.602609 0.340459 0.0160983
0.630243 0.343038 0.0134432
0.656138 0.34461 0.0117342
0.681056 0.345708 0.0103761
0.705867 0.346899 0.00877394
0.727718 0.347585 0.00714122
0.747616 0.347768 0.00550851
0.767819 0.348241 0.00370794
0.784512 0.348638 0.00256352
0.798627 0.349004 0.00192264
0.812528 0.349065 0.00221256
0.824033 0.349203 0.00280766
0.00257877 0.253635 0.0983444
0.00384527 0.25771 0.0965591
0.0182498 0.263218 0.0913405
0.0305333 0.268788 0.0859541
0.0435035 0.274281 0.0807507
0.0816663 0.280674 0.0738994
0.120409 0.287007 0.0671244
0.158572 0.293477 0.060441
0.19527 0.300084 0.0560769
0.232624 0.306844 0.0513619
0.269856 0.313573 0.0471351
0.303471 0.319753 0.043595
0.337423 0.326223 0.0400397
0.370886 0.332464 0.0366522
0.402548 0.338064 0.0337835
0.434165 0.343679 0.030869
0.466178 0.349126 0.0277867
0.496727 0.353109 0.025391
0.527489 0.357366 0.0224002
0.558022 0.36144 0.019379
0.586603 0.364126 0.0170443
0.615427 0.367117 0.0143893
0.64358 0.36994 0.0116732
0.669108 0.37142 0.010071
0.69485 0.372992 0.00822461
0.719829 0.374273 0.00631724
0.740658 0.374914 0.0047303
0.761975 0.375555 0.00314336
0.782223 0.37586 0.00271611
0.79649 0.375952 0.00318914
0.810941 0.376059 0.00344854
0.825284 0.375952 0.00357061
0.835431 0.376303 0.00381476
0.00109865 0.271229 0.0979477
0.00535592 0.276066 0.0940261
0.01178 0.281727 0.087892
0.0168917 0.287343 0.0819104
0.0421454 0.293889 0.0755932
0.0808423 0.300847 0.0697337
0.117617 0.307912 0.063798
0.154971 0.315022 0.0591592
0.194095 0.322408 0.0544594
0.23357 0.329625 0.0500343
0.270451 0.336797 0.0460365
0.306203 0.343694 0.04271
0.343191 0.350866 0.0387579
0.377646 0.357153 0.0356909
0.410422 0.363287 0.0326848
0.44358 0.369497 0.0291905
0.476036 0.374502 0.026154
0.507637 0.379248 0.0230259
0.539513 0.384085 0.0194095
0.569818 0.387961 0.0165255
0.599527 0.391165 0.0139315
0.62948 0.394705 0.0111086
0.656718 0.397208 0.00885023
0.683101 0.399222 0.00689708
0.709178 0.401175 0.00556954
0.732494 0.402411 0.0053254
0.754025 0.403204 0.00495918
0.776043 0.403983 0.00440986
0.793805 0.404334 0.0043183
0.808957 0.404883 0.00444038
0.824338 0.405463 0.00437934
0.837278 0.406119 0.00422675
0.848173 0.40676 0.00408942
0.000503548 0.290257 0.0959487
0.00440986 0.296239 0.0902266
0.0074464 0.302129 0.0844892
0.0123903 0.308156 0.0788586
0.0458686 0.315557 0.073167
0.0782635 0.32285 0.0672007
0.110155 0.330358 0.0612955
0.15079 0.337942 0.0568704
0.191974 0.345708 0.0517891
0.233356 0.353307 0.047013
0.272099 0.360937 0.0433509
0.311864 0.36846 0.039704
0.350851 0.375998 0.035935
0.385321 0.382498 0.0327153
0.419654 0.389288 0.0293126
0.45417 0.396063 0.0256504
0.486488 0.401282 0.022446
0.519097 0.406851 0.0188602
0.551614 0.412299 0.0151522
0.582193 0.41622 0.0127871
0.613092 0.420554 0.0102083
0.643076 0.424552 0.00874342
0.669703 0.426673 0.00849927
0.696544 0.429129 0.00775158
0.722759 0.431495 0.00671397
0.745449 0.432486 0.00622568
0.768109 0.433234 0.0056611
0.790463 0.434272 0.00494392
0.806378 0.434974 0.00477607
0.822721 0.435706 0.0043946
0.838788 0.436179 0.00393683
0.850278 0.436881 0.00349432
0.861921 0.437598 0.00289921
0.00077821 0.310918 0.0942702
0.00158694 0.31693 0.0882734
0.00181582 0.322972 0.0824445
0.0177005 0.330068 0.0767376
0.0446784 0.337682 0.0705119
0.069688 0.345373 0.0644083
0.104555 0.353475 0.0588083
0.14725 0.361608 0.0535439
0.189929 0.370001 0.0480354
0.231891 0.378164 0.0436408
0.273899 0.386358 0.0400092
0.316716 0.394812 0.0357824
0.355123 0.402655 0.0321965
0.391196 0.409964 0.0287022
0.427817 0.417609 0.0249332
0.462974 0.424079 0.0213016
0.496727 0.430289 0.0175174
0.530861 0.436667 0.01355
0.563149 0.441566 0.0124514
0.594736 0.446174 0.0117189
0.626673 0.450614 0.0105745
0.655421 0.454154 0.00944533
0.683024 0.457084 0.00833143
0.710872 0.459846 0.00686656
0.735912 0.461814 0.00585946
0.759518 0.463096 0.00531014
0.783581 0.464546 0.00477607
0.803281 0.465507 0.00428778
0.820218 0.466682 0.00381476
0.837461 0.467933 0.00328069
0.852155 0.469169 0.00276188
0.86453 0.470024 0.00225834
0.877195 0.471275 0.00170901
0 0.332311 0.0918593
0 0.338537 0.0860914
0.00123598 0.344839 0.0805676
0.0212558 0.352926 0.0741894
0.0385138 0.361181 0.0678264
0.0568246 0.369375 0.0610361
0.0999161 0.377981 0.0553292
0.14342 0.386923 0.0491951
0.186892 0.395621 0.0429694
0.231479 0.404562 0.0389868
0.276616 0.413291 0.0346227
0.321691 0.422232 0.0299992
0.360296 0.430243 0.0264439
0.399039 0.438544 0.0225528
0.438132 0.446479 0.0191806
0.472648 0.453178 0.0176394
0.507622 0.459709 0.0152895
0.542199 0.466255 0.0131685
0.57467 0.471427 0.0123598
0.607553 0.476509 0.0113832
0.64004 0.481712 0.0101015
0.668116 0.485008 0.00892653
0.69688 0.488746 0.00743114
0.725139 0.492393 0.00576791
0.749798 0.493889 0.00509651
0.774441 0.495781 0.00425727
0.79884 0.497749 0.00326543
0.817029 0.499275 0.00274662
0.835294 0.500603 0.00224308
0.853742 0.502342 0.00169375
0.867018 0.503777 0.00128176
0.880446 0.504967 0.000900282
0.894209 0.506539 0.000564584
0 0.354269 0.0890211
0 0.36054 0.0836805
0.00642405 0.367987 0.0775769
0.0165713 0.376547 0.0706798
0.0243534 0.38526 0.0629435
0.0525978 0.39411 0.0559701
0.0964218 0.403357 0.0493019
0.139513 0.412711 0.0420233
0.185107 0.421836 0.0369726
0.232593 0.431083 0.0329137
0.280324 0.440604 0.0282292
0.32282 0.449393 0.0263218
0.363943 0.458167 0.0247044
0.405814 0.466773 0.0227054
0.444389 0.474708 0.0203403
0.480552 0.481971 0.0180972
0.517159 0.489632 0.0150912
0.552102 0.495995 0.0134279
0.586206 0.502129 0.0121767
0.620737 0.508186 0.0108034
0.651881 0.513237 0.00921645
0.681758 0.517662 0.0074464
0.712016 0.521965 0.00537118
0.739223 0.52517 0.00386053
0.765026 0.527504 0.00276188
0.790784 0.529671 0.00155642
0.812833 0.531884 0.000701915
0.832242 0.533928 0.000244144
0.851759 0.5355 7.62951e-05
0.868635 0.537118 1.5259e-05
0.882658 0.538674 1.5259e-05
0.896757 0.539803 0.000198367
0.908293 0.540963 0.00062562
0 0.375906 0.0866102
0.000198367 0.382284 0.0810712
0.00555428 0.391012 0.0737011
0.00996414 0.399771 0.0660563
0.016495 0.408545 0.0583963
0.0570687 0.418158 0.0519722
0.0955673 0.427893 0.0449531
0.134051 0.437568 0.0381781
0.182025 0.447471 0.0364691
0.230121 0.457557 0.0336614
0.278065 0.467384 0.0304723
0.322118 0.476738 0.0281987
0.368231 0.486046 0.0249638
0.413565 0.495201 0.0215152
0.451698 0.503594 0.0186465
0.489982 0.51191 0.01561
0.528206 0.520363 0.0123445
0.563638 0.527047 0.0112306
0.599481 0.534203 0.00979629
0.634684 0.540825 0.00848402
0.665064 0.54522 0.00675975
0.696223 0.550118 0.00474556
0.726955 0.554696 0.00265507
0.753475 0.557183 0.00183108
0.779995 0.559869 0.00102235
0.806638 0.562341 0.000259403
0.826917 0.564477 0.000183108
0.847486 0.566445 9.15541e-05
0.867826 0.568414 0.000335698
0.882261 0.569833 0.000762951
0.89691 0.571084 0.00106813
0.911971 0.572793 0.00120546
0.92192 0.574411 0.00143435
0 0.396597 0.0824903
0.00129702 0.404303 0.0759899
0.00323491 0.413428 0.0685435
0.00448615 0.422583 0.0608377
0.0247807 0.432624 0.0551614
0.0576638 0.442817 0.0507668
0.0885023 0.45304 0.0460059
0.129671 0.463355 0.0420844
0.178347 0.47396 0.0384985
0.227497 0.484398 0.0338293
0.275929 0.494026 0.0301823
0.325139 0.503761 0.0269017
0.375402 0.513359 0.0229648
0.418784 0.52253 0.0199893
0.458915 0.531319 0.0171359
0.499046 0.540444 0.0139773
0.537072 0.548272 0.0119478
0.573861 0.55581 0.0105745
0.611185 0.563333 0.00880446
0.64506 0.569802 0.00689708
0.677684 0.575357 0.00480659
0.710765 0.58143 0.002533
0.740383 0.585565 0.00125124
0.768292 0.588907 0.000732433
0.796155 0.592126 0.000289921
0.819913 0.594644 0.000656138
0.841169 0.596719 0.00106813
0.862486 0.598627 0.00128176
0.880873 0.600732 0.00140383
0.896529 0.602487 0.00144961
0.912337 0.604425 0.00132753
0.925429 0.606088 0.00131228
0.935866 0.607401 0.00138857
0 0.417197 0.0765087
0.000122072 0.426581 0.0717479
0.000228885 0.435691 0.0671855
0.00189212 0.444907 0.0628367
0.0281834 0.455131 0.0583658
0.0514382 0.465263 0.0535286
0.0747539 0.475456 0.0484016
0.123659 0.486213 0.0445411
0.171557 0.496666 0.0400092
0.220478 0.507256 0.0350805
0.27393 0.517784 0.0315557
0.329 0.528298 0.0273747
0.38265 0.53872 0.0230564
0.423957 0.548516 0.0200198
0.46659 0.558419 0.0164187
0.508614 0.568414 0.0128176
0.546899 0.576623 0.0108949
0.585657 0.585077 0.00865187
0.624201 0.593744 0.0061799
0.657893 0.600198 0.00415045
0.692439 0.607217 0.00196841
0.726299 0.613596 0.000274662
0.753765 0.616175 0.000885023
0.781506 0.619242 0.00141909
0.809598 0.622248 0.00175479
0.831266 0.624292 0.0019379
0.85333 0.626261 0.0019379
0.8757 0.628626 0.00180056
0.891997 0.63035 0.00167849
0.908644 0.632441 0.00148013
0.925612 0.634653 0.00117494
0.937148 0.636301 0.00115969
0.948791 0.638315 0.00112917
3.0518e-05 0.436377 0.0766003
7.62951e-05 0.445655 0.0729534
0.000106813 0.454871 0.0693217
0.00944533 0.464866 0.0651102
0.024155 0.475471 0.0601053
0.0363622 0.486107 0.0545205
0.0691386 0.497337 0.0495766
0.117342 0.508537 0.0447395
0.165316 0.51986 0.0393683
0.218738 0.531014 0.0348363
0.27747 0.54255 0.0307012
0.337621 0.55407 0.0260624
0.386374 0.564584 0.0220035
0.429404 0.574929 0.018204
0.474678 0.585397 0.0139773
0.51632 0.59469 0.010956
0.555779 0.603647 0.00863661
0.59585 0.612634 0.00614939
0.632151 0.620218 0.00502022
0.66714 0.626734 0.00415045
0.702541 0.633677 0.00280766
0.734051 0.638621 0.00228885
0.763333 0.642649 0.00257877
0.792676 0.646677 0.00268559
0.818662 0.650156 0.00263981
0.842313 0.652689 0.00241093
0.866072 0.65565 0.00202945
0.886732 0.658137 0.00163272
0.904418 0.660639 0.00132753
0.922454 0.663279 0.000946059
0.937911 0.665522 0.000656138
0.950317 0.667872 0.000534066
0.962921 0.669917 0.000396735
1.5259e-05 0.455451 0.078172
0 0.464729 0.0747997
0.000274662 0.473976 0.0710155
0.00755322 0.48481 0.0657054
0.0137942 0.495521 0.0596933
0.0226596 0.506447 0.053254
0.0697642 0.517952 0.0480659
0.115282 0.529442 0.0424201
0.160693 0.541009 0.0364691
0.218585 0.552468 0.0321202
0.276646 0.56434 0.0274052
0.333608 0.576104 0.0224308
0.381552 0.587076 0.0186007
0.431083 0.598276 0.0145876
0.48101 0.609613 0.0104677
0.521904 0.618906 0.0101167
0.56257 0.628458 0.00914015
0.602869 0.637675 0.00747692
0.639475 0.64509 0.00650034
0.676616 0.652964 0.00505074
0.713359 0.660563 0.00354009
0.743847 0.665553 0.00354009
0.77438 0.670527 0.0033875
0.805173 0.675746 0.00309758
0.829465 0.678355 0.00263981
0.85417 0.681407 0.00209049
0.879332 0.684474 0.00144961
0.897749 0.686976 0.00114443
0.916503 0.689418 0.000823987
0.935622 0.692271 0.000457771
0.948608 0.694469 0.000396735
0.961349 0.696452 0.000320439
0.974243 0.698787 0.000259403
0 0.472389 0.0828107
0 0.481056 0.0772106
0.00236515 0.490913 0.0711376
0.00630198 0.502113 0.0643778
0.00941482 0.513161 0.0566415
0.0339055 0.524865 0.0497902
0.0733806 0.536904 0.0438392
0.110643 0.549172 0.0373236
0.159274 0.56144 0.0318761
0.216327 0.573861 0.0270695
0.272221 0.586358 0.0221103
0.326741 0.598672 0.0188449
0.381079 0.610391 0.0171817
0.43711 0.622202 0.0146334
0.484962 0.632685 0.0126497
0.526619 0.642313 0.0113222
0.568902 0.652049 0.00950637
0.608743 0.660838 0.00788891
0.647135 0.668818 0.00657664
0.686 0.677058 0.00502022
0.720302 0.683803 0.00407416
0.752087 0.689311 0.00370794
0.783886 0.695262 0.00315862
0.81265 0.699916 0.00260929
0.839139 0.703807 0.00202945
0.865782 0.707744 0.00143435
0.889113 0.711482 0.000961318
0.90901 0.714519 0.000701915
0.929274 0.717952 0.000411994
0.946426 0.72079 0.000244144
0.959594 0.723247 0.000167849
0.972671 0.725582 0.000106813
0.982605 0.727184 9.15541e-05
0 0.488273 0.0836957
3.0518e-05 0.496773 0.0754101
0.00181582 0.508263 0.0674296
0.00292973 0.519661 0.0588235
0.00544747 0.531289 0.0495613
0.038819 0.543526 0.0439002
0.0700694 0.555688 0.0379339
0.101335 0.567926 0.0316625
0.156588 0.580484 0.0303044
0.211154 0.592935 0.0284428
0.2645 0.605188 0.0259098
0.323934 0.617014 0.0234836
0.383963 0.628824 0.0200656
0.443336 0.640681 0.0159152
0.486656 0.651133 0.0141604
0.530632 0.661784 0.0117037
0.574685 0.672648 0.00886549
0.614481 0.681605 0.00753796
0.65481 0.690806 0.0059205
0.694545 0.700191 0.00422675
0.727749 0.706813 0.00361639
0.760937 0.713878 0.0028687
0.794781 0.721035 0.00202945
0.822431 0.72578 0.0015259
0.850599 0.730587 0.00102235
