LUT预设1/LUT全系打包/CINE系列lut/709/N-CINE3漂白709.cube
TITLE "Generated by Resolve"
LUT_3D_SIZE 5
0.0370489 0.03682 0.0353399
0.0881971 0.0500496 0.0511482
0.219409 0.076997 0.0711681
0.376852 0.111452 0.0961929
0.534463 0.152117 0.125048
0.102617 0.155352 0.0779889
0.187289 0.174838 0.0981308
0.329549 0.212787 0.118471
0.516609 0.269886 0.154925
0.706706 0.34139 0.21091
0.21442 0.355688 0.15555
0.336156 0.382589 0.207874
0.46099 0.442481 0.245731
0.668528 0.520714 0.284031
0.893675 0.61529 0.365423
0.374731 0.611154 0.280446
0.567132 0.641032 0.399054
0.666194 0.699779 0.483345
0.793271 0.757427 0.528878
0.926024 0.819654 0.597726
0.665995 0.817487 0.568338
0.791211 0.840925 0.667811
0.840375 0.873518 0.708415
0.895277 0.904814 0.748684
0.951522 0.933455 0.772152
0.0375067 0.0434882 0.059205
0.0978714 0.0587472 0.0946517
0.227909 0.0849012 0.143816
0.369329 0.117082 0.18584
0.515496 0.157122 0.220279
0.0865797 0.171374 0.155001
0.183078 0.186007 0.177676
0.329656 0.220615 0.207462
0.505058 0.2813 0.25684
0.691585 0.357122 0.323583
0.189502 0.379309 0.279561
0.338811 0.402853 0.314549
0.487312 0.457343 0.354467
0.698924 0.540963 0.41149
0.904128 0.639307 0.502815
0.349325 0.640238 0.434256
0.582345 0.666239 0.511376
0.687968 0.71577 0.572244
0.811505 0.773266 0.621775
0.935866 0.83418 0.695552
0.655924 0.837156 0.675792
0.78146 0.856046 0.725994
0.847135 0.883589 0.761349
0.904051 0.913848 0.795712
0.958389 0.939513 0.824674
0.0330968 0.0540017 0.102693
0.106813 0.0697795 0.166506
0.242924 0.0923934 0.238407
0.375967 0.124376 0.27747
0.51046 0.161669 0.310918
0.0736095 0.192996 0.213794
0.164645 0.208209 0.24741
0.318624 0.236576 0.315297
0.492653 0.290364 0.36463
0.671092 0.36144 0.423133
0.185946 0.399741 0.384054
0.31928 0.428428 0.423804
0.481895 0.478996 0.469795
0.685954 0.550668 0.528588
0.872206 0.642069 0.605219
0.351736 0.658122 0.575021
0.541772 0.692348 0.643275
0.686381 0.735607 0.666926
0.808972 0.785077 0.705303
0.930251 0.840406 0.764202
0.633539 0.851179 0.784024
0.75935 0.871855 0.800992
0.845945 0.895659 0.818219
0.910445 0.922621 0.84271
0.961593 0.944442 0.870207
0.0291905 0.0667735 0.156497
0.118349 0.0796368 0.24567
0.259449 0.0997482 0.336645
0.391638 0.131487 0.379705
0.524468 0.168185 0.414786
0.0551461 0.217243 0.271275
0.148821 0.235737 0.305425
0.308812 0.262287 0.415091
0.490318 0.306371 0.486625
0.660426 0.36669 0.531823
0.176623 0.427039 0.453941
0.300175 0.462074 0.486397
0.457328 0.5122 0.566812
0.660899 0.561532 0.656809
0.829358 0.630198 0.705272
0.36936 0.675807 0.67538
0.542687 0.714 0.727443
0.684184 0.757397 0.758389
0.803723 0.798291 0.795163
0.91696 0.840558 0.831266
0.656107 0.859937 0.841016
0.76289 0.88307 0.858183
0.84152 0.907713 0.873503
0.911864 0.930373 0.889265
0.96379 0.949279 0.909697
0.0253605 0.0803235 0.220584
0.127733 0.0896468 0.334142
0.272892 0.108782 0.43328
0.409003 0.138537 0.485267
0.548028 0.175265 0.527169
0.0352178 0.240986 0.337148
0.144015 0.261326 0.383368
0.299657 0.291157 0.500282
0.486763 0.330053 0.606088
0.673747 0.385183 0.664042
0.151934 0.46154 0.50222
0.281758 0.499626 0.540825
0.427588 0.551492 0.634043
0.641627 0.590448 0.761593
0.81825 0.640299 0.805081
0.378332 0.697246 0.734981
0.551751 0.739376 0.761212
0.680247 0.78027 0.80145
0.794186 0.816159 0.852293
0.907835 0.844526 0.886091
0.674052 0.869825 0.870848
0.759411 0.894041 0.890135
0.837171 0.918563 0.907744
0.91075 0.937499 0.92491
0.964965 0.954849 0.934783
