LUT预设1/LUT全系打包/CINE系列lut/709/N-CINE3漂白709.cube
TITLE "Generated by Resolve"
LUT_3D_SIZE 9
0.0370489 0.03682 0.0353399
0.054963 0.0426184 0.0424048
0.0881971 0.0500496 0.0511482
0.148425 0.0620737 0.0601816
0.219409 0.076997 0.0711681
0.296529 0.0935073 0.0831311
0.376852 0.111452 0.0961929
0.457588 0.130816 0.110338
0.534463 0.152117 0.125048
0.0632181 0.0791333 0.0572518
0.0917983 0.0892958 0.0630961
0.144015 0.100771 0.0690318
0.207019 0.11429 0.072755
0.280461 0.132647 0.0838331
0.355932 0.153445 0.0985733
0.437232 0.176501 0.115038
0.522545 0.201999 0.13344
0.609201 0.228672 0.152499
0.102617 0.155352 0.0779889
0.137514 0.162661 0.0873884
0.187289 0.174838 0.0981308
0.248981 0.191638 0.107668
0.329549 0.212787 0.118471
0.422156 0.238087 0.133791
0.516609 0.269886 0.154925
0.611917 0.305623 0.182849
0.706706 0.34139 0.21091
0.155291 0.246281 0.116686
0.197818 0.251896 0.129229
0.248722 0.264088 0.147616
0.30721 0.290593 0.157153
0.392218 0.320317 0.171298
0.488991 0.353826 0.190616
0.59585 0.392508 0.217487
0.707668 0.434043 0.250904
0.812833 0.474113 0.282673
0.21442 0.355688 0.15555
0.275349 0.363653 0.178683
0.336156 0.382589 0.207874
0.390249 0.41062 0.229999
0.46099 0.442481 0.245731
0.554772 0.478004 0.261112
0.668528 0.520714 0.284031
0.786984 0.568185 0.319829
0.893675 0.61529 0.365423
0.285847 0.479271 0.210636
0.372061 0.486259 0.245777
0.441321 0.507744 0.285969
0.495109 0.539437 0.31754
0.552239 0.574716 0.343359
0.631891 0.610132 0.366018
0.727398 0.648066 0.393286
0.828534 0.69102 0.4309
0.914244 0.733776 0.477058
0.374731 0.611154 0.280446
0.483574 0.620508 0.33637
0.567132 0.641032 0.399054
0.618524 0.669978 0.448844
0.666194 0.699779 0.483345
0.72253 0.728222 0.506065
0.793271 0.757427 0.528878
0.865797 0.788769 0.558801
0.926024 0.819654 0.597726
0.526299 0.725719 0.414176
0.626993 0.736904 0.48719
0.687388 0.754894 0.538842
0.729961 0.777142 0.578195
0.764309 0.801221 0.606622
0.805219 0.82327 0.628687
0.850782 0.84271 0.652842
0.896361 0.863294 0.684703
0.936919 0.883375 0.712734
0.665995 0.817487 0.568338
0.745846 0.827543 0.62887
0.791211 0.840925 0.667811
0.815518 0.857313 0.689723
0.840375 0.873518 0.708415
0.866621 0.889525 0.728817
0.895277 0.904814 0.748684
0.923323 0.919829 0.76202
0.951522 0.933455 0.772152
0.0375677 0.0399634 0.0456855
0.0564889 0.0454261 0.0560006
0.0937514 0.0537881 0.0679484
0.155169 0.066331 0.0823224
0.22388 0.0809949 0.099794
0.296513 0.0971237 0.118593
0.371527 0.114672 0.137392
0.448203 0.133883 0.154894
0.524651 0.154925 0.171786
0.0612955 0.0851606 0.0758526
0.0909285 0.0944076 0.0879988
0.145556 0.104463 0.100099
0.207324 0.11754 0.109346
0.276127 0.136675 0.124804
0.349859 0.156954 0.140627
0.429786 0.180148 0.159594
0.513451 0.205844 0.180697
0.599268 0.234165 0.204181
0.0930953 0.162799 0.116976
0.132509 0.168795 0.122759
0.186877 0.17911 0.134691
0.250614 0.194736 0.147311
0.33106 0.21561 0.16083
0.419745 0.2421 0.17966
0.511513 0.275654 0.20621
0.606439 0.31194 0.2365
0.70103 0.349813 0.268177
0.144015 0.254551 0.163165
0.192081 0.259297 0.173617
0.253315 0.27155 0.188678
0.317327 0.29601 0.204471
0.401404 0.32575 0.221363
0.496803 0.359915 0.242817
0.603098 0.399191 0.273243
0.711025 0.441566 0.308858
0.813886 0.485374 0.345434
0.199466 0.368368 0.21529
0.270039 0.374929 0.233524
0.34197 0.391653 0.260166
0.401984 0.417685 0.283085
0.478523 0.449073 0.301564
0.57525 0.486885 0.321782
0.688029 0.531579 0.349081
0.803769 0.581186 0.389517
0.905455 0.629877 0.437537
0.266072 0.49366 0.27834
0.369802 0.500221 0.305257
0.452476 0.519768 0.347494
0.513069 0.549004 0.380606
0.572366 0.583001 0.405768
0.652857 0.618906 0.428656
0.751827 0.659754 0.458503
0.852827 0.70454 0.499779
0.929046 0.745571 0.544152
0.360159 0.627482 0.355291
0.487785 0.63566 0.4056
0.582803 0.653025 0.46186
0.635294 0.67837 0.502998
0.681254 0.707286 0.530495
0.737255 0.735454 0.552377
0.807279 0.765988 0.577691
0.874617 0.796597 0.609567
0.933516 0.827497 0.651102
0.51812 0.739315 0.473777
0.630137 0.748562 0.538277
0.693172 0.764584 0.582712
0.738872 0.784634 0.616754
0.773617 0.807599 0.644587
0.81413 0.828489 0.66688
0.855772 0.848188 0.69131
0.900236 0.868513 0.71989
0.940887 0.888685 0.743313
0.663432 0.827695 0.62034
0.746838 0.836484 0.669261
0.792233 0.847852 0.694682
0.818982 0.862318 0.71516
0.845289 0.878126 0.735317
0.871946 0.89398 0.755444
0.899977 0.909255 0.772503
0.927565 0.924498 0.78497
0.955276 0.936675 0.799161
0.0375067 0.0434882 0.059205
0.057557 0.0494087 0.0745403
0.0978714 0.0587472 0.0946517
0.160754 0.0708476 0.119463
0.227909 0.0849012 0.143816
0.297719 0.100343 0.166064
0.369329 0.117082 0.18584
0.440955 0.136324 0.202396
0.515496 0.157122 0.220279
0.0551766 0.0932631 0.10338
0.0859693 0.101793 0.120897
0.141802 0.111177 0.138628
0.205173 0.123033 0.159548
0.272496 0.141192 0.172885
0.344656 0.160998 0.188251
0.422477 0.183688 0.205997
0.503975 0.209689 0.228611
0.588403 0.238514 0.255009
0.0865797 0.171374 0.155001
0.125673 0.177325 0.164416
0.183078 0.186007 0.177676
0.250004 0.200229 0.192569
0.329656 0.220615 0.207462
0.414649 0.248157 0.229267
0.505058 0.2813 0.25684
0.597879 0.317784 0.288823
0.691585 0.357122 0.323583
0.134951 0.263539 0.215778
0.185458 0.268421 0.223865
0.250462 0.281758 0.236881
0.321157 0.304585 0.254917
0.404822 0.332784 0.273518
0.49984 0.366201 0.296818
0.603189 0.405112 0.328099
0.706523 0.448386 0.365286
0.807813 0.494484 0.405463
0.189502 0.379309 0.279561
0.25919 0.387442 0.294636
0.338811 0.402853 0.314549
0.408392 0.426932 0.33518
0.487312 0.457343 0.354467
0.586831 0.496071 0.37908
0.698924 0.540963 0.41149
0.810254 0.591028 0.455161
0.904128 0.639307 0.502815
0.251972 0.505989 0.35169
0.352621 0.515358 0.373449
0.447791 0.534218 0.403906
0.519661 0.56054 0.432563
0.58439 0.592844 0.457084
0.664408 0.627359 0.480766
0.766842 0.670451 0.516976
0.858549 0.71281 0.557641
0.931136 0.752682 0.601083
0.349325 0.640238 0.434256
0.476219 0.650904 0.472374
0.582345 0.666239 0.511376
0.639933 0.688624 0.545556
0.687968 0.71577 0.572244
0.744488 0.74342 0.594965
0.811505 0.773266 0.621775
0.874861 0.802808 0.653971
0.935866 0.83418 0.695552
0.503975 0.750591 0.547509
0.611856 0.761761 0.594064
0.685725 0.775616 0.627008
0.740398 0.793515 0.653407
0.780957 0.814252 0.68101
0.819837 0.833906 0.702419
0.859785 0.853742 0.725597
0.903563 0.873808 0.75021
0.943908 0.893568 0.770977
0.655924 0.837156 0.675792
0.738277 0.84567 0.707088
0.78146 0.856046 0.725994
0.816114 0.869123 0.742016
0.847135 0.883589 0.761349
0.876143 0.898756 0.780667
0.904051 0.913848 0.795712
0.932464 0.928069 0.809598
0.958389 0.939513 0.824674
0.0354467 0.0484474 0.0792554
0.0564736 0.0556191 0.100542
0.101686 0.0643473 0.12961
0.167147 0.075349 0.162448
0.234592 0.0887312 0.190906
0.302876 0.103639 0.212314
0.371267 0.1205 0.230869
0.439536 0.139208 0.246632
0.511177 0.159152 0.264851
0.0483711 0.102617 0.130129
0.078645 0.111528 0.148379
0.136782 0.11928 0.175113
0.20325 0.129686 0.204013
0.271061 0.146746 0.219913
0.342687 0.165759 0.235569
0.417655 0.187747 0.252674
0.496208 0.212512 0.275044
0.579904 0.241199 0.303304
0.0809186 0.181399 0.186938
0.119188 0.187457 0.198856
0.175418 0.195743 0.215961
0.243793 0.208942 0.236881
0.323796 0.226856 0.261891
0.409583 0.254002 0.282246
0.498177 0.285664 0.308721
0.588235 0.321111 0.339498
0.681361 0.360296 0.37438
0.130098 0.273487 0.257221
0.176913 0.279622 0.269627
0.241337 0.294408 0.286702
0.316503 0.315145 0.306508
0.401617 0.340703 0.329152
0.495689 0.371572 0.352697
0.596002 0.409628 0.381521
0.697353 0.452598 0.418402
0.798535 0.498741 0.459678
0.186664 0.38938 0.336767
0.250843 0.398779 0.353704
0.328984 0.415167 0.374807
0.406821 0.437964 0.388434
0.487358 0.467262 0.409216
0.587381 0.503944 0.435462
0.697063 0.547646 0.469245
0.802823 0.595956 0.512489
0.891676 0.643412 0.55726
0.247807 0.515633 0.420554
0.338308 0.528359 0.441764
0.431617 0.548638 0.468681
0.514168 0.574136 0.489418
0.587472 0.603586 0.509331
0.663905 0.636622 0.531395
0.763882 0.67715 0.568429
0.851713 0.717235 0.607691
0.922957 0.755428 0.648402
0.347372 0.650126 0.509712
0.460777 0.663127 0.545724
0.55581 0.681529 0.581125
0.632517 0.700801 0.592706
0.688899 0.725414 0.616266
0.747524 0.751659 0.637995
0.810834 0.779324 0.663813
0.871931 0.808209 0.694316
0.934234 0.838453 0.730892
0.493843 0.759411 0.620508
0.593256 0.772595 0.658808
0.67039 0.786969 0.682643
0.735607 0.80325 0.697261
0.784024 0.821424 0.717067
0.823056 0.84033 0.736278
0.86302 0.859403 0.757473
0.906615 0.878828 0.77879
0.945495 0.897581 0.797375
0.646113 0.84477 0.731609
0.716167 0.854353 0.755673
0.765942 0.864851 0.763714
0.810666 0.876249 0.772931
0.847028 0.889586 0.789059
0.879088 0.9037 0.805142
0.90779 0.918364 0.818814
0.936522 0.931304 0.834028
0.960327 0.942046 0.848371
0.0330968 0.0540017 0.102693
0.0564584 0.0619364 0.1299
0.106813 0.0697795 0.166506
0.174548 0.0796216 0.20557
0.242924 0.0923934 0.238407
0.31133 0.10721 0.261662
0.375967 0.124376 0.27747
0.441855 0.142367 0.29279
0.51046 0.161669 0.310918
0.0418097 0.112551 0.155901
0.0717021 0.121462 0.176806
0.134768 0.12723 0.214405
0.201328 0.13756 0.246616
0.270741 0.153231 0.268284
0.342824 0.171359 0.28658
0.41593 0.192386 0.302953
0.492836 0.216129 0.325002
0.574304 0.244175 0.352575
0.0736095 0.192996 0.213794
0.111696 0.199161 0.228031
0.164645 0.208209 0.24741
0.235401 0.219852 0.280507
0.318624 0.236576 0.315297
0.406165 0.26099 0.340841
0.492653 0.290364 0.36463
0.580636 0.32398 0.391501
0.671092 0.36144 0.423133
0.124681 0.28452 0.291478
0.168017 0.293355 0.303044
0.230701 0.309606 0.32517
0.30721 0.328649 0.354849
0.394125 0.351049 0.385672
0.488731 0.377844 0.413321
0.583947 0.411231 0.438468
0.685588 0.453086 0.471275
0.785336 0.498573 0.510567
0.185946 0.399741 0.384054
0.246067 0.410773 0.401801
0.31928 0.428428 0.423804
0.397116 0.451682 0.446006
0.481895 0.478996 0.469795
0.58027 0.511025 0.496345
0.685954 0.550668 0.528588
0.786572 0.596338 0.565698
0.872206 0.642069 0.605219
0.251514 0.525277 0.476249
0.333883 0.539773 0.502403
0.419837 0.561898 0.532723
0.503792 0.587762 0.553613
0.585367 0.615732 0.566781
0.66334 0.646052 0.589929
0.755627 0.681437 0.621027
0.838819 0.718441 0.654643
0.910109 0.754833 0.691051
0.351736 0.658122 0.575021
0.452781 0.673167 0.613031
0.541772 0.692348 0.643275
0.618173 0.713054 0.658549
0.686381 0.735607 0.666926
0.749203 0.759823 0.68455
0.808972 0.785077 0.705303
0.870878 0.81387 0.732815
0.930251 0.840406 0.764202
0.493111 0.765988 0.6813
0.583154 0.780911 0.718975
0.660929 0.796231 0.738964
0.72781 0.812696 0.748592
0.784756 0.828901 0.753552
0.824674 0.846922 0.771374
0.865843 0.864912 0.788602
0.908919 0.883284 0.806821
0.945891 0.900908 0.823713
0.633539 0.851179 0.784024
0.703838 0.861479 0.797665
0.75935 0.871855 0.800992
0.804944 0.883253 0.807858
0.845945 0.895659 0.818219
0.881102 0.908858 0.829374
0.910445 0.922621 0.84271
0.938811 0.934295 0.857481
0.961593 0.944442 0.870207
0.0308995 0.0603494 0.12842
0.0576333 0.0679179 0.160983
0.112535 0.0747387 0.204822
0.182193 0.0835126 0.25069
0.25124 0.0958724 0.287419
0.319692 0.110948 0.311971
0.383017 0.128008 0.327428
0.448005 0.145769 0.342855
0.515343 0.164782 0.360983
0.0344244 0.12253 0.185046
0.0646982 0.131655 0.206729
0.133043 0.1355 0.253559
0.200732 0.145617 0.289342
0.271199 0.160189 0.317479
0.345098 0.177462 0.340414
0.420386 0.197574 0.359884
0.494148 0.221271 0.378927
0.573602 0.248844 0.404471
0.0650645 0.204807 0.241642
0.103532 0.211612 0.256352
0.155123 0.221881 0.275822
0.22916 0.232074 0.323384
0.314015 0.248646 0.367391
0.40351 0.270207 0.400183
0.490593 0.297017 0.424598
0.57557 0.327611 0.44712
0.661799 0.362539 0.473121
0.115999 0.29807 0.320943
0.159319 0.308888 0.33106
0.221271 0.325582 0.356985
0.296849 0.344564 0.394919
0.383551 0.365103 0.435187
0.480446 0.386114 0.475883
0.576837 0.415946 0.501671
0.674647 0.453346 0.530327
0.770382 0.495552 0.563348
0.18378 0.41207 0.423377
0.240848 0.424384 0.43743
0.311437 0.443732 0.461006
0.38497 0.468727 0.488762
0.470527 0.493874 0.523125
0.570443 0.520897 0.560143
0.672709 0.553567 0.593011
0.765393 0.592035 0.620829
0.849592 0.636027 0.652338
0.255283 0.536629 0.525063
0.332876 0.552254 0.549752
0.413672 0.576471 0.579812
0.495033 0.602731 0.60528
0.577737 0.628977 0.629129
0.659388 0.656336 0.648554
0.746197 0.685954 0.675608
0.82565 0.718486 0.703212
0.895094 0.752285 0.732723
0.361181 0.666102 0.630198
0.455207 0.682017 0.665248
0.537392 0.702739 0.695354
0.61416 0.724132 0.710475
0.684321 0.745876 0.719036
0.749371 0.768322 0.732143
0.806271 0.791348 0.749416
0.868559 0.817609 0.773861
0.923766 0.840284 0.797589
0.498909 0.772686 0.729793
0.586175 0.787854 0.763928
0.664652 0.803952 0.78378
0.733379 0.820554 0.789197
0.783459 0.836515 0.796033
0.825818 0.853407 0.806943
0.868696 0.8701 0.820218
0.909819 0.887221 0.835203
0.944671 0.903593 0.850553
0.641321 0.855665 0.816327
0.711238 0.865934 0.827375
0.759274 0.877684 0.833936
0.802304 0.889632 0.840345
0.844495 0.901595 0.847074
0.879774 0.914534 0.855619
0.911604 0.926619 0.866926
0.940307 0.937163 0.879637
0.962814 0.946838 0.890715
0.0291905 0.0667735 0.156497
0.0590372 0.07393 0.195026
0.118349 0.0796368 0.24567
0.189578 0.08748 0.297612
0.259449 0.0997482 0.336645
0.327123 0.114839 0.362814
0.391638 0.131487 0.379705
0.457542 0.14902 0.39646
0.524468 0.168185 0.414786
0.0271305 0.132753 0.216861
0.0586404 0.140612 0.243702
0.133639 0.143526 0.294759
0.201053 0.153796 0.332326
0.272251 0.167391 0.366583
0.348943 0.183719 0.395575
0.426001 0.203586 0.418616
0.502174 0.228275 0.438361
0.579461 0.255619 0.461326
0.0551461 0.217243 0.271275
0.0945754 0.224323 0.286168
0.148821 0.235737 0.305425
0.222995 0.245914 0.364126
0.308812 0.262287 0.415091
0.400198 0.281727 0.457435
0.490318 0.306371 0.486625
0.57673 0.33463 0.509209
0.660426 0.36669 0.531823
0.103914 0.313481 0.347585
0.150729 0.324987 0.360357
0.214023 0.342473 0.386755
0.286564 0.362448 0.427298
0.371878 0.38175 0.47657
0.47068 0.400046 0.531777
0.572473 0.424704 0.56878
0.669398 0.457099 0.595972
0.759228 0.494835 0.623117
0.176623 0.427039 0.453941
0.232609 0.440742 0.465232
0.300175 0.462074 0.486397
0.371984 0.487953 0.519509
0.457328 0.5122 0.566812
0.557702 0.535393 0.616281
0.660899 0.561532 0.656809
0.753796 0.594263 0.683131
0.829358 0.630198 0.705272
0.25568 0.549569 0.566812
0.328542 0.567605 0.58703
0.406119 0.592966 0.612482
0.486534 0.620111 0.640497
0.566339 0.646311 0.667033
0.649577 0.669749 0.698009
0.736339 0.693126 0.728252
0.814252 0.720607 0.752346
0.879057 0.749264 0.774838
0.36936 0.675807 0.67538
0.460044 0.69279 0.702937
0.542687 0.714 0.727443
0.617227 0.735653 0.743557
0.684184 0.757397 0.758389
0.74789 0.777935 0.774762
0.803723 0.798291 0.795163
0.865522 0.820844 0.812207
0.91696 0.840558 0.831266
0.512352 0.780041 0.768643
0.606271 0.79498 0.795575
0.686381 0.810712 0.81059
0.741817 0.827344 0.821805
0.783749 0.843961 0.830243
0.827436 0.859983 0.839536
0.86978 0.87538 0.851057
0.908629 0.891188 0.863951
0.942824 0.906126 0.877699
0.656107 0.859937 0.841016
0.720287 0.870726 0.850172
0.76289 0.88307 0.858183
0.80238 0.895552 0.866392
0.84152 0.907713 0.873503
0.877058 0.920165 0.881697
0.911864 0.930373 0.889265
0.940917 0.940017 0.900236
0.96379 0.949279 0.909697
0.0274968 0.0735027 0.187396
0.0603342 0.0798962 0.231739
0.123522 0.0845045 0.288899
0.196063 0.091783 0.34519
0.267765 0.103761 0.386755
0.333944 0.118883 0.412695
0.400671 0.134981 0.433051
0.468528 0.152193 0.451896
0.536309 0.171572 0.470756
0.0206912 0.142809 0.252598
0.0576028 0.148547 0.28632
0.134066 0.152026 0.335454
0.201114 0.162005 0.37554
0.274022 0.174578 0.415061
0.352697 0.190387 0.449744
0.431235 0.210483 0.477226
0.510903 0.235721 0.499443
0.58912 0.262852 0.522118
0.0446326 0.229404 0.302678
0.0860456 0.236561 0.319966
0.146365 0.24889 0.342489
0.218677 0.260945 0.402869
0.303655 0.276585 0.459327
0.394965 0.295064 0.510094
0.489372 0.317449 0.548028
0.580987 0.343954 0.575082
0.666194 0.374762 0.597284
0.0919356 0.329534 0.374624
0.141955 0.341146 0.391501
0.207538 0.359701 0.417441
0.277043 0.380789 0.456748
0.359991 0.400275 0.512978
0.456092 0.418647 0.5785
0.566018 0.438697 0.632227
0.667918 0.466651 0.664027
0.757351 0.499962 0.688609
0.16527 0.444038 0.478813
0.222614 0.458366 0.490471
0.290105 0.480858 0.512505
0.361364 0.507179 0.549111
0.442573 0.532769 0.601389
0.542489 0.553857 0.661982
0.650294 0.575326 0.713436
0.745922 0.601709 0.742046
0.820157 0.632364 0.758968
0.251164 0.565499 0.599939
0.320699 0.585245 0.615106
0.397589 0.611124 0.637797
0.473838 0.638651 0.663325
0.552529 0.663478 0.696391
0.638163 0.68426 0.736584
0.726314 0.704143 0.771389
0.804715 0.725948 0.798245
0.868605 0.749783 0.815381
0.374487 0.686091 0.710567
0.464088 0.705028 0.731029
0.547326 0.726726 0.747417
0.620996 0.748394 0.763699
0.684565 0.769039 0.784527
0.743862 0.788769 0.806928
0.79765 0.807996 0.826627
0.86067 0.824918 0.846204
0.910842 0.841657 0.861967
0.534752 0.787488 0.799023
0.631327 0.802365 0.817105
0.698253 0.818753 0.82919
0.741695 0.835599 0.839567
0.783688 0.851545 0.852064
0.826535 0.866621 0.864958
0.868254 0.881071 0.877531
0.907118 0.895262 0.889281
0.941772 0.908721 0.898848
0.672847 0.864652 0.857847
0.723705 0.876066 0.866773
0.762676 0.888579 0.876341
0.801312 0.901183 0.886137
0.838346 0.913695 0.895155
0.875685 0.924605 0.900649
0.910826 0.934081 0.908995
0.94136 0.942946 0.918608
0.964569 0.951934 0.9252
0.0253605 0.0803235 0.220584
0.0609598 0.0860609 0.271321
0.127733 0.0896468 0.334142
0.202304 0.0963455 0.393057
0.272892 0.108782 0.43328
0.339986 0.123079 0.461387
0.409003 0.138537 0.485267
0.478752 0.155718 0.506905
0.548028 0.175265 0.527169
0.0164645 0.15227 0.290364
0.0585489 0.156146 0.330297
0.134142 0.160235 0.376745
0.201907 0.169879 0.419181
0.276402 0.181811 0.462119
0.356878 0.197055 0.502693
0.437934 0.217762 0.534401
0.519585 0.242878 0.560845
0.599924 0.270222 0.584909
0.0352178 0.240986 0.337148
0.0792248 0.248402 0.356985
0.144015 0.261326 0.383368
0.217945 0.274617 0.443671
0.299657 0.291157 0.500282
0.389593 0.309148 0.557839
0.486763 0.330053 0.606088
0.582757 0.355413 0.641413
0.673747 0.385183 0.664042
0.0811627 0.344976 0.406058
0.13341 0.35697 0.425498
0.20209 0.376608 0.451148
0.271031 0.399268 0.487739
0.346014 0.42063 0.545403
0.442206 0.437781 0.620554
0.556512 0.454902 0.686336
0.667536 0.479408 0.725139
0.760922 0.50988 0.749233
0.151934 0.46154 0.50222
0.212375 0.476661 0.515602
0.281758 0.499626 0.540825
0.351858 0.526085 0.580407
0.427588 0.551492 0.634043
0.527932 0.571313 0.703395
0.641627 0.590448 0.761593
0.741558 0.613733 0.790127
0.81825 0.640299 0.805081
0.243824 0.58233 0.624079
0.313344 0.60238 0.637125
0.386923 0.628305 0.65861
0.461143 0.655482 0.68571
0.542687 0.678874 0.721492
0.632746 0.697551 0.764904
0.720302 0.715511 0.802731
0.802213 0.73341 0.832563
0.866926 0.755322 0.848859
0.378332 0.697246 0.734981
0.469566 0.717403 0.748211
0.551751 0.739376 0.761212
0.620706 0.760067 0.778897
0.680247 0.78027 0.80145
0.73695 0.800031 0.826047
0.794186 0.816159 0.852293
0.858747 0.829313 0.871641
0.907835 0.844526 0.886091
0.553811 0.795483 0.818982
0.63653 0.811215 0.831098
0.693843 0.827451 0.841657
0.737804 0.843519 0.853178
0.780468 0.8589 0.867338
0.824063 0.873137 0.882719
0.867475 0.886519 0.89662
0.906798 0.899275 0.905882
0.94139 0.911162 0.914839
0.674052 0.869825 0.870848
0.717693 0.881544 0.879911
0.759411 0.894041 0.890135
0.799954 0.906249 0.899535
0.837171 0.918563 0.907744
0.87483 0.928527 0.916274
0.91075 0.937499 0.92491
0.942214 0.945953 0.930892
0.964965 0.954849 0.934783
