LUT预设1/LUT全系打包/CINE系列lut/709/N-CINE3漂白709.cube
TITLE "Generated by Resolve"
LUT_3D_SIZE 33
0.0370489 0.03682 0.0353399
0.0406195 0.0382391 0.0368353
0.045304 0.039704 0.0386053
0.0500954 0.0411536 0.0404669
0.054963 0.0426184 0.0424048
0.0617838 0.0441749 0.0444648
0.0693217 0.0458381 0.0466926
0.076997 0.0476387 0.0489509
0.0881971 0.0500496 0.0511482
0.102174 0.0528115 0.053254
0.116365 0.0555886 0.055375
0.131395 0.0585641 0.0576028
0.148425 0.0620737 0.0601816
0.16553 0.0655833 0.0627604
0.182712 0.0690776 0.0653391
0.201022 0.0730297 0.0682536
0.219409 0.076997 0.0711681
0.237629 0.0809033 0.074052
0.25687 0.0850538 0.0770275
0.276753 0.08925 0.0800336
0.296529 0.0935073 0.0831311
0.316487 0.0978256 0.0862745
0.336629 0.102312 0.0894789
0.356695 0.106828 0.0928359
0.376852 0.111452 0.0961929
0.39707 0.116228 0.0996109
0.417273 0.121035 0.103136
0.437446 0.125872 0.106767
0.457588 0.130816 0.110338
0.476463 0.136095 0.114031
0.49572 0.141451 0.117769
0.5149 0.146761 0.121431
0.534463 0.152117 0.125048
0.0423896 0.0443275 0.0399786
0.0467842 0.0461433 0.041886
0.0517281 0.0479286 0.0439307
0.0566262 0.0496071 0.0459449
0.0625162 0.0514382 0.0480201
0.0711376 0.0534829 0.0501259
0.0800793 0.0555428 0.0522011
0.0894026 0.0576333 0.0542153
0.104021 0.0603342 0.0562295
0.119097 0.0631571 0.0582742
0.134203 0.0659495 0.0602426
0.151003 0.069276 0.062623
0.168368 0.072755 0.065095
0.185809 0.0762341 0.0675669
0.2038 0.0799268 0.0701762
0.222202 0.0838178 0.0729381
0.240864 0.0877394 0.0757
0.25948 0.0915999 0.0784772
0.279652 0.0958877 0.0815747
0.299596 0.100114 0.0847028
0.318532 0.104784 0.0876173
0.337392 0.109804 0.090547
0.356313 0.11487 0.0935378
0.37528 0.119951 0.0965744
0.394522 0.12517 0.0995804
0.413931 0.13048 0.102846
0.433127 0.13576 0.106752
0.452445 0.141054 0.110597
0.471794 0.14641 0.114275
0.491508 0.151812 0.118013
0.51133 0.157244 0.121782
0.530922 0.162646 0.125475
0.550576 0.168093 0.129244
0.0484016 0.0541238 0.0459907
0.0532387 0.055787 0.0479744
0.0581216 0.0575418 0.0500191
0.0629892 0.0592813 0.0520333
0.0716716 0.0612955 0.0538949
0.0817121 0.0633402 0.0557259
0.0919966 0.0654612 0.0575113
0.105257 0.0679637 0.0593881
0.120882 0.0707713 0.0612955
0.136599 0.0734874 0.0632334
0.15317 0.0764782 0.0653086
0.170047 0.080354 0.0675212
0.186389 0.0843061 0.0695506
0.202884 0.0882277 0.071458
0.220615 0.0926528 0.0737469
0.238437 0.0969558 0.0761425
0.256153 0.101366 0.0785382
0.274815 0.106004 0.0811627
0.293538 0.110704 0.0838636
0.312184 0.115373 0.0865797
0.330983 0.12018 0.0893721
0.350423 0.125338 0.0923629
0.369528 0.130449 0.0956741
0.388235 0.135485 0.0993973
0.407782 0.140795 0.103059
0.427359 0.146075 0.106859
0.447044 0.151354 0.110643
0.466941 0.156634 0.114412
0.486809 0.162066 0.118135
0.507027 0.167575 0.121965
0.527001 0.173083 0.125795
0.547204 0.178698 0.129717
0.5673 0.184497 0.133837
0.0547341 0.063798 0.052491
0.0595865 0.0655222 0.0543832
0.0645609 0.0677195 0.0560464
0.0711223 0.0702983 0.0576028
0.0819104 0.073167 0.0590829
0.0925765 0.0758373 0.0606546
0.103151 0.0786145 0.0622873
0.118425 0.0819867 0.06392
0.133455 0.0852979 0.0655375
0.148409 0.088426 0.0671092
0.164431 0.0920882 0.0686961
0.180743 0.0958572 0.0701305
0.196979 0.0995651 0.0715038
0.214038 0.103441 0.0732891
0.232013 0.107836 0.075639
0.250294 0.112276 0.0780652
0.268498 0.116701 0.0804456
0.287358 0.12137 0.0830243
0.305913 0.125978 0.0855726
0.324193 0.130571 0.0885939
0.343404 0.135515 0.0922713
0.362615 0.140627 0.0959335
0.381872 0.145724 0.0995499
0.401511 0.150973 0.103243
0.421454 0.15671 0.107256
0.441764 0.162554 0.111513
0.462287 0.168505 0.115816
0.482856 0.17464 0.120211
0.503822 0.180911 0.124727
0.524788 0.187045 0.12932
0.545586 0.193439 0.133928
0.566522 0.199924 0.138613
0.587854 0.206531 0.143404
0.0632181 0.0791333 0.0572518
0.0679332 0.0816205 0.0585794
0.0724956 0.0839704 0.0598459
0.0814832 0.0866255 0.0613718
0.0917983 0.0892958 0.0630961
0.101869 0.0917525 0.0648356
0.114504 0.0946517 0.066392
0.12929 0.0977951 0.0677501
0.144015 0.100771 0.0690318
0.159289 0.10396 0.0701915
0.175357 0.107515 0.0711376
0.191348 0.111009 0.0719921
0.207019 0.11429 0.072755
0.225422 0.118654 0.0749981
0.244038 0.123079 0.0774243
0.262181 0.127871 0.0803082
0.280461 0.132647 0.0838331
0.298665 0.137636 0.0874495
0.317052 0.142641 0.0908827
0.336172 0.147875 0.0945907
0.355932 0.153445 0.0985733
0.375784 0.15903 0.102541
0.395697 0.164446 0.106493
0.41651 0.170474 0.110811
0.437232 0.176501 0.115038
0.458335 0.18265 0.119493
0.479667 0.188998 0.124056
0.500893 0.195438 0.128695
0.522545 0.201999 0.13344
0.543908 0.208392 0.13817
0.565682 0.215137 0.142962
0.587335 0.221866 0.147784
0.609201 0.228672 0.152499
0.0715038 0.0953841 0.0613107
0.0757458 0.0979019 0.0622721
0.0813306 0.100282 0.0634165
0.0912642 0.10277 0.0652171
0.100938 0.105043 0.0670787
0.110704 0.107378 0.0689708
0.125551 0.110765 0.0703441
0.140276 0.113939 0.0717021
0.15462 0.117205 0.0730755
0.169818 0.120867 0.0743267
0.185229 0.124498 0.0755474
0.200504 0.128283 0.0768292
0.217121 0.132494 0.0787976
0.23534 0.137011 0.0820172
0.253269 0.141604 0.0850843
0.27155 0.146273 0.087953
0.290471 0.151293 0.091371
0.309499 0.156176 0.0947585
0.328908 0.161288 0.098146
0.349065 0.166812 0.101823
0.369436 0.172427 0.105714
0.389883 0.178058 0.109621
0.410819 0.183871 0.113832
0.432395 0.190204 0.118364
0.453895 0.196536 0.12282
0.475776 0.203052 0.127535
0.497856 0.209766 0.132342
0.51989 0.216617 0.13727
0.542489 0.223774 0.14255
0.564889 0.231189 0.14786
0.587686 0.238743 0.153124
0.610269 0.246326 0.158572
0.632639 0.253895 0.164019
0.0809033 0.113802 0.0657511
0.0851911 0.116594 0.0668956
0.0936599 0.11928 0.0688029
0.103212 0.121553 0.0709544
0.11284 0.123873 0.0730907
0.124514 0.126574 0.0748913
0.137942 0.12958 0.0763256
0.151186 0.132677 0.0777752
0.164767 0.135744 0.0792096
0.179568 0.139498 0.0808576
0.194156 0.143206 0.0831769
0.208438 0.14667 0.0854658
0.226474 0.15111 0.0878309
0.244709 0.15555 0.0901656
0.262654 0.159747 0.0922866
0.281926 0.164584 0.0951247
0.301686 0.16968 0.0982528
0.321798 0.174823 0.101503
0.342 0.179995 0.104967
0.363027 0.18613 0.10927
0.384298 0.192325 0.113466
0.405737 0.198596 0.1178
0.428183 0.205432 0.122835
0.450828 0.212528 0.127947
0.47335 0.219654 0.132921
0.496345 0.227085 0.138216
0.519432 0.234455 0.143603
0.542504 0.242084 0.149065
0.56585 0.249866 0.154635
0.588785 0.257633 0.160082
0.611811 0.265507 0.165759
0.63505 0.273594 0.171954
0.657099 0.281209 0.178103
0.0919356 0.134691 0.0715038
0.0972 0.137194 0.0731975
0.106325 0.13901 0.0752728
0.115419 0.140887 0.0773938
0.124346 0.142428 0.0793469
0.136706 0.145418 0.0808728
0.148821 0.148211 0.082887
0.160571 0.15108 0.0852369
0.174029 0.154498 0.0874342
0.188174 0.157961 0.0897383
0.202701 0.161791 0.0923476
0.218845 0.165789 0.0946059
0.237201 0.170443 0.096849
0.255131 0.175113 0.0991226
0.273457 0.179751 0.101442
0.293996 0.185306 0.104906
0.314656 0.190875 0.108278
0.335714 0.196307 0.111406
0.357595 0.202518 0.11548
0.379843 0.208881 0.119722
0.402335 0.21532 0.123857
0.425132 0.222004 0.128481
0.448356 0.229328 0.133577
0.471687 0.236713 0.138705
0.494911 0.244205 0.14374
0.518624 0.251896 0.149294
0.542275 0.259846 0.15491
0.566339 0.267948 0.160632
0.589578 0.276112 0.166827
0.612863 0.28423 0.173465
0.636133 0.292622 0.18027
0.659113 0.30103 0.18703
0.681971 0.309712 0.19382
0.102617 0.155352 0.0779889
0.110094 0.157244 0.0800488
0.118929 0.158938 0.0821241
0.127382 0.160388 0.0847334
0.137514 0.162661 0.0873884
0.149248 0.165393 0.0899977
0.161074 0.1682 0.0928511
0.17348 0.170947 0.095552
0.187289 0.174838 0.0981308
0.200855 0.178515 0.100557
0.214267 0.182361 0.103166
0.231418 0.186847 0.105425
0.248981 0.191638 0.107668
0.266407 0.196429 0.110063
0.286183 0.201526 0.112688
0.307637 0.207126 0.115618
0.329549 0.212787 0.118471
0.351736 0.218494 0.121523
0.375021 0.225055 0.125689
0.39852 0.231647 0.129824
0.422156 0.238087 0.133791
0.445945 0.24564 0.138857
0.469734 0.253361 0.143969
0.49308 0.261341 0.149248
0.516609 0.269886 0.154925
0.540475 0.278843 0.161791
0.564157 0.287541 0.168688
0.588312 0.29662 0.175677
0.611917 0.305623 0.182849
0.636057 0.314778 0.190173
0.659953 0.323659 0.197467
0.683268 0.332479 0.204059
0.706706 0.34139 0.21091
0.115068 0.17734 0.0867475
0.123247 0.178622 0.0893111
0.131472 0.180026 0.0918898
0.139651 0.18114 0.0941482
0.151186 0.183688 0.0971847
0.162905 0.185931 0.100374
0.174655 0.188235 0.103517
0.187137 0.19147 0.106233
0.199832 0.195361 0.108705
0.212253 0.199023 0.111238
0.226596 0.203311 0.113664
0.243626 0.20798 0.11603
0.26041 0.212802 0.118502
0.27808 0.217609 0.120882
0.300435 0.223743 0.123644
0.322942 0.229999 0.126253
0.344991 0.236011 0.128847
0.368292 0.243122 0.13283
0.391821 0.250217 0.136858
0.415381 0.257603 0.141009
0.439109 0.265461 0.145693
0.462989 0.273579 0.151003
0.4869 0.282078 0.157015
0.510765 0.290639 0.163195
0.535592 0.299626 0.17023
0.560678 0.308949 0.17763
0.585657 0.318273 0.185092
0.610483 0.327321 0.192294
0.635111 0.336599 0.19971
0.659892 0.345953 0.207218
0.684688 0.355276 0.214343
0.708598 0.364111 0.22121
0.732799 0.373327 0.22829
0.127733 0.198795 0.0968948
0.135729 0.199954 0.0991989
0.143633 0.200839 0.101335
0.153048 0.202197 0.104097
0.164843 0.204379 0.10753
0.176745 0.206546 0.110903
0.1888 0.209049 0.114214
0.201511 0.213336 0.117082
0.213993 0.217273 0.12018
0.226658 0.221332 0.123491
0.242649 0.226474 0.126085
0.258885 0.232059 0.128573
0.274662 0.237491 0.130999
0.294102 0.24361 0.133394
0.316136 0.249851 0.13579
0.337819 0.256336 0.138201
0.360067 0.263172 0.140932
0.38378 0.270451 0.144793
0.407492 0.278065 0.148913
0.431083 0.285512 0.153414
0.455665 0.294072 0.159442
0.480446 0.302678 0.165331
0.505318 0.31107 0.171328
0.530632 0.320226 0.17821
0.55671 0.329839 0.185946
0.582879 0.339269 0.193729
0.608713 0.348898 0.201312
0.633616 0.358495 0.208789
0.659007 0.368032 0.216449
0.684489 0.377905 0.224109
0.709056 0.387442 0.231403
0.733669 0.396765 0.238804
0.758953 0.406561 0.246509
0.141161 0.221988 0.106706
0.149325 0.222934 0.108965
0.157809 0.224018 0.111025
0.169467 0.226062 0.11458
0.181262 0.228107 0.118288
0.193454 0.230274 0.121965
0.205798 0.233478 0.125566
0.218341 0.237171 0.129427
0.231128 0.24097 0.133486
0.24477 0.24535 0.136904
0.259449 0.251301 0.139101
0.273442 0.257053 0.141238
0.288182 0.263249 0.143282
0.309529 0.269673 0.145388
0.331106 0.276448 0.147402
0.352377 0.283055 0.149966
0.375814 0.290654 0.153918
0.399771 0.298482 0.158404
0.423468 0.306264 0.162936
0.447745 0.314717 0.168383
0.472816 0.323354 0.174487
0.497932 0.332265 0.180377
0.523217 0.341085 0.186542
0.549279 0.350927 0.194003
0.57586 0.360906 0.201663
0.602228 0.370581 0.209155
0.62884 0.380682 0.216999
0.655314 0.390814 0.225162
0.682292 0.400854 0.233448
0.708598 0.410925 0.241352
0.734279 0.420768 0.249195
0.760052 0.430381 0.257069
0.785962 0.440299 0.264866
0.155291 0.246281 0.116686
0.163867 0.246845 0.118593
0.173892 0.248005 0.121416
0.185779 0.250111 0.125322
0.197818 0.251896 0.129229
0.209979 0.253925 0.133227
0.222782 0.257572 0.137911
0.235645 0.260868 0.142626
0.248722 0.264088 0.147616
0.262272 0.270604 0.149722
0.275654 0.277104 0.151705
0.289174 0.283818 0.154223
0.30721 0.290593 0.157153
0.328145 0.297917 0.160418
0.34815 0.304967 0.163531
0.368933 0.31252 0.167269
0.392218 0.320317 0.171298
0.415366 0.328359 0.175463
0.43827 0.336156 0.179248
0.4636 0.345113 0.184985
0.488991 0.353826 0.190616
0.514458 0.362844 0.196078
0.54107 0.37229 0.202808
0.56817 0.38233 0.210025
0.59585 0.392508 0.217487
0.623316 0.402457 0.225177
0.651423 0.413062 0.233677
0.679347 0.423362 0.242313
0.707668 0.434043 0.250904
0.734722 0.44419 0.259129
0.761425 0.453986 0.267231
0.787869 0.46424 0.275151
0.812833 0.474113 0.282673
0.16936 0.270695 0.126329
0.178393 0.271626 0.127749
0.190295 0.273594 0.131594
0.202899 0.275456 0.135607
0.215717 0.27718 0.139666
0.229129 0.280522 0.144366
0.242374 0.284306 0.149416
0.255756 0.288075 0.154696
0.269306 0.293217 0.159365
0.282719 0.299672 0.162966
0.296101 0.305989 0.166995
0.310384 0.312612 0.171176
0.328756 0.319783 0.174578
0.346883 0.327291 0.177996
0.364187 0.334493 0.181521
0.385733 0.342443 0.185031
0.408286 0.35024 0.188312
0.431037 0.358373 0.19173
0.454658 0.366583 0.195956
0.4804 0.375662 0.201175
0.506188 0.384482 0.206455
0.532372 0.393759 0.211887
0.560311 0.403738 0.219303
0.587869 0.413901 0.22649
0.615808 0.423896 0.233692
0.643931 0.434592 0.241917
0.672786 0.445624 0.250629
0.701473 0.456397 0.259113
0.72958 0.467262 0.267308
0.756786 0.477592 0.275563
0.784298 0.48838 0.283909
0.811948 0.499428 0.292851
0.836515 0.509239 0.300755
0.183856 0.298604 0.134752
0.1944 0.299565 0.137148
0.207828 0.301015 0.14139
0.22153 0.302312 0.145434
0.235737 0.304158 0.149737
0.24892 0.308217 0.155917
0.262333 0.312276 0.162432
0.276127 0.316548 0.169009
0.289693 0.32253 0.173968
0.303288 0.32871 0.17911
0.317082 0.335073 0.184421
0.332128 0.341848 0.188617
0.347982 0.349233 0.192233
0.363806 0.356954 0.195834
0.381369 0.364523 0.199435
0.4038 0.372717 0.202655
0.426032 0.380682 0.205997
0.447654 0.388861 0.209384
0.472801 0.397635 0.214588
0.497475 0.406592 0.219608
0.522148 0.41532 0.224567
0.548852 0.425086 0.230488
0.576516 0.434943 0.236973
0.604562 0.445182 0.243214
0.633158 0.455528 0.25005
0.66276 0.466941 0.258228
0.692622 0.478218 0.266453
0.72311 0.490013 0.274739
0.751446 0.500984 0.283787
0.780041 0.512367 0.292912
0.808942 0.523949 0.302464
0.835981 0.534646 0.311391
0.861952 0.545235 0.31986
0.197864 0.326116 0.143069
0.211612 0.327123 0.147295
0.225986 0.328161 0.152193
0.241138 0.329366 0.156985
0.2551 0.332708 0.163333
0.269078 0.33698 0.170443
0.283833 0.341024 0.177768
0.298604 0.346075 0.184558
0.3122 0.352255 0.190463
0.325948 0.358419 0.196399
0.340002 0.364935 0.202426
0.354894 0.372412 0.206455
0.36965 0.379934 0.210468
0.384085 0.38764 0.214725
0.403433 0.395422 0.218433
0.424231 0.403662 0.221942
0.444312 0.411566 0.225544
0.466133 0.419821 0.229465
0.490135 0.428717 0.234043
0.513481 0.437232 0.238102
0.537484 0.44625 0.242283
0.565621 0.456184 0.247929
0.593439 0.466331 0.253193
0.621698 0.47631 0.25832
0.651957 0.487922 0.265965
0.683421 0.49987 0.27454
0.714122 0.511955 0.283009
0.743587 0.523491 0.291646
0.772381 0.535225 0.301579
0.800809 0.546685 0.311376
0.829023 0.558495 0.321645
0.854047 0.569345 0.331334
0.879149 0.580133 0.341588
0.21442 0.355688 0.15555
0.229267 0.356909 0.160616
0.244434 0.358419 0.165774
0.259571 0.35996 0.170947
0.275349 0.363653 0.178683
0.291585 0.367132 0.186435
0.308507 0.370413 0.194232
0.322621 0.376486 0.201144
0.336156 0.382589 0.207874
0.349645 0.388571 0.214847
0.363409 0.395422 0.220462
0.377005 0.403143 0.225284
0.390249 0.41062 0.229999
0.404822 0.418143 0.234653
0.423896 0.426322 0.238331
0.442695 0.434287 0.241871
0.46099 0.442481 0.245731
0.484031 0.451072 0.24947
0.506676 0.459632 0.253285
0.529137 0.468544 0.256886
0.554772 0.478004 0.261112
0.58262 0.488304 0.266239
0.609751 0.498238 0.270771
0.638102 0.509041 0.276432
0.668528 0.520714 0.284031
0.69926 0.532723 0.291752
0.729397 0.544305 0.298909
0.758221 0.556298 0.309285
0.786984 0.568185 0.319829
0.815885 0.580514 0.330892
0.842817 0.592142 0.341939
0.868269 0.6038 0.353674
0.893675 0.61529 0.365423
0.231907 0.386084 0.16939
0.247028 0.387259 0.174487
0.262272 0.388739 0.179538
0.279088 0.391104 0.186557
0.297032 0.394049 0.19469
0.315694 0.396811 0.202792
0.332815 0.400687 0.210803
0.346258 0.406699 0.218448
0.36025 0.41297 0.226551
0.374411 0.418967 0.234607
0.38735 0.42649 0.239933
0.400381 0.434028 0.245335
0.413428 0.441749 0.251057
0.430045 0.449714 0.255589
0.447486 0.457954 0.259602
0.464286 0.466484 0.263859
0.482902 0.474861 0.267857
0.504143 0.48368 0.271351
0.524697 0.492164 0.274769
0.545922 0.500862 0.278401
0.572564 0.510933 0.282139
0.599008 0.520729 0.285756
0.624857 0.530724 0.289082
0.654582 0.541955 0.295277
0.684764 0.553704 0.301915
0.714839 0.565164 0.308507
0.744793 0.577279 0.31696
0.773968 0.589593 0.328237
0.803326 0.602121 0.339971
0.832532 0.61503 0.351827
0.857755 0.626947 0.365179
0.882216 0.638285 0.378744
0.906386 0.649851 0.391974
0.249088 0.41677 0.183185
0.264881 0.417884 0.188296
0.281498 0.41912 0.193729
0.300862 0.42182 0.202228
0.320851 0.424735 0.211017
0.341207 0.427222 0.219669
0.356588 0.432563 0.22826
0.371389 0.4383 0.237049
0.386618 0.443885 0.246082
0.400916 0.450813 0.253742
0.413718 0.458228 0.259892
0.426673 0.465644 0.26627
0.440177 0.473228 0.272236
0.455436 0.481865 0.276982
0.470192 0.490364 0.281773
0.484306 0.498802 0.286748
0.503639 0.507561 0.29044
0.522713 0.515999 0.293614
0.541115 0.524376 0.296727
0.563928 0.533791 0.299748
0.589303 0.543389 0.302052
0.614633 0.553277 0.305241
0.641688 0.563485 0.310124
0.67155 0.574746 0.317784
0.701137 0.586191 0.325902
0.72961 0.597055 0.333455
0.757748 0.60914 0.345815
0.785946 0.621103 0.357839
0.813474 0.633127 0.369833
0.839094 0.644663 0.381933
0.863279 0.656382 0.394858
0.887327 0.667857 0.407156
0.909789 0.679393 0.419745
0.267033 0.448096 0.197101
0.284291 0.448844 0.201831
0.303777 0.450584 0.209232
0.324498 0.452995 0.218494
0.345998 0.455268 0.22797
0.365545 0.458625 0.23743
0.381323 0.464088 0.246891
0.397711 0.469688 0.256596
0.413977 0.474968 0.26627
0.426886 0.482368 0.273213
0.439734 0.489677 0.280354
0.453086 0.497337 0.288258
0.466361 0.505684 0.294209
0.479622 0.514397 0.299901
0.49276 0.523201 0.305638
0.508324 0.532158 0.310796
0.526665 0.540719 0.315068
0.544366 0.549233 0.319417
0.562768 0.558221 0.324193
0.587381 0.567651 0.328573
0.611551 0.57702 0.333043
0.635096 0.586542 0.338048
0.661906 0.596811 0.345068
0.688807 0.607385 0.35259
0.715496 0.617624 0.360052
0.741802 0.628199 0.368658
0.768383 0.639719 0.379232
0.794751 0.650935 0.389487
0.820569 0.662318 0.399451
0.844648 0.673945 0.411429
0.868437 0.685832 0.423087
0.892241 0.697551 0.434592
0.911315 0.708675 0.447028
0.285847 0.479271 0.210636
0.305272 0.479759 0.215351
0.326894 0.481956 0.225376
0.34931 0.484154 0.23566
0.372061 0.486259 0.245777
0.390051 0.491051 0.255726
0.407568 0.496239 0.265888
0.425666 0.50135 0.276478
0.441321 0.507744 0.285969
0.455024 0.515206 0.294209
0.469184 0.522896 0.302831
0.482811 0.530556 0.310964
0.495109 0.539437 0.31754
0.507271 0.548333 0.324605
0.519493 0.557565 0.33196
0.535897 0.566155 0.337484
0.552239 0.574716 0.343359
0.568017 0.583505 0.349447
0.587762 0.592325 0.354971
0.610086 0.601267 0.36051
0.631891 0.610132 0.366018
0.654124 0.619379 0.372259
0.67924 0.629068 0.379446
0.703548 0.638773 0.386526
0.727398 0.648066 0.393286
0.753017 0.658763 0.402167
0.778729 0.66949 0.411399
0.804105 0.679927 0.420447
0.828534 0.69102 0.4309
0.852186 0.70219 0.44213
0.875471 0.713207 0.453285
0.897154 0.724025 0.46453
0.914244 0.733776 0.477058
0.305791 0.511116 0.22536
0.327092 0.512505 0.232776
0.350683 0.514473 0.242741
0.374563 0.51635 0.252522
0.396887 0.51928 0.262974
0.41593 0.524285 0.274479
0.435752 0.529168 0.286488
0.456107 0.534005 0.298421
0.470527 0.541634 0.307561
0.484855 0.548806 0.316854
0.499626 0.555932 0.326528
0.51191 0.564446 0.334829
0.523201 0.57348 0.343114
0.534463 0.582773 0.35169
0.547234 0.591623 0.359594
0.561837 0.600137 0.366476
0.57586 0.60856 0.373587
0.591379 0.617029 0.38175
0.612543 0.625299 0.388205
0.633143 0.633524 0.394659
0.653086 0.641932 0.401602
0.675746 0.650599 0.408362
0.698711 0.659266 0.415122
0.721569 0.668132 0.422217
0.744625 0.677195 0.429389
0.768841 0.687099 0.437461
0.792782 0.697185 0.445823
0.816571 0.707088 0.453696
0.838972 0.717632 0.464073
0.860838 0.728176 0.474266
0.882368 0.738369 0.484062
0.900374 0.748135 0.495109
0.917098 0.757549 0.506157
0.325856 0.54374 0.241016
0.350072 0.545602 0.251133
0.375067 0.547402 0.261082
0.400229 0.549172 0.27071
0.422034 0.553292 0.282719
0.443732 0.557855 0.295537
0.466255 0.56228 0.308583
0.485069 0.568093 0.320378
0.500359 0.575143 0.331533
0.515923 0.581979 0.343114
0.530907 0.589212 0.354726
0.542153 0.597986 0.364782
0.553536 0.606592 0.375311
0.565209 0.615305 0.386084
0.579156 0.623484 0.394461
0.593042 0.631601 0.402625
0.606622 0.639673 0.410819
0.623331 0.64799 0.418585
0.641505 0.656016 0.425162
0.659037 0.663966 0.431678
0.676921 0.671901 0.438071
0.69807 0.680278 0.444755
0.718318 0.688182 0.450782
0.737957 0.695979 0.456504
0.760632 0.705501 0.463798
0.783062 0.714763 0.470726
0.805249 0.723949 0.477607
0.826734 0.7337 0.486122
0.847456 0.743435 0.495201
0.867872 0.753246 0.504524
0.887617 0.762524 0.513832
0.904295 0.77142 0.524529
0.920684 0.780392 0.535607
0.348898 0.577111 0.260441
0.375189 0.57879 0.270649
0.401709 0.580392 0.280934
0.427573 0.582727 0.292592
0.451057 0.58703 0.307454
0.475212 0.591196 0.322744
0.499916 0.595254 0.338415
0.516258 0.601892 0.351171
0.533013 0.608347 0.36434
0.549966 0.614588 0.377783
0.563104 0.622339 0.389487
0.574533 0.630533 0.400504
0.586023 0.63859 0.411719
0.598505 0.646845 0.422431
0.611383 0.654841 0.431006
0.623957 0.662791 0.439597
0.63653 0.67068 0.448081
0.652262 0.678447 0.454704
0.667582 0.686427 0.461677
0.681849 0.693996 0.468055
0.699214 0.701503 0.473472
0.71754 0.708919 0.478996
0.735576 0.715984 0.484077
0.754742 0.723583 0.489708
0.776318 0.732143 0.496223
0.79794 0.740917 0.503273
0.81883 0.74931 0.510048
0.838529 0.758144 0.518776
0.857847 0.766979 0.52781
0.876677 0.775418 0.536355
0.893339 0.783948 0.546426
0.908858 0.792233 0.55668
0.923964 0.80032 0.566903
0.374731 0.611154 0.280446
0.403098 0.612284 0.291936
0.431922 0.613321 0.303563
0.457786 0.616632 0.319142
0.483574 0.620508 0.33637
0.509667 0.624262 0.353887
0.531365 0.62916 0.369787
0.549081 0.635187 0.384283
0.567132 0.641032 0.399054
0.583886 0.64715 0.413214
0.595499 0.655009 0.424994
0.607065 0.662684 0.436851
0.618524 0.669978 0.448844
0.630335 0.677485 0.458259
0.642161 0.685176 0.467323
0.65359 0.692515 0.476097
0.666194 0.699779 0.483345
0.679408 0.707012 0.489143
0.692317 0.714214 0.495171
0.705928 0.721462 0.501106
0.72253 0.728222 0.506065
0.738476 0.734844 0.510994
0.754177 0.741451 0.516075
0.773693 0.749508 0.522499
0.793271 0.757427 0.528878
0.812482 0.76524 0.535286
0.830945 0.773312 0.542977
0.848585 0.78114 0.550927
0.865797 0.788769 0.558801
0.882292 0.79646 0.567315
0.897032 0.804242 0.577249
0.91162 0.811917 0.587243
0.926024 0.819654 0.597726
0.40235 0.6448 0.302022
0.433494 0.645304 0.315022
0.463874 0.646479 0.329885
0.491478 0.649607 0.350103
0.518944 0.652689 0.370092
0.546563 0.655756 0.390036
0.564538 0.661036 0.405509
0.582696 0.666239 0.420935
0.600855 0.671321 0.436194
0.614282 0.677806 0.449104
0.625986 0.68484 0.461219
0.63769 0.691691 0.473304
0.649241 0.698634 0.484169
0.66009 0.705806 0.492622
0.670756 0.712917 0.500984
0.681605 0.72018 0.5093
0.693278 0.727291 0.515312
0.704585 0.734371 0.521385
0.715404 0.741344 0.52752
0.729 0.747875 0.53283
0.743191 0.754314 0.53785
0.756939 0.760464 0.542565
0.77203 0.76701 0.547784
0.789899 0.77435 0.554025
0.807538 0.781842 0.560388
0.824537 0.788891 0.566537
0.841123 0.795743 0.57406
0.857374 0.802502 0.581857
0.873274 0.809308 0.589868
0.888014 0.816236 0.599069
0.902083 0.823224 0.60911
0.915755 0.830198 0.61915
0.928176 0.836851 0.628534
0.440482 0.67274 0.336965
0.474632 0.672831 0.352728
0.50341 0.675273 0.371603
0.530694 0.678447 0.391516
0.557778 0.68159 0.4112
0.580362 0.685664 0.428672
0.597955 0.690654 0.443565
0.615686 0.695567 0.458381
0.632258 0.70074 0.472557
0.644099 0.707347 0.484611
0.655863 0.713878 0.496193
0.667643 0.720226 0.507576
0.678065 0.727062 0.516304
0.688243 0.733883 0.524712
0.698344 0.740612 0.53312
0.708415 0.747463 0.540459
0.718135 0.75433 0.5467
0.727703 0.761013 0.55314
0.737896 0.767315 0.559014
0.750912 0.772885 0.563607
0.763577 0.778408 0.568246
0.776181 0.783948 0.573098
0.792218 0.790509 0.579141
0.808087 0.796887 0.585107
0.823407 0.803113 0.591104
0.838499 0.8094 0.598138
0.853651 0.815961 0.606256
0.868177 0.822187 0.614191
0.88217 0.828382 0.622568
