LUT预设1/LUT全系打包/CINE系列lut/709/N-CINE4墨绿709.cube
TITLE "Generated by Resolve"
LUT_3D_SIZE 9
0.0387274 0.0870069 0.0738079
0.0902571 0.0961929 0.0745251
0.149477 0.106737 0.0712444
0.234134 0.114015 0.0577401
0.324987 0.117968 0.0358587
0.422751 0.113817 0.0213931
0.517128 0.0989853 0.0132906
0.602167 0.0722972 0.00582895
0.669795 0.0470283 0.00569161
0.0327306 0.1252 0.083299
0.0941024 0.136568 0.0831464
0.172595 0.149523 0.0792248
0.268299 0.160754 0.0607156
0.369238 0.170138 0.0366674
0.474189 0.174823 0.021973
0.57232 0.171542 0.0156863
0.656519 0.159319 0.00877394
0.7205 0.147234 0.00236515
0.0150301 0.17406 0.0937514
0.0826886 0.189075 0.0880446
0.189166 0.206607 0.0751354
0.300877 0.223987 0.0514382
0.413993 0.238499 0.0327306
0.526192 0.247868 0.0200809
0.628519 0.251194 0.00708019
0.71397 0.247959 0.00648508
0.772534 0.243885 0.00573739
0.0039826 0.236179 0.0987259
0.0562905 0.255818 0.0848249
0.194598 0.279637 0.0603037
0.330098 0.304021 0.0401923
0.455726 0.32462 0.0283513
0.574777 0.338354 0.0184329
0.681056 0.345708 0.0103761
0.767819 0.348241 0.00370794
0.824033 0.349203 0.00280766
0.00077821 0.310918 0.0942702
0.0446784 0.337682 0.0705119
0.189929 0.370001 0.0480354
0.355123 0.402655 0.0321965
0.496727 0.430289 0.0175174
0.626673 0.450614 0.0105745
0.735912 0.461814 0.00585946
0.820218 0.466682 0.00381476
0.877195 0.471275 0.00170901
0 0.396597 0.0824903
0.0247807 0.432624 0.0551614
0.178347 0.47396 0.0384985
0.375402 0.513359 0.0229648
0.537072 0.548272 0.0119478
0.677684 0.575357 0.00480659
0.796155 0.592126 0.000289921
0.880873 0.600732 0.00140383
0.935866 0.607401 0.00138857
0 0.472389 0.0828107
0.00941482 0.513161 0.0566415
0.159274 0.56144 0.0318761
0.381079 0.610391 0.0171817
0.568902 0.652049 0.00950637
0.720302 0.683803 0.00407416
0.839139 0.703807 0.00202945
0.929274 0.717952 0.000411994
0.982605 0.727184 9.15541e-05
1.5259e-05 0.526986 0.0881361
0.0178073 0.572702 0.0714885
0.145846 0.623453 0.0415198
0.395315 0.676005 0.0159304
0.589639 0.725231 0.0065156
0.74818 0.762661 0.00218204
0.871763 0.785107 9.15541e-05
0.955856 0.79939 1.5259e-05
0.995224 0.804974 0
0 0.563653 0.13875
0.0121614 0.607355 0.0914626
0.146181 0.660685 0.0586099
0.4 0.714931 0.0381323
0.599786 0.762432 0.0135958
0.758999 0.801373 0.00062562
0.888441 0.831785 1.5259e-05
0.971771 0.847379 0.00260929
0.997253 0.848112 0.000915541
0.035584 0.0910201 0.109606
0.0903639 0.100404 0.11194
0.153582 0.110918 0.113207
0.241276 0.118349 0.108675
0.334249 0.120241 0.0972457
0.431479 0.108125 0.0811627
0.524971 0.0830549 0.0649577
0.61033 0.0445869 0.0555886
0.67808 0.0270237 0.0515145
0.0280003 0.132296 0.127428
0.0886549 0.143908 0.128923
0.174899 0.157168 0.128878
0.275731 0.167849 0.121752
0.377737 0.174289 0.106493
0.482444 0.174197 0.0907912
0.578866 0.162493 0.0744182
0.661952 0.141039 0.0539101
0.724147 0.122637 0.0384833
0.00949111 0.185168 0.145388
0.0707713 0.200412 0.144884
0.187457 0.217914 0.140841
0.307149 0.233921 0.129595
0.420874 0.244144 0.111955
0.531991 0.248371 0.089189
0.633463 0.246967 0.0694133
0.716976 0.238956 0.0594186
0.773404 0.230503 0.0464179
0.0011902 0.252094 0.161776
0.0338598 0.271794 0.156664
0.185931 0.294347 0.146258
0.330587 0.315663 0.129412
0.46038 0.332555 0.113313
0.5785 0.340963 0.0919051
0.683085 0.34313 0.0650797
0.768643 0.342809 0.0492409
0.822095 0.342672 0.0487068
0.000167849 0.331777 0.175479
0.0301518 0.357809 0.164446
0.17377 0.387594 0.149477
0.34934 0.414878 0.127794
0.496223 0.438575 0.100313
0.628367 0.45597 0.0819257
0.735775 0.462959 0.0582284
0.817914 0.464866 0.0369879
0.87303 0.46717 0.0224155
0 0.421607 0.190753
0.0203708 0.456245 0.174823
0.150958 0.493248 0.148379
0.366171 0.52813 0.126848
0.532174 0.556832 0.0924239
0.674342 0.579339 0.0480964
0.792523 0.594324 0.0459602
0.874372 0.601068 0.0363012
0.927428 0.605859 0.0249943
0 0.498833 0.206073
0.002121 0.537484 0.193545
0.133425 0.580163 0.160174
0.360342 0.623636 0.120577
0.559594 0.660929 0.100771
0.711391 0.68716 0.0674754
0.829679 0.703426 0.0273594
0.919676 0.717189 0.0184176
0.971862 0.726802 0.0311131
0 0.555138 0.235492
0.00920119 0.597192 0.217182
0.11693 0.643198 0.190326
0.362371 0.687633 0.152941
0.573159 0.729763 0.10219
0.73373 0.763256 0.0754406
0.857191 0.784009 0.069749
0.941451 0.796002 0.0428016
0.9879 0.802213 0.0230869
0 0.591745 0.276844
0.0107424 0.63476 0.263325
0.113466 0.681422 0.23241
0.372671 0.729122 0.19324
0.582086 0.771374 0.171771
0.741573 0.801785 0.131899
0.868269 0.826627 0.0969406
0.953796 0.842573 0.090547
0.991455 0.847929 0.101213
0.0296178 0.0945754 0.157778
0.0855268 0.104311 0.163104
0.154849 0.115053 0.168093
0.246738 0.122225 0.168139
0.342519 0.122637 0.163561
0.440757 0.107973 0.1561
0.534127 0.0779736 0.147372
0.619257 0.0364691 0.138827
0.686229 0.0172122 0.134844
0.0192721 0.139422 0.184436
0.0777752 0.151858 0.187457
0.173693 0.165087 0.190982
0.280049 0.175799 0.190204
0.38558 0.181415 0.184543
0.490837 0.178042 0.174655
0.587076 0.162661 0.162661
0.669398 0.137621 0.152712
0.728389 0.112032 0.141955
0.00500496 0.197375 0.213199
0.0567636 0.212787 0.214176
0.180301 0.230228 0.214267
0.310506 0.246067 0.210559
0.427527 0.255573 0.203235
0.539773 0.257465 0.191959
0.640192 0.252613 0.177905
0.721843 0.241657 0.165988
0.776806 0.232151 0.160754
0.000457771 0.269642 0.237552
0.019852 0.289799 0.237659
0.168704 0.312016 0.235065
0.327886 0.332189 0.230182
0.464286 0.347143 0.22092
0.584131 0.35433 0.20763
0.688441 0.354208 0.192676
0.771023 0.349706 0.178729
0.821759 0.347662 0.172915
0 0.354696 0.264897
0.0132753 0.381552 0.26125
0.148913 0.410468 0.255741
0.336019 0.436759 0.248768
0.495949 0.457908 0.236561
0.630457 0.471946 0.218647
0.737011 0.476112 0.20238
0.817029 0.475578 0.192401
0.870756 0.477363 0.184787
0 0.449714 0.293523
0.0117189 0.485115 0.289982
0.126757 0.520241 0.279942
0.34696 0.55317 0.266957
0.527184 0.580545 0.253056
0.672297 0.599756 0.23444
0.788342 0.608804 0.211505
0.868162 0.613352 0.191959
0.920882 0.618097 0.199405
0 0.529122 0.321904
0.00138857 0.568429 0.320485
0.103944 0.609979 0.308431
0.337926 0.649363 0.291463
0.548806 0.682811 0.271839
0.703716 0.706127 0.250813
0.822278 0.719997 0.229755
0.909041 0.729549 0.207019
0.959548 0.737072 0.201434
0 0.585199 0.358511
0.00262455 0.626963 0.355779
0.0847486 0.672084 0.343648
0.319921 0.71545 0.324483
0.55726 0.754238 0.305852
0.723079 0.781872 0.286717
0.844511 0.797742 0.261967
0.930175 0.809476 0.249638
0.98175 0.818784 0.251942
0 0.619821 0.402136
0.00508125 0.663203 0.398093
0.0792401 0.708797 0.384466
0.335805 0.754223 0.370977
0.563653 0.793454 0.358572
0.729046 0.823301 0.337255
0.857649 0.844251 0.320104
0.9411 0.856931 0.313054
0.986435 0.86392 0.317143
0.0220798 0.0928054 0.219242
0.0758221 0.105669 0.226642
0.154192 0.116457 0.234806
0.250309 0.123476 0.23801
0.348989 0.122744 0.236957
0.448417 0.106447 0.233555
0.542779 0.0742657 0.228962
0.628702 0.0369879 0.227726
0.694865 0.0166476 0.228656
0.00973526 0.143389 0.253651
0.0597696 0.157687 0.259251
0.168429 0.170886 0.266117
0.281788 0.181918 0.268788
0.391073 0.187381 0.267277
0.497353 0.182727 0.262287
0.594354 0.166247 0.256504
0.677684 0.142 0.251347
0.734905 0.116167 0.248508
0.00231937 0.20734 0.291569
0.0421912 0.223667 0.294926
0.169268 0.241398 0.297993
0.30956 0.25687 0.299077
0.430579 0.266117 0.296941
0.545434 0.268009 0.292103
0.646784 0.262409 0.286351
0.728252 0.25127 0.281621
0.78233 0.242466 0.279225
0.000244144 0.285023 0.326833
0.0176394 0.306584 0.330251
0.148928 0.329 0.330968
0.322301 0.348791 0.331197
0.465629 0.363043 0.328923
0.587793 0.370123 0.322499
0.69369 0.369863 0.31545
0.774731 0.364828 0.310521
0.825162 0.362737 0.311604
0 0.376471 0.364843
0.00445563 0.404364 0.36643
0.120989 0.432944 0.364828
0.318654 0.458412 0.362524
0.492775 0.4795 0.359319
0.63064 0.492439 0.353521
0.738582 0.496635 0.346853
0.819303 0.496117 0.340444
0.872084 0.498421 0.341466
0 0.47657 0.402716
0.00457771 0.512306 0.405432
0.0982834 0.546777 0.40206
0.309255 0.578637 0.395254
0.516823 0.605447 0.389532
0.669032 0.624475 0.382971
0.786313 0.633402 0.374929
0.866575 0.637186 0.371283
0.918639 0.641764 0.376028
0 0.556924 0.439857
0.00288396 0.596918 0.443473
0.0784619 0.638437 0.438407
0.308446 0.67628 0.430228
0.533898 0.709163 0.424353
0.695003 0.731823 0.415839
0.816983 0.745617 0.405112
0.903563 0.755383 0.398978
0.953353 0.762219 0.405844
0 0.612696 0.479896
0.000534066 0.654734 0.483314
0.0569009 0.699168 0.477195
0.27776 0.742138 0.468086
0.538201 0.779522 0.462272
0.711269 0.806363 0.456168
0.835721 0.823178 0.450614
0.922499 0.835462 0.446891
0.97525 0.844968 0.450996
0 0.645045 0.522622
0.00125124 0.688884 0.524941
0.0561379 0.734676 0.519753
0.275731 0.778302 0.512078
0.542626 0.817411 0.509087
0.716152 0.847013 0.504189
0.847486 0.86772 0.498054
0.93164 0.880888 0.498238
0.980514 0.88986 0.506706
0.0144045 0.0804456 0.291585
0.0629435 0.101671 0.301823
0.150835 0.113008 0.312337
0.25243 0.119417 0.319203
0.353048 0.115984 0.321309
0.45359 0.0979324 0.31986
0.549111 0.0633097 0.3178
0.635233 0.035172 0.320211
0.700862 0.014435 0.32459
0.00437934 0.140703 0.33312
0.0322728 0.159319 0.340703
0.15906 0.173968 0.34995
0.280171 0.184756 0.355856
0.393256 0.190234 0.357855
0.500923 0.183825 0.35613
0.598917 0.166857 0.353613
0.682734 0.141176 0.351339
0.738308 0.116091 0.352224
0.00062562 0.212238 0.377539
0.0276493 0.230732 0.383886
0.155596 0.249622 0.390036
0.302663 0.264897 0.39411
0.429923 0.274205 0.395285
0.548104 0.276265 0.394568
0.649775 0.269902 0.392416
0.730892 0.258671 0.389883
0.785107 0.250126 0.390738
7.62951e-05 0.296559 0.42208
0.0149233 0.31989 0.428305
0.13019 0.343374 0.431296
0.311299 0.363241 0.434577
0.461082 0.376577 0.435477
0.587762 0.383383 0.434211
0.695186 0.383093 0.431632
0.77586 0.378424 0.430365
0.826307 0.37673 0.433799
0 0.393988 0.467506
0.000518807 0.423499 0.47396
0.0979629 0.452293 0.474449
0.299367 0.477668 0.474983
0.485634 0.498039 0.475807
0.626459 0.51014 0.474754
0.737163 0.514351 0.47219
0.819181 0.514855 0.471077
0.871122 0.517784 0.476188
0 0.499519 0.512932
0.000610361 0.53579 0.52047
0.0709239 0.570306 0.519448
0.275013 0.601328 0.515785
0.501076 0.627894 0.515206
0.662684 0.646906 0.515053
0.780529 0.655909 0.513161
0.862928 0.660075 0.51342
0.915862 0.665003 0.519875
0 0.58085 0.554665
0.00166323 0.621714 0.562539
0.0603647 0.662654 0.56109
0.264439 0.699825 0.556542
0.513252 0.732082 0.555337
0.683375 0.755474 0.553933
0.810636 0.770825 0.552468
0.896971 0.781186 0.554849
0.947188 0.787579 0.563668
0 0.635767 0.594919
9.15541e-05 0.678065 0.602213
0.0382849 0.723049 0.600656
0.245136 0.765667 0.596201
0.515923 0.802197 0.597086
0.697276 0.829358 0.598306
0.826017 0.8477 0.596704
0.915328 0.861051 0.598444
0.967666 0.870924 0.606455
0 0.666331 0.635081
4.57771e-05 0.710781 0.642237
0.0369116 0.756664 0.640604
0.219928 0.799283 0.63534
0.519097 0.838697 0.63859
0.702556 0.868864 0.641398
0.835767 0.890227 0.64239
0.92282 0.904631 0.646952
0.974411 0.914656 0.654871
0.00863661 0.055314 0.364889
0.0532998 0.0879988 0.377218
0.145022 0.101183 0.390265
0.253071 0.106157 0.400351
0.355947 0.102007 0.405386
0.457511 0.0806897 0.406592
0.555291 0.0502327 0.40737
0.64123 0.0294194 0.411795
0.706859 0.00988785 0.417762
0.00187686 0.127306 0.41059
0.0102998 0.155901 0.422492
0.147433 0.173724 0.434516
0.276829 0.184466 0.443732
0.393881 0.188815 0.448447
0.503258 0.17998 0.449073
0.601709 0.162966 0.449027
0.686793 0.135531 0.449607
0.741451 0.107637 0.453086
0.000259403 0.209018 0.461799
0.014725 0.233631 0.47187
0.140658 0.255207 0.480079
0.29305 0.270756 0.487785
0.427588 0.279805 0.4934
0.548653 0.281727 0.495842
0.651087 0.274281 0.495109
0.733318 0.263691 0.494591
0.787594 0.25478 0.49778
1.5259e-05 0.302098 0.513481
0.0114748 0.328206 0.523354
0.113222 0.353841 0.528725
0.29778 0.374075 0.533608
0.455009 0.387427 0.537987
0.585611 0.394186 0.540368
0.695537 0.394034 0.541543
0.775677 0.389075 0.542657
0.827329 0.387503 0.547066
0 0.405982 0.563821
1.5259e-05 0.437247 0.574273
0.0774548 0.467628 0.577096
0.277958 0.49366 0.580743
0.476936 0.514107 0.585061
0.620554 0.525628 0.586755
0.734768 0.530007 0.587854
0.818845 0.531533 0.589868
0.87039 0.534981 0.597803
0 0.518105 0.617212
0 0.553491 0.626108
0.0407568 0.58912 0.627024
0.240925 0.620691 0.625818
0.483848 0.647639 0.629908
0.654994 0.666835 0.635538
0.775311 0.676265 0.637064
0.860273 0.681483 0.640269
0.914412 0.68658 0.648585
0 0.599741 0.659327
0.000213626 0.641657 0.669947
0.0426795 0.682536 0.671839
0.213443 0.719402 0.667872
0.490394 0.751781 0.671656
0.671458 0.776562 0.676112
0.804669 0.794553 0.681407
0.89163 0.804593 0.687373
0.943358 0.811078 0.694408
0 0.653269 0.696757
0 0.696513 0.706874
0.0282902 0.742672 0.708675
0.20705 0.784146 0.707347
0.494041 0.821134 0.712367
0.683192 0.849287 0.71725
0.817456 0.86981 0.721416
0.909911 0.884413 0.727092
0.962005 0.894011 0.737316
0 0.682567 0.732891
0 0.727062 0.741619
0.0158541 0.773449 0.742809
0.173724 0.816205 0.740764
0.493339 0.85594 0.748119
0.689372 0.88777 0.756985
0.825849 0.910079 0.762036
0.916365 0.92549 0.767697
0.969985 0.936263 0.776928
0.00410468 0.0252537 0.438148
0.0426795 0.0597238 0.450919
0.139864 0.0759899 0.466194
0.253605 0.08336 0.478309
0.358633 0.0788281 0.48629
0.461845 0.0574197 0.490654
0.560876 0.039292 0.494636
0.647822 0.0198978 0.500511
0.714031 0.00483711 0.507546
0.000762951 0.101122 0.482322
0.00906386 0.145968 0.498894
0.134218 0.170047 0.514031
0.273838 0.18056 0.525933
0.393851 0.182773 0.533089
0.504387 0.172564 0.5364
0.604135 0.153994 0.53875
0.689616 0.124697 0.541619
0.745464 0.0931411 0.545998
0.000137331 0.199161 0.538781
0.00735485 0.23093 0.552834
0.120073 0.257786 0.563149
0.282521 0.273884 0.573556
0.424567 0.282673 0.582086
0.547433 0.283421 0.585885
0.651896 0.275898 0.58761
0.735119 0.265187 0.58996
0.789746 0.255573 0.594858
1.5259e-05 0.302068 0.594888
0.0078584 0.332174 0.607401
0.0989395 0.360311 0.613962
0.279438 0.381781 0.620722
0.447471 0.395392 0.628794
0.582956 0.401984 0.634577
0.69453 0.401816 0.638376
0.77615 0.397421 0.640635
0.829297 0.397162 0.646479
0 0.413733 0.648615
0.000869764 0.446799 0.662089
0.0629892 0.478935 0.667185
0.254887 0.50547 0.671
0.465782 0.525917 0.677485
0.61445 0.537865 0.68275
0.732891 0.543511 0.688304
0.819333 0.546807 0.694835
0.870985 0.549767 0.702617
0 0.529793 0.703212
1.5259e-05 0.566201 0.714977
0.0221103 0.60325 0.718242
0.217258 0.635691 0.71986
0.465293 0.663462 0.727733
0.647272 0.68304 0.735485
0.770581 0.693782 0.741039
0.858656 0.700038 0.747112
0.914534 0.704738 0.755932
0 0.613062 0.74641
0 0.655573 0.759197
0.023331 0.696529 0.760952
0.163241 0.734005 0.759197
0.46595 0.767132 0.76643
0.660655 0.794095 0.776608
0.800244 0.81471 0.787243
0.88748 0.823499 0.792767
0.941329 0.830503 0.800656
0 0.665263 0.778363
0 0.709545 0.790875
0.0205844 0.75671 0.795758
0.163592 0.797223 0.795331
0.475883 0.834821 0.801968
0.6701 0.86511 0.812314
0.810147 0.887709 0.821393
0.906355 0.903822 0.830427
0.958328 0.912627 0.840269
0 0.692607 0.807538
0 0.737346 0.817914
0.00375372 0.785077 0.822232
0.155764 0.827878 0.822385
0.466697 0.868208 0.832334
0.678462 0.902083 0.844877
0.818036 0.925429 0.852705
0.911894 0.942214 0.86183
0.967407 0.953536 0.871748
0.00163272 0.00952163 0.503395
0.0302129 0.0358282 0.515175
0.132616 0.0548409 0.531975
0.252537 0.0601358 0.546654
0.359899 0.0537118 0.557504
0.465919 0.041825 0.564996
0.566247 0.0282902 0.570947
0.654719 0.0119783 0.578347
0.721813 0.00141909 0.586908
0.000183108 0.0665293 0.544442
0.011902 0.128328 0.563867
0.122637 0.161791 0.58053
0.270237 0.173068 0.593729
0.392645 0.172992 0.6038
0.50518 0.162493 0.610803
0.606668 0.141451 0.616434
0.692561 0.10721 0.620066
0.750332 0.083299 0.625696
7.62951e-05 0.183764 0.601068
0.00325017 0.224033 0.618799
0.10222 0.256809 0.631495
0.273487 0.274311 0.643824
0.421347 0.282734 0.65304
0.546242 0.28304 0.660044
0.652613 0.275853 0.665064
0.737011 0.264179 0.669551
0.791638 0.254383 0.675898
0 0.299702 0.660929
0.00512703 0.332937 0.674723
0.0846876 0.36434 0.682795
0.262455 0.387182 0.691066
0.439918 0.400778 0.701549
0.580377 0.40705 0.709697
0.693049 0.406928 0.715099
0.777111 0.404471 0.720913
0.831724 0.404913 0.72784
0 0.418296 0.71606
0.0015259 0.452628 0.73138
0.0551003 0.485908 0.73695
0.233371 0.51368 0.740703
0.453223 0.53431 0.749859
0.608286 0.546685 0.758923
0.731823 0.55436 0.769085
0.819226 0.558373 0.776974
0.872328 0.561379 0.783627
0 0.537163 0.768872
1.5259e-05 0.574243 0.782361
0.0188907 0.611917 0.788022
0.191287 0.645502 0.791653
0.448585 0.674266 0.799969
0.639094 0.694728 0.810407
0.76643 0.70692 0.820157
0.857862 0.713527 0.829252
0.914412 0.71899 0.83949
0 0.621622 0.810056
0 0.66302 0.821454
0.00770581 0.704982 0.825925
0.140078 0.743145 0.826658
0.442802 0.777646 0.836515
0.651484 0.807263 0.851926
0.7935 0.826276 0.861738
0.884123 0.836667 0.869688
0.93991 0.844755 0.87863
0 0.672389 0.836088
0 0.717342 0.850614
0.0170443 0.763912 0.856184
0.135912 0.804562 0.85481
0.452262 0.84332 0.864271
0.659449 0.876173 0.879332
0.804456 0.900649 0.892912
0.903136 0.917205 0.904402
0.955917 0.925322 0.911223
0 0.697597 0.856641
0 0.742885 0.868894
0.00590524 0.791211 0.875425
0.143847 0.834257 0.877226
0.444556 0.875425 0.888029
0.66836 0.91078 0.902831
0.812222 0.935836 0.914321
0.908888 0.953628 0.925048
0.966186 0.965316 0.935012
0.000854505 0.00354009 0.557244
0.0155489 0.0212711 0.568017
0.126268 0.0395056 0.58526
0.249866 0.0420539 0.601678
0.360174 0.0357671 0.614206
0.468772 0.0305791 0.623514
0.570825 0.0194858 0.632212
0.660792 0.00578317 0.641581
0.729366 0.000106813 0.651926
1.5259e-05 0.0357214 0.594949
0.0130159 0.106081 0.612665
0.117266 0.151034 0.630732
0.266224 0.164034 0.645701
0.390372 0.162097 0.657877
0.505364 0.152377 0.668406
0.608911 0.129992 0.675303
0.695216 0.0938277 0.680568
0.754604 0.0772412 0.687144
4.57771e-05 0.167971 0.647944
0.00163272 0.215152 0.668009
0.092668 0.25391 0.682383
0.265873 0.272862 0.693492
0.417929 0.281819 0.704921
0.544625 0.28249 0.715129
0.65301 0.275868 0.723217
0.738888 0.262776 0.729961
0.793072 0.251972 0.734234
0 0.295918 0.707118
0.00303655 0.331502 0.722744
0.0688945 0.365957 0.731914
0.248249 0.390127 0.741543
0.432837 0.404318 0.753582
0.578225 0.410727 0.762982
0.69189 0.411215 0.771054
0.777493 0.409323 0.77847
0.833631 0.409796 0.786313
0 0.420066 0.76318
0.00134279 0.454978 0.777905
0.047715 0.489632 0.784054
0.213001 0.519158 0.78851
0.441581 0.540444 0.799969
0.603815 0.553689 0.812406
0.730526 0.56173 0.823346
0.81854 0.566171 0.831785
0.873091 0.569192 0.839551
0 0.541085 0.812039
1.5259e-05 0.578149 0.826642
0.0176547 0.617075 0.83389
0.160998 0.651606 0.836027
0.438468 0.682338 0.846922
0.631968 0.702342 0.860151
0.763348 0.715267 0.872419
0.857008 0.722393 0.883024
0.913817 0.72842 0.891264
0 0.625803 0.848112
0 0.667002 0.860746
0.00300603 0.709758 0.866728
0.135607 0.748699 0.868879
0.424369 0.784619 0.880186
0.645548 0.815686 0.895857
0.788174 0.834058 0.908354
0.881758 0.845319 0.918029
0.939178 0.853544 0.926604
0 0.67538 0.870283
0 0.720714 0.884062
0.0129854 0.766659 0.889326
0.109316 0.808087 0.889555
0.433188 0.848173 0.901015
0.651652 0.883116 0.919203
0.801907 0.908598 0.933791
0.89958 0.923522 0.943053
0.95407 0.932235 0.949996
0 0.699809 0.883803
0 0.744976 0.89659
0.00706493 0.79353 0.903731
0.125246 0.837186 0.904585
0.430488 0.879255 0.916503
0.660395 0.915221 0.933715
0.807935 0.941405 0.947234
0.907073 0.959701 0.958083
0.96405 0.970321 0.96553
