LUT预设1/柯达5219&2393/柯达5219&2393尼康专用/R3D/柯达5219绿调-R3D.cube
TITLE "Generated by Resolve"
LUT_3D_SIZE 33
0.0230106 0.030518 0.0598459
0.0230106 0.030518 0.0598459
0.0230106 0.030518 0.0598459
0.0230106 0.030518 0.0598459
0.0233158 0.0306249 0.0598917
0.0244755 0.0310063 0.0600443
0.031754 0.033341 0.0607919
0.052369 0.039292 0.0609751
0.0818494 0.0463111 0.0588083
0.120607 0.0530251 0.0552834
0.169375 0.0590829 0.0510414
0.230686 0.0646982 0.0450294
0.308614 0.0704662 0.0357824
0.404883 0.0762188 0.0238346
0.521447 0.0811933 0.0119936
0.654505 0.0862898 0.00276188
0.781704 0.0937972 3.0518e-05
0.860853 0.101137 0
0.873472 0.102495 0
0.873579 0.10251 0
0.873579 0.10251 0
0.873579 0.10251 0
0.873579 0.10251 0
0.873579 0.10251 0
0.873579 0.10251 0
0.873579 0.10251 0
0.873579 0.10251 0
0.873579 0.10251 0
0.873579 0.10251 0
0.873579 0.10251 0
0.873579 0.10251 0
0.873579 0.10251 0
0.873579 0.10251 0
0.0230106 0.030518 0.0598459
0.0230106 0.030518 0.0598459
0.0230106 0.030518 0.0598459
0.0230106 0.030518 0.0598459
0.0231632 0.0305638 0.0598611
0.0236667 0.0307317 0.0599374
0.0288243 0.0324254 0.0605936
0.0488136 0.0383459 0.0611276
0.0780041 0.0454719 0.0591592
0.115801 0.0523384 0.0556954
0.163333 0.0584573 0.0515908
0.223148 0.0640879 0.0458534
0.29984 0.0698711 0.0368963
0.395956 0.0757305 0.024918
0.512123 0.0808728 0.0128176
0.642924 0.0855879 0.00297551
0.776379 0.0933242 0
0.858839 0.100923 0
0.873472 0.102495 0
0.873579 0.10251 0
0.873579 0.10251 0
0.873579 0.10251 0
0.873579 0.10251 0
0.873579 0.10251 0
0.873579 0.10251 0
0.873579 0.10251 0
0.873579 0.10251 0
0.873579 0.10251 0
0.873579 0.10251 0
0.873579 0.10251 0
0.873579 0.10251 0
0.873579 0.10251 0
0.873579 0.10251 0
0.0230106 0.030518 0.0598459
0.0230106 0.030518 0.0598459
0.0230106 0.030518 0.0598459
0.0230106 0.030518 0.0598459
0.0231174 0.0305486 0.0598611
0.0234989 0.0306859 0.0599222
0.0285954 0.0323491 0.0605478
0.0489052 0.0383764 0.0611124
0.0786297 0.0456245 0.0591135
0.11696 0.0525216 0.0555886
0.163516 0.0585184 0.051606
0.221836 0.0640421 0.046067
0.299748 0.0698558 0.0368963
0.397177 0.0758221 0.0247349
0.515068 0.0810254 0.0124666
0.645182 0.0854047 0.00234989
0.779675 0.0936599 0
0.859846 0.101045 0
0.873487 0.102495 0
0.873579 0.10251 0
0.873579 0.10251 0
0.873579 0.10251 0
0.873579 0.10251 0
0.873579 0.10251 0
0.873579 0.10251 0
0.873579 0.10251 0
0.873579 0.10251 0
0.873579 0.10251 0
0.873579 0.10251 0
0.873579 0.10251 0
0.873579 0.10251 0
0.873579 0.10251 0
0.873579 0.10251 0
0.0230106 0.030518 0.0598459
0.0230106 0.030518 0.0598459
0.0230106 0.030518 0.0598459
0.0230106 0.030518 0.0598459
0.0230411 0.0305333 0.0598459
0.0232395 0.0305943 0.0598764
0.0271916 0.0318914 0.0604105
0.0467079 0.0377661 0.0611582
0.0767071 0.0452125 0.0592966
0.115236 0.0522621 0.0557412
0.161288 0.0583047 0.0518044
0.21799 0.0637064 0.0464637
0.291279 0.0692912 0.0379797
0.386481 0.0753033 0.0259098
0.504036 0.0807355 0.0133211
0.636103 0.085069 0.00317388
0.773953 0.0932021 0
0.858228 0.100862 0
0.873487 0.102495 0
0.873579 0.10251 0
0.873579 0.10251 0
0.873579 0.10251 0
0.873579 0.10251 0
0.873579 0.10251 0
0.873579 0.10251 0
0.873579 0.10251 0
0.873579 0.10251 0
0.873579 0.10251 0
0.873579 0.10251 0
0.873579 0.10251 0
0.873579 0.10251 0
0.873579 0.10251 0
0.873579 0.10251 0
0.0230106 0.030518 0.0598459
0.0230106 0.030518 0.0598459
0.0230106 0.030518 0.0598459
0.0230106 0.030518 0.0598459
0.0230106 0.030518 0.0598459
0.0230106 0.030518 0.0598459
0.0256809 0.0314031 0.0602274
0.0429389 0.0366979 0.0611734
0.0731365 0.0443885 0.0596017
0.111757 0.0517281 0.0560464
0.156863 0.0578317 0.0521859
0.211994 0.0632181 0.0470893
0.28307 0.0687114 0.0390021
0.375097 0.0746929 0.0272679
0.483665 0.0801556 0.0149386
0.616281 0.0842908 0.00460822
0.760983 0.0921798 0
0.854704 0.100465 0
0.873442 0.102495 0
0.873579 0.10251 0
0.873579 0.10251 0
0.873579 0.10251 0
0.873579 0.10251 0
0.873579 0.10251 0
0.873579 0.10251 0
0.873579 0.10251 0
0.873579 0.10251 0
0.873579 0.10251 0
0.873579 0.10251 0
0.873579 0.10251 0
0.873579 0.10251 0
0.873579 0.10251 0
0.873579 0.10251 0
0.0230106 0.030518 0.0598459
0.0230106 0.030518 0.0598459
0.0230106 0.030518 0.0598459
0.0230106 0.030518 0.0598459
0.0230106 0.030518 0.0598459
0.0230106 0.030518 0.0598459
0.0243687 0.0309758 0.0600443
0.0377356 0.0351568 0.0610513
0.0692912 0.043473 0.0598917
0.11017 0.0514687 0.0561685
0.157687 0.057908 0.0521248
0.212909 0.0632792 0.047013
0.280964 0.068574 0.0392767
0.363973 0.074052 0.0286717
0.473091 0.0798505 0.0157778
0.594217 0.0834058 0.00610361
0.739605 0.0905623 0
0.848295 0.0997787 0
0.872938 0.102434 0
0.873579 0.10251 0
0.873579 0.10251 0
0.873579 0.10251 0
0.873579 0.10251 0
0.873579 0.10251 0
0.873579 0.10251 0
0.873579 0.10251 0
0.873579 0.10251 0
0.873579 0.10251 0
0.873579 0.10251 0
0.873579 0.10251 0
0.873579 0.10251 0
0.873579 0.10251 0
0.873579 0.10251 0
0.0251164 0.0345464 0.0636301
0.0250706 0.0344549 0.0635538
0.0251011 0.0344854 0.0636149
0.0250095 0.0342718 0.063447
0.0247959 0.0338598 0.0630961
0.0244602 0.0332036 0.0624857
0.0242313 0.0323491 0.0616007
0.0304723 0.0333104 0.0610971
0.0624247 0.0417792 0.0603494
0.107088 0.0509957 0.0564126
0.16289 0.058381 0.051667
0.229221 0.064622 0.045304
0.305852 0.0702678 0.0361486
0.38967 0.0755016 0.0255589
0.488334 0.0803388 0.0144656
0.592371 0.083299 0.00619516
0.726421 0.0895094 0
0.836912 0.0986191 0
0.872221 0.102342 0
0.873579 0.10251 0
0.873579 0.10251 0
0.873579 0.10251 0
0.873579 0.10251 0
0.873579 0.10251 0
0.873579 0.10251 0
0.873579 0.10251 0
0.873579 0.10251 0
0.873579 0.10251 0
0.873579 0.10251 0
0.873579 0.10251 0
0.873579 0.10251 0
0.873579 0.10251 0
0.873579 0.10251 0
0.0323186 0.0561837 0.0816663
0.0322576 0.0561227 0.0816205
0.0323644 0.0568551 0.0821546
0.0322576 0.0564431 0.0818341
0.0319524 0.0551919 0.0808423
0.0314336 0.0530556 0.079118
0.0306401 0.0504921 0.0769513
0.0327001 0.0489052 0.0747997
0.0631266 0.0525826 0.0700999
0.113558 0.0597543 0.0627451
0.176669 0.0650339 0.0541695
0.256199 0.0698558 0.0438849
0.355993 0.0751354 0.0304112
0.466636 0.0797894 0.0170748
0.578256 0.0829175 0.00720226
0.672419 0.0867018 0.00181582
0.76286 0.0922713 0
0.836606 0.0986191 0
0.871168 0.102235 0
0.873579 0.10251 0
0.873579 0.10251 0
0.873579 0.10251 0
0.873579 0.10251 0
0.873579 0.10251 0
0.873579 0.10251 0
0.873579 0.10251 0
0.873579 0.10251 0
0.873579 0.10251 0
0.873579 0.10251 0
0.873579 0.10251 0
0.873579 0.10251 0
0.873579 0.10251 0
0.873579 0.10251 0
0.0332036 0.0933394 0.108354
0.0331426 0.0940871 0.108858
0.0330053 0.0958114 0.110033
0.03299 0.0963149 0.110369
0.0330358 0.0961624 0.110262
0.0332036 0.0950484 0.109483
0.0334783 0.0932174 0.108202
0.0343786 0.0918441 0.107073
0.0612802 0.0916609 0.0999008
0.13698 0.0957961 0.084062
0.21915 0.0993362 0.0695659
0.313268 0.101976 0.0519722
0.424323 0.102464 0.0320592
0.546136 0.0990158 0.0154879
0.675975 0.0949111 0.00183108
0.801266 0.0979629 0
0.854688 0.100465 0
0.867033 0.101778 0
0.87216 0.102342 0
0.873579 0.10251 0
0.873579 0.10251 0
0.873579 0.10251 0
0.873579 0.10251 0
0.873579 0.10251 0
0.873579 0.10251 0
0.873579 0.10251 0
0.873579 0.10251 0
0.873579 0.10251 0
0.873579 0.10251 0
0.873579 0.10251 0
0.873579 0.10251 0
0.873579 0.10251 0
0.873579 0.10251 0
0.0184329 0.14757 0.144945
0.0181125 0.148791 0.145663
0.0173953 0.151446 0.147265
0.0171664 0.152331 0.147768
0.0171511 0.152392 0.147753
0.0174563 0.151308 0.147005
0.0179751 0.149371 0.145708
0.0184482 0.147692 0.144564
0.0267491 0.145113 0.139971
0.114351 0.144671 0.113985
0.24271 0.144915 0.0877546
0.370413 0.147265 0.0643931
0.508583 0.149142 0.0420233
0.64773 0.150866 0.0243687
0.783276 0.153506 0.00788891
0.905806 0.160418 0
0.944488 0.153353 0
0.896056 0.116426 0
0.873579 0.10251 0
0.873579 0.10251 0
0.873579 0.10251 0
0.873579 0.10251 0
0.873579 0.10251 0
0.873579 0.10251 0
0.873579 0.10251 0
0.873579 0.10251 0
0.873579 0.10251 0
0.873579 0.10251 0
0.873579 0.10251 0
0.873579 0.10251 0
0.873579 0.10251 0
0.873579 0.10251 0
0.873579 0.10251 0
0.00411994 0.213062 0.185016
0.00390631 0.214817 0.186099
0.00344854 0.218357 0.188296
0.00326543 0.219699 0.18912
0.00321965 0.219898 0.189212
0.00326543 0.219226 0.188754
0.00344854 0.217288 0.187518
0.00370794 0.214847 0.185931
0.0037995 0.214954 0.186007
0.0345769 0.209628 0.165011
0.185657 0.205661 0.119463
0.371374 0.202625 0.0813764
0.533989 0.203555 0.0551766
0.693492 0.208103 0.0387121
0.839872 0.218982 0.0242924
0.959457 0.240818 0.00819409
0.999008 0.268788 0
1 0.243442 0
0.972503 0.185367 0
0.905669 0.120577 0
0.873579 0.10251 0
0.873579 0.10251 0
0.873579 0.10251 0
0.873579 0.10251 0
0.873579 0.10251 0
0.873579 0.10251 0
0.873579 0.10251 0
0.873579 0.10251 0
0.873579 0.10251 0
0.873579 0.10251 0
0.873579 0.10251 0
0.873579 0.10251 0
0.873579 0.10251 0
0 0.294087 0.230838
0 0.29662 0.232136
0 0.30103 0.234424
0 0.30312 0.235508
0 0.303838 0.235889
0 0.303578 0.235737
0 0.301823 0.234821
0 0.299001 0.233356
0 0.298009 0.232883
0.000671397 0.293782 0.22742
0.0666667 0.285405 0.180514
0.2907 0.274861 0.11957
0.502098 0.27097 0.0729992
0.675425 0.275914 0.0529335
0.83505 0.290501 0.0412604
0.965682 0.318654 0.0305028
1 0.363104 0.0201419
1 0.370138 0.0101015
1 0.332189 0.00433356
0.999649 0.277958 0
0.981903 0.191165 0
0.883726 0.108019 0
0.873579 0.10251 0
0.873579 0.10251 0
0.873579 0.10251 0
0.873579 0.10251 0
0.873579 0.10251 0
0.873579 0.10251 0
0.873579 0.10251 0
0.873579 0.10251 0
0.873579 0.10251 0
0.873579 0.10251 0
0.873579 0.10251 0
0 0.391363 0.290715
0 0.394507 0.29276
0 0.400732 0.29662
0 0.403723 0.298497
0 0.405447 0.29958
0 0.405753 0.299825
0 0.405081 0.299474
0 0.402579 0.297932
0 0.399359 0.295659
0 0.401724 0.297322
0 0.385733 0.266896
0.117235 0.370687 0.199084
0.404471 0.35938 0.124727
0.61828 0.355261 0.0713512
0.789975 0.366751 0.0550546
0.940581 0.392828 0.0492714
1 0.441001 0.0486763
1 0.47393 0.0459907
1 0.452171 0.0370031
1 0.417517 0.0247196
1 0.367956 0.00962844
1 0.29424 0.000289921
0.96434 0.167147 0
0.873579 0.10251 0
0.873579 0.10251 0
0.873579 0.10251 0
0.873579 0.10251 0
0.873579 0.10251 0
0.873579 0.10251 0
0.873579 0.10251 0
0.873579 0.10251 0
0.873579 0.10251 0
0.873579 0.10251 0
0 0.501595 0.361593
0 0.505776 0.364721
0 0.512108 0.369451
0 0.515877 0.372274
0 0.518425 0.374197
0 0.519661 0.375128
0 0.520119 0.375463
0 0.518898 0.374578
0 0.515877 0.37232
0 0.513054 0.370153
0 0.512062 0.368566
0.0109102 0.487953 0.30753
0.19263 0.468315 0.222354
0.519051 0.459998 0.136584
0.727291 0.458732 0.0786603
0.884901 0.472282 0.057496
0.996796 0.505135 0.0601968
1 0.548669 0.0771344
1 0.545235 0.076051
1 0.523857 0.0662699
1 0.496101 0.0541238
1 0.454719 0.0382239
1 0.392599 0.0165713
1 0.293889 0
0.921111 0.132097 0
0.873579 0.10251 0
0.873579 0.10251 0
0.873579 0.10251 0
0.873579 0.10251 0
0.873579 0.10251 0
0.873579 0.10251 0
0.873579 0.10251 0
0.873579 0.10251 0
0 0.612711 0.444678
0 0.616785 0.447715
0 0.623224 0.452537
0 0.626963 0.455329
0 0.629679 0.457359
0 0.631678 0.458839
0 0.632807 0.459632
0 0.633188 0.459785
0 0.632334 0.458808
0 0.629175 0.455787
0 0.631235 0.457252
0 0.616693 0.440757
0.0355688 0.589334 0.34786
0.301427 0.574182 0.255909
0.642817 0.566705 0.152117
0.826123 0.564569 0.0836042
0.959854 0.57731 0.0607919
1 0.61001 0.0744945
1 0.618509 0.0851301
1 0.603693 0.0847181
1 0.585153 0.0827039
1 0.560876 0.0773632
1 0.528496 0.0673075
1 0.481849 0.0486305
1 0.410513 0.0229648
1 0.296483 3.0518e-05
0.907774 0.122133 0
0.873579 0.10251 0
0.873579 0.10251 0
0.873579 0.10251 0
0.873579 0.10251 0
0.873579 0.10251 0
0.873579 0.10251 0
0 0.715175 0.528389
0 0.718944 0.531685
0 0.725216 0.537194
0 0.728664 0.54023
0 0.731182 0.542428
0 0.733379 0.544366
0 0.734936 0.545739
0 0.735882 0.546563
0 0.736629 0.547219
0 0.735744 0.546502
0 0.732998 0.544259
0 0.739086 0.549737
0 0.712795 0.504997
0.0697032 0.687037 0.396719
0.433097 0.678889 0.307652
0.750362 0.667536 0.175036
0.910567 0.661006 0.090425
0.996002 0.676295 0.0746624
1 0.688533 0.0865949
1 0.675624 0.0866102
1 0.659205 0.0863203
1 0.639765 0.0865034
1 0.616495 0.0860761
1 0.589456 0.0841382
1 0.555764 0.0787366
1 0.509255 0.058854
1 0.444083 0.0342107
1 0.348623 0.00480659
0.984176 0.199557 0
0.874006 0.102739 0
0.873579 0.10251 0
0.873579 0.10251 0
0.873579 0.10251 0
0 0.803433 0.608377
0 0.806958 0.611612
0 0.811902 0.616403
0 0.814725 0.619486
0 0.816831 0.62179
0 0.818463 0.62359
0 0.819638 0.624872
0 0.820584 0.625895
0 0.821286 0.626657
0 0.821744 0.627176
0 0.821546 0.626902
0 0.819135 0.624018
0 0.822248 0.626795
0 0.793515 0.558679
0.121218 0.771954 0.444877
0.570092 0.770764 0.361547
0.839887 0.758434 0.216556
0.975387 0.74905 0.110689
1 0.756939 0.0917372
1 0.747082 0.0898756
1 0.730526 0.0890974
1 0.712032 0.0880598
1 0.691524 0.0868849
1 0.669474 0.0859388
1 0.644633 0.0859083
1 0.616739 0.0854353
1 0.58616 0.0831159
1 0.551278 0.0758984
1 0.510185 0.0603189
1 0.461799 0.0408026
1 0.404334 0.0202487
1 0.341527 0.00271611
1 0.276448 3.0518e-05
0 0.873411 0.683909
0 0.874754 0.685481
0 0.876722 0.68777
0 0.877974 0.689219
0 0.878904 0.690303
0 0.879622 0.691142
0 0.880247 0.691875
0 0.880659 0.692348
0 0.881071 0.692836
0 0.881285 0.69308
0 0.881498 0.693324
0 0.881544 0.69337
0 0.880339 0.692027
0 0.87808 0.689052
0 0.858335 0.610941
0.218158 0.840726 0.491554
0.673961 0.843961 0.418219
0.909117 0.83151 0.273579
0.997345 0.82266 0.168093
1 0.815473 0.138216
1 0.79939 0.120638
1 0.781842 0.104952
1 0.762264 0.0952621
1 0.741253 0.089601
1 0.719509 0.0883497
1 0.696864 0.0865949
1 0.674205 0.0857404
1 0.651545 0.0860761
1 0.629129 0.0865034
1 0.608148 0.085481
1 0.58909 0.0838788
1 0.572244 0.0823377
1 0.557244 0.0772412
0 0.89836 0.712947
0 0.898573 0.713191
0 0.898894 0.713573
0 0.899107 0.713832
0 0.89926 0.714
0 0.899382 0.714137
0 0.899489 0.71426
0 0.899565 0.714351
0 0.899641 0.714443
0 0.899687 0.714488
0 0.899718 0.714534
0 0.899748 0.714549
0 0.899763 0.71458
0 0.899718 0.714519
0 0.900542 0.714076
0.0118257 0.894942 0.628077
0.317693 0.893675 0.535576
0.761975 0.90164 0.480751
0.958709 0.890013 0.338552
1 0.8766 0.240131
1 0.861906 0.204456
1 0.84477 0.176364
1 0.82678 0.150591
1 0.808133 0.127886
1 0.788785 0.110719
1 0.769284 0.100175
1 0.749432 0.0934157
1 0.730388 0.090013
1 0.712505 0.0883192
1 0.697612 0.0872969
1 0.684825 0.0866407
1 0.673945 0.0862898
1 0.667155 0.0861372
0 0.901366 0.716442
0 0.901366 0.716442
0 0.901366 0.716442
0 0.901366 0.716442
0 0.901366 0.716442
0 0.901366 0.716442
0 0.901366 0.716442
0 0.901366 0.716442
0 0.901366 0.716442
0 0.901366 0.716442
0 0.901366 0.716442
0 0.901366 0.716442
0 0.901366 0.716442
0 0.901366 0.716442
0 0.901366 0.716442
0 0.906462 0.714137
0.0339513 0.906096 0.612833
0.494087 0.919738 0.561898
0.837903 0.933211 0.507912
0.989075 0.927657 0.386603
1 0.915663 0.313954
1 0.899687 0.27451
1 0.88336 0.242695
1 0.866056 0.211353
1 0.848524 0.18088
1 0.831327 0.155612
1 0.814649 0.13373
1 0.798779 0.118761
1 0.784558 0.108629
1 0.772305 0.102022
1 0.761837 0.0975052
1 0.753155 0.0944686
1 0.748623 0.0929427
0 0.901366 0.716442
0 0.901366 0.716442
0 0.901366 0.716442
0 0.901366 0.716442
0 0.901366 0.716442
0 0.901366 0.716442
0 0.901366 0.716442
0 0.901366 0.716442
0 0.901366 0.716442
0 0.901366 0.716442
0 0.901366 0.716442
0 0.901366 0.716442
0 0.901366 0.716442
0 0.901366 0.716442
0 0.901366 0.716442
0 0.901366 0.716442
0 0.908186 0.6972
0.0838483 0.906523 0.573266
0.659693 0.931121 0.56379
0.908705 0.942138 0.492561
1 0.939742 0.393362
1 0.935363 0.355291
1 0.929152 0.341283
1 0.914321 0.306538
1 0.898848 0.272068
1 0.883452 0.242618
1 0.868803 0.215854
1 0.855222 0.192004
1 0.842985 0.171344
1 0.832883 0.156374
1 0.824521 0.144778
1 0.817502 0.137224
1 0.814221 0.134096
0 0.901366 0.716442
0 0.901366 0.716442
0 0.901366 0.716442
0 0.901366 0.716442
0 0.901366 0.716442
0 0.901366 0.716442
0 0.901366 0.716442
0 0.901366 0.716442
0 0.901366 0.716442
0 0.901366 0.716442
0 0.901366 0.716442
0 0.901366 0.716442
0 0.901366 0.716442
0 0.901366 0.716442
0 0.901366 0.716442
0 0.901366 0.716442
0 0.901366 0.716442
0.000671397 0.908278 0.668223
0.252857 0.912459 0.560815
0.757198 0.937743 0.55021
0.960311 0.942519 0.456916
1 0.941314 0.382345
1 0.941146 0.369863
1 0.938735 0.363714
1 0.9346 0.353338
1 0.925017 0.330831
1 0.912642 0.302235
1 0.900923 0.277058
1 0.890471 0.256046
1 0.882002 0.239857
1 0.875029 0.22681
1 0.869307 0.216175
1 0.86659 0.211139
0 0.901366 0.716442
0 0.901366 0.716442
0 0.901366 0.716442
0 0.901366 0.716442
0 0.901366 0.716442
0 0.901366 0.716442
0 0.901366 0.716442
0 0.901366 0.716442
0 0.901366 0.716442
0 0.901366 0.716442
0 0.901366 0.716442
0 0.901366 0.716442
0 0.901366 0.716442
0 0.901366 0.716442
0 0.901366 0.716442
0 0.901366 0.716442
0 0.901366 0.716442
0 0.901442 0.716472
0.0178531 0.907347 0.633005
0.475044 0.921706 0.563989
0.83711 0.941238 0.529229
0.9879 0.942168 0.428229
1 0.941405 0.374228
1 0.941421 0.370565
1 0.94136 0.370413
1 0.94023 0.367544
1 0.93756 0.360739
1 0.93286 0.349142
1 0.926726 0.33463
1 0.920256 0.319509
1 0.914473 0.306233
1 0.909865 0.295857
1 0.90724 0.29012
0 0.901366 0.716442
0 0.901366 0.716442
0 0.901366 0.716442
0 0.901366 0.716442
0 0.901366 0.716442
0 0.901366 0.716442
0 0.901366 0.716442
0 0.901366 0.716442
0 0.901366 0.716442
0 0.901366 0.716442
0 0.901366 0.716442
0 0.901366 0.716442
0 0.901366 0.716442
0 0.901366 0.716442
0 0.901366 0.716442
0 0.901366 0.716442
0 0.901366 0.716442
0 0.901366 0.716442
0 0.90547 0.718166
0.0726635 0.906767 0.589319
0.635813 0.930358 0.562188
0.897124 0.942428 0.500923
0.997314 0.941802 0.407706
1 0.941421 0.371542
1 0.941421 0.370565
1 0.941421 0.370565
1 0.941329 0.370336
1 0.940963 0.36939
1 0.939971 0.366857
1 0.938598 0.363363
1 0.936873 0.358984
1 0.935256 0.354864
1 0.934005 0.351675
0 0.901366 0.716442
0 0.901366 0.716442
0 0.901366 0.716442
0 0.901366 0.716442
0 0.901366 0.716442
0 0.901366 0.716442
0 0.901366 0.716442
0 0.901366 0.716442
0 0.901366 0.716442
0 0.901366 0.716442
0 0.901366 0.716442
0 0.901366 0.716442
0 0.901366 0.716442
0 0.901366 0.716442
0 0.901366 0.716442
0 0.901366 0.716442
0 0.901366 0.716442
0 0.901366 0.716442
0 0.901366 0.716442
0 0.908339 0.68838
0.246036 0.912032 0.563439
0.75082 0.937957 0.554376
0.944686 0.942626 0.469154
0.999725 0.941421 0.391714
1 0.941421 0.370565
1 0.941421 0.370565
1 0.941421 0.370565
1 0.941421 0.37055
1 0.94136 0.370413
1 0.941283 0.370214
1 0.941176 0.369909
1 0.941054 0.369619
1 0.940948 0.369345
0 0.901366 0.716442
0 0.901366 0.716442
0 0.901366 0.716442
0 0.901366 0.716442
0 0.901366 0.716442
0 0.901366 0.716442
0 0.901366 0.716442
0 0.901366 0.716442
0 0.901366 0.716442
0 0.901366 0.716442
0 0.901366 0.716442
0 0.901366 0.716442
0 0.901366 0.716442
0 0.901366 0.716442
0 0.901366 0.716442
0 0.901366 0.716442
0 0.901366 0.716442
0 0.901366 0.716442
0 0.901366 0.716442
0 0.901366 0.716442
0.00914015 0.907515 0.635065
0.511345 0.923003 0.564996
0.840925 0.942 0.53283
0.97818 0.942321 0.438254
1 0.941329 0.37998
1 0.941421 0.370565
1 0.941421 0.370565
1 0.941421 0.370565
1 0.941421 0.370565
1 0.941421 0.370565
1 0.941421 0.370565
1 0.941421 0.370565
1 0.941421 0.370565
0 0.901366 0.716442
0 0.901366 0.716442
0 0.901366 0.716442
0 0.901366 0.716442
0 0.901366 0.716442
0 0.901366 0.716442
0 0.901366 0.716442
0 0.901366 0.716442
0 0.901366 0.716442
0 0.901366 0.716442
0 0.901366 0.716442
0 0.901366 0.716442
0 0.901366 0.716442
0 0.901366 0.716442
0 0.901366 0.716442
0 0.901366 0.716442
0 0.901366 0.716442
0 0.901366 0.716442
0 0.901366 0.716442
0 0.901366 0.716442
0 0.906615 0.718166
0.11284 0.907408 0.568231
0.691112 0.93373 0.559472
0.908614 0.942687 0.494911
0.993591 0.941833 0.412177
1 0.941405 0.371801
1 0.941421 0.370581
1 0.941421 0.370565
1 0.941421 0.370565
1 0.941421 0.370565
1 0.941421 0.370565
1 0.941421 0.370565
1 0.941421 0.370565
0 0.901366 0.716442
0 0.901366 0.716442
0 0.901366 0.716442
0 0.901366 0.716442
0 0.901366 0.716442
0 0.901366 0.716442
0 0.901366 0.716442
0 0.901366 0.716442
0 0.901366 0.716442
