LUT预设1/柯达5219&2393/柯达5219&2393尼康专用/R3D/柯达5219微调-R3D.cube
TITLE "Generated by Resolve"
LUT_3D_SIZE 5
0.0164492 0.0244602 0.0419471
0.0759747 0.0264591 0.0258488
0.503182 0.0251316 0.00289921
0.961883 0.00343328 0.000854505
0.962249 0.00343328 0.000854505
0.0106203 0.059205 0.0588083
0.0717327 0.076524 0.0370489
0.860899 0.00965896 9.15541e-05
0.962066 0.00343328 0.000854505
0.962249 0.00343328 0.000854505
0.000808728 0.401572 0.087953
6.10361e-05 0.524376 0.110826
0.849439 0.666941 0.000946059
1 0.687968 9.15541e-05
0.962249 0.00343328 0.000854505
0 0.936873 0.447623
0 0.944121 0.528176
0 0.955718 0.765743
1 0.958816 0.00982681
1 0.958816 0.00894179
0 0.958602 0.888334
0 0.958816 0.899962
0 0.959045 0.916106
0.165438 0.933455 0.263523
1 0.958816 0.00894179
0.013489 0.0255894 0.0609445
0.0399939 0.0248264 0.0631266
0.441245 0.0265507 0.00596628
0.961807 0.00343328 0.000854505
0.962249 0.00343328 0.000854505
0.00889601 0.0788739 0.0924086
0.0609445 0.0696574 0.101488
0.813138 0.0133516 0.000122072
0.962158 0.00343328 0.000854505
0.962249 0.00343328 0.000854505
3.0518e-05 0.555474 0.100282
0.00030518 0.616388 0.153841
0.869551 0.685283 0.000915541
1 0.70013 6.10361e-05
0.962249 0.00343328 0.000854505
0 0.943297 0.518898
0 0.94136 0.497444
0 0.940612 0.47602
1 0.958831 0.0099794
1 0.958816 0.00894179
0 0.958785 0.898116
0 0.958785 0.89752
0 0.958999 0.912367
0.725032 0.975509 0.609888
1 0.958816 0.00894179
0.00750744 0.0302739 0.12726
0.00982681 0.0278782 0.161257
0.203586 0.0271153 0.167941
0.515099 0.0248417 0.0212558
0.962249 0.00343328 0.000854505
0.00239567 0.0797589 0.281621
0.00318914 0.0635386 0.383597
0.398566 0.0303197 0.287892
0.590021 0.0224613 0.0336614
0.962249 0.00343328 0.000854505
0 0.782574 0.532403
0 0.8177 0.591714
0.597513 0.64123 0.66389
0.996719 0.9019 0.551812
0.962249 0.00343328 0.000854505
0 0.955886 0.770733
0 0.953658 0.707256
0 0.954604 0.733272
1 0.958816 0.00991836
1 0.958816 0.00894179
0 0.959213 0.927077
0 0.958999 0.91281
0 0.958816 0.900328
0.872786 0.980606 0.673655
1 0.958816 0.00894179
0.000457771 0.0415198 0.448631
0.000488289 0.0422217 0.456672
0.0738231 0.0556497 0.617029
0.43537 0.0279545 0.194568
0.62327 0.0205692 0.117113
6.10361e-05 0.0761883 0.726406
0.000549325 0.0807965 0.774548
0.321889 0.024567 0.736568
0.520058 0.0255589 0.171511
0.684672 0.017258 0.152117
0.368383 0.883818 0.953521
0.427222 0.88275 0.947005
0.677455 0.77084 0.935103
0.965698 0.680491 0.796963
0.711452 0.0161135 0.174823
0 0.959701 0.954986
0 0.959854 0.96144
0 0.959884 0.963226
0.953674 0.95639 0.929488
0.981613 0.958434 0.919066
0 0.959579 0.948898
0 0.959548 0.947402
0 0.959365 0.936858
0.894301 0.977066 0.957366
0.971649 0.985489 0.909178
0.0238956 0.0870527 0.877607
0.0148928 0.0859998 0.852155
0.0724193 0.0754253 0.832151
0.575143 0.0224765 0.486244
0.669108 0.0183871 0.186114
0.206455 0.0480964 0.879332
0.175601 0.0522011 0.87805
0.381598 0.0231174 0.812421
0.637552 0.0211185 0.297993
0.730312 0.0157321 0.209674
0.472648 0.0199283 0.848173
0.459815 0.0201724 0.850492
0.89305 0.00933852 0.823026
0.982116 0.391943 0.769802
0.756085 0.0149233 0.223896
0.302403 0.97293 0.974563
0.297108 0.97293 0.974334
0.760906 0.978683 0.962356
0.953475 0.954482 0.956085
0.964813 0.953979 0.953216
0 0.960433 0.988708
0 0.960433 0.988708
0 0.960433 0.988708
0.918242 0.974548 0.957366
0.958251 0.970153 0.957916
