LUT预设1/柯达5219&2393/柯达5219&2393尼康专用/R3D/柯达2393-R3D.cube
TITLE "Generated by Resolve"
LUT_3D_SIZE 5
0.0059205 0.0257877 0.0216831
0.0331731 0.0281529 0.0176699
0.373266 0.0292668 0
0.685786 0.0534829 0
0.756298 0.0864576 0
7.62951e-05 0.0404212 0.0224002
0.0141299 0.0485084 0.0188449
0.450813 0.0596323 0
0.701549 0.0614939 0
0.759579 0.0880293 0
0 0.140749 0.0279545
0 0.201007 0.0409857
0.624552 0.479591 0
0.931762 0.455665 0
0.759686 0.0880751 0
0 0.449226 0.152331
0 0.474998 0.160204
0.0192721 0.609033 0
0.992798 0.802731 0
1 0.798352 0
0 0.554543 0.177646
0 0.556558 0.178714
0 0.560159 0.180972
0.804135 0.827771 0
1 0.839536 0
0.00105287 0.0292058 0.0380865
0.0163577 0.0295415 0.0352941
0.34406 0.0100252 0
0.686366 0.0537728 0
0.756893 0.0867475 0
0 0.048661 0.0493019
0.0102693 0.0545968 0.0503395
0.482185 0.0442664 0
0.705257 0.0637369 0
0.759976 0.0881971 0
0 0.189822 0.0445411
0 0.238193 0.0589303
0.654322 0.502251 0
0.936339 0.466957 0
0.760327 0.088365 0
0 0.469169 0.158877
0 0.471611 0.159426
0.0318761 0.605844 0
0.996948 0.805493 0
1 0.802411 0
0 0.555825 0.178317
0 0.556512 0.178683
0 0.559457 0.180529
0.900893 0.835309 0
1 0.839582 0
0 0.0717021 0.223438
0 0.0423743 0.165667
0.189593 0.00335698 0.185046
0.653712 0 0.185229
0.751812 0.0842603 0
0 0.174685 0.396643
0.000610361 0.0971084 0.359747
0.397543 0.000350958 0.364813
0.757931 0 0.339101
0.759808 0.0881208 0
0 0.46949 0.561013
0 0.518334 0.616815
0.606424 0.554543 0.541466
0.997177 0.442176 0.357885
0.760739 0.0885481 0
0 0.530632 0.171328
0 0.52076 0.169818
0 0.529976 0.16936
0.999222 0.806775 0
1 0.803845 0
0 0.562173 0.181933
0 0.559365 0.180468
0 0.557305 0.179141
0.900511 0.832883 0
1 0.839582 0
0.0378424 0.0556497 0.509224
0.0421149 0.0438849 0.474662
0.218845 0 0.480522
0.604486 0 0.541543
0.8309 0 0.575158
0.171649 0 0.603876
0.202167 0 0.596643
0.42359 0 0.598398
0.720058 0 0.634852
0.865797 0 0.675608
0.183093 0.395285 0.941283
0.313832 0.458946 0.94873
0.68455 0.535714 0.918959
0.946334 0.523033 0.916976
0.883925 0 0.73106
0 0.735378 0.885649
0 0.738582 0.891814
0 0.739406 0.893889
0.947188 0.955978 0.923506
0.999954 0.952071 0.900572
0 0.588342 0.179828
0 0.587167 0.179736
0 0.571603 0.182284
0.689342 0.867323 0.230488
0.999969 0.979355 0.817868
0.441596 0 0.722087
0.394461 0 0.696941
0.424826 0 0.678706
0.628305 0 0.708537
0.836194 0 0.744686
0.57026 0 0.764294
0.563165 0 0.758587
0.586114 0 0.746777
0.749386 0 0.764843
0.877424 0 0.788342
0.659815 0 0.801755
0.655375 0 0.797314
0.694667 0 0.791897
0.965118 0.00880446 0.991852
0.897322 0 0.813642
0.525856 0.913207 1
0.511421 0.924575 1
0.690547 0.940795 1
0.949508 0.959075 0.997909
0.992599 0.966354 0.995697
0 0.777981 0.937774
0 0.780835 0.940063
0 0.781872 0.940887
0.819425 0.991073 1
0.988037 0.999969 0.997131
