LUT预设1/柯达5219&2393/柯达5219&2393尼康专用/R3D/柯达5219基准-R3D.cube
TITLE "Generated by Resolve"
LUT_3D_SIZE 33
0.0230106 0.030518 0.0598459
0.0230106 0.030518 0.0598459
0.0230106 0.030518 0.0598459
0.0230106 0.030518 0.0598459
0.0233158 0.0306249 0.0598917
0.024445 0.0309911 0.0600443
0.031693 0.0333257 0.0607919
0.0521553 0.0392462 0.0609903
0.081529 0.0462348 0.0588235
0.120165 0.0529641 0.0553292
0.168673 0.0590066 0.0511025
0.229664 0.0646067 0.0451362
0.307317 0.0703746 0.0359503
0.403082 0.0761273 0.0240482
0.519371 0.081117 0.0121767
0.652003 0.086183 0.00289921
0.779614 0.0936599 4.57771e-05
0.860471 0.101106 0
0.873472 0.102495 0
0.873579 0.10251 0
0.873579 0.10251 0
0.873579 0.10251 0
0.873579 0.10251 0
0.873579 0.10251 0
0.873579 0.10251 0
0.873579 0.10251 0
0.873579 0.10251 0
0.873579 0.10251 0
0.873579 0.10251 0
0.873579 0.10251 0
0.873579 0.10251 0
0.873579 0.10251 0
0.873579 0.10251 0
0.0230106 0.030518 0.0598459
0.0230106 0.030518 0.0598459
0.0230106 0.030518 0.0598459
0.0230106 0.030518 0.0598459
0.0231632 0.0305638 0.0598611
0.0236667 0.0307317 0.0599374
0.0287938 0.0324102 0.0605936
0.0486915 0.0383154 0.0611276
0.077821 0.0454261 0.0591745
0.115511 0.0522927 0.0557259
0.162921 0.0584115 0.0516365
0.222248 0.0640116 0.0459449
0.298756 0.0697948 0.0370336
0.394553 0.0756542 0.0250706
0.510445 0.0808118 0.0129702
0.640711 0.0854963 0.00309758
0.774441 0.0931411 0
0.858457 0.100893 0
0.873457 0.102495 0
0.873579 0.10251 0
0.873579 0.10251 0
0.873579 0.10251 0
0.873579 0.10251 0
0.873579 0.10251 0
0.873579 0.10251 0
0.873579 0.10251 0
0.873579 0.10251 0
0.873579 0.10251 0
0.873579 0.10251 0
0.873579 0.10251 0
0.873579 0.10251 0
0.873579 0.10251 0
0.873579 0.10251 0
0.0230106 0.030518 0.0598459
0.0230106 0.030518 0.0598459
0.0230106 0.030518 0.0598459
0.0230106 0.030518 0.0598459
0.0231174 0.0305486 0.0598611
0.0234989 0.0306859 0.0599222
0.0285496 0.0323339 0.0605478
0.0488441 0.0383612 0.0611124
0.0785229 0.0456092 0.0591287
0.116701 0.0524758 0.0556191
0.163134 0.0584726 0.0516365
0.221164 0.0639811 0.046128
0.298711 0.0697795 0.0370336
0.395926 0.0757458 0.0248875
0.513207 0.0809644 0.0126497
0.643061 0.0853285 0.00250248
0.778195 0.0935378 0
0.859327 0.100984 0
0.873487 0.102495 0
0.873579 0.10251 0
0.873579 0.10251 0
0.873579 0.10251 0
0.873579 0.10251 0
0.873579 0.10251 0
0.873579 0.10251 0
0.873579 0.10251 0
0.873579 0.10251 0
0.873579 0.10251 0
0.873579 0.10251 0
0.873579 0.10251 0
0.873579 0.10251 0
0.873579 0.10251 0
0.873579 0.10251 0
0.0230106 0.030518 0.0598459
0.0230106 0.030518 0.0598459
0.0230106 0.030518 0.0598459
0.0230106 0.030518 0.0598459
0.0230411 0.0305333 0.0598459
0.0232395 0.0305943 0.0598764
0.0271916 0.0318914 0.0604105
0.0466773 0.0377508 0.0611582
0.0765545 0.0451667 0.0593118
0.115007 0.0522316 0.0557565
0.160983 0.0582589 0.0518349
0.217472 0.0636759 0.0465248
0.290578 0.0692454 0.038056
0.385229 0.0752422 0.0260624
0.502602 0.0806744 0.0134585
0.634012 0.0849622 0.00325017
0.772702 0.0930953 0
0.857893 0.100832 0
0.873487 0.102495 0
0.873579 0.10251 0
0.873579 0.10251 0
0.873579 0.10251 0
0.873579 0.10251 0
0.873579 0.10251 0
0.873579 0.10251 0
0.873579 0.10251 0
0.873579 0.10251 0
0.873579 0.10251 0
0.873579 0.10251 0
0.873579 0.10251 0
0.873579 0.10251 0
0.873579 0.10251 0
0.873579 0.10251 0
0.0230106 0.030518 0.0598459
0.0230106 0.030518 0.0598459
0.0230106 0.030518 0.0598459
0.0230106 0.030518 0.0598459
0.0230106 0.030518 0.0598459
0.0230106 0.030518 0.0598459
0.0256962 0.0314031 0.0602274
0.0429541 0.0366979 0.0611734
0.0730907 0.0443885 0.0596017
0.111681 0.0517281 0.0560464
0.156786 0.0578317 0.0522011
0.211582 0.0631723 0.0471351
0.282658 0.0686809 0.0390631
0.374502 0.0746624 0.0273442
0.482902 0.0801099 0.0150149
0.615015 0.0842298 0.00466926
0.759655 0.0920729 0
0.854307 0.100435 0
0.873426 0.102495 0
0.873579 0.10251 0
0.873579 0.10251 0
0.873579 0.10251 0
0.873579 0.10251 0
0.873579 0.10251 0
0.873579 0.10251 0
0.873579 0.10251 0
0.873579 0.10251 0
0.873579 0.10251 0
0.873579 0.10251 0
0.873579 0.10251 0
0.873579 0.10251 0
0.873579 0.10251 0
0.873579 0.10251 0
0.0230106 0.030518 0.0598459
0.0230106 0.030518 0.0598459
0.0230106 0.030518 0.0598459
0.0230106 0.030518 0.0598459
0.0230106 0.030518 0.0598459
0.0230106 0.030518 0.0598459
0.0243839 0.0309758 0.0600443
0.0377661 0.0351568 0.0610513
0.0693217 0.043473 0.0598917
0.110201 0.0514839 0.0561685
0.157565 0.0578927 0.0521248
0.212467 0.0632486 0.0470588
0.280476 0.0685283 0.0393378
0.363561 0.0740215 0.0287175
0.472496 0.0798199 0.0158541
0.593042 0.08336 0.0061799
0.73843 0.0904707 0
0.847715 0.0997177 0
0.872892 0.102434 0
0.873579 0.10251 0
0.873579 0.10251 0
0.873579 0.10251 0
0.873579 0.10251 0
0.873579 0.10251 0
0.873579 0.10251 0
0.873579 0.10251 0
0.873579 0.10251 0
0.873579 0.10251 0
0.873579 0.10251 0
0.873579 0.10251 0
0.873579 0.10251 0
0.873579 0.10251 0
0.873579 0.10251 0
0.0250858 0.0345006 0.0635691
0.0250401 0.0343938 0.063508
0.0250706 0.0344396 0.0635691
0.024979 0.034226 0.0634012
0.0247654 0.033814 0.0630503
0.0244297 0.0331579 0.0624552
0.0242313 0.0323339 0.0615854
0.0305791 0.0333257 0.0610971
0.0624704 0.0417945 0.0603494
0.107134 0.0509957 0.0564126
0.162844 0.058381 0.051667
0.228809 0.0645762 0.0453498
0.305333 0.0702373 0.0362249
0.389075 0.0754559 0.0256352
0.487404 0.080293 0.0145571
0.591241 0.0832685 0.00627146
0.725185 0.0894179 0
0.836469 0.0985733 0
0.872145 0.102342 0
0.873579 0.10251 0
0.873579 0.10251 0
0.873579 0.10251 0
0.873579 0.10251 0
0.873579 0.10251 0
0.873579 0.10251 0
0.873579 0.10251 0
0.873579 0.10251 0
0.873579 0.10251 0
0.873579 0.10251 0
0.873579 0.10251 0
0.873579 0.10251 0
0.873579 0.10251 0
0.873579 0.10251 0
0.0322576 0.0558328 0.0814069
0.0321965 0.0557717 0.0813611
0.0323033 0.0565194 0.0819104
0.0321965 0.0560922 0.0815747
0.0318761 0.0548409 0.0805676
0.031342 0.0527047 0.0788586
0.0305333 0.0500649 0.0766155
0.0325933 0.0484474 0.0744182
0.063035 0.0522469 0.0698405
0.113375 0.0594644 0.0625467
0.17612 0.064683 0.0540017
0.255741 0.0697337 0.0438849
0.355001 0.0750134 0.030518
0.465324 0.0796979 0.0171969
0.57615 0.0828565 0.00737011
0.670573 0.0866102 0.00187686
0.761395 0.0921645 0
0.836042 0.098558 0
0.871046 0.10222 0
0.873579 0.10251 0
0.873579 0.10251 0
0.873579 0.10251 0
0.873579 0.10251 0
0.873579 0.10251 0
0.873579 0.10251 0
0.873579 0.10251 0
0.873579 0.10251 0
0.873579 0.10251 0
0.873579 0.10251 0
0.873579 0.10251 0
0.873579 0.10251 0
0.873579 0.10251 0
0.873579 0.10251 0
0.0332494 0.0928969 0.108034
0.0331884 0.0935073 0.108446
0.033051 0.0952163 0.109636
0.0330205 0.0957046 0.109957
0.0330663 0.0955367 0.109834
0.0332341 0.0943923 0.109026
0.0334936 0.092546 0.107729
0.0344396 0.0910658 0.106508
0.0617838 0.0910048 0.099321
0.137011 0.0952773 0.083711
0.218692 0.0988327 0.0693217
0.312093 0.10132 0.0518196
0.422827 0.101778 0.0319524
0.544472 0.0982986 0.0154116
0.674525 0.0946365 0.00189212
0.799832 0.097612 0
0.853712 0.100374 0
0.866667 0.101732 0
0.872038 0.102342 0
0.873579 0.10251 0
0.873579 0.10251 0
0.873579 0.10251 0
0.873579 0.10251 0
0.873579 0.10251 0
0.873579 0.10251 0
0.873579 0.10251 0
0.873579 0.10251 0
0.873579 0.10251 0
0.873579 0.10251 0
0.873579 0.10251 0
0.873579 0.10251 0
0.873579 0.10251 0
0.873579 0.10251 0
0.0187228 0.146487 0.144289
0.0183566 0.147875 0.145098
0.0176394 0.150546 0.1467
0.0174105 0.151431 0.147204
0.0174563 0.151308 0.147082
0.0177005 0.150408 0.146441
0.0182803 0.148287 0.145022
0.0187381 0.146624 0.143893
0.0273442 0.144015 0.139193
0.115984 0.143664 0.113176
0.243412 0.144015 0.0873121
0.370214 0.146426 0.0641337
0.506996 0.148302 0.0418402
0.646036 0.14995 0.0241855
0.78175 0.152438 0.00770581
0.90425 0.158831 0
0.942306 0.151812 0
0.893843 0.114916 0
0.873579 0.10251 0
0.873579 0.10251 0
0.873579 0.10251 0
0.873579 0.10251 0
0.873579 0.10251 0
0.873579 0.10251 0
0.873579 0.10251 0
0.873579 0.10251 0
0.873579 0.10251 0
0.873579 0.10251 0
0.873579 0.10251 0
0.873579 0.10251 0
0.873579 0.10251 0
0.873579 0.10251 0
0.873579 0.10251 0
0.00428778 0.211734 0.184192
0.00407416 0.213489 0.18529
0.00363165 0.217014 0.187472
0.00344854 0.218372 0.188296
0.00340276 0.218555 0.188388
0.00344854 0.217868 0.18793
0.00364691 0.21593 0.186694
0.00392157 0.213504 0.185138
0.0040589 0.213596 0.185138
0.036759 0.208179 0.163531
0.188647 0.204242 0.118349
0.372366 0.201389 0.0808576
0.534707 0.20238 0.0548409
0.69366 0.206897 0.0384222
0.839948 0.217716 0.0239567
0.958694 0.239445 0.00794995
0.998917 0.26685 0
1 0.240909 0
0.970504 0.182818 0
0.903517 0.11931 0
0.873579 0.10251 0
0.873579 0.10251 0
0.873579 0.10251 0
0.873579 0.10251 0
0.873579 0.10251 0
0.873579 0.10251 0
0.873579 0.10251 0
0.873579 0.10251 0
0.873579 0.10251 0
0.873579 0.10251 0
0.873579 0.10251 0
0.873579 0.10251 0
0.873579 0.10251 0
0 0.29247 0.229999
0 0.294743 0.231159
0 0.299153 0.233448
0 0.301228 0.234531
0 0.301946 0.234882
0 0.301686 0.23473
0 0.300175 0.233936
0 0.297353 0.232456
0 0.296208 0.231891
0.000869764 0.291783 0.226017
0.0699474 0.283604 0.178775
0.294575 0.273198 0.118181
0.503517 0.26952 0.0724804
0.676326 0.274296 0.0526131
0.835752 0.289128 0.04094
0.966155 0.317128 0.0300298
1 0.361318 0.0194858
1 0.36762 0.00973526
1 0.329671 0.0040589
0.999268 0.274754 0
0.978546 0.187915 0
0.881834 0.10692 0
0.873579 0.10251 0
0.873579 0.10251 0
0.873579 0.10251 0
0.873579 0.10251 0
0.873579 0.10251 0
0.873579 0.10251 0
0.873579 0.10251 0
0.873579 0.10251 0
0.873579 0.10251 0
0.873579 0.10251 0
0.873579 0.10251 0
0 0.389181 0.289326
0 0.392279 0.291341
0 0.397971 0.294911
0 0.401297 0.297002
0 0.402655 0.297871
0 0.403296 0.298314
0 0.402594 0.297963
0 0.400076 0.296407
0 0.396902 0.294148
0 0.399176 0.29575
0 0.383108 0.264424
0.12134 0.367956 0.196658
0.410086 0.356802 0.12221
0.620127 0.352972 0.0703593
0.791745 0.365057 0.0547341
0.941543 0.391012 0.0488441
1 0.43917 0.0480659
1 0.47187 0.0452125
1 0.449928 0.0361791
1 0.414786 0.0238804
1 0.364935 0.00872816
1 0.290501 0.000259403
0.95906 0.16321 0
0.873579 0.10251 0
0.873579 0.10251 0
0.873579 0.10251 0
0.873579 0.10251 0
0.873579 0.10251 0
0.873579 0.10251 0
0.873579 0.10251 0
0.873579 0.10251 0
0.873579 0.10251 0
0.873579 0.10251 0
0 0.498726 0.359442
0 0.502907 0.362585
0 0.50959 0.367575
0 0.512993 0.370123
0 0.515541 0.37203
0 0.516762 0.372946
0 0.516823 0.373022
0 0.515923 0.372366
0 0.512474 0.369802
0 0.510353 0.368139
0 0.508675 0.365942
0.0130922 0.484398 0.303471
0.200748 0.465156 0.21883
0.52459 0.456886 0.133379
0.729625 0.456031 0.0773632
0.886839 0.470039 0.0571145
0.997589 0.503426 0.0603037
1 0.547097 0.0766766
1 0.543038 0.0750134
1 0.521416 0.065156
1 0.493462 0.0529641
1 0.451514 0.0370489
1 0.388632 0.0155947
1 0.288182 0
0.912718 0.126818 0
0.873579 0.10251 0
0.873579 0.10251 0
0.873579 0.10251 0
0.873579 0.10251 0
0.873579 0.10251 0
0.873579 0.10251 0
0.873579 0.10251 0
0.873579 0.10251 0
0 0.609995 0.442649
0 0.614069 0.445686
0 0.620508 0.450507
0 0.624247 0.4533
0 0.626963 0.455329
0 0.628946 0.456794
0 0.630045 0.457572
0 0.630411 0.457694
0 0.629145 0.456428
0 0.625895 0.453346
0 0.628565 0.45536
0 0.613092 0.436774
0.039353 0.585702 0.343221
0.311238 0.571054 0.251865
0.646662 0.563607 0.148821
0.828443 0.5617 0.0821698
0.961456 0.575311 0.060502
1 0.608148 0.0746166
1 0.61651 0.0851148
1 0.601724 0.0846418
1 0.58294 0.0822614
1 0.558434 0.0767529
1 0.525612 0.0663462
1 0.478477 0.0473487
1 0.405341 0.0211643
0.999649 0.288075 0
0.89601 0.115358 0
0.873579 0.10251 0
0.873579 0.10251 0
0.873579 0.10251 0
0.873579 0.10251 0
0.873579 0.10251 0
0.873579 0.10251 0
0 0.712352 0.525902
0 0.716121 0.529213
0 0.722072 0.534447
0 0.725841 0.537743
0 0.728359 0.539956
0 0.730541 0.541878
0 0.731807 0.542977
0 0.733059 0.544091
0 0.733455 0.544442
0 0.732494 0.543648
0 0.730037 0.541634
0 0.736233 0.547158
0 0.708721 0.499153
0.0754253 0.683268 0.391348
0.44445 0.675944 0.3028
0.754253 0.664546 0.170809
0.91252 0.658381 0.0888838
0.996262 0.674174 0.0745708
1 0.686549 0.0865339
1 0.673487 0.0865797
1 0.657145 0.0863508
1 0.637537 0.0865492
1 0.614176 0.0859083
1 0.58703 0.0839399
1 0.552666 0.0773632
1 0.505516 0.0570687
1 0.43856 0.0321965
1 0.339239 0.00418097
0.978576 0.185077 0
0.873579 0.10251 0
0.873579 0.10251 0
0.873579 0.10251 0
0.873579 0.10251 0
0 0.800977 0.606134
0 0.804242 0.609125
0 0.809689 0.614115
0 0.812375 0.616907
0 0.814481 0.619226
0 0.816129 0.621012
0 0.817304 0.622309
0 0.818235 0.623331
0 0.818936 0.624094
0 0.819409 0.624613
0 0.819135 0.624247
0 0.816632 0.621256
0 0.819135 0.623331
0 0.790387 0.552605
0.133639 0.769329 0.439719
0.582147 0.768185 0.356115
0.845258 0.755184 0.208301
0.976623 0.746487 0.106615
1 0.754726 0.0915084
1 0.744762 0.0897383
1 0.728283 0.0889296
1 0.709667 0.0878614
1 0.689311 0.086717
1 0.667201 0.0858167
1 0.641917 0.0858778
1 0.613916 0.085359
1 0.58294 0.0825971
1 0.547463 0.0750591
1 0.505028 0.0581064
1 0.454231 0.0380713
1 0.394171 0.0173953
1 0.328573 0.000122072
1 0.259068 0
0 0.872374 0.682704
0 0.873716 0.684276
0 0.875685 0.686564
0 0.876936 0.688014
0 0.877867 0.689097
0 0.878599 0.689937
0 0.879103 0.690547
0 0.879622 0.691142
0 0.879942 0.691508
0 0.880247 0.691875
0 0.880354 0.691997
0 0.880369 0.692012
0 0.879088 0.690593
0 0.875944 0.686442
0.00167849 0.855421 0.603708
0.234272 0.838819 0.487022
0.683818 0.841581 0.411749
0.913695 0.828641 0.26508
0.997803 0.820447 0.163394
1 0.813107 0.134997
1 0.797055 0.118029
1 0.779522 0.103761
1 0.759991 0.0949264
1 0.738811 0.0894789
1 0.716945 0.0881819
1 0.694163 0.0863661
1 0.67155 0.0858015
1 0.648722 0.0861524
1 0.62594 0.0865797
1 0.604746 0.0851911
1 0.585382 0.0835431
1 0.567605 0.0809033
1 0.552071 0.0754101
0 0.898161 0.712718
0 0.89839 0.712978
0 0.898726 0.713375
0 0.898924 0.713603
0 0.899077 0.713787
0 0.899199 0.713924
0 0.899306 0.714046
0 0.899382 0.714137
0 0.899458 0.714214
0 0.899489 0.71426
0 0.899535 0.714321
0 0.89955 0.714336
0 0.89955 0.714336
0 0.899565 0.714351
0 0.900557 0.713085
0.0155489 0.893507 0.622705
0.339101 0.8925 0.532052
0.77084 0.899535 0.473289
0.962753 0.887312 0.32958
1 0.874434 0.235355
1 0.859663 0.200458
1 0.842634 0.172839
1 0.824659 0.147509
1 0.805859 0.125048
1 0.78648 0.109621
1 0.766827 0.099443
1 0.746883 0.0929732
1 0.727611 0.0897383
1 0.709789 0.0881819
1 0.694728 0.0871595
1 0.681819 0.0865492
1 0.670954 0.0862135
1 0.663996 0.0860761
0 0.901366 0.716442
0 0.901366 0.716442
0 0.901366 0.716442
0 0.901366 0.716442
0 0.901366 0.716442
0 0.901366 0.716442
0 0.901366 0.716442
0 0.901366 0.716442
0 0.901366 0.716442
0 0.901366 0.716442
0 0.901366 0.716442
0 0.901366 0.716442
0 0.901366 0.716442
0 0.901366 0.716442
0 0.901366 0.716442
0 0.906798 0.712367
0.0393225 0.905776 0.60798
0.51429 0.920104 0.561318
0.845136 0.93228 0.502434
0.990021 0.925841 0.379782
1 0.913695 0.309377
1 0.897734 0.270665
1 0.881254 0.238712
1 0.863951 0.207523
1 0.846403 0.177279
1 0.829129 0.15227
1 0.812284 0.130678
1 0.796475 0.117189
1 0.781933 0.107088
1 0.769696 0.10074
1 0.759075 0.096376
1 0.750393 0.0935225
1 0.745693 0.0919509
0 0.901366 0.716442
0 0.901366 0.716442
0 0.901366 0.716442
0 0.901366 0.716442
0 0.901366 0.716442
0 0.901366 0.716442
0 0.901366 0.716442
0 0.901366 0.716442
0 0.901366 0.716442
0 0.901366 0.716442
0 0.901366 0.716442
0 0.901366 0.716442
0 0.901366 0.716442
0 0.901366 0.716442
0 0.901366 0.716442
0 0.901366 0.716442
0 0.908293 0.693111
0.0933394 0.906661 0.5691
0.670542 0.931777 0.562341
0.914504 0.94197 0.488243
1 0.939193 0.390265
1 0.934249 0.352544
1 0.927413 0.337209
1 0.912474 0.302617
1 0.897017 0.268528
1 0.881621 0.239139
1 0.866804 0.212161
1 0.853056 0.188174
1 0.840757 0.167575
1 0.830716 0.152895
1 0.822232 0.14258
1 0.815213 0.135134
1 0.811795 0.131868
0 0.901366 0.716442
0 0.901366 0.716442
0 0.901366 0.716442
0 0.901366 0.716442
0 0.901366 0.716442
0 0.901366 0.716442
0 0.901366 0.716442
0 0.901366 0.716442
0 0.901366 0.716442
0 0.901366 0.716442
0 0.901366 0.716442
0 0.901366 0.716442
0 0.901366 0.716442
0 0.901366 0.716442
0 0.901366 0.716442
0 0.901366 0.716442
0 0.901366 0.716442
0.00112917 0.908186 0.663005
0.282872 0.913634 0.561227
0.768017 0.938323 0.548089
0.965194 0.942489 0.452934
1 0.941222 0.381033
1 0.940917 0.369299
1 0.937987 0.361837
1 0.933181 0.349844
1 0.923278 0.326879
1 0.910872 0.298528
1 0.899138 0.273518
1 0.888701 0.252644
1 0.880079 0.236194
1 0.87303 0.223041
1 0.867338 0.212497
1 0.864622 0.207446
0 0.901366 0.716442
0 0.901366 0.716442
0 0.901366 0.716442
0 0.901366 0.716442
0 0.901366 0.716442
0 0.901366 0.716442
0 0.901366 0.716442
0 0.901366 0.716442
0 0.901366 0.716442
0 0.901366 0.716442
0 0.901366 0.716442
0 0.901366 0.716442
0 0.901366 0.716442
0 0.901366 0.716442
0 0.901366 0.716442
0 0.901366 0.716442
0 0.901366 0.716442
0 0.901564 0.716564
0.0220188 0.907103 0.62707
0.498863 0.922805 0.564309
0.845853 0.941512 0.526009
0.990524 0.942138 0.424399
1 0.941405 0.37319
1 0.941405 0.370504
1 0.941207 0.370047
1 0.939803 0.366461
1 0.936645 0.358465
1 0.93164 0.346181
1 0.925216 0.33109
1 0.918685 0.315999
1 0.912856 0.302739
1 0.908125 0.29221
1 0.905531 0.286625
0 0.901366 0.716442
0 0.901366 0.716442
0 0.901366 0.716442
0 0.901366 0.716442
0 0.901366 0.716442
0 0.901366 0.716442
0 0.901366 0.716442
0 0.901366 0.716442
0 0.901366 0.716442
0 0.901366 0.716442
0 0.901366 0.716442
0 0.901366 0.716442
0 0.901366 0.716442
0 0.901366 0.716442
0 0.901366 0.716442
0 0.901366 0.716442
0 0.901366 0.716442
0 0.901366 0.716442
0 0.906661 0.718502
0.0893111 0.907195 0.584405
0.652766 0.931395 0.561532
0.904356 0.942489 0.496757
0.998596 0.941756 0.404822
1 0.941421 0.370855
1 0.941421 0.370565
1 0.94139 0.370504
1 0.941253 0.370123
1 0.940795 0.368948
1 0.939605 0.365942
1 0.938033 0.361959
1 0.936065 0.356924
1 0.93434 0.35256
1 0.932937 0.348974
0 0.901366 0.716442
0 0.901366 0.716442
0 0.901366 0.716442
0 0.901366 0.716442
0 0.901366 0.716442
0 0.901366 0.716442
0 0.901366 0.716442
0 0.901366 0.716442
0 0.901366 0.716442
0 0.901366 0.716442
0 0.901366 0.716442
0 0.901366 0.716442
0 0.901366 0.716442
0 0.901366 0.716442
0 0.901366 0.716442
0 0.901366 0.716442
0 0.901366 0.716442
0 0.901366 0.716442
0 0.901366 0.716442
0 0.90837 0.68162
0.276127 0.913085 0.562356
0.761746 0.938521 0.552041
0.950942 0.942611 0.4645
1 0.94139 0.389761
1 0.941421 0.370565
1 0.941421 0.370565
1 0.941421 0.370565
1 0.941405 0.370535
1 0.941344 0.370352
1 0.941253 0.370108
1 0.9411 0.369741
1 0.940978 0.36939
1 0.940856 0.3691
0 0.901366 0.716442
0 0.901366 0.716442
0 0.901366 0.716442
0 0.901366 0.716442
0 0.901366 0.716442
0 0.901366 0.716442
0 0.901366 0.716442
0 0.901366 0.716442
0 0.901366 0.716442
0 0.901366 0.716442
0 0.901366 0.716442
0 0.901366 0.716442
0 0.901366 0.716442
0 0.901366 0.716442
0 0.901366 0.716442
0 0.901366 0.716442
0 0.901366 0.716442
0 0.901366 0.716442
0 0.901366 0.716442
0 0.901366 0.716442
0.0173037 0.907225 0.626871
0.53167 0.924132 0.564782
0.849058 0.942092 0.528542
0.981445 0.942275 0.434394
1 0.941344 0.379263
1 0.941421 0.370565
1 0.941421 0.370565
1 0.941421 0.370565
1 0.941421 0.370565
1 0.941421 0.370565
1 0.941421 0.370565
1 0.941421 0.370565
1 0.941421 0.370565
0 0.901366 0.716442
0 0.901366 0.716442
0 0.901366 0.716442
0 0.901366 0.716442
0 0.901366 0.716442
0 0.901366 0.716442
0 0.901366 0.716442
0 0.901366 0.716442
0 0.901366 0.716442
0 0.901366 0.716442
0 0.901366 0.716442
0 0.901366 0.716442
0 0.901366 0.716442
0 0.901366 0.716442
0 0.901366 0.716442
0 0.901366 0.716442
0 0.901366 0.716442
0 0.901366 0.716442
0 0.901366 0.716442
0 0.901366 0.716442
0 0.907301 0.714092
0.143099 0.908492 0.566979
0.704021 0.934615 0.558465
0.914122 0.942657 0.490837
0.99501 0.941787 0.409293
1 0.941405 0.371695
1 0.941421 0.370565
1 0.941421 0.370565
1 0.941421 0.370565
1 0.941421 0.370565
1 0.941421 0.370565
1 0.941421 0.370565
1 0.941421 0.370565
0 0.901366 0.716442
0 0.901366 0.716442
0 0.901366 0.716442
0 0.901366 0.716442
0 0.901366 0.716442
0 0.901366 0.716442
0 0.901366 0.716442
0 0.901366 0.716442
0 0.901366 0.716442
