LUT预设1/柯达5219&2393/柯达5219&2393尼康专用/R3D/柯达5219基准-R3D.cube
TITLE "Generated by Resolve"
LUT_3D_SIZE 9
0.0230106 0.030518 0.0598459
0.0233158 0.0306249 0.0598917
0.081529 0.0462348 0.0588235
0.307317 0.0703746 0.0359503
0.779614 0.0936599 4.57771e-05
0.873579 0.10251 0
0.873579 0.10251 0
0.873579 0.10251 0
0.873579 0.10251 0
0.0230106 0.030518 0.0598459
0.0230106 0.030518 0.0598459
0.0730907 0.0443885 0.0596017
0.282658 0.0686809 0.0390631
0.759655 0.0920729 0
0.873579 0.10251 0
0.873579 0.10251 0
0.873579 0.10251 0
0.873579 0.10251 0
0.0332494 0.0928969 0.108034
0.0330663 0.0955367 0.109834
0.0617838 0.0910048 0.099321
0.422827 0.101778 0.0319524
0.853712 0.100374 0
0.873579 0.10251 0
0.873579 0.10251 0
0.873579 0.10251 0
0.873579 0.10251 0
0 0.389181 0.289326
0 0.402655 0.297871
0 0.396902 0.294148
0.410086 0.356802 0.12221
1 0.43917 0.0480659
1 0.364935 0.00872816
0.873579 0.10251 0
0.873579 0.10251 0
0.873579 0.10251 0
0 0.800977 0.606134
0 0.814481 0.619226
0 0.818936 0.624094
0 0.819135 0.623331
0.845258 0.755184 0.208301
1 0.728283 0.0889296
1 0.641917 0.0858778
1 0.505028 0.0581064
1 0.259068 0
0 0.901366 0.716442
0 0.901366 0.716442
0 0.901366 0.716442
0 0.901366 0.716442
0 0.908293 0.693111
1 0.939193 0.390265
1 0.897017 0.268528
1 0.840757 0.167575
1 0.811795 0.131868
0 0.901366 0.716442
0 0.901366 0.716442
0 0.901366 0.716442
0 0.901366 0.716442
0 0.901366 0.716442
0.276127 0.913085 0.562356
1 0.941421 0.370565
1 0.941344 0.370352
1 0.940856 0.3691
0 0.901366 0.716442
0 0.901366 0.716442
0 0.901366 0.716442
0 0.901366 0.716442
0 0.901366 0.716442
0 0.901366 0.716442
0.914092 0.942855 0.493339
1 0.941421 0.370565
1 0.941421 0.370565
0 0.901366 0.716442
0 0.901366 0.716442
0 0.901366 0.716442
0 0.901366 0.716442
0 0.901366 0.716442
0 0.901366 0.716442
0.69189 0.933684 0.560174
1 0.941375 0.374899
1 0.941421 0.370565
0.0230106 0.030518 0.0598459
0.0232853 0.0306096 0.0598917
0.0851301 0.0469673 0.0585031
0.346654 0.0729534 0.03093
0.824384 0.0976425 0
0.873579 0.10251 0
0.873579 0.10251 0
0.873579 0.10251 0
0.873579 0.10251 0
0.0230106 0.030518 0.0598459
0.0230106 0.030518 0.0598459
0.0739757 0.0445716 0.0595254
0.310414 0.0705119 0.035523
0.790967 0.0946975 0
0.873579 0.10251 0
0.873579 0.10251 0
0.873579 0.10251 0
0.873579 0.10251 0
0.033341 0.0921798 0.10753
0.0332647 0.0948043 0.109331
0.06598 0.0910506 0.0982528
0.425895 0.101564 0.0314946
0.837354 0.0986648 0
0.873579 0.10251 0
0.873579 0.10251 0
0.873579 0.10251 0
0.873579 0.10251 0
0 0.392309 0.291402
0 0.406897 0.300511
0 0.401266 0.296681
0.41912 0.361074 0.121538
1 0.446662 0.0493782
1 0.369116 0.0099794
0.873579 0.10251 0
0.873579 0.10251 0
0.873579 0.10251 0
0 0.8056 0.610376
0 0.818708 0.623835
0 0.823163 0.628717
0 0.82266 0.627283
0.850874 0.759884 0.210575
1 0.731472 0.0892042
1 0.645533 0.0859236
1 0.512978 0.0615244
1 0.290532 6.10361e-05
0 0.901366 0.716442
0 0.901366 0.716442
0 0.901366 0.716442
0 0.901366 0.716442
0 0.908354 0.690913
1 0.939818 0.390341
1 0.898939 0.272251
1 0.843671 0.172534
1 0.815747 0.135485
0 0.901366 0.716442
0 0.901366 0.716442
0 0.901366 0.716442
0 0.901366 0.716442
0 0.901366 0.716442
0.292882 0.913725 0.561639
1 0.941421 0.370672
1 0.94136 0.370428
1 0.940978 0.369421
0 0.901366 0.716442
0 0.901366 0.716442
0 0.901366 0.716442
0 0.901366 0.716442
0 0.901366 0.716442
0 0.901366 0.716442
0.919142 0.942824 0.489235
1 0.941421 0.370565
1 0.941421 0.370565
0 0.901366 0.716442
0 0.901366 0.716442
0 0.901366 0.716442
0 0.901366 0.716442
0 0.901366 0.716442
0 0.901366 0.716442
0.709895 0.93492 0.558587
1 0.94139 0.37406
1 0.941421 0.370565
0.0153506 0.044358 0.107439
0.0162814 0.0425727 0.102754
0.0781109 0.0501259 0.121035
0.318608 0.0779889 0.0750134
0.864012 0.101884 0
0.873579 0.10251 0
0.873579 0.10251 0
0.873579 0.10251 0
0.873579 0.10251 0
0.0165408 0.0418555 0.100801
0.0169528 0.041001 0.0984512
0.0736553 0.0489509 0.113069
0.334142 0.0769513 0.0666667
0.86714 0.101991 0
0.873579 0.10251 0
0.873579 0.10251 0
0.873579 0.10251 0
0.873579 0.10251 0
0.0320745 0.0843519 0.115709
0.0323796 0.0873579 0.118837
0.0660716 0.0842756 0.105821
0.332647 0.0871595 0.0436255
0.764706 0.0925612 0
0.873579 0.10251 0
0.873579 0.10251 0
0.873579 0.10251 0
0.873579 0.10251 0
0 0.385046 0.28719
0 0.399252 0.295872
0 0.39469 0.291844
0.422995 0.354971 0.117998
1 0.444511 0.0487526
1 0.366903 0.00932326
0.873579 0.10251 0
0.873579 0.10251 0
0.873579 0.10251 0
0 0.806699 0.611368
0 0.819638 0.624872
0 0.824323 0.629999
0 0.822904 0.627573
0.856321 0.761028 0.208301
1 0.732525 0.0893111
1 0.646525 0.0859388
1 0.515496 0.0626078
1 0.301305 7.62951e-05
0 0.901366 0.716442
0 0.901366 0.716442
0 0.901366 0.716442
0 0.901366 0.716442
0 0.90837 0.688258
1 0.940078 0.389883
1 0.899809 0.273945
1 0.845045 0.174838
1 0.817716 0.137285
0 0.901366 0.716442
0 0.901366 0.716442
0 0.901366 0.716442
0 0.901366 0.716442
0 0.901366 0.716442
0.304158 0.914137 0.560937
1 0.941421 0.370855
1 0.941375 0.370459
1 0.941054 0.369619
0 0.901366 0.716442
0 0.901366 0.716442
0 0.901366 0.716442
0 0.901366 0.716442
0 0.901366 0.716442
0 0.901366 0.716442
0.922271 0.942794 0.486732
1 0.941421 0.370565
1 0.941421 0.370565
0 0.901366 0.716442
0 0.901366 0.716442
0 0.901366 0.716442
0 0.901366 0.716442
0 0.901366 0.716442
0 0.901366 0.716442
0.720134 0.935607 0.557702
1 0.94139 0.373556
1 0.941421 0.370565
0.000839246 0.109133 0.234806
0.002533 0.103593 0.225879
0.0386206 0.118669 0.317632
0.294331 0.0817426 0.43386
0.620066 0.19498 0.303792
0.735119 0.0897841 0.185138
0.873579 0.10251 0
0.873579 0.10251 0
0.873579 0.10251 0
0.000961318 0.108278 0.233158
0.00149538 0.104189 0.226047
0.0359808 0.119173 0.314244
0.304677 0.0811933 0.442679
0.627878 0.200565 0.318761
0.714839 0.112154 0.207141
0.873579 0.10251 0
0.873579 0.10251 0
0.873579 0.10251 0
0.00141909 0.257099 0.444099
0.00222782 0.2607 0.44921
0.0323644 0.160006 0.336797
0.306996 0.085069 0.426764
0.641398 0.18854 0.298039
0.732113 0.0947585 0.185626
0.873579 0.10251 0
0.873579 0.10251 0
0.873579 0.10251 0
0.000793469 0.408637 0.435462
9.15541e-05 0.423194 0.447654
0.000381476 0.425986 0.454551
0.30164 0.351156 0.409186
0.848508 0.325368 0.164004
1 0.286229 0.000350958
0.873579 0.10251 0
0.873579 0.10251 0
0.873579 0.10251 0
0 0.802243 0.606683
0 0.815549 0.620142
0 0.820584 0.625681
0 0.814069 0.617243
0.857374 0.756649 0.201602
1 0.73077 0.0892042
1 0.64506 0.0859388
1 0.512657 0.061387
1 0.295018 6.10361e-05
0 0.901366 0.716442
0 0.901366 0.716442
0 0.901366 0.716442
0 0.901366 0.716442
0 0.908385 0.682094
1 0.940139 0.38851
1 0.899916 0.274144
1 0.845243 0.175174
1 0.818326 0.13785
0 0.901366 0.716442
0 0.901366 0.716442
0 0.901366 0.716442
0 0.901366 0.716442
0 0.901366 0.716442
0.320897 0.914839 0.561059
1 0.941421 0.370947
1 0.94139 0.370489
1 0.9411 0.369711
0 0.901366 0.716442
0 0.901366 0.716442
0 0.901366 0.716442
0 0.901366 0.716442
0 0.901366 0.716442
0 0.901366 0.716442
0.924697 0.942779 0.484779
1 0.941421 0.370565
1 0.941421 0.370565
0 0.901366 0.716442
0 0.901366 0.716442
0 0.901366 0.716442
0 0.901366 0.716442
0 0.901366 0.716442
0 0.901366 0.716442
0.728573 0.936187 0.556939
1 0.94139 0.37319
1 0.941421 0.370565
0.00660716 0.227298 0.457023
0.0155642 0.244465 0.496727
0.0505989 0.275975 0.595697
0.258686 0.246281 0.760159
0.749538 0.218479 0.711009
0.766583 0.234882 0.6822
0.717113 0.236194 0.558053
0.726146 0.101503 0.19234
0.873579 0.10251 0
0.0039826 0.219333 0.440391
0.0144045 0.242496 0.492058
0.052781 0.276997 0.600748
0.288823 0.239384 0.76846
0.758618 0.225574 0.70425
0.769787 0.235126 0.691203
0.745327 0.233387 0.623301
0.655848 0.181949 0.290608
0.873579 0.10251 0
0 0.201236 0.398932
0.00531014 0.223636 0.44921
0.0369879 0.267933 0.564141
0.252461 0.246464 0.758556
0.758007 0.224201 0.704555
0.769909 0.235172 0.691615
0.748623 0.233555 0.63238
0.642008 0.201801 0.318975
0.873579 0.10251 0
0.0229191 0.708568 0.842359
0.022446 0.729076 0.850614
0.138888 0.70959 0.84033
0.257816 0.644984 0.820584
0.765316 0.465675 0.80383
0.818555 0.361654 0.703944
0.74435 0.233204 0.620798
0.652033 0.187411 0.298375
0.873579 0.10251 0
0 0.823697 0.796704
0 0.835966 0.804929
0 0.840497 0.809949
0.00529488 0.820691 0.808652
0.683528 0.743435 0.755291
0.965682 0.66772 0.541665
1 0.550698 0.192706
1 0.438346 0.0323644
0.996231 0.243809 0
0 0.893095 0.750347
0 0.892332 0.753902
0 0.892119 0.755093
0 0.892302 0.754208
0 0.906813 0.74519
0.993072 0.938766 0.398123
1 0.898161 0.270741
1 0.843992 0.173083
1 0.817121 0.136736
0 0.901366 0.716442
0 0.901366 0.716442
0 0.901366 0.716442
0 0.901366 0.716442
0 0.901366 0.716442
0.364965 0.916747 0.562219
1 0.941421 0.370901
1 0.94139 0.370474
1 0.941085 0.369711
0 0.901366 0.716442
0 0.901366 0.716442
0 0.901366 0.716442
0 0.901366 0.716442
0 0.901366 0.716442
0 0.901366 0.716442
0.928908 0.942733 0.481361
1 0.941421 0.370565
1 0.941421 0.370565
0 0.901366 0.716442
0 0.901366 0.716442
0 0.901366 0.716442
0 0.901366 0.716442
0 0.901366 0.716442
0 0.901366 0.716442
0.739132 0.936904 0.556008
1 0.941405 0.372671
1 0.941421 0.370565
0.122301 0.274556 0.689708
0.135637 0.272221 0.702266
0.197803 0.259312 0.735759
0.427893 0.208194 0.790082
0.756039 0.223148 0.706783
0.771069 0.235569 0.695323
0.771069 0.235569 0.695323
0.771069 0.235569 0.695323
0.771069 0.235569 0.695323
0.123552 0.274357 0.690974
0.145815 0.270405 0.710369
0.221881 0.254231 0.747738
0.476524 0.197635 0.792508
0.767666 0.230701 0.698741
0.771069 0.235569 0.695323
0.771069 0.235569 0.695323
0.771069 0.235569 0.695323
0.771069 0.235569 0.695323
0.10985 0.276677 0.677974
0.133349 0.272923 0.70106
0.211383 0.256428 0.742962
0.477302 0.197543 0.792676
0.767971 0.231159 0.698421
0.771069 0.235569 0.695323
0.771069 0.235569 0.695323
0.771069 0.235569 0.695323
0.771069 0.235569 0.695323
0.138491 0.617411 0.819486
0.160128 0.613275 0.820478
0.192813 0.579492 0.823423
0.387991 0.470039 0.852979
0.802152 0.310613 0.73962
0.771069 0.235569 0.695323
0.771069 0.235569 0.695323
0.771069 0.235569 0.695323
0.771069 0.235569 0.695323
0.00695811 0.821195 0.88188
0.00468452 0.844495 0.887266
0.016022 0.878676 0.896452
0.541604 0.851026 0.873426
0.72105 0.793454 0.870893
0.890501 0.733639 0.832853
0.878447 0.641489 0.806668
0.847181 0.457099 0.762966
0.771069 0.235569 0.695323
0 0.945281 0.907225
0 0.945495 0.90779
0 0.945663 0.908232
0 0.945739 0.908461
0.20325 0.941741 0.910399
0.887358 0.916426 0.894316
0.960876 0.839887 0.772839
0.974823 0.778958 0.664668
0.984512 0.727474 0.553918
0.000259403 0.897612 0.808469
0 0.898955 0.810803
3.0518e-05 0.899901 0.812253
6.10361e-05 0.900328 0.812894
6.10361e-05 0.900069 0.812497
0.368078 0.91136 0.814542
0.993576 0.935851 0.628855
1 0.939757 0.525292
1 0.939513 0.418921
0 0.901366 0.716442
0 0.901366 0.716442
0 0.901366 0.716442
0 0.901366 0.716442
0 0.901366 0.716442
0 0.901366 0.716442
0.939529 0.942641 0.472694
1 0.941421 0.370565
1 0.941421 0.370565
0 0.901366 0.716442
0 0.901366 0.716442
0 0.901366 0.716442
0 0.901366 0.716442
0 0.901366 0.716442
0 0.901366 0.716442
0.763226 0.938537 0.553689
1 0.941405 0.371527
1 0.941421 0.370565
0.556603 0.184543 0.786404
0.569467 0.182208 0.785504
0.599649 0.179828 0.77998
0.689204 0.186099 0.749081
0.770596 0.23505 0.695735
0.771069 0.235569 0.695323
0.771069 0.235569 0.695323
0.771069 0.235569 0.695323
0.771069 0.235569 0.695323
0.56817 0.182315 0.785794
0.590646 0.179507 0.782849
0.624796 0.181506 0.771328
0.709789 0.19443 0.737652
0.771069 0.235569 0.695323
0.771069 0.235569 0.695323
0.771069 0.235569 0.695323
0.771069 0.235569 0.695323
0.771069 0.235569 0.695323
0.559976 0.18381 0.786328
0.586892 0.179324 0.784085
0.625025 0.181506 0.771252
0.71281 0.196078 0.735714
0.771069 0.235569 0.695323
0.771069 0.235569 0.695323
0.771069 0.235569 0.695323
0.771069 0.235569 0.695323
0.771069 0.235569 0.695323
0.524651 0.190326 0.788632
0.555398 0.184573 0.786755
0.602686 0.18024 0.778759
0.704204 0.191592 0.7411
0.771069 0.235569 0.695323
0.771069 0.235569 0.695323
0.771069 0.235569 0.695323
0.771069 0.235569 0.695323
0.771069 0.235569 0.695323
0.59469 0.813947 0.86276
0.618372 0.820554 0.864012
0.643717 0.813764 0.864439
0.688777 0.780056 0.866361
0.807355 0.689265 0.857542
0.876753 0.630732 0.803403
0.851621 0.487846 0.769604
0.771069 0.235569 0.695323
0.771069 0.235569 0.695323
0 0.907393 0.898878
0 0.914534 0.900389
0.000610361 0.924254 0.9037
0.086305 0.941939 0.915114
0.700954 0.936599 0.908751
0.900343 0.9028 0.896315
0.925811 0.86183 0.874464
0.914855 0.824063 0.8607
0.90927 0.804349 0.85359
0 0.945891 0.908858
0 0.945891 0.908858
0 0.945891 0.908858
0 0.945891 0.908858
0 0.945891 0.908858
0.612207 0.946227 0.909438
0.937469 0.945144 0.913954
0.951339 0.927459 0.88542
0.956588 0.903944 0.854459
0 0.935927 0.88365
0 0.937728 0.88809
0 0.93875 0.890608
0 0.939391 0.892164
0 0.939666 0.892836
0 0.939361 0.891936
0.780285 0.930632 0.878355
0.963729 0.937346 0.82536
0.967437 0.936538 0.812573
0 0.91107 0.830274
0 0.915099 0.837812
0 0.917266 0.842191
0 0.918563 0.844785
0 0.919295 0.846235
0 0.919203 0.846052
0.633722 0.922789 0.849851
0.947372 0.932448 0.763073
0.979248 0.934127 0.739452
0.759472 0.225254 0.704433
0.761059 0.226658 0.703182
0.764492 0.229709 0.700496
0.771069 0.235569 0.695323
0.771069 0.235569 0.695323
0.771069 0.235569 0.695323
0.771069 0.235569 0.695323
0.771069 0.235569 0.695323
0.771069 0.235569 0.695323
0.761364 0.226978 0.702922
0.764019 0.229343 0.700847
0.768566 0.233371 0.697276
0.771069 0.235569 0.695323
0.771069 0.235569 0.695323
0.771069 0.235569 0.695323
0.771069 0.235569 0.695323
0.771069 0.235569 0.695323
0.771069 0.235569 0.695323
0.760708 0.226398 0.703441
0.76376 0.229145 0.70103
0.768887 0.233646 0.697032
0.771069 0.235569 0.695323
0.771069 0.235569 0.695323
0.771069 0.235569 0.695323
0.771069 0.235569 0.695323
0.771069 0.235569 0.695323
0.771069 0.235569 0.695323
0.757183 0.22327 0.706203
0.76051 0.226276 0.703578
0.766033 0.231144 0.69926
0.771069 0.235569 0.695323
0.771069 0.235569 0.695323
0.771069 0.235569 0.695323
0.771069 0.235569 0.695323
0.771069 0.235569 0.695323
0.771069 0.235569 0.695323
0.78172 0.3187 0.776333
0.776394 0.381323 0.808652
0.787198 0.407568 0.804898
0.826764 0.413504 0.771374
0.83473 0.380514 0.742947
0.772946 0.238636 0.696376
0.771069 0.235569 0.695323
0.771069 0.235569 0.695323
0.771069 0.235569 0.695323
0.827543 0.935485 0.913756
0.825299 0.938216 0.914992
0.835874 0.938781 0.91574
0.858473 0.937697 0.916182
0.837339 0.935073 0.914107
0.92253 0.879988 0.883101
0.916899 0.83125 0.863355
0.90518 0.790341 0.848768
0.898192 0.766888 0.841856
0 0.945846 0.908843
0 0.94583 0.908843
0 0.94583 0.908843
0 0.94583 0.908843
0.120409 0.946334 0.916045
0.738506 0.944152 0.913115
0.934249 0.942458 0.913436
0.945464 0.927245 0.902892
0.943877 0.918441 0.898238
0 0.945891 0.908858
0 0.945891 0.908858
0 0.945891 0.908858
0 0.945891 0.908858
0 0.945891 0.908858
0.0818647 0.9458 0.91606
0.840253 0.941695 0.91751
0.942916 0.945846 0.914061
0.946502 0.946212 0.91339
0 0.945891 0.908858
0 0.945891 0.908858
0 0.945891 0.908858
0 0.945891 0.908858
0 0.945891 0.908858
0 0.945891 0.908858
0.718929 0.944488 0.912108
0.918044 0.943618 0.915541
0.946075 0.945693 0.910155
0.771069 0.235569 0.695323
0.771069 0.235569 0.695323
0.771069 0.235569 0.695323
0.771069 0.235569 0.695323
0.771069 0.235569 0.695323
0.771069 0.235569 0.695323
0.771069 0.235569 0.695323
0.771069 0.235569 0.695323
0.771069 0.235569 0.695323
0.771069 0.235569 0.695323
0.771069 0.235569 0.695323
0.771069 0.235569 0.695323
0.771069 0.235569 0.695323
0.771069 0.235569 0.695323
0.771069 0.235569 0.695323
0.771069 0.235569 0.695323
0.771069 0.235569 0.695323
0.771069 0.235569 0.695323
0.771069 0.235569 0.695323
0.771069 0.235569 0.695323
0.771069 0.235569 0.695323
0.771069 0.235569 0.695323
0.771069 0.235569 0.695323
0.771069 0.235569 0.695323
0.771069 0.235569 0.695323
0.771069 0.235569 0.695323
0.771069 0.235569 0.695323
0.771069 0.235569 0.695323
0.771069 0.235569 0.695323
0.771069 0.235569 0.695323
0.771069 0.235569 0.695323
0.771069 0.235569 0.695323
0.771069 0.235569 0.695323
0.771069 0.235569 0.695323
0.771069 0.235569 0.695323
0.771069 0.235569 0.695323
0.771069 0.235569 0.695323
0.771069 0.235569 0.695323
0.771069 0.235569 0.695323
0.771069 0.235569 0.695323
0.771069 0.235569 0.695323
0.771069 0.235569 0.695323
0.771069 0.235569 0.695323
0.771069 0.235569 0.695323
0.771069 0.235569 0.695323
0.809339 0.933639 0.912016
0.819654 0.936751 0.914046
0.826871 0.936996 0.914549
0.829679 0.935393 0.914
0.873472 0.914992 0.904463
0.922179 0.858991 0.874174
0.911543 0.811933 0.856275
0.897932 0.765988 0.841596
0.89134 0.739025 0.83418
0 0.945891 0.908965
0 0.945708 0.908797
0 0.94583 0.908843
0.0312505 0.945373 0.914046
0.434501 0.947036 0.908553
0.83949 0.942367 0.916594
0.939162 0.940459 0.911574
0.94461 0.921782 0.899947
0.942596 0.913375 0.895659
0 0.945891 0.908858
0 0.945891 0.908858
0 0.945891 0.908858
0 0.945891 0.908858
0 0.945891 0.908858
0.328527 0.946868 0.91075
0.861769 0.94139 0.918334
0.94284 0.945861 0.914153
0.946487 0.946212 0.91368
0 0.945891 0.908858
0 0.945891 0.908858
0 0.945891 0.908858
0 0.945891 0.908858
0 0.945891 0.908858
0 0.945891 0.908858
0.768063 0.943282 0.914366
0.929335 0.944472 0.915648
0.945525 0.946151 0.913817
