LUT预设1/柯达5219&2393/柯达5219&2393尼康专用/R3D/柯达5219绿调-R3D.cube
TITLE "Generated by Resolve"
LUT_3D_SIZE 5
0.0230106 0.030518 0.0598459
0.0818494 0.0463111 0.0588083
0.781704 0.0937972 3.0518e-05
0.873579 0.10251 0
0.873579 0.10251 0
0.0332036 0.0933394 0.108354
0.0612802 0.0916609 0.0999008
0.854688 0.100465 0
0.873579 0.10251 0
0.873579 0.10251 0
0 0.803433 0.608377
0 0.821286 0.626657
0.839887 0.758434 0.216556
1 0.644633 0.0859083
1 0.276448 3.0518e-05
0 0.901366 0.716442
0 0.901366 0.716442
0 0.901366 0.716442
1 0.941421 0.370565
1 0.940948 0.369345
0 0.901366 0.716442
0 0.901366 0.716442
0 0.901366 0.716442
0.684062 0.93315 0.560906
1 0.941421 0.370565
0.0160678 0.0429084 0.103517
0.0796216 0.0496986 0.113573
0.866438 0.101656 0
0.873579 0.10251 0
0.873579 0.10251 0
0.0328832 0.0856336 0.110735
0.0671702 0.0853742 0.100725
0.744732 0.0909438 3.0518e-05
0.873579 0.10251 0
0.873579 0.10251 0
0 0.809689 0.614115
0 0.827146 0.633082
0.852338 0.764477 0.215976
1 0.649332 0.0859693
1 0.319295 0.000106813
0 0.901366 0.716442
0 0.901366 0.716442
0 0.901366 0.716442
1 0.941421 0.371176
1 0.941161 0.369863
0 0.901366 0.716442
0 0.901366 0.716442
0 0.901366 0.716442
0.715389 0.935286 0.558114
1 0.941421 0.370565
0.00270085 0.216861 0.435111
0.0456703 0.274022 0.585473
0.749249 0.218997 0.705409
0.680156 0.237156 0.477317
0.873579 0.10251 0
0 0.205646 0.399619
0.0335546 0.265339 0.555169
0.758328 0.224857 0.701289
0.71136 0.236606 0.544945
0.873579 0.10251 0
0 0.8121 0.762768
0 0.829847 0.77847
0.680537 0.740459 0.713466
1 0.537728 0.0800031
1 0.277638 3.0518e-05
0 0.901366 0.716442
0 0.901366 0.716442
0 0.901366 0.716442
1 0.941421 0.371221
1 0.941207 0.370001
0 0.901366 0.716442
0 0.901366 0.716442
0 0.901366 0.716442
0.735958 0.93669 0.556283
1 0.941421 0.370565
0.49044 0.196521 0.79115
0.543603 0.187304 0.786786
0.768139 0.23209 0.697978
0.771069 0.235569 0.695323
0.771069 0.235569 0.695323
0.489799 0.196658 0.79115
0.572259 0.18204 0.784848
0.771069 0.235569 0.695323
0.771069 0.235569 0.695323
0.771069 0.235569 0.695323
0.542397 0.842618 0.869825
0.596796 0.843976 0.871031
0.790585 0.720439 0.865003
0.859983 0.538567 0.780453
0.771069 0.235569 0.695323
0 0.945876 0.908827
0 0.945891 0.908858
0 0.945891 0.908858
0.937957 0.944778 0.909224
0.974029 0.871565 0.77734
0.000640879 0.895308 0.805188
0.000122072 0.901503 0.814481
0 0.903441 0.817334
0.51162 0.920501 0.795819
0.997742 0.936049 0.637125
0.771069 0.235569 0.695323
0.771069 0.235569 0.695323
0.771069 0.235569 0.695323
0.771069 0.235569 0.695323
0.771069 0.235569 0.695323
0.771069 0.235569 0.695323
0.771069 0.235569 0.695323
0.771069 0.235569 0.695323
0.771069 0.235569 0.695323
0.771069 0.235569 0.695323
0.771069 0.235569 0.695323
0.771069 0.235569 0.695323
0.771069 0.235569 0.695323
0.771069 0.235569 0.695323
0.771069 0.235569 0.695323
0 0.945266 0.90866
0 0.945541 0.908751
0.381674 0.947005 0.909072
0.938369 0.941466 0.912291
0.943038 0.91516 0.896559
0 0.945891 0.908858
0 0.945891 0.908858
0 0.945891 0.908858
0.757519 0.943572 0.913909
0.945373 0.946136 0.913817
