LUT预设1/柯达5219&2393/柯达5219&2393尼康专用/R3D/柯达5219微调-R3D.cube
TITLE "Generated by Resolve"
LUT_3D_SIZE 33
0.0164492 0.0244602 0.0419471
0.0177768 0.0245518 0.0414588
0.0192721 0.0246586 0.0406195
0.0211337 0.0247654 0.0395514
0.0237736 0.0249332 0.0379797
0.0288701 0.0251316 0.0358129
0.0365301 0.025391 0.0328527
0.0498054 0.0257725 0.029099
0.0759747 0.0264591 0.0258488
0.109392 0.0271611 0.0236515
0.144717 0.0278019 0.0218967
0.183963 0.0283207 0.0199893
0.229038 0.0285496 0.0174411
0.283543 0.0283513 0.0138857
0.348287 0.0277562 0.00955215
0.422263 0.0268406 0.00540169
0.503182 0.0251316 0.00289921
0.585458 0.0224765 0.00190738
0.663722 0.0196689 0.0011902
0.738064 0.0168307 0.000549325
0.802304 0.0138705 0.000213626
0.855238 0.010544 0.000106813
0.913893 0.00547799 0.000213626
0.953399 0.00352483 0.000717174
0.961883 0.00343328 0.000854505
0.962234 0.00343328 0.000854505
0.962249 0.00343328 0.000854505
0.962249 0.00343328 0.000854505
0.962249 0.00343328 0.000854505
0.962249 0.00343328 0.000854505
0.962249 0.00343328 0.000854505
0.962249 0.00343328 0.000854505
0.962249 0.00343328 0.000854505
0.0164034 0.0250095 0.0425727
0.0174563 0.0251469 0.0421607
0.0189975 0.0252384 0.0411994
0.0208743 0.02533 0.040116
0.0235752 0.0254368 0.0384833
0.0284886 0.0255436 0.036347
0.0357671 0.0256962 0.0336004
0.0484779 0.0260319 0.0300145
0.0727092 0.0267643 0.0263828
0.10808 0.0276341 0.0239719
0.145739 0.0283513 0.0220035
0.186786 0.0289006 0.0199435
0.233738 0.0290532 0.0172274
0.291264 0.0286412 0.0133669
0.359457 0.0277867 0.00885023
0.436957 0.0265965 0.00486763
0.520348 0.0246433 0.00259403
0.603616 0.0218509 0.00172427
0.682017 0.0189822 0.00102235
0.754665 0.0160983 0.000442512
0.817044 0.0131838 0.000137331
0.866026 0.00975052 0.000106813
0.918013 0.0052491 0.000259403
0.954101 0.00350958 0.000732433
0.961913 0.00343328 0.000854505
0.962234 0.00343328 0.000854505
0.962249 0.00343328 0.000854505
0.962249 0.00343328 0.000854505
0.962249 0.00343328 0.000854505
0.962249 0.00343328 0.000854505
0.962249 0.00343328 0.000854505
0.962249 0.00343328 0.000854505
0.962249 0.00343328 0.000854505
0.0162966 0.0260624 0.0433204
0.0177157 0.0260929 0.0426184
0.0187686 0.0262455 0.0419165
0.0205997 0.0262608 0.0407111
0.0233463 0.0263371 0.0390478
0.0281224 0.0264591 0.0369421
0.0360876 0.0267033 0.0342107
0.0495613 0.0271153 0.0306096
0.0755322 0.027863 0.0266728
0.11252 0.0286412 0.0240177
0.151827 0.0292058 0.0218814
0.194537 0.0295415 0.0196841
0.245167 0.0295262 0.0165713
0.306416 0.0288243 0.0123598
0.378759 0.0276646 0.00767529
0.46041 0.0261387 0.00407416
0.545525 0.0238499 0.00228885
0.629465 0.0209354 0.00149538
0.707515 0.0180362 0.000808728
0.777417 0.0151217 0.000289921
0.835172 0.0121004 9.15541e-05
0.877272 0.00883497 0.00015259
0.924178 0.00495918 0.000335698
0.955428 0.00349432 0.000747692
0.961959 0.00343328 0.000854505
0.962234 0.00343328 0.000854505
0.962249 0.00343328 0.000854505
0.962249 0.00343328 0.000854505
0.962249 0.00343328 0.000854505
0.962249 0.00343328 0.000854505
0.962249 0.00343328 0.000854505
0.962249 0.00343328 0.000854505
0.962249 0.00343328 0.000854505
0.016083 0.0271305 0.0438239
0.0172122 0.0271763 0.0433661
0.0186313 0.0272984 0.0425574
0.0204318 0.0274205 0.041474
0.0233463 0.0274968 0.039765
0.0283055 0.0276493 0.0375982
0.0368048 0.0279698 0.0349279
0.0509957 0.0284733 0.0313268
0.078645 0.0293736 0.0270695
0.117128 0.0301823 0.0240177
0.158251 0.0306554 0.021622
0.203647 0.0307469 0.0191806
0.258015 0.0301823 0.0157473
0.322286 0.0290227 0.0112917
0.398917 0.0275273 0.00650034
0.484047 0.0256352 0.0033875
0.57203 0.0229801 0.00201419
0.656382 0.0199283 0.00128176
0.733028 0.0170748 0.000579843
0.798337 0.013962 0.000228885
0.851682 0.0109102 9.15541e-05
0.888395 0.00794995 0.000198367
0.929625 0.00469978 0.000411994
0.956634 0.00349432 0.00077821
0.96202 0.00343328 0.000854505
0.962234 0.00343328 0.000854505
0.962249 0.00343328 0.000854505
0.962249 0.00343328 0.000854505
0.962249 0.00343328 0.000854505
0.962249 0.00343328 0.000854505
0.962249 0.00343328 0.000854505
0.962249 0.00343328 0.000854505
0.962249 0.00343328 0.000854505
0.0157626 0.0286259 0.0445258
0.0167849 0.0287022 0.0442664
0.0191348 0.0287327 0.0429084
0.020264 0.0290684 0.0424659
0.0233158 0.02916 0.0407568
0.0283665 0.0293126 0.0384527
0.0374762 0.0297246 0.0358892
0.0522469 0.0303502 0.0323949
0.0806744 0.0314336 0.0277562
0.120821 0.0323033 0.024155
0.164096 0.0326848 0.0213931
0.212467 0.0324559 0.0186313
0.271107 0.031281 0.014847
0.340856 0.0293736 0.0101015
0.42153 0.0273136 0.00547799
0.508934 0.0250858 0.00273136
0.599649 0.0220035 0.00177005
0.684672 0.0188907 0.00102235
0.76022 0.0159762 0.000366217
0.820661 0.0126802 0.000167849
0.86891 0.00967422 9.15541e-05
0.899016 0.00709544 0.000259403
0.933364 0.00451667 0.000457771
0.957244 0.00347906 0.00077821
0.962036 0.00343328 0.000854505
0.962234 0.00343328 0.000854505
0.962249 0.00343328 0.000854505
0.962249 0.00343328 0.000854505
0.962249 0.00343328 0.000854505
0.962249 0.00343328 0.000854505
0.962249 0.00343328 0.000854505
0.962249 0.00343328 0.000854505
0.962249 0.00343328 0.000854505
0.0151217 0.0313725 0.0458839
0.0160372 0.031632 0.0457313
0.0178073 0.0320134 0.0449226
0.0209201 0.0320592 0.0433356
0.0221714 0.0333257 0.0430457
0.0269932 0.0336767 0.0408026
0.0374609 0.0338598 0.0376287
0.0537575 0.034226 0.033753
0.084123 0.0351568 0.028687
0.126207 0.0358587 0.0242924
0.172183 0.0358129 0.0209964
0.22417 0.0348821 0.0178988
0.288045 0.0328832 0.0137026
0.364858 0.0299382 0.00857557
0.451972 0.0269017 0.00440986
0.544076 0.0239567 0.00231937
0.635981 0.0207065 0.00144961
0.721721 0.0175174 0.000686656
0.793606 0.0142367 0.000244144
0.849531 0.0110018 9.15541e-05
0.885695 0.00825513 0.000167849
0.912505 0.00602731 0.000335698
0.936934 0.00436408 0.000503548
0.95761 0.00347906 0.000793469
0.962051 0.00343328 0.000854505
0.962234 0.00343328 0.000854505
0.962249 0.00343328 0.000854505
0.962249 0.00343328 0.000854505
0.962249 0.00343328 0.000854505
0.962249 0.00343328 0.000854505
0.962249 0.00343328 0.000854505
0.962249 0.00343328 0.000854505
0.962249 0.00343328 0.000854505
0.0137179 0.0375219 0.048661
0.014435 0.0380713 0.0486763
0.0153811 0.038941 0.0485847
0.0186923 0.0390784 0.0467384
0.0204623 0.0404974 0.0463417
0.0230106 0.0421454 0.0454108
0.0359197 0.0419013 0.0409247
0.0553445 0.0416114 0.0356756
0.0891127 0.0420996 0.0299077
0.13547 0.0426337 0.0243381
0.186572 0.0421302 0.0200809
0.245014 0.0399786 0.0164492
0.316716 0.0357519 0.0117189
0.402197 0.0305943 0.0065919
0.496239 0.0261387 0.00315862
0.593668 0.0223392 0.00180056
0.687587 0.0188296 0.000991836
0.771206 0.0154421 0.000350958
0.841108 0.0117342 7.62951e-05
0.883558 0.00852979 0.000167849
0.909453 0.00627146 0.00030518
0.931762 0.00450141 0.000427253
0.941573 0.00415045 0.000564584
0.957885 0.00347906 0.000793469
0.962066 0.00343328 0.000854505
0.962249 0.00343328 0.000854505
0.962249 0.00343328 0.000854505
0.962249 0.00343328 0.000854505
0.962249 0.00343328 0.000854505
0.962249 0.00343328 0.000854505
0.962249 0.00343328 0.000854505
0.962249 0.00343328 0.000854505
0.962249 0.00343328 0.000854505
0.0121004 0.046128 0.0527047
0.0125429 0.0472114 0.0529946
0.0128481 0.0487068 0.0535439
0.0146029 0.0499428 0.0528115
0.0183566 0.0502327 0.0504158
0.0182193 0.0542458 0.0516518
0.0260471 0.0558633 0.0469978
0.0463874 0.0553292 0.0396582
0.0916762 0.0532845 0.0317388
0.148104 0.0525368 0.0247349
0.209812 0.0506294 0.0193484
0.280598 0.0465248 0.0144503
0.364553 0.0394293 0.00866712
0.463264 0.0308232 0.00407416
0.566262 0.0242924 0.00204471
0.667552 0.0196841 0.00117494
0.760754 0.0159152 0.000442512
0.840055 0.0119326 4.57771e-05
0.893904 0.0074464 0.000167849
0.929168 0.00466926 0.000411994
0.937301 0.00422675 0.000503548
0.943145 0.00401312 0.000579843
0.948928 0.00384527 0.000671397
0.958297 0.0034638 0.000793469
0.962066 0.00343328 0.000854505
0.962249 0.00343328 0.000854505
0.962249 0.00343328 0.000854505
0.962249 0.00343328 0.000854505
0.962249 0.00343328 0.000854505
0.962249 0.00343328 0.000854505
0.962249 0.00343328 0.000854505
0.962249 0.00343328 0.000854505
0.962249 0.00343328 0.000854505
0.0106203 0.059205 0.0588083
0.0107576 0.0610513 0.0594644
0.0108034 0.0635386 0.0604562
0.0111086 0.0664225 0.0611887
0.0133364 0.0667582 0.0585031
0.0155947 0.0700389 0.0565499
0.0141756 0.0786908 0.0577401
0.0235752 0.0817121 0.0494698
0.0717327 0.076524 0.0370489
0.151217 0.0714275 0.0247044
0.233692 0.067155 0.018204
0.330449 0.0597696 0.0113527
0.440284 0.0475166 0.00457771
0.559258 0.0315404 0.00215152
0.67274 0.0207675 0.00112917
0.776165 0.0151827 0.000320439
0.860899 0.00965896 9.15541e-05
0.915755 0.00555428 0.000289921
0.943328 0.00395209 0.000579843
0.955291 0.00352483 0.000747692
0.958434 0.0034638 0.000793469
0.957519 0.00347906 0.00077821
0.95819 0.00347906 0.000793469
0.959289 0.0034638 0.000808728
0.962066 0.00343328 0.000854505
0.962249 0.00343328 0.000854505
0.962249 0.00343328 0.000854505
0.962249 0.00343328 0.000854505
0.962249 0.00343328 0.000854505
0.962249 0.00343328 0.000854505
0.962249 0.00343328 0.000854505
0.962249 0.00343328 0.000854505
0.962249 0.00343328 0.000854505
0.00953689 0.0800946 0.0664378
0.00952163 0.0830396 0.0674296
0.00946059 0.0869764 0.0687419
0.00936904 0.09131 0.0702068
0.00956741 0.0942092 0.0698711
0.0103914 0.0959945 0.0666819
0.0100404 0.10576 0.0663462
0.00993362 0.117708 0.0647135
0.0296025 0.117296 0.0481727
0.110918 0.108217 0.0328527
0.219242 0.0995499 0.0196536
0.339696 0.0887617 0.0104524
0.485863 0.0705882 0.00318914
0.640513 0.044831 0.00143435
0.778729 0.0221256 0.000335698
0.882353 0.00943008 0.00015259
0.939467 0.00436408 0.000549325
0.958236 0.00349432 0.000793469
0.961715 0.00343328 0.000839246
0.961883 0.00343328 0.000854505
0.961944 0.00343328 0.000854505
0.962051 0.00343328 0.000854505
0.961822 0.00343328 0.000854505
0.961624 0.00343328 0.000839246
0.962081 0.00343328 0.000854505
0.962249 0.00343328 0.000854505
0.962249 0.00343328 0.000854505
0.962249 0.00343328 0.000854505
0.962249 0.00343328 0.000854505
0.962249 0.00343328 0.000854505
0.962249 0.00343328 0.000854505
0.962249 0.00343328 0.000854505
0.962249 0.00343328 0.000854505
0.00889601 0.107744 0.0730907
0.00883497 0.111406 0.0741436
0.00875868 0.116152 0.0754559
0.00866712 0.121523 0.0769818
0.00856031 0.126802 0.0785382
0.00860609 0.128222 0.0778058
0.00865187 0.135363 0.0734569
0.00799573 0.152239 0.0766155
0.00923171 0.162783 0.0593729
0.0494545 0.156649 0.0442817
0.164675 0.1458 0.0297246
0.311086 0.132158 0.0139773
0.464714 0.114275 0.00421149
0.640665 0.0838331 0.00141909
0.803906 0.0480354 0.00015259
0.915846 0.0214542 0.000320439
0.957198 0.0101015 0.00077821
0.962097 0.00703441 0.000854505
0.962264 0.00570687 0.000854505
0.962249 0.00363165 0.000854505
0.962249 0.0034638 0.000854505
0.962249 0.00343328 0.000854505
0.962234 0.00343328 0.000854505
0.962249 0.00343328 0.000854505
0.962188 0.00343328 0.000854505
0.962249 0.00343328 0.000854505
0.962249 0.00343328 0.000854505
0.962249 0.00343328 0.000854505
0.962249 0.00343328 0.000854505
0.962249 0.00343328 0.000854505
0.962249 0.00343328 0.000854505
0.962249 0.00343328 0.000854505
0.962249 0.00343328 0.000854505
0.00831617 0.139437 0.0785229
0.00814832 0.144244 0.0798199
0.00793469 0.149935 0.0813001
0.00770581 0.15642 0.0829938
0.0074464 0.163775 0.085008
0.00729381 0.167819 0.0862898
0.007187 0.171817 0.0839704
0.0068513 0.184649 0.0774701
0.00590524 0.208286 0.0755779
0.0121614 0.211994 0.0469978
0.0719158 0.20531 0.0428321
0.243885 0.191241 0.0239872
0.427161 0.169986 0.00671397
0.595834 0.146792 0.00163272
0.767544 0.11133 0.000274662
0.90042 0.0723888 0.00047303
0.955825 0.0533608 0.000915541
0.963409 0.0521248 0.00109865
0.963165 0.0467842 0.0010071
0.962783 0.0380102 0.000900282
0.962463 0.0192569 0.000869764
0.96228 0.00776684 0.000854505
0.962249 0.00352483 0.000854505
0.962249 0.00343328 0.000854505
0.962249 0.00343328 0.000854505
0.962249 0.00343328 0.000854505
0.962249 0.00343328 0.000854505
0.962249 0.00343328 0.000854505
0.962249 0.00343328 0.000854505
0.962249 0.00343328 0.000854505
0.962249 0.00343328 0.000854505
0.962249 0.00343328 0.000854505
0.962249 0.00343328 0.000854505
0.00712596 0.175509 0.0838483
0.00688182 0.18146 0.0852369
0.0065919 0.188571 0.0867018
0.0062562 0.196643 0.0883497
0.00587472 0.205768 0.0902876
0.00552377 0.214054 0.092546
0.00537118 0.216876 0.0947127
0.005066 0.226551 0.0852522
0.00393683 0.250477 0.0766918
0.00283818 0.272602 0.0594186
0.0157931 0.27303 0.0396429
0.112779 0.268864 0.0389563
0.349447 0.249653 0.0135042
0.559991 0.215915 0.00198367
0.723308 0.191531 0.00109865
0.867811 0.16463 0.00183108
0.949981 0.143404 0.00244144
0.969192 0.14519 0.00265507
0.972076 0.16556 0.00282292
0.974243 0.187472 0.00283818
0.974426 0.192401 0.00318914
0.970581 0.145296 0.0019379
0.965179 0.074815 0.00155642
0.962371 0.0142367 0.000854505
0.962249 0.00343328 0.000854505
0.962249 0.00343328 0.000854505
0.962249 0.00343328 0.000854505
0.962249 0.00343328 0.000854505
0.962249 0.00343328 0.000854505
0.962249 0.00343328 0.000854505
0.962249 0.00343328 0.000854505
0.962249 0.00343328 0.000854505
0.962249 0.00343328 0.000854505
0.00547799 0.218158 0.087953
0.00518807 0.224414 0.0891432
0.00468452 0.233585 0.0904097
0.0041352 0.243656 0.0918746
0.00350958 0.255024 0.0936446
0.00280766 0.267872 0.0957504
0.00247196 0.274083 0.0989242
0.00218204 0.28127 0.097673
0.00163272 0.293492 0.0740673
0.00140383 0.332113 0.0706798
0.00123598 0.343084 0.038056
0.0227512 0.356847 0.0392767
0.183108 0.35729 0.0271916
0.475532 0.329412 0.00517281
0.692454 0.283192 0.00128176
0.83772 0.257099 0.00164797
0.938781 0.245518 0.00239567
0.976364 0.247608 0.00267033
0.982238 0.266697 0.00213626
0.985977 0.303609 0.000915541
0.989548 0.343923 0.000610361
0.991867 0.372869 0.000442512
0.990921 0.366522 0.00115969
0.986267 0.306813 0.000610361
0.971084 0.151156 0.00244144
0.962295 0.00865187 0.000854505
0.962249 0.00343328 0.000854505
0.962249 0.00343328 0.000854505
0.962249 0.00343328 0.000854505
0.962249 0.00343328 0.000854505
0.962249 0.00343328 0.000854505
0.962249 0.00343328 0.000854505
0.962249 0.00343328 0.000854505
0.00276188 0.269841 0.0899672
0.00236515 0.277012 0.0909285
0.0018616 0.286152 0.0919051
0.00172427 0.298222 0.0929427
0.00158694 0.312612 0.0942855
0.00143435 0.329961 0.0960708
0.00129702 0.343008 0.0988937
0.00112917 0.348745 0.104173
0.0011902 0.358755 0.088838
0.000976577 0.375067 0.0597848
0.000503548 0.421469 0.0542611
0.00106813 0.437232 0.0325628
0.0361791 0.466972 0.0397803
0.282979 0.471382 0.0141909
0.616892 0.435035 0.0009308
0.809064 0.376196 0.000213626
0.921004 0.350027 0.000488289
0.977325 0.350866 0.000503548
0.991135 0.369818 0.000411994
0.993606 0.396445 0.000732433
0.995636 0.428122 0.000991836
0.997421 0.466194 0.00062562
0.998627 0.502281 0.000259403
0.999191 0.528206 9.15541e-05
0.998871 0.515511 0.000183108
0.995163 0.427573 0.000762951
0.973556 0.177371 0.00207523
0.962249 0.00357061 0.000854505
0.962249 0.00343328 0.000854505
0.962249 0.00343328 0.000854505
0.962249 0.00343328 0.000854505
0.962249 0.00343328 0.000854505
0.962249 0.00343328 0.000854505
0.00154116 0.330983 0.0897383
0.00144961 0.339803 0.090425
0.00135805 0.350729 0.0909895
0.00125124 0.362707 0.0916609
0.00109865 0.377783 0.092668
0.000885023 0.398123 0.0940566
0.000671397 0.41883 0.096376
0.000579843 0.428534 0.102632
0.000488289 0.440803 0.105623
0.000350958 0.441825 0.0674449
0.000228885 0.479561 0.0549477
7.62951e-05 0.511299 0.0423438
0.00288396 0.557427 0.03682
0.0767224 0.588754 0.0361181
0.418097 0.601968 0.00762951
0.743832 0.554269 0.000488289
0.900557 0.488502 0.000228885
0.970245 0.464393 0.000457771
0.994736 0.473625 0.000534066
0.99855 0.503044 0.000335698
0.999207 0.532799 7.62951e-05
0.999588 0.553017 0
0.999817 0.572061 0
0.999939 0.596582 1.5259e-05
1 0.6224 4.57771e-05
1 0.639826 9.15541e-05
0.999939 0.623743 7.62951e-05
0.99852 0.508782 0.000335698
0.973404 0.17911 0.00276188
0.962249 0.00343328 0.000854505
0.962249 0.00343328 0.000854505
0.962249 0.00343328 0.000854505
0.962249 0.00343328 0.000854505
0.000808728 0.401572 0.087953
0.000717174 0.411444 0.0884413
0.000579843 0.423972 0.0888533
0.000442512 0.437751 0.0893263
0.000274662 0.453315 0.090013
0.000106813 0.473426 0.0911727
7.62951e-05 0.497566 0.0933547
4.57771e-05 0.514015 0.098497
6.10361e-05 0.524376 0.110826
7.62951e-05 0.540108 0.100435
4.57771e-05 0.530938 0.0536355
0.000717174 0.593347 0.0577554
0.000320439 0.605631 0.0395666
0.00820935 0.679042 0.0417792
0.152911 0.705928 0.0300298
0.572015 0.724453 0.00584421
0.849439 0.666941 0.000946059
0.960861 0.603998 6.10361e-05
0.993103 0.585718 1.5259e-05
0.999725 0.598459 1.5259e-05
1 0.63212 7.62951e-05
1 0.66212 4.57771e-05
1 0.677653 7.62951e-05
1 0.682887 0.00015259
1 0.687968 9.15541e-05
1 0.696498 7.62951e-05
1 0.705699 7.62951e-05
1 0.714458 1.5259e-05
1 0.689982 0.000167849
0.999573 0.572244 4.57771e-05
0.981537 0.262287 0.002533
0.962249 0.00343328 0.000854505
0.962249 0.00343328 0.000854505
0.000106813 0.481132 0.0858625
0.000106813 0.490852 0.0864729
9.15541e-05 0.502968 0.0869306
7.62951e-05 0.516823 0.0874952
4.57771e-05 0.53257 0.0883955
3.0518e-05 0.551843 0.0895094
0 0.57612 0.0913252
0.000411994 0.597742 0.0971084
0.00047303 0.608972 0.110185
0.00062562 0.626657 0.130983
0.00120546 0.628687 0.087953
0.00111391 0.639963 0.0573281
0.00222782 0.697826 0.0671244
0.00250248 0.702586 0.0433967
0.0162356 0.78088 0.0481727
0.293309 0.807782 0.0337682
0.717144 0.827192 0.0142672
0.92546 0.765774 0.00199893
0.989013 0.714885 0.000106813
0.999451 0.702815 0
1 0.718151 3.0518e-05
1 0.749279 3.0518e-05
1 0.777295 0
1 0.791531 0
1 0.793545 0
1 0.789212 0
1 0.781781 0
1 0.767971 0
1 0.752544 0
1 0.734295 0
1 0.720623 0
1 0.676432 0.000183108
0.999207 0.541039 9.15541e-05
0 0.568902 0.0857404
7.62951e-05 0.576196 0.0864576
0.00030518 0.586969 0.0878004
0.000549325 0.598581 0.08925
0.000823987 0.612329 0.0910964
0.00117494 0.629038 0.093431
0.00163272 0.650828 0.0966812
0.002121 0.6748 0.101305
0.00221256 0.689815 0.112978
0.00187686 0.70103 0.139834
0.00132753 0.724895 0.170108
0.0021973 0.707973 0.0808118
0.00230411 0.750286 0.0886702
0.00180056 0.779324 0.0749828
0.00146487 0.795316 0.047837
0.045182 0.856016 0.0629282
0.501534 0.890898 0.0611734
0.829892 0.894621 0.0269017
0.965545 0.846143 0.00402838
0.997421 0.813993 0.00015259
0.999985 0.80943 0
1 0.823209 0
1 0.84773 4.57771e-05
1 0.869993 0.000595102
1 0.882078 0.00148013
1 0.883757 0.0016022
1 0.878584 0.0010071
1 0.867689 0.000137331
1 0.84889 9.15541e-05
1 0.823468 3.0518e-05
1 0.79649 0
1 0.76762 0
1 0.748104 0
0.00180056 0.657755 0.093843
0.00190738 0.663127 0.0944686
0.00210575 0.672175 0.0954452
0.00218204 0.681224 0.0975967
0.00216678 0.691035 0.101289
0.00213626 0.703655 0.106096
0.00210575 0.720485 0.11249
0.00204471 0.740551 0.120455
0.00190738 0.757015 0.129824
0.0012665 0.767697 0.153063
0.000396735 0.785321 0.197452
0.000518807 0.804547 0.214923
0.00143435 0.789578 0.10547
0.0010071 0.844923 0.170031
0.000915541 0.840497 0.0820325
0.00274662 0.872084 0.0540322
0.184237 0.907301 0.102327
0.688457 0.943099 0.140017
0.906035 0.930266 0.0486915
0.983001 0.90277 0.00935378
0.999054 0.889418 0.00134279
1 0.8916 0.00129702
1 0.902052 0.00228885
1 0.918242 0.00386053
1 0.932662 0.00543221
1 0.939727 0.00637827
1 0.940154 0.00643931
1 0.936858 0.00602731
1 0.930968 0.00526436
1 0.921691 0.00424201
1 0.905974 0.00292973
1 0.889021 0.00154116
1 0.871565 0.00015259
0.00207523 0.739834 0.119219
0.00207523 0.743679 0.120638
0.00205997 0.749966 0.122957
0.00204471 0.756939 0.125536
0.00202945 0.764614 0.128374
0.0018616 0.773983 0.136858
0.0016022 0.786389 0.149233
0.0012665 0.802335 0.165164
0.0009308 0.817685 0.180499
0.000762951 0.825727 0.190631
0.000518807 0.837095 0.227939
0.000167849 0.860121 0.29247
0.000244144 0.862593 0.249805
0.00138857 0.87422 0.194049
0.00047303 0.910277 0.308888
0.00239567 0.882521 0.090135
0.0209659 0.910445 0.0745556
0.482963 0.946792 0.236942
0.8206 0.960281 0.231067
0.951324 0.948135 0.0736706
0.993011 0.938689 0.0144656
0.999802 0.936309 0.00596628
1 0.940032 0.00628672
1 0.946075 0.00709544
1 0.952361 0.00794995
1 0.956497 0.00852979
1 0.957687 0.00874342
1 0.957458 0.0087129
1 0.956863 0.00862135
1 0.955947 0.00846876
1 0.954925 0.00831617
1 0.953826 0.00813306
1 0.949462 0.00758373
0.00108339 0.810895 0.173709
0.0010071 0.814145 0.176959
0.000900282 0.819455 0.182269
0.00077821 0.825071 0.187869
0.000656138 0.830961 0.193759
0.000503548 0.838346 0.201129
0.000381476 0.847501 0.214893
0.000320439 0.85861 0.234668
0.000228885 0.871366 0.257389
0.000167849 0.880339 0.273381
0.00015259 0.88333 0.279988
7.62951e-05 0.896559 0.330953
0 0.916808 0.409979
0.000427253 0.908629 0.324559
0 0.931899 0.414328
9.15541e-05 0.936645 0.440513
0.00329595 0.907988 0.0897993
0.125689 0.923537 0.152255
0.687861 0.96437 0.374823
0.906386 0.965225 0.281422
0.97995 0.957092 0.0798047
0.998322 0.954482 0.0147402
0.999969 0.955016 0.00843824
1 0.956619 0.00854505
1 0.957946 0.00875868
1 0.958602 0.00889601
1 0.958801 0.00894179
1 0.958816 0.00894179
1 0.958801 0.00894179
1 0.958785 0.00894179
1 0.958755 0.00892653
1 0.958724 0.00892653
1 0.958694 0.00891127
0.000244144 0.87042 0.255711
0.000213626 0.873014 0.260334
0.000198367 0.877272 0.267903
0.000167849 0.881758 0.275898
0.000137331 0.886244 0.283894
9.15541e-05 0.891905 0.29398
4.57771e-05 0.899474 0.307454
3.0518e-05 0.906279 0.326528
1.5259e-05 0.913054 0.349722
1.5259e-05 0.918791 0.369421
1.5259e-05 0.92134 0.37818
1.5259e-05 0.923064 0.384787
0 0.933562 0.44683
0 0.942992 0.527535
0 0.939315 0.483818
0 0.949111 0.616434
0 0.944747 0.54081
0.00387579 0.91548 0.0792859
0.35671 0.945266 0.303059
0.820035 0.972168 0.464057
0.959411 0.966949 0.288304
0.994751 0.959472 0.0708324
0.999893 0.958389 0.0124208
1 0.958587 0.0089723
1 0.958755 0.00892653
1 0.958816 0.00894179
1 0.958816 0.00894179
1 0.958816 0.00894179
1 0.958816 0.00894179
1 0.958816 0.00894179
1 0.958816 0.00894179
1 0.958816 0.00894179
1 0.958816 0.00894179
1.5259e-05 0.91368 0.351919
1.5259e-05 0.914961 0.356283
1.5259e-05 0.917266 0.364172
1.5259e-05 0.919692 0.372488
1.5259e-05 0.922118 0.380804
1.5259e-05 0.924926 0.390433
0 0.928756 0.403571
0 0.933852 0.421073
0 0.936355 0.441962
0 0.938216 0.462608
0 0.939391 0.475563
0 0.939757 0.479622
0 0.940719 0.49044
0 0.945815 0.559396
0 0.949722 0.627558
0 0.951629 0.663081
0 0.954589 0.733806
0 0.946838 0.580179
0.0167697 0.916381 0.0860761
0.625147 0.965698 0.462623
0.911467 0.975555 0.512337
0.987839 0.966537 0.264942
0.99942 0.959487 0.0549935
1 0.958816 0.0108034
1 0.958816 0.00895705
1 0.958816 0.00894179
1 0.958816 0.00894179
1 0.958816 0.00894179
1 0.958816 0.00894179
1 0.958816 0.00894179
1 0.958816 0.00894179
1 0.958816 0.00894179
1 0.958816 0.00894179
0 0.936873 0.447623
0 0.93727 0.452079
0 0.937926 0.459373
0 0.938582 0.466667
0 0.939254 0.473945
0 0.940047 0.482856
0 0.941039 0.493797
0 0.942382 0.508782
0 0.944121 0.528176
0 0.945251 0.547585
0 0.946105 0.562615
0 0.946471 0.568841
0 0.946746 0.573602
0 0.947662 0.589517
0 0.951476 0.659144
0 0.95407 0.720165
0 0.955718 0.765743
0 0.956802 0.806073
0 0.944869 0.550103
0.0997024 0.924468 0.165087
0.810468 0.976608 0.585
0.966857 0.976638 0.522286
0.997986 0.965148 0.222339
0.999985 0.959228 0.0391699
1 0.958816 0.00982681
1 0.958816 0.00894179
1 0.958816 0.00894179
1 0.958816 0.00894179
1 0.958816 0.00894179
1 0.958816 0.00894179
1 0.958816 0.00894179
1 0.958816 0.00894179
1 0.958816 0.00894179
0 0.944595 0.536233
0 0.944823 0.540261
0 0.945205 0.546853
0 0.945586 0.55346
0 0.945968 0.560052
0 0.94638 0.567376
0 0.946929 0.576898
0 0.947646 0.589349
0 0.948577 0.605478
0 0.949645 0.624414
0 0.950378 0.639124
0 0.95079 0.647578
0 0.950942 0.650721
0 0.951324 0.658549
0 0.952255 0.677333
0 0.955032 0.742031
0 0.956436 0.792294
0 0.957076 0.816831
0 0.957992 0.857816
0.000228885 0.93756 0.432578
0.349081 0.946777 0.33901
0.906935 0.980011 0.640208
