LUT预设1/柯达5219&2393/柯达5219&2393尼康专用/R3D/柯达5219微调-R3D.cube
TITLE "Generated by Resolve"
LUT_3D_SIZE 9
0.0164492 0.0244602 0.0419471
0.0237736 0.0249332 0.0379797
0.0759747 0.0264591 0.0258488
0.229038 0.0285496 0.0174411
0.503182 0.0251316 0.00289921
0.802304 0.0138705 0.000213626
0.961883 0.00343328 0.000854505
0.962249 0.00343328 0.000854505
0.962249 0.00343328 0.000854505
0.0157626 0.0286259 0.0445258
0.0233158 0.02916 0.0407568
0.0806744 0.0314336 0.0277562
0.271107 0.031281 0.014847
0.599649 0.0220035 0.00177005
0.86891 0.00967422 9.15541e-05
0.962036 0.00343328 0.000854505
0.962249 0.00343328 0.000854505
0.962249 0.00343328 0.000854505
0.0106203 0.059205 0.0588083
0.0133364 0.0667582 0.0585031
0.0717327 0.076524 0.0370489
0.440284 0.0475166 0.00457771
0.860899 0.00965896 9.15541e-05
0.958434 0.0034638 0.000793469
0.962066 0.00343328 0.000854505
0.962249 0.00343328 0.000854505
0.962249 0.00343328 0.000854505
0.00712596 0.175509 0.0838483
0.00587472 0.205768 0.0902876
0.00393683 0.250477 0.0766918
0.349447 0.249653 0.0135042
0.949981 0.143404 0.00244144
0.974426 0.192401 0.00318914
0.962249 0.00343328 0.000854505
0.962249 0.00343328 0.000854505
0.962249 0.00343328 0.000854505
0.000808728 0.401572 0.087953
0.000274662 0.453315 0.090013
6.10361e-05 0.524376 0.110826
0.000320439 0.605631 0.0395666
0.849439 0.666941 0.000946059
1 0.63212 7.62951e-05
1 0.687968 9.15541e-05
1 0.689982 0.000167849
0.962249 0.00343328 0.000854505
0.00207523 0.739834 0.119219
0.00202945 0.764614 0.128374
0.0009308 0.817685 0.180499
0.000244144 0.862593 0.249805
0.0209659 0.910445 0.0745556
0.993011 0.938689 0.0144656
1 0.952361 0.00794995
1 0.956863 0.00862135
1 0.949462 0.00758373
0 0.936873 0.447623
0 0.939254 0.473945
0 0.944121 0.528176
0 0.946746 0.573602
0 0.955718 0.765743
0.810468 0.976608 0.585
1 0.958816 0.00982681
1 0.958816 0.00894179
1 0.958816 0.00894179
0 0.95494 0.743633
0 0.95552 0.759609
0 0.956207 0.782971
0 0.957168 0.820325
0 0.957687 0.843565
0 0.958907 0.906416
0.996017 0.976074 0.499001
1 0.958816 0.00894179
1 0.958816 0.00894179
0 0.958602 0.888334
0 0.958724 0.894118
0 0.958816 0.899962
0 0.958968 0.910811
0 0.959045 0.916106
0 0.959258 0.930571
0.165438 0.933455 0.263523
1 0.958816 0.010544
1 0.958816 0.00894179
0.0158083 0.0247349 0.047364
0.0215915 0.0248722 0.0468605
0.0573587 0.0259403 0.0327153
0.225528 0.0278782 0.0192721
0.512367 0.0248417 0.00280766
0.812528 0.0133669 0.00015259
0.961913 0.00343328 0.000854505
0.962249 0.00343328 0.000854505
0.962249 0.00343328 0.000854505
0.0141909 0.0288853 0.0508888
0.0226444 0.0280919 0.0508125
0.079469 0.0312657 0.0328985
0.273991 0.0304875 0.0160067
0.606836 0.0217746 0.00170901
0.875135 0.0091249 0.000106813
0.962066 0.00343328 0.000854505
0.962249 0.00343328 0.000854505
0.962249 0.00343328 0.000854505
0.0104829 0.0666667 0.0656138
0.0128176 0.0698863 0.0690471
0.0737163 0.0774548 0.0454261
0.435859 0.0496986 0.00564584
0.86392 0.00955215 1.5259e-05
0.958221 0.00349432 0.000793469
0.962127 0.00343328 0.000854505
0.962249 0.00343328 0.000854505
0.962249 0.00343328 0.000854505
0.00616464 0.197024 0.0914168
0.00526436 0.217395 0.0994125
0.0039826 0.250965 0.0783398
0.354421 0.258915 0.0142519
0.956054 0.159258 0.00280766
0.975708 0.205722 0.00326543
0.962249 0.00343328 0.000854505
0.962249 0.00343328 0.000854505
0.962249 0.00343328 0.000854505
0.000381476 0.442191 0.0908217
9.15541e-05 0.486091 0.0946212
1.5259e-05 0.570474 0.108934
0.00105287 0.611963 0.0379339
0.858808 0.679225 0.000946059
1 0.645411 9.15541e-05
1 0.695979 7.62951e-05
1 0.692363 0.00015259
0.962249 0.00343328 0.000854505
0.00204471 0.75729 0.125673
0.0018616 0.773693 0.136553
0.000991836 0.814725 0.177539
7.62951e-05 0.884062 0.345876
0.0206149 0.910094 0.0737926
0.994369 0.940475 0.0140536
1 0.953628 0.0081178
1 0.957427 0.0087129
1 0.953216 0.0080415
0 0.938369 0.464225
0 0.939284 0.474357
0 0.941512 0.499062
0 0.946868 0.575799
0.00149538 0.926192 0.264958
0.805142 0.976272 0.580133
1 0.958816 0.00991836
1 0.958816 0.00894179
1 0.958816 0.00894179
0 0.955276 0.752804
0 0.955566 0.760906
0 0.955947 0.773129
0 0.956847 0.808087
0 0.957504 0.835142
0 0.957702 0.845319
0.996216 0.975998 0.496818
1 0.958816 0.00894179
1 0.958816 0.00894179
0 0.958679 0.891493
0 0.95874 0.894881
0 0.958785 0.898116
0 0.958907 0.905791
0 0.95906 0.916655
0 0.959197 0.925811
0.226139 0.938704 0.302983
1 0.958816 0.00991836
1 0.958816 0.00894179
0.013489 0.0255894 0.0609445
0.0195773 0.0251926 0.0619211
0.0399939 0.0248264 0.0631266
0.128786 0.0260777 0.0362707
0.441245 0.0265507 0.00596628
0.817136 0.0125124 0.00015259
0.961807 0.00343328 0.000854505
0.962249 0.00343328 0.000854505
0.962249 0.00343328 0.000854505
0.0112917 0.0310521 0.070573
0.0171969 0.0293889 0.0728618
0.0512703 0.0280003 0.0770886
0.199161 0.028275 0.0398566
0.584878 0.0225681 0.00267033
0.893736 0.00755322 0.000198367
0.962097 0.00343328 0.000854505
0.962249 0.00343328 0.000854505
0.962249 0.00343328 0.000854505
0.00889601 0.0788739 0.0924086
0.00996414 0.0804456 0.0974289
0.0609445 0.0696574 0.101488
0.346563 0.0555428 0.0330358
0.813138 0.0133516 0.000122072
0.95639 0.00357061 0.00077821
0.962158 0.00343328 0.000854505
0.962249 0.00343328 0.000854505
0.962249 0.00343328 0.000854505
0.00323491 0.253651 0.10898
0.00300603 0.254505 0.12018
0.00209049 0.259525 0.161379
0.325002 0.267445 0.032166
0.965377 0.208362 0.00315862
0.976684 0.212985 0.00294499
0.962249 0.00343328 0.000854505
0.962249 0.00343328 0.000854505
0.962249 0.00343328 0.000854505
3.0518e-05 0.555474 0.100282
1.5259e-05 0.561135 0.112428
0.00030518 0.616388 0.153841
0.0126345 0.630594 0.0418097
0.869551 0.685283 0.000915541
1 0.654627 9.15541e-05
1 0.70013 6.10361e-05
1 0.68835 0.000167849
0.962249 0.00343328 0.000854505
0.000946059 0.81738 0.180194
0.00102235 0.81355 0.176364
0.000427253 0.841596 0.204379
4.57771e-05 0.902235 0.335637
0.0918898 0.912825 0.105821
0.995712 0.941985 0.0126497
1 0.954482 0.00823987
1 0.957702 0.00875868
1 0.953704 0.0081178
0 0.943297 0.518898
0 0.941329 0.497032
0 0.94136 0.497444
0 0.945815 0.557488
0 0.940612 0.47602
0.779812 0.974762 0.559106
1 0.958831 0.0099794
1 0.958816 0.00894179
1 0.958816 0.00894179
0 0.956069 0.777508
0 0.955917 0.771603
0 0.955871 0.769863
0 0.956207 0.783185
0 0.957397 0.830579
0.0519875 0.918471 0.126177
0.995392 0.976272 0.504402
1 0.958816 0.00894179
1 0.958816 0.00894179
0 0.958785 0.898116
0 0.958785 0.897444
0 0.958785 0.89752
0 0.958831 0.900694
0 0.958999 0.912367
0 0.959121 0.921202
0.725032 0.975509 0.609888
1 0.958816 0.0103456
1 0.958816 0.00894179
0.00949111 0.0285191 0.0873732
0.0108186 0.0280156 0.0899672
0.0236515 0.0265354 0.110811
0.104234 0.0254673 0.108888
0.175555 0.0263066 0.0573587
0.595148 0.0221561 0.00433356
0.957382 0.00350958 0.00077821
0.962249 0.00343328 0.000854505
0.962249 0.00343328 0.000854505
0.0083772 0.0359655 0.107012
0.00915541 0.0352941 0.113222
0.0281071 0.0298619 0.149554
0.142824 0.0273594 0.137835
0.23241 0.0277256 0.0672465
0.726329 0.0171359 0.00239567
0.962234 0.00343328 0.000854505
0.962249 0.00343328 0.000854505
0.962249 0.00343328 0.000854505
0.00607309 0.0840162 0.171756
0.00633249 0.0863355 0.177935
0.0263066 0.0715648 0.204807
0.201923 0.0474098 0.209171
0.410498 0.0339666 0.0836957
0.911086 0.00621042 0.00062562
0.962249 0.00343328 0.000854505
0.962249 0.00343328 0.000854505
0.962249 0.00343328 0.000854505
0.000137331 0.314458 0.2383
0.000106813 0.331182 0.258824
0.000106813 0.318776 0.292439
0.216587 0.246433 0.308324
0.848219 0.238621 0.147555
0.989853 0.358282 0.00598154
0.962249 0.00343328 0.000854505
0.962249 0.00343328 0.000854505
0.962249 0.00343328 0.000854505
0.00109865 0.684565 0.164401
0.00102235 0.690089 0.169726
0.000534066 0.686412 0.221714
0.000518807 0.679561 0.507088
0.75848 0.705501 0.103655
1 0.705669 4.57771e-05
1 0.700801 4.57771e-05
1 0.668818 0.00015259
0.962249 0.00343328 0.000854505
1.5259e-05 0.914076 0.353231
3.0518e-05 0.904494 0.320394
6.10361e-05 0.896239 0.304952
0 0.921218 0.404166
0.479652 0.937667 0.181613
0.995804 0.943496 0.013077
1 0.955215 0.00834669
1 0.957794 0.00877394
1 0.953658 0.00810254
0 0.950362 0.638819
0 0.947753 0.59118
0 0.94583 0.557855
0 0.947921 0.59411
0 0.952667 0.685756
0.860822 0.976547 0.557748
1 0.958831 0.0099794
1 0.958816 0.00894179
1 0.958816 0.00894179
0 0.957351 0.828397
0 0.956847 0.807874
0 0.956222 0.783398
0 0.956054 0.777066
0 0.95697 0.812894
0.00546273 0.916289 0.106294
0.994034 0.977111 0.526314
1 0.958816 0.00894179
1 0.958816 0.00894179
0 0.958968 0.909926
0 0.958892 0.905501
0 0.958831 0.900618
0 0.958801 0.899001
0 0.958862 0.903288
0 0.959091 0.918471
0.948135 0.982254 0.687892
1 0.958831 0.0122072
1 0.958816 0.00894179
0.00750744 0.0302739 0.12726
0.00753796 0.0296025 0.131624
0.00982681 0.0278782 0.161257
0.0675364 0.026566 0.23949
0.203586 0.0271153 0.167941
0.255863 0.0270848 0.0807813
0.515099 0.0248417 0.0212558
0.961715 0.00343328 0.000839246
0.962249 0.00343328 0.000854505
0.00631724 0.0361486 0.163165
0.00584421 0.0349279 0.179202
0.00775158 0.0293889 0.243351
0.0953384 0.0295415 0.337407
0.267292 0.0282902 0.208057
0.314778 0.0275731 0.0920424
0.54435 0.0238804 0.0287022
0.961532 0.00343328 0.000854505
0.962249 0.00343328 0.000854505
0.00239567 0.0797589 0.281621
0.00196841 0.0838178 0.298375
0.00318914 0.0635386 0.383597
0.119905 0.0383764 0.505425
0.398566 0.0303197 0.287892
0.43769 0.0271763 0.120256
0.590021 0.0224613 0.0336614
0.96202 0.00343328 0.000854505
0.962249 0.00343328 0.000854505
0 0.411749 0.623697
0 0.433509 0.637873
0.00221256 0.414496 0.608469
0.121462 0.296605 0.574136
0.572381 0.189639 0.513909
0.80975 0.166094 0.350759
0.79115 0.0145418 0.0646982
0.962249 0.00343328 0.000854505
0.962249 0.00343328 0.000854505
0 0.782574 0.532403
0 0.802274 0.553491
0 0.8177 0.591714
1.5259e-05 0.761593 0.685435
0.597513 0.64123 0.66389
0.990494 0.728618 0.582635
0.996719 0.9019 0.551812
1 0.716167 9.15541e-05
0.962249 0.00343328 0.000854505
0 0.945693 0.573846
0 0.946685 0.583902
0 0.945876 0.578546
0 0.944656 0.575784
0.0661936 0.910811 0.822003
0.949355 0.94699 0.599466
1 0.956664 0.0373083
1 0.95758 0.00872816
1 0.951949 0.00788891
0 0.955886 0.770733
0 0.955108 0.748089
0 0.953658 0.707256
0 0.952605 0.684535
0 0.954604 0.733272
0.951064 0.973754 0.456077
1 0.958816 0.00991836
1 0.958816 0.00894179
1 0.958816 0.00894179
0 0.958556 0.88539
0 0.958297 0.872297
0 0.957595 0.839689
0 0.956985 0.813336
0 0.957443 0.832776
0 0.958404 0.877684
0.99733 0.973938 0.443671
1 0.958816 0.00894179
1 0.958816 0.00894179
0 0.959213 0.927077
0 0.959136 0.921508
0 0.958999 0.91281
0 0.958862 0.903502
0 0.958816 0.900328
0 0.958984 0.911406
0.872786 0.980606 0.673655
1 0.958831 0.0157168
1 0.958816 0.00894179
0.00462348 0.0284123 0.211246
0.00442512 0.0281071 0.217288
0.00334173 0.0278477 0.263325
0.0169833 0.035172 0.393484
0.161944 0.0307012 0.411017
0.326024 0.0287022 0.213321
0.359014 0.0276341 0.0960403
0.519158 0.0248264 0.0637369
0.765957 0.0156863 0.037583
0.00172427 0.0295109 0.305287
0.00120546 0.031693 0.34139
0.000961318 0.0380865 0.419257
0.0267796 0.0535897 0.547387
0.245777 0.0298009 0.484871
0.391089 0.0286107 0.216754
0.414115 0.0272831 0.101015
0.558282 0.0235447 0.0823072
0.68217 0.0187686 0.0724956
0.000106813 0.0509804 0.520974
1.5259e-05 0.0556344 0.557183
9.15541e-05 0.0664683 0.642588
0.0466163 0.0743572 0.727993
0.420356 0.0256199 0.59411
0.50396 0.0265507 0.233143
0.478904 0.0261997 0.11133
0.599496 0.0217441 0.0981918
0.657526 0.0192416 0.0908675
0.000518807 0.517342 0.825055
0.00221256 0.529702 0.824628
0.00866712 0.495964 0.802213
0.109651 0.376013 0.81268
0.572656 0.122118 0.784726
0.779965 0.160281 0.520455
0.768383 0.0181582 0.303334
0.634867 0.0200046 0.111742
0.651911 0.0192721 0.0999619
0 0.82089 0.861189
0 0.838956 0.877989
1.5259e-05 0.836469 0.897078
0.0518349 0.795178 0.880446
0.583764 0.69807 0.834394
0.881071 0.666484 0.757687
0.981491 0.646937 0.731746
0.978119 0.322957 0.563409
0.651698 0.0192874 0.0992905
0 0.957046 0.815244
0 0.957336 0.828046
0 0.957488 0.834287
0 0.95761 0.839872
0.0172122 0.935088 0.88957
0.881804 0.889708 0.858854
0.988586 0.923491 0.843229
0.989044 0.948241 0.833906
0.990005 0.953567 0.797955
0 0.958419 0.879316
0 0.958511 0.884108
0 0.95848 0.88191
0 0.958389 0.877058
0 0.958297 0.872267
0.77702 0.971664 0.92221
0.972381 0.978683 0.848753
0.990707 0.984039 0.772931
0.999054 0.97322 0.423957
0 0.959045 0.91545
0 0.959014 0.913176
0 0.958877 0.903868
0 0.958587 0.887236
0 0.958404 0.877531
0 0.958953 0.909987
0.999878 0.963821 0.185794
1 0.958816 0.00894179
1 0.958816 0.00894179
0 0.959457 0.94255
0 0.959411 0.939651
0 0.959304 0.933013
0 0.959136 0.921508
0 0.958984 0.911635
0 0.959075 0.917388
1.5259e-05 0.949569 0.638758
1 0.958831 0.0147097
1 0.958816 0.00894179
0.000457771 0.0415198 0.448631
0.000518807 0.0400549 0.436683
0.000488289 0.0422217 0.456672
0.00196841 0.0549935 0.557733
0.0738231 0.0556497 0.617029
0.337545 0.0289921 0.460792
0.43537 0.0279545 0.194568
0.513451 0.0252995 0.117662
0.62327 0.0205692 0.117113
3.0518e-05 0.0579385 0.580255
3.0518e-05 0.0594492 0.591836
4.57771e-05 0.0637827 0.624735
0.00796521 0.0716564 0.685847
0.136797 0.0472877 0.681712
0.43006 0.028336 0.434501
0.480995 0.0268254 0.180438
0.567514 0.0232547 0.129732
0.662211 0.0184176 0.136965
6.10361e-05 0.0761883 0.726406
1.5259e-05 0.077821 0.740826
0.000549325 0.0807965 0.774548
0.0276036 0.083299 0.81294
0.321889 0.024567 0.736568
0.539055 0.0255131 0.38584
0.520058 0.0255589 0.171511
0.609262 0.0213169 0.141207
0.684672 0.017258 0.152117
0.000427253 0.0881056 0.888518
0.00512703 0.0886854 0.896986
0.04448 0.142596 0.901778
0.253498 0.155734 0.930205
0.6421 0.0641947 0.897185
0.827207 0.0294194 0.629145
0.756481 0.0159457 0.325383
0.644358 0.0194095 0.152743
0.700236 0.016495 0.164614
0.368383 0.883818 0.953521
0.410941 0.888518 0.951873
0.427222 0.88275 0.947005
0.495399 0.855787 0.933639
0.677455 0.77084 0.935103
0.911879 0.646387 0.868772
0.965698 0.680491 0.796963
0.986053 0.547189 0.740475
0.711452 0.0161135 0.174823
0 0.959197 0.946395
0 0.95964 0.954253
0 0.959808 0.964538
0.00106813 0.955901 0.962478
0.510079 0.933471 0.936843
0.882368 0.892363 0.918334
0.960494 0.896712 0.900587
0.978958 0.887098 0.896468
0.980911 0.855695 0.877897
0 0.959701 0.954986
0 0.959808 0.959228
0 0.959854 0.96144
0 0.959869 0.962646
0 0.959884 0.963226
0.758968 0.97644 0.939635
0.953674 0.95639 0.929488
0.979767 0.958892 0.923369
0.981613 0.958434 0.919066
0 0.959976 0.966857
0 0.960006 0.96849
0 0.960006 0.968475
0 0.959976 0.967224
0 0.959945 0.965728
0 0.959945 0.965423
0.926574 0.973022 0.950423
0.965545 0.978729 0.931868
0.968338 0.981369 0.92256
0 0.959579 0.948898
0 0.959579 0.948775
0 0.959548 0.947402
0 0.959487 0.944152
0 0.959365 0.936858
0 0.959319 0.934554
0.894301 0.977066 0.957366
0.976287 0.987686 0.89305
0.971649 0.985489 0.909178
6.10361e-05 0.0782635 0.74197
0.000183108 0.074876 0.711849
0.000396735 0.0709392 0.679667
0.00225834 0.0738079 0.702235
0.0375677 0.0774243 0.736263
0.276829 0.0266575 0.668971
0.515938 0.0265354 0.348211
0.557549 0.0240024 0.169223
0.647517 0.0192416 0.155428
0.00282292 0.0838331 0.817258
0.00247196 0.083299 0.809064
0.00328069 0.0822766 0.793423
0.0137179 0.08159 0.783917
0.0958572 0.0704814 0.774624
0.42385 0.0249638 0.619913
0.556054 0.024979 0.286824
0.601358 0.0219577 0.170626
0.687678 0.0172427 0.172656
0.0147097 0.0870069 0.869154
0.0148318 0.0865187 0.860929
0.0191348 0.0859998 0.852384
0.042771 0.084596 0.837049
0.217014 0.0394751 0.782376
0.525277 0.0236515 0.541772
0.582589 0.023621 0.246433
0.637018 0.0200198 0.176867
0.713603 0.0161746 0.186923
0.0526436 0.085771 0.888853
0.0474861 0.0876783 0.886656
0.0534066 0.0861067 0.878645
0.148013 0.0617075 0.870451
0.554025 0.0184024 0.77969
0.70634 0.0177768 0.463569
0.634684 0.0208286 0.233539
0.667857 0.0184329 0.18497
0.731685 0.0155489 0.198825
0.599359 0.230945 0.953979
0.656703 0.544015 0.970321
0.675334 0.713283 0.973785
0.714015 0.770321 0.97464
0.82266 0.712169 0.970382
0.951797 0.609705 0.913161
0.981262 0.626398 0.821546
0.985214 0.514488 0.762463
0.742321 0.0152285 0.207889
0.693523 0.955703 0.963226
0.699474 0.957412 0.963302
0.713252 0.957153 0.962417
0.765362 0.953567 0.95906
0.83946 0.941176 0.951446
0.901228 0.908522 0.951171
0.959228 0.895018 0.924468
0.97052 0.901656 0.917937
0.977096 0.878965 0.909865
0 0.960281 0.981353
0 0.960311 0.982986
0 0.960327 0.98378
0 0.960403 0.987213
0.108965 0.964324 0.977996
0.853132 0.96849 0.953613
0.951995 0.953567 0.948028
0.966293 0.956207 0.944976
0.96585 0.952483 0.944884
0 0.960403 0.987427
0 0.960403 0.987869
0 0.960403 0.987991
0 0.960403 0.988067
0 0.960418 0.988113
7.62951e-05 0.960357 0.985031
0.935729 0.972412 0.956451
0.959686 0.970352 0.953292
0.960235 0.970428 0.952651
0 0.960418 0.987762
0 0.960418 0.987961
0 0.960418 0.988022
0 0.960418 0.987976
0 0.960403 0.987732
0 0.960403 0.987411
0.894301 0.977005 0.957763
0.957748 0.970474 0.95465
0.960403 0.970916 0.951827
0.0238956 0.0870527 0.877607
0.0171359 0.0869917 0.869062
0.0148928 0.0859998 0.852155
0.0215763 0.0851759 0.838987
0.0724193 0.0754253 0.832151
0.315755 0.0239719 0.773404
0.575143 0.0224765 0.486244
0.607553 0.0222629 0.228412
0.669108 0.0183871 0.186114
0.0813916 0.0749218 0.885817
0.0709239 0.0798352 0.88542
0.0582895 0.0862898 0.880095
0.0713359 0.0834821 0.868696
0.198657 0.041413 0.839048
0.4907 0.0208896 0.697337
0.618799 0.0219883 0.371084
0.637827 0.0204318 0.21236
0.704982 0.0167239 0.19852
0.206455 0.0480964 0.879332
0.183505 0.0527199 0.880018
0.175601 0.0522011 0.87805
0.215061 0.0419013 0.864179
0.381598 0.0231174 0.812421
0.592386 0.0200198 0.59234
0.637552 0.0211185 0.297993
0.665492 0.0188754 0.209583
0.730312 0.0157321 0.209674
0.366903 0.0223087 0.861006
0.343832 0.0225986 0.864576
0.330892 0.022446 0.86537
0.390738 0.0213626 0.837003
0.541833 0.0188144 0.742702
0.64361 0.0197452 0.481331
0.652384 0.0200809 0.25919
0.690455 0.0176089 0.211582
0.74641 0.0152132 0.218509
0.472648 0.0199283 0.848173
0.466499 0.0200198 0.852552
0.459815 0.0201724 0.850492
0.612192 0.0166171 0.804273
0.89305 0.00933852 0.823026
0.974121 0.224399 0.834043
0.982116 0.391943 0.769802
0.969039 0.129427 0.632151
0.756085 0.0149233 0.223896
0.837934 0.93669 0.964645
0.846525 0.942336 0.962509
0.852125 0.944778 0.961593
0.860533 0.943725 0.961273
0.878401 0.935515 0.961868
0.926116 0.906889 0.962768
0.969635 0.889464 0.936004
0.974792 0.898116 0.924575
0.979171 0.884169 0.918959
0.302403 0.97293 0.974563
0.252628 0.971466 0.976043
0.297108 0.97293 0.974334
0.496452 0.978531 0.968704
0.760906 0.978683 0.962356
0.907408 0.96463 0.956603
0.953475 0.954482 0.956085
0.964553 0.954452 0.952895
0.964813 0.953979 0.953216
0 0.960433 0.988693
0 0.960433 0.988708
0 0.960433 0.988708
0 0.960433 0.988708
0 0.960433 0.988708
0.742077 0.985046 0.961929
0.942123 0.971588 0.957275
0.958328 0.969894 0.957931
0.958389 0.969985 0.957748
0 0.960433 0.988708
0 0.960433 0.988708
0 0.960433 0.988708
0 0.960433 0.988708
0 0.960433 0.988708
0 0.960433 0.988708
0.918242 0.974548 0.957366
0.958022 0.970016 0.958495
0.958251 0.970153 0.957916
