LUT预设1/柯达5219&2393/柯达5219&2393尼康专用/R3D/柯达2393冷调-R3D.cube
TITLE "Generated by Resolve"
LUT_3D_SIZE 9
0.00471504 0.0482948 0.0409552
0.014435 0.0485389 0.0391546
0.0677501 0.0491035 0.0270237
0.244678 0.0454414 0.000335698
0.498131 0.0449989 0
0.643824 0.0688182 0
0.726482 0.0722057 0
0.770352 0.0814679 0
0.787488 0.0892805 0
0.00238041 0.0534676 0.0414282
0.00883497 0.0540322 0.0393988
0.0662394 0.0545815 0.0264439
0.278233 0.0522774 0.00015259
0.53814 0.0566567 0
0.66656 0.0757153 0
0.736812 0.0736858 0
0.774838 0.0834211 0
0.788891 0.0902724 0
9.15541e-05 0.0759442 0.0459907
0.000793469 0.0795605 0.0431067
0.0276341 0.0827039 0.0276951
0.318441 0.0881819 3.0518e-05
0.601221 0.0932021 0
0.698436 0.0976272 0
0.740902 0.0741894 0
0.776684 0.0842756 0
0.789487 0.0907301 0
0 0.188281 0.0704814
0 0.204486 0.0728161
0 0.212802 0.0430304
0.136095 0.257939 0
0.662043 0.305577 0
0.836225 0.264149 0
0.772076 0.105837 0
0.777447 0.0846418 0
0.789761 0.0909438 0
0 0.39498 0.161501
0 0.4112 0.169635
0 0.422873 0.171923
0.0106813 0.462409 0.00560006
0.541527 0.600809 0
0.862562 0.616846 0
0.956756 0.529503 0
0.905135 0.245655 0
0.789868 0.0910048 0
0 0.538949 0.236637
0 0.544961 0.241215
0 0.547951 0.243473
0 0.549371 0.244556
0.462882 0.698558 0
0.803723 0.767086 0
0.953964 0.759289 0
0.999863 0.723903 0
1 0.679698 0
0 0.581399 0.283055
0 0.583368 0.28687
0 0.58436 0.28893
0 0.584878 0.290074
0 0.585138 0.290623
0.74493 0.803006 0
0.91809 0.824643 0
0.993591 0.819959 0
1 0.816526 0
0 0.609384 0.336416
0 0.613581 0.342992
0 0.615961 0.346731
0 0.617365 0.348913
0 0.618189 0.350195
0 0.61854 0.350744
0.884611 0.838361 0
0.977752 0.837446 0
0.999832 0.838148 0
0 0.659113 0.407965
0 0.662028 0.411994
0 0.663203 0.413687
0 0.663935 0.414771
0 0.664424 0.415457
0 0.664637 0.415778
0.702861 0.816068 0
0.965148 0.842573 0
0.997543 0.84242 0
0.00381476 0.0491188 0.0499428
0.0129549 0.0492256 0.0483711
0.0657816 0.0493782 0.0363928
0.247059 0.0437476 0.00115969
0.503166 0.0359503 0
0.646632 0.0661479 0
0.727321 0.0723278 0
0.770718 0.0816205 0
0.787655 0.0893568 0
0.00184634 0.0541695 0.0497139
0.00839246 0.0547341 0.0482185
0.0687419 0.0553445 0.0352026
0.285176 0.049897 0.000534066
0.544747 0.0483406 0
0.669749 0.0737316 0
0.73785 0.0738231 0
0.775326 0.0836347 0
0.789044 0.0903792 0
0 0.0773022 0.0544594
0.000656138 0.0815137 0.0534066
0.033814 0.0846113 0.0351568
0.328817 0.0880293 0.00015259
0.609018 0.088716 0
0.701305 0.0967575 0
0.742092 0.074342 0
0.777142 0.0845045 0
0.789624 0.090837 0
0 0.194888 0.0800488
0 0.212116 0.0835126
0 0.222446 0.0539101
0.154879 0.266255 0
0.67422 0.312123 0
0.840452 0.269566 0
0.773373 0.106172 0
0.777966 0.0848859 0
0.789914 0.0910506 0
0 0.400137 0.164172
0 0.416052 0.172152
0 0.427588 0.17435
0.0138857 0.469673 0.002121
0.555138 0.608667 0
0.866392 0.623346 0
0.958953 0.536416 0
0.912276 0.263371 0
0.790021 0.0911269 0
0 0.540948 0.238163
0 0.546975 0.242741
0 0.550027 0.245045
0 0.551507 0.246189
0.477745 0.704097 0
0.808209 0.770062 0
0.955703 0.762356 0
0.999863 0.728664 0
1 0.68716 0
0 0.58204 0.284306
0 0.583993 0.288136
0 0.584955 0.290242
0 0.585504 0.291432
0 0.585763 0.292027
0.751354 0.804868 0
0.920897 0.825452 0
0.993881 0.820859 0
1 0.817975 0
0 0.610834 0.338704
0 0.61503 0.345266
0 0.617365 0.348913
0 0.618784 0.351141
0 0.620035 0.352941
0 0.620523 0.353674
0.887907 0.838834 0
0.978973 0.837812 0
0.999832 0.838483 0
0 0.660273 0.409552
0 0.662715 0.413001
0 0.663828 0.414618
0 0.664576 0.415702
0 0.665064 0.416388
0 0.665278 0.416693
0.757809 0.826047 0
0.967025 0.842496 0
0.997818 0.842451 0
0.000823987 0.0538796 0.104341
0.00424201 0.0531624 0.103151
0.0564736 0.0503243 0.0826123
0.242741 0.0402838 0.0256352
0.511055 0.0055848 0
0.654932 0.0480354 0
0.72726 0.0723125 0
0.770748 0.0816358 0
0.787686 0.0893721 0
0.000122072 0.0587625 0.0997635
0.00267033 0.0589303 0.102113
0.0610666 0.0569009 0.0890364
0.285054 0.0433051 0.0303197
0.558282 0.0056611 9.15541e-05
0.678309 0.0590219 0
0.738109 0.0738537 0
0.775479 0.083711 0
0.78909 0.0904097 0
0 0.0812238 0.0924544
0.000137331 0.0860761 0.0984817
0.0400397 0.0873274 0.0871748
0.333989 0.0830396 0.0182956
0.620127 0.0429847 0
0.707835 0.0860151 0
0.742611 0.074403 0
0.777325 0.0845808 0
0.789685 0.0908827 0
0 0.204623 0.109331
0 0.224796 0.121141
0 0.243488 0.113237
0.20705 0.273091 0.000106813
0.705684 0.304158 0
0.84509 0.267994 0
0.772992 0.10544 0
0.778195 0.085008 0
0.78999 0.0911116 0
0 0.404807 0.170932
0 0.42002 0.177386
0 0.431449 0.178653
0.0212406 0.475425 0.00030518
0.563363 0.61239 0
0.868605 0.625956 0
0.959991 0.539437 0
0.915038 0.27013 0
0.790097 0.0911879 0
0 0.541863 0.238849
0 0.547951 0.243473
0 0.551064 0.245838
0 0.552621 0.247028
0.48896 0.707713 0
0.810864 0.771695 0
0.95668 0.764096 0
0.999863 0.731228 0
1 0.691264 0
0 0.582391 0.284977
0 0.584314 0.288853
0 0.58529 0.290974
0 0.585824 0.292149
0 0.586114 0.29279
0.755398 0.805982 0
0.922545 0.825895 0
0.994079 0.821317 0
1 0.818784 0
0 0.611597 0.339879
0 0.615793 0.346456
0 0.618128 0.350103
0 0.619944 0.352834
0 0.621195 0.354635
0 0.621683 0.355367
0.89015 0.839063 0
0.979721 0.83801 0
0.999832 0.838697 0
0 0.660945 0.410452
0 0.663096 0.413535
0 0.664256 0.415229
0 0.664958 0.416236
0 0.665431 0.416938
0 0.665644 0.417243
0.781476 0.829984 0
0.9682 0.842435 0
0.998001 0.842466 0
0 0.126772 0.325216
0.000106813 0.11194 0.320516
0.0341802 0.0397498 0.292149
0.241535 0.0146792 0.264836
0.507012 3.0518e-05 0.215763
0.681544 0 0.0957351
0.734051 0.0643931 0
0.770626 0.08159 0
0.787655 0.0893568 0
0 0.135317 0.330388
3.0518e-05 0.127749 0.336889
0.0419471 0.0456855 0.325444
0.28716 0.0145113 0.309178
0.557458 1.5259e-05 0.270604
0.711437 0 0.15024
0.744457 0.0677653 0
0.775479 0.083711 0
0.78909 0.0904097 0
0 0.175753 0.361624
0 0.181445 0.381537
0.0159152 0.115663 0.371756
0.33193 0.0688334 0.352697
0.629374 0.00288396 0.320516
0.751415 0 0.171954
0.747585 0.0699168 0
0.777401 0.0846265 0
0.789715 0.090898 0
0 0.312932 0.393805
0 0.339391 0.424125
0 0.348669 0.434333
0.288365 0.300496 0.347723
0.720531 0.285344 0.287877
0.900496 0.184955 0.119341
0.770809 0.101061 0
0.778317 0.085069 0
0.790021 0.0911269 0
0 0.459861 0.285222
0 0.480079 0.307485
0 0.496727 0.325322
0.000228885 0.567178 0.296132
0.647181 0.611307 0
0.892592 0.621729 0
0.960067 0.538369 0
0.913603 0.266178 0
0.790143 0.0912337 0
0 0.542123 0.239048
0 0.548272 0.243717
0 0.551446 0.246128
0 0.552926 0.247288
0.504494 0.711543 0
0.813016 0.772549 0
0.957534 0.764752 0
0.999863 0.732372 0
1 0.693202 0
0 0.582559 0.285313
0 0.584482 0.289189
0 0.585458 0.291356
0 0.586023 0.292576
0 0.586313 0.293217
0.758999 0.806882 0
0.923583 0.826108 0
0.994232 0.821607 0
1 0.819303 0
0 0.612055 0.340612
0 0.616266 0.347189
0 0.618585 0.350835
0 0.620615 0.353796
0 0.621851 0.355596
0 0.622431 0.356451
0.891829 0.839231 0
0.980224 0.838132 0
0.999832 0.838819 0
0 0.66128 0.41091
0 0.663355 0.413916
0 0.664469 0.415549
0 0.665217 0.416617
0 0.665644 0.417243
0 0.665904 0.417624
0.795972 0.832242 0
0.969024 0.842405 0
0.998123 0.842481 0
0.00265507 0.191302 0.519509
0.0146334 0.130251 0.517266
0.0920119 0.0107576 0.515419
0.275364 0 0.516609
0.517754 0 0.508659
0.692683 0 0.482612
0.799329 0 0.397131
0.779339 0.0696117 0
0.787594 0.0893263 0
0.00137331 0.209308 0.528862
0.0129854 0.140246 0.534829
0.111955 0.00570687 0.545007
0.324392 0 0.552666
0.565194 0 0.549172
0.725216 0 0.522637
0.817349 0 0.452369
0.799161 0.0383154 0
0.78909 0.0904097 0
0 0.258274 0.564263
0.00105287 0.233814 0.57705
0.0889601 0.0548257 0.596109
0.36994 0.00257877 0.614847
0.622141 0 0.604852
0.7579 0 0.556817
0.824811 0 0.474022
0.817441 0.0111696 0
0.789731 0.0909133 0
0 0.397406 0.654627
0 0.414816 0.676722
0.00047303 0.391165 0.6972
0.323857 0.305272 0.703899
0.71014 0.276051 0.702907
0.885466 0.150515 0.699077
0.851942 0 0.499809
0.811032 0.0230716 0
0.790051 0.0911574 0
0 0.578637 0.700435
0 0.596994 0.719753
0 0.61735 0.738231
0.000747692 0.664057 0.743236
0.645197 0.654917 0.655802
0.895613 0.639307 0.619135
0.995773 0.541192 0.497322
0.90338 0.233127 0
0.790188 0.0912642 0
0 0.669383 0.627237
0 0.681102 0.6542
0 0.686885 0.667094
0 0.688746 0.669734
0.202579 0.788998 0.557946
0.857893 0.800748 0.156924
0.973342 0.764767 0
0.999878 0.731731 0
1 0.692576 0
0 0.582589 0.285359
0 0.584512 0.289281
0 0.585504 0.291432
0 0.586053 0.292668
0 0.586374 0.293339
0.764019 0.807874 0
0.92459 0.826169 0
0.994385 0.821714 0
1 0.819501 0
0 0.612299 0.340978
0 0.616495 0.347555
0 0.618875 0.351263
0 0.620951 0.354269
0 0.622187 0.356085
0 0.622766 0.356924
0.89337 0.839353 0
0.980682 0.838209 0
0.999832 0.838895 0
0 0.661433 0.411139
0 0.663462 0.414069
0 0.664576 0.415702
0 0.665324 0.41677
0 0.665812 0.417472
0 0.66601 0.417777
0.809018 0.834226 0
0.96968 0.842359 0
0.99823 0.842481 0
0.181094 0.00129702 0.651301
0.19585 0.000686656 0.64976
0.24062 3.0518e-05 0.649958
0.353902 0 0.653758
0.534157 0 0.65922
0.70251 0 0.661753
0.821363 0 0.649927
0.869902 0 0.617395
0.878828 0 0.499123
0.180484 0.00169375 0.657252
0.214374 0.000106813 0.664591
0.272984 0 0.669978
0.397177 0 0.676982
0.573739 0 0.685328
0.734234 0 0.689662
0.840192 0 0.681041
0.880354 0 0.657252
0.888243 0 0.591043
0.167697 0.0087892 0.678767
0.214069 0.00183108 0.69073
0.285618 0 0.699229
0.422827 0 0.706828
0.601068 0 0.711986
0.749752 0 0.704448
0.848264 0 0.695338
0.885069 0 0.676631
0.893095 0 0.626825
0.0512703 0.226062 0.800275
0.117494 0.216846 0.828733
0.264714 0.197894 0.849729
0.506004 0.172656 0.862715
0.737957 0.0995041 0.873854
0.862806 0 0.839445
0.853071 0 0.702251
0.887251 0 0.684596
0.895384 0 0.641947
0 0.622446 0.835996
0 0.647028 0.857237
0 0.67245 0.891402
0.18381 0.651453 0.910033
0.658213 0.652354 0.890211
0.874022 0.629282 0.880156
0.976913 0.526665 0.87068
0.961563 0 0.798718
0.895506 0 0.64065
0 0.716472 0.858976
0 0.722148 0.866499
0 0.725093 0.870268
0 0.731228 0.875181
0.390295 0.840986 0.872343
0.83473 0.860517 0.842664
0.972625 0.848951 0.814466
0.999954 0.820447 0.764675
1 0.765881 0.668742
0 0.739605 0.813382
0 0.74255 0.823087
0 0.744106 0.828595
0 0.744976 0.831464
0 0.745266 0.831983
0.645197 0.925155 0.794232
0.947127 0.931426 0.649577
1 0.895003 0.286244
1 0.819287 0
0 0.612177 0.340795
0 0.616373 0.347372
0 0.618784 0.351141
0 0.620859 0.354147
0 0.622187 0.356085
0 0.622766 0.356924
0.895888 0.83949 0
0.981338 0.838239 0
0.999832 0.838911 0
0 0.661433 0.411139
0 0.663462 0.414069
0 0.664576 0.415702
0 0.665324 0.41677
0 0.665751 0.417395
0 0.66601 0.417777
0.826322 0.836606 0
0.970565 0.842313 0
0.998413 0.842496 0
0.461463 0 0.773602
0.462699 0 0.771801
0.473274 0 0.770291
0.512963 0 0.770718
0.60119 0 0.775753
0.728222 0 0.784756
0.840223 0 0.786847
0.892271 0 0.784131
0.911589 0 0.777829
0.467567 0 0.776303
0.483452 0 0.780072
0.502937 0 0.78201
0.547601 0 0.785412
0.636301 0 0.792615
0.760067 0 0.801541
0.859541 0 0.804532
0.901869 0 0.80528
0.917983 0 0.803632
0.466743 0 0.776974
0.487373 0 0.782422
0.511208 0 0.785885
0.559579 0 0.790768
0.650462 0 0.799054
0.774701 0 0.808576
0.868238 0 0.812848
0.906203 0 0.815076
0.921111 0 0.815641
0.453407 0 0.779446
0.477699 0 0.785153
0.505226 0 0.78912
0.558419 0 0.794034
0.653315 0 0.801602
0.780011 0 0.811353
0.872328 0 0.81651
0.908324 0 0.819883
0.922744 0 0.821317
0.396689 0.496895 0.986145
0.438727 0.527077 0.99086
0.498344 0.541161 0.99237
0.601663 0.545403 0.992554
0.743008 0.538521 0.992004
0.88957 0.49247 0.990951
0.972442 0.282307 0.98616
0.909239 0 0.821653
0.923445 0 0.823697
0 0.775341 0.948302
0 0.791714 0.959854
1.5259e-05 0.813748 0.980972
0.106508 0.836744 0.997635
0.590372 0.85098 0.988525
0.834577 0.859266 0.979751
0.956909 0.847303 0.972656
0.995697 0.810758 0.967773
0.999969 0.751217 0.962631
0 0.754345 0.909773
0 0.756344 0.91249
0 0.757412 0.914015
0 0.758007 0.914885
0 0.758328 0.915328
0.710399 0.953048 0.97229
0.935729 0.965499 0.958404
0.98706 0.965652 0.95137
0.998154 0.963027 0.943023
0 0.768704 0.903105
0 0.771328 0.9093
0 0.772702 0.912322
0 0.773754 0.914168
0 0.774517 0.915282
0 0.774792 0.915526
0.874784 0.984283 0.951186
0.978363 0.986389 0.914641
0.996658 0.984665 0.89012
0 0.661112 0.410681
0 0.726253 0.651347
0 0.774029 0.794415
0 0.78027 0.828733
0 0.783001 0.844236
0 0.783841 0.848692
0.638453 0.945617 0.792905
0.995621 0.923217 0.385885
0.998764 0.842512 0
0.658442 0 0.850462
0.659327 0 0.850065
0.660777 0 0.848783
0.671168 0 0.847776
0.705974 0 0.848341
0.78143 0 0.85185
0.867369 0 0.858091
0.91339 0 0.861936
0.930434 0 0.865034
0.666392 0 0.854063
0.674052 0 0.856611
0.680049 0 0.857313
0.694697 0 0.857939
0.734356 0 0.860304
0.810544 0 0.86566
0.887144 0 0.872068
0.924971 0 0.876127
0.93875 0 0.880888
0.66807 0 0.855177
0.678126 0 0.858824
0.686427 0 0.860441
0.70367 0 0.862089
0.74638 0 0.865629
0.823972 0 0.871916
0.896147 0 0.878904
0.930831 0 0.884031
0.943618 0 0.889967
0.663462 0 0.854398
0.675212 0 0.858747
0.685084 0 0.860731
0.704204 0 0.862837
0.74963 0 0.867231
0.829099 0 0.874571
0.900252 0 0.882231
0.933806 0 0.88809
0.946151 0 0.894713
0.648127 0 0.851743
0.662196 0 0.858457
0.675578 0 0.863096
0.697154 0 0.86569
0.744945 0 0.867994
0.828717 0 0.874922
0.901793 0 0.883543
0.935195 0 0.889967
0.947417 0 0.897093
0.58616 0.778439 1
0.597726 0.796567 1
0.615671 0.806378 1
0.656397 0.812833 1
0.742809 0.817746 1
0.865827 0.813336 1
0.955398 0.79173 0.999954
0.99321 0.734813 0.999939
0.999741 0.605722 0.999954
0 0.772015 0.937118
0 0.76907 0.935012
0 0.778988 0.941253
0 0.8692 0.996857
0.415671 0.93698 1
0.787503 0.959182 0.999741
0.936431 0.965377 0.998199
0.981552 0.964584 0.996643
0.992386 0.962264 0.995575
0 0.77377 0.933318
0 0.775601 0.935058
0 0.776654 0.936049
0 0.777249 0.936584
0 0.777646 0.936934
0 0.857237 0.988144
0.891707 0.990433 0.998428
0.97261 0.995315 0.993393
0.987411 0.996078 0.992279
0 0.794797 0.944305
0 0.796323 0.946136
0 0.797177 0.947204
0 0.797742 0.947845
0 0.798093 0.948257
0 0.79826 0.948455
0.768673 0.987793 0.998474
0.962325 0.99884 0.991531
0.984207 0.99942 0.98967
0.761166 0 0.879408
0.76231 0 0.879515
0.763455 0 0.879545
0.768719 0 0.879911
0.786801 0 0.881422
0.831113 0 0.885267
0.890669 0 0.891936
0.932296 0 0.898695
0.950164 0 0.90898
0.765042 0 0.879942
0.768185 0 0.880232
0.771176 0 0.880491
0.778729 0 0.881178
0.800748 0 0.883177
0.847135 0 0.887556
0.903304 0 0.894209
0.938354 0 0.901274
0.953109 0 0.911742
0.765896 0 0.880018
0.769741 0 0.880369
0.773602 0 0.88072
0.782574 0 0.881529
0.806195 0 0.88365
0.854734 0 0.888426
0.908797 0 0.895186
0.940948 0 0.902754
0.954498 0 0.913039
0.764187 0 0.879866
0.76846 0 0.880247
0.772885 0 0.880659
0.782574 0 0.881529
0.807706 0 0.883787
0.857984 0 0.888777
0.911482 0 0.895598
0.942229 0 0.903426
0.955215 0 0.913695
0.757412 0 0.879194
0.762188 0 0.879683
0.76704 0 0.880125
0.777447 0 0.881071
0.804669 0 0.883528
0.857771 0 0.888747
0.912535 0 0.89575
0.942855 0 0.903731
0.95555 0 0.914015
0.783536 0.661097 1
0.77908 0.705257 1
0.781598 0.725994 1
0.795407 0.735439 1
0.830884 0.736324 1
0.89778 0.723278 1
0.963058 0.678553 1
0.995315 0.524804 1
0.968505 0 0.934112
0.585672 0.927825 1
0.572549 0.933547 1
0.576181 0.936996 1
0.611902 0.941299 1
0.706401 0.948974 1
0.845197 0.957214 1
0.943358 0.960037 0.999908
0.982513 0.958282 0.999771
0.992935 0.95555 0.999649
0 0.773571 0.936004
0 0.775143 0.937285
0 0.776043 0.938018
0 0.776608 0.938491
0 0.776959 0.938766
0.577554 0.970077 1
0.906844 0.991028 0.999985
0.973831 0.995148 0.999298
0.987259 0.996216 0.99913
0 0.795102 0.949432
0 0.796521 0.950423
0 0.797284 0.950957
0 0.797757 0.951293
0 0.798077 0.951522
0 0.798245 0.951644
0.820157 0.991653 1
0.963485 0.999451 0.999649
0.983978 0.999954 0.999481
