LUT预设1/柯达5219&2393/柯达5219&2393尼康专用/R3D/柯达5219基准-R3D.cube
TITLE "Generated by Resolve"
LUT_3D_SIZE 5
0.0230106 0.030518 0.0598459
0.081529 0.0462348 0.0588235
0.779614 0.0936599 4.57771e-05
0.873579 0.10251 0
0.873579 0.10251 0
0.0332494 0.0928969 0.108034
0.0617838 0.0910048 0.099321
0.853712 0.100374 0
0.873579 0.10251 0
0.873579 0.10251 0
0 0.800977 0.606134
0 0.818936 0.624094
0.845258 0.755184 0.208301
1 0.641917 0.0858778
1 0.259068 0
0 0.901366 0.716442
0 0.901366 0.716442
0 0.901366 0.716442
1 0.941421 0.370565
1 0.940856 0.3691
0 0.901366 0.716442
0 0.901366 0.716442
0 0.901366 0.716442
0.69189 0.933684 0.560174
1 0.941421 0.370565
0.0153506 0.044358 0.107439
0.0781109 0.0501259 0.121035
0.864012 0.101884 0
0.873579 0.10251 0
0.873579 0.10251 0
0.0320745 0.0843519 0.115709
0.0660716 0.0842756 0.105821
0.764706 0.0925612 0
0.873579 0.10251 0
0.873579 0.10251 0
0 0.806699 0.611368
0 0.824323 0.629999
0.856321 0.761028 0.208301
1 0.646525 0.0859388
1 0.301305 7.62951e-05
0 0.901366 0.716442
0 0.901366 0.716442
0 0.901366 0.716442
1 0.941421 0.370855
1 0.941054 0.369619
0 0.901366 0.716442
0 0.901366 0.716442
0 0.901366 0.716442
0.720134 0.935607 0.557702
1 0.941421 0.370565
0.00660716 0.227298 0.457023
0.0505989 0.275975 0.595697
0.749538 0.218479 0.711009
0.717113 0.236194 0.558053
0.873579 0.10251 0
0 0.201236 0.398932
0.0369879 0.267933 0.564141
0.758007 0.224201 0.704555
0.748623 0.233555 0.63238
0.873579 0.10251 0
0 0.823697 0.796704
0 0.840497 0.809949
0.683528 0.743435 0.755291
1 0.550698 0.192706
0.996231 0.243809 0
0 0.901366 0.716442
0 0.901366 0.716442
0 0.901366 0.716442
1 0.941421 0.370901
1 0.941085 0.369711
0 0.901366 0.716442
0 0.901366 0.716442
0 0.901366 0.716442
0.739132 0.936904 0.556008
1 0.941421 0.370565
0.556603 0.184543 0.786404
0.599649 0.179828 0.77998
0.770596 0.23505 0.695735
0.771069 0.235569 0.695323
0.771069 0.235569 0.695323
0.559976 0.18381 0.786328
0.625025 0.181506 0.771252
0.771069 0.235569 0.695323
0.771069 0.235569 0.695323
0.771069 0.235569 0.695323
0.59469 0.813947 0.86276
0.643717 0.813764 0.864439
0.807355 0.689265 0.857542
0.851621 0.487846 0.769604
0.771069 0.235569 0.695323
0 0.945891 0.908858
0 0.945891 0.908858
0 0.945891 0.908858
0.937469 0.945144 0.913954
0.956588 0.903944 0.854459
0 0.91107 0.830274
0 0.917266 0.842191
0 0.919295 0.846235
0.633722 0.922789 0.849851
0.979248 0.934127 0.739452
0.771069 0.235569 0.695323
0.771069 0.235569 0.695323
0.771069 0.235569 0.695323
0.771069 0.235569 0.695323
0.771069 0.235569 0.695323
0.771069 0.235569 0.695323
0.771069 0.235569 0.695323
0.771069 0.235569 0.695323
0.771069 0.235569 0.695323
0.771069 0.235569 0.695323
0.771069 0.235569 0.695323
0.771069 0.235569 0.695323
0.771069 0.235569 0.695323
0.771069 0.235569 0.695323
0.771069 0.235569 0.695323
0 0.945891 0.908965
0 0.94583 0.908843
0.434501 0.947036 0.908553
0.939162 0.940459 0.911574
0.942596 0.913375 0.895659
0 0.945891 0.908858
0 0.945891 0.908858
0 0.945891 0.908858
0.768063 0.943282 0.914366
0.945525 0.946151 0.913817
