LUT预设1/柯达5219&2393/柯达5219&2393尼康专用/R3D/柯达2393-R3D.cube
TITLE "Generated by Resolve"
LUT_3D_SIZE 9
0.0059205 0.0257877 0.0216831
0.0105745 0.0263828 0.021912
0.0331731 0.0281529 0.0176699
0.131304 0.0343938 0
0.373266 0.0292668 0
0.562554 0.0389105 0
0.685786 0.0534829 0
0.73196 0.0762646 0
0.756298 0.0864576 0
0.00309758 0.0293889 0.0217899
0.00624094 0.0302281 0.0217441
0.0299077 0.0319982 0.0178836
0.14873 0.0378729 0
0.413565 0.0337987 0
0.589029 0.0469062 0
0.697749 0.0595102 0
0.737835 0.0785992 0
0.758938 0.0877394 0
7.62951e-05 0.0404212 0.0224002
0.000503548 0.0434272 0.0225071
0.0141299 0.0485084 0.0188449
0.159564 0.0539406 0
0.450813 0.0596323 0
0.616175 0.0622873 0
0.701549 0.0614939 0
0.739986 0.0794537 0
0.759579 0.0880293 0
0 0.0744335 0.0218814
0 0.0844587 0.0221866
0 0.102647 0.0106508
0.16733 0.146624 0
0.585489 0.195636 0
0.76527 0.199573 0
0.735332 0.0893568 0
0.740322 0.0795758 0
0.759731 0.0880903 0
0 0.140749 0.0279545
0 0.160647 0.0328069
0 0.201007 0.0409857
0 0.313298 0.000793469
0.624552 0.479591 0
0.857954 0.505211 0
0.931762 0.455665 0
0.897414 0.260014 0
0.759686 0.0880751 0
0 0.285023 0.0819257
0 0.304784 0.0900893
0 0.340887 0.105425
0 0.439933 0.0658427
0.486534 0.652964 0
0.896544 0.714916 0
0.98378 0.703273 0
0.999512 0.682399 0
0.999115 0.646448 0
0 0.449226 0.152331
0 0.460578 0.156191
0 0.474998 0.160204
0 0.491112 0.163882
0.0192721 0.609033 0
0.82884 0.796643 0
0.992798 0.802731 0
1 0.801297 0
1 0.798352 0
0 0.529732 0.17113
0 0.533486 0.172
0 0.537926 0.173022
0 0.544411 0.174624
0 0.547677 0.175463
0 0.559533 0.177127
0.972213 0.828504 0
1 0.830457 0
1 0.829679 0
0 0.554543 0.177646
0 0.55555 0.178164
0 0.556558 0.178714
0 0.558618 0.17998
0 0.560159 0.180972
0 0.564508 0.182925
0.804135 0.827771 0
1 0.83946 0
1 0.839536 0
0.00366217 0.0269169 0.0257572
0.00708019 0.0276036 0.0258793
0.0289464 0.0284428 0.0235752
0.133181 0.0342718 7.62951e-05
0.3785 0.0269474 0
0.565866 0.0391546 0
0.687922 0.054551 0
0.73312 0.0767224 0
0.756893 0.0867475 0
0.00120546 0.0308232 0.0265507
0.00436408 0.031632 0.0267643
0.032517 0.0328679 0.0227054
0.157244 0.0374151 1.5259e-05
0.420233 0.0324102 0
0.592401 0.047425 0
0.699367 0.0603189 0
0.738491 0.0788586 0
0.759106 0.0878157 0
1.5259e-05 0.0431373 0.0264744
4.57771e-05 0.0464179 0.0278935
0.0142672 0.0507668 0.0232853
0.171084 0.0546273 0
0.464805 0.0604562 0
0.622309 0.0623026 0
0.704082 0.063035 0
0.741192 0.0799268 0
0.759869 0.0881514 0
0 0.0812085 0.0250401
0 0.0905776 0.0252995
0 0.108507 0.0130312
0.180438 0.154604 0
0.599344 0.203357 0
0.773098 0.203693 0
0.735943 0.0860761 0
0.741741 0.0801404 0
0.760067 0.0882429 0
0 0.151553 0.0308995
0 0.174426 0.0376287
0 0.214862 0.0483864
0.0325322 0.318471 0
0.641413 0.493492 0
0.865629 0.515831 0
0.934676 0.464286 0
0.900603 0.266819 0
0.760021 0.0882277 0
0 0.296529 0.0865797
0 0.314244 0.0941176
0 0.343297 0.106462
0 0.434424 0.11667
0.495048 0.654765 0
0.900923 0.719097 0
0.985977 0.707713 0
0.999832 0.688228 0
0.999557 0.654154 0
0 0.454765 0.154223
0 0.462562 0.156863
0 0.47097 0.159289
0 0.492378 0.164172
0.273808 0.65687 0
0.83003 0.796826 0
0.995422 0.80473 0
1 0.804105 0
1 0.800885 0
0 0.531426 0.171527
0 0.534295 0.172183
0 0.537163 0.172854
0 0.542962 0.174243
0 0.547326 0.175372
0.402594 0.729809 0
0.973404 0.828641 0
1 0.830945 0
1 0.830182 0
0 0.554971 0.177874
0 0.555779 0.178302
0 0.556497 0.178668
0 0.557946 0.179553
0 0.560433 0.18114
0 0.563424 0.182467
0.839368 0.832563 0
1 0.839643 0
1 0.839567 0
0.00105287 0.0292058 0.0380865
0.00422675 0.0295415 0.0350042
0.0163577 0.0295415 0.0352941
0.0892805 0.0332189 0.0197604
0.34406 0.0100252 0
0.559579 0.0313878 0
0.686366 0.0537728 0
0.732906 0.0766461 0
0.756893 0.0867475 0
6.10361e-05 0.0337072 0.0479896
0.00141909 0.0340887 0.043061
0.0178988 0.0347295 0.0414893
0.140551 0.0363775 0.0131685
0.425101 0.00767529 0
0.59556 0.0408942 0
0.700725 0.0610056 0
0.739223 0.0791485 0
0.759319 0.0879072 0
0 0.048661 0.0493019
0 0.0513771 0.0531167
0.0102693 0.0545968 0.0503395
0.184039 0.0540169 0.00349432
0.482185 0.0442664 0
0.624994 0.0610208 0
0.705257 0.0637369 0
0.741741 0.0801404 0
0.759976 0.0881971 0
0 0.102174 0.0359503
0 0.108293 0.0403906
0 0.12314 0.0443275
0.195254 0.163226 0
0.618952 0.203189 0
0.778286 0.202701 0
0.733013 0.0788434 0
0.742977 0.0806439 0
0.760342 0.088365 0
0 0.189822 0.0445411
0 0.20206 0.0487373
0 0.238193 0.0589303
0.108858 0.335515 0
0.654322 0.502251 0
0.871443 0.522087 0
0.936339 0.466957 0
0.898863 0.26099 0
0.760327 0.088365 0
0 0.331579 0.101488
0 0.339834 0.104997
0 0.36141 0.115236
0 0.417258 0.137621
0.584863 0.662715 0
0.904341 0.722103 0
0.98735 0.710658 0
0.999954 0.691508 0
0.999756 0.657923 0
0 0.469169 0.158877
0 0.469169 0.158877
0 0.471611 0.159426
0 0.487816 0.163134
0.0318761 0.605844 0
0.825849 0.794614 0
0.996948 0.805493 0
1 0.805646 0
1 0.802411 0
0 0.535332 0.172427
0 0.536263 0.172641
0 0.536889 0.172778
0 0.539895 0.17348
0 0.546899 0.175265
0.729107 0.796414 0
0.972305 0.828443 0
1 0.831266 0
1 0.830518 0
0 0.555825 0.178317
0 0.556222 0.178531
0 0.556512 0.178683
0 0.557198 0.17908
0 0.559457 0.180529
0 0.562173 0.181933
0.900893 0.835309 0
1 0.839628 0
1 0.839582 0
0 0.0343786 0.0868086
0 0.0334173 0.0759289
0.00248722 0.0326848 0.0708171
0.0594644 0.0314488 0.0730144
0.23418 0.0115816 0.0440986
0.524483 0 0.00238041
0.672084 0.0434882 0
0.729152 0.0751507 0
0.755917 0.0862745 0
0 0.0422827 0.118379
0 0.0404974 0.107591
0.00215152 0.03888 0.0957046
0.0899977 0.0346685 0.0984817
0.33608 0.000320439 0.0809491
0.597223 0 0.0240024
0.698085 0.056733 0
0.738048 0.0786755 0
0.759213 0.0878614 0
0 0.0713664 0.175601
0 0.0741131 0.179812
0 0.0615244 0.149783
0.13576 0.0572213 0.137362
0.468589 6.10361e-05 0.127779
0.663706 0 0.032105
0.707134 0.0639048 0
0.74226 0.080354 0
0.760143 0.0882734 0
0 0.15729 0.19733
0 0.181476 0.227161
0 0.202487 0.252506
0.192142 0.185641 0.199512
0.648493 0.169177 0.118334
0.853315 0.0641794 0.00517281
0.729793 0.0743572 0
0.743557 0.0808728 0
0.760464 0.088426 0
0 0.289937 0.123751
0 0.310445 0.142977
0 0.335729 0.173144
0.0141604 0.40531 0.0877699
0.671458 0.50811 0
0.88867 0.53109 0
0.937102 0.463233 0
0.890959 0.239567 0
0.760601 0.0884871 0
0 0.406836 0.136217
0 0.404227 0.13518
0 0.401846 0.13431
0 0.439414 0.143816
0.674968 0.674434 0
0.907515 0.724422 0
0.988602 0.712688 0
0.999985 0.692576 0
0.999786 0.658473 0
0 0.498878 0.165591
0 0.493126 0.16434
0 0.487297 0.163012
0 0.497185 0.165225
0 0.518318 0.169146
0.850278 0.791012 0
0.998352 0.806195 0
1 0.806577 0
1 0.803403 0
0 0.543465 0.174365
0 0.542336 0.174075
0 0.53962 0.173419
0 0.538735 0.173205
0 0.54406 0.174533
0.596567 0.765927 0
0.968139 0.827939 0
1 0.83151 0
1 0.830777 0
0 0.557778 0.179446
0 0.557626 0.179355
0 0.557061 0.178988
0 0.55697 0.178927
0 0.55787 0.179507
0 0.561364 0.181582
0.940612 0.833844 0
1 0.839384 0
1 0.839582 0
0 0.0717021 0.223438
0 0.0573129 0.192905
0 0.0423743 0.165667
0.0362097 0.0231022 0.166888
0.189593 0.00335698 0.185046
0.446281 0 0.193927
0.653712 0 0.185229
0.768597 0 0
0.751812 0.0842603 0
0 0.106371 0.289937
0 0.0965591 0.275868
0 0.0530709 0.237629
0.0824292 0.00799573 0.233448
0.280644 0 0.260365
0.532677 0 0.287129
0.716091 0 0.283452
0.793088 0 0.0080415
0.757504 0.0870527 0
0 0.174685 0.396643
0 0.16965 0.392126
0.000610361 0.0971084 0.359747
0.13753 0.0254368 0.331533
0.397543 0.000350958 0.364813
0.625589 0 0.380438
0.757931 0 0.339101
0.803433 0 0.00430304
0.759808 0.0881208 0
0 0.301244 0.53048
0 0.317693 0.554284
0 0.31133 0.571481
0.197925 0.198169 0.519631
0.576394 0.20264 0.519829
0.837079 0.0728466 0.573449
0.797589 0 0.361379
0.791684 0.00477607 0
0.760586 0.0884718 0
0 0.46949 0.561013
0 0.493538 0.589212
0 0.518334 0.616815
0 0.582467 0.654673
0.606424 0.554543 0.541466
0.8916 0.547402 0.497505
0.997177 0.442176 0.357885
0.877867 0.211154 0
0.760739 0.0885481 0
0 0.556832 0.392081
0 0.571542 0.423056
0 0.578561 0.446815
0 0.593057 0.497139
0.47541 0.731563 0.381048
0.900694 0.766491 0.198703
0.999985 0.727749 0
0.999954 0.690852 0
0.99968 0.655161 0
0 0.530632 0.171328
0 0.528389 0.170932
0 0.52076 0.169818
0 0.517128 0.169284
0 0.529976 0.16936
0.886854 0.789181 0
0.999222 0.806775 0
1 0.80737 0
1 0.803845 0
0 0.552621 0.176837
0 0.551293 0.176471
0 0.547768 0.175494
0 0.544015 0.174517
0 0.546777 0.175235
0 0.553231 0.17702
0.973465 0.826032 0
1 0.831769 0
1 0.830961 0
0 0.562173 0.181933
0 0.561059 0.18146
0 0.559365 0.180468
0 0.557839 0.179492
0 0.557305 0.179141
0 0.559243 0.180392
0.900511 0.832883 0
1 0.838773 0
1 0.839582 0
0 0.171176 0.40882
0 0.154498 0.385107
0 0.105898 0.345113
0.0427253 0.0106966 0.332174
0.182284 0 0.348013
0.41825 0 0.382315
0.620859 0 0.419181
0.764813 0 0.419684
0.817777 0 0.320836
0 0.188815 0.453117
0 0.170901 0.446464
0.0147097 0.0784314 0.420005
0.112383 0 0.407446
0.281559 0 0.424475
0.508125 0 0.459663
0.68452 0 0.491203
0.802029 0 0.49398
0.838956 0 0.444831
0 0.186572 0.512001
0.0108492 0.136217 0.513115
0.0669871 0.0162509 0.509483
0.188052 0 0.507057
0.399283 0 0.51902
0.59823 0 0.535454
0.730373 0 0.534279
0.82269 0 0.539925
0.852827 0 0.507225
0 0.291997 0.664729
0.000885023 0.272297 0.684657
0.0344091 0.188815 0.705592
0.315175 0.167498 0.711238
0.595254 0.183459 0.702052
0.800473 0.121401 0.742412
0.847913 0 0.655406
0.840375 0 0.573236
0.860914 0 0.539162
0 0.534783 0.757885
0 0.561517 0.780346
0 0.592401 0.812146
0.0490578 0.559609 0.834043
0.624659 0.572335 0.77615
0.833661 0.58883 0.772335
0.972488 0.475944 0.802457
0.964736 0 0.74699
0.863081 0 0.542245
0 0.675441 0.800687
0 0.685115 0.813107
0 0.690135 0.819715
0 0.696971 0.826474
0.28925 0.803769 0.811261
0.83714 0.822889 0.768902
0.98349 0.806989 0.733822
1 0.769497 0.676356
1 0.707851 0.563912
0 0.702602 0.71606
0 0.706844 0.732876
0 0.708247 0.740078
0 0.708995 0.746578
0 0.711513 0.764782
0.751446 0.899413 0.683925
0.979507 0.923323 0.645731
1 0.899428 0.412924
1 0.803616 0
0 0.558419 0.179858
0 0.558404 0.179843
0 0.556848 0.178851
0 0.554421 0.177584
0 0.553155 0.177005
0 0.56022 0.175341
0.987472 0.824475 0
1 0.831937 0
1 0.831128 0
0 0.574304 0.181415
0 0.572564 0.181979
0 0.566461 0.183764
0 0.562188 0.181949
0 0.559243 0.180392
0 0.560342 0.181094
0.358953 0.733257 0
1 0.83798 0
1 0.839582 0
0.0378424 0.0556497 0.509224
0.0334173 0.0631418 0.494987
0.0421149 0.0438849 0.474662
0.104372 0 0.466819
0.218845 0 0.480522
0.413153 0 0.502907
0.604486 0 0.541543
0.756848 0 0.567086
0.8309 0 0.575158
0.102831 0 0.547662
0.110948 0 0.54435
0.124468 0 0.53167
0.1785 0 0.523903
0.324926 0 0.536263
0.503761 0 0.5561
0.671366 0 0.595773
0.796765 0 0.621653
0.851514 0 0.635325
0.171649 0 0.603876
0.176944 0 0.599878
0.202167 0 0.596643
0.275242 0 0.591897
0.42359 0 0.598398
0.57734 0 0.610498
0.720058 0 0.634852
0.821683 0 0.658747
0.865797 0 0.675608
0.258076 0 0.681666
0.274815 0 0.704433
0.320073 0 0.745129
0.466606 0.000946059 0.800992
0.65005 0.0439002 0.823072
0.808713 0.00129702 0.847852
0.818402 0 0.735424
0.839139 0 0.688655
0.87628 0 0.70753
0.183093 0.395285 0.941283
0.227207 0.431983 0.951049
0.313832 0.458946 0.94873
0.470085 0.492348 0.937484
0.68455 0.535714 0.918959
0.832944 0.575555 0.900298
0.946334 0.523033 0.916976
0.988052 0.232288 0.939239
0.883925 0 0.73106
0 0.730541 0.909804
0 0.750851 0.925475
0 0.778714 0.945632
0.00852979 0.806378 0.981155
0.570626 0.817334 0.954177
0.832807 0.829862 0.924514
0.948928 0.832761 0.915053
0.9991 0.784634 0.926421
1 0.70106 0.923323
0 0.735378 0.885649
0 0.737591 0.889677
0 0.738582 0.891814
0 0.739132 0.893126
0 0.739406 0.893889
0.697017 0.943206 0.93933
0.947188 0.955978 0.923506
0.995209 0.956161 0.913603
0.999954 0.952071 0.900572
0 0.739437 0.853162
0 0.741955 0.861585
0 0.742763 0.864164
0 0.742031 0.86305
0 0.740856 0.861555
0 0.740749 0.864973
0.910552 0.975128 0.893706
0.992126 0.983627 0.901732
1 0.981933 0.868193
0 0.588342 0.179828
0 0.589319 0.179904
0 0.587167 0.179736
0 0.581033 0.179263
0 0.571603 0.182284
0 0.566598 0.183825
0.689342 0.867323 0.230488
0.999863 0.951202 0.620844
0.999969 0.979355 0.817868
0.218631 0 0.625849
0.204013 0 0.613519
0.186053 0 0.592065
0.208499 0 0.578912
0.30045 0 0.585229
0.448524 0 0.600961
0.603265 0 0.630884
0.748699 0 0.660945
0.834211 0 0.683452
0.299779 0 0.662928
0.299931 0 0.659144
0.294209 0 0.646845
0.31426 0 0.632029
0.405722 0 0.633982
0.537728 0 0.651652
0.674815 0 0.678599
0.792554 0 0.702983
0.855283 0 0.720928
0.396597 0 0.704585
0.394675 0 0.700954
0.395682 0 0.692668
0.416968 0 0.680247
0.489113 0 0.674922
0.603082 0 0.690272
0.726986 0 0.710765
0.822232 0 0.73109
0.870008 0 0.748257
0.482689 0 0.739101
0.480964 0 0.736767
0.47689 0 0.729793
0.501198 0 0.723018
0.565255 0 0.722515
0.673411 0 0.7402
0.766552 0 0.735821
0.841321 0 0.749355
0.881468 0 0.768383
0.568154 0 0.81326
0.64033 0 0.895445
0.702846 0.0767376 0.957275
0.722011 0.249958 0.974166
0.78024 0.365728 0.98175
0.863783 0.463325 0.979614
0.945769 0.444984 0.980346
0.986496 0.152789 0.980407
0.889464 0 0.783932
0.528298 0.73727 1
0.541665 0.758068 1
0.557092 0.769665 0.999954
0.606912 0.779461 0.999817
0.715343 0.793912 0.998215
0.855726 0.812894 0.988769
0.945418 0.827588 0.978363
0.988739 0.810742 0.981933
0.999985 0.744518 0.991669
0 0.742794 0.91603
0 0.742489 0.915572
0 0.748226 0.918944
0 0.823331 0.970291
0.347845 0.927153 0.999969
0.7953 0.953246 0.994873
0.944121 0.96022 0.983017
0.983551 0.964553 0.979477
0.996506 0.958984 0.982406
0 0.752865 0.915267
0 0.754513 0.917479
0 0.75552 0.918898
0 0.756176 0.919829
0 0.756771 0.920394
0 0.801419 0.948669
0.899748 0.989456 0.990219
0.979782 0.993652 0.981979
0.993835 0.99411 0.981109
0 0.77322 0.923049
0 0.774929 0.925689
0 0.775448 0.926543
0 0.775235 0.926436
0 0.774136 0.925216
0 0.772442 0.923476
0.692958 0.976883 0.978241
0.969406 0.996658 0.97557
0.991287 0.999069 0.980896
0.441596 0 0.722087
0.424659 0 0.713726
0.394461 0 0.696941
0.381933 0 0.680446
0.424826 0 0.678706
0.516136 0 0.690044
0.628305 0 0.708537
0.751141 0 0.729747
0.836194 0 0.744686
0.509255 0 0.745922
0.506401 0 0.743603
0.493019 0 0.735622
0.484749 0 0.724132
0.517617 0 0.719432
0.596521 0 0.727413
0.698543 0 0.742672
0.800076 0 0.756542
0.8607 0 0.771923
0.57026 0 0.764294
0.567727 0 0.76257
0.563165 0 0.758587
0.562722 0 0.752575
0.586114 0 0.746777
0.654398 0 0.751705
0.749386 0 0.764843
0.829297 0 0.773831
0.877424 0 0.788342
0.622385 0 0.78407
0.620035 0 0.7823
0.614298 0 0.777981
0.619776 0 0.774563
0.644312 0 0.771466
0.705959 0 0.771923
0.789181 0 0.779507
0.850752 0 0.787915
0.888502 0 0.801236
0.659815 0 0.801755
0.65977 0 0.801282
0.655375 0 0.797314
0.66006 0 0.79263
0.694667 0 0.791897
0.87776 0 0.946242
0.965118 0.00880446 0.991852
0.874556 0 0.810376
0.897322 0 0.813642
0.762844 0.614252 1
0.752163 0.664286 1
0.747799 0.693355 1
0.756939 0.718349 1
0.804227 0.743572 1
0.88603 0.765164 1
0.950179 0.79382 0.999405
0.985962 0.796292 0.999313
0.999603 0.754788 0.999817
0.525856 0.913207 1
0.507637 0.920012 1
0.511421 0.924575 1
0.565972 0.930404 1
0.690547 0.940795 1
0.859342 0.951293 0.999573
0.949508 0.959075 0.997909
0.981689 0.964324 0.995407
0.992599 0.966354 0.995697
0 0.75552 0.924651
0 0.757107 0.925505
0 0.758022 0.925978
0 0.758587 0.926253
0 0.758923 0.926406
0.576272 0.96936 1
0.923339 0.991211 0.999481
0.979309 0.994888 0.995758
0.989242 0.997436 0.99472
0 0.777981 0.937774
0 0.779858 0.939284
0 0.780835 0.940063
0 0.781491 0.940566
0 0.781872 0.940887
0 0.782071 0.941039
0.819425 0.991073 1
0.97081 0.999405 0.99826
0.988037 0.999969 0.997131
