LUT预设1/柯达5219&2393/柯达5219&2393尼康专用/R3D/柯达2393冷调-R3D.cube
TITLE "Generated by Resolve"
LUT_3D_SIZE 5
0.00471504 0.0482948 0.0409552
0.0677501 0.0491035 0.0270237
0.498131 0.0449989 0
0.726482 0.0722057 0
0.787488 0.0892805 0
9.15541e-05 0.0759442 0.0459907
0.0276341 0.0827039 0.0276951
0.601221 0.0932021 0
0.740902 0.0741894 0
0.789487 0.0907301 0
0 0.39498 0.161501
0 0.422873 0.171923
0.541527 0.600809 0
0.956756 0.529503 0
0.789868 0.0910048 0
0 0.581399 0.283055
0 0.58436 0.28893
0 0.585138 0.290623
0.91809 0.824643 0
1 0.816526 0
0 0.659113 0.407965
0 0.663203 0.413687
0 0.664424 0.415457
0.702861 0.816068 0
0.997543 0.84242 0
0.000823987 0.0538796 0.104341
0.0564736 0.0503243 0.0826123
0.511055 0.0055848 0
0.72726 0.0723125 0
0.787686 0.0893721 0
0 0.0812238 0.0924544
0.0400397 0.0873274 0.0871748
0.620127 0.0429847 0
0.742611 0.074403 0
0.789685 0.0908827 0
0 0.404807 0.170932
0 0.431449 0.178653
0.563363 0.61239 0
0.959991 0.539437 0
0.790097 0.0911879 0
0 0.582391 0.284977
0 0.58529 0.290974
0 0.586114 0.29279
0.922545 0.825895 0
1 0.818784 0
0 0.660945 0.410452
0 0.664256 0.415229
0 0.665431 0.416938
0.781476 0.829984 0
0.998001 0.842466 0
0.00265507 0.191302 0.519509
0.0920119 0.0107576 0.515419
0.517754 0 0.508659
0.799329 0 0.397131
0.787594 0.0893263 0
0 0.258274 0.564263
0.0889601 0.0548257 0.596109
0.622141 0 0.604852
0.824811 0 0.474022
0.789731 0.0909133 0
0 0.578637 0.700435
0 0.61735 0.738231
0.645197 0.654917 0.655802
0.995773 0.541192 0.497322
0.790188 0.0912642 0
0 0.582589 0.285359
0 0.585504 0.291432
0 0.586374 0.293339
0.92459 0.826169 0
1 0.819501 0
0 0.661433 0.411139
0 0.664576 0.415702
0 0.665812 0.417472
0.809018 0.834226 0
0.99823 0.842481 0
0.461463 0 0.773602
0.473274 0 0.770291
0.60119 0 0.775753
0.840223 0 0.786847
0.911589 0 0.777829
0.466743 0 0.776974
0.511208 0 0.785885
0.650462 0 0.799054
0.868238 0 0.812848
0.921111 0 0.815641
0.396689 0.496895 0.986145
0.498344 0.541161 0.99237
0.743008 0.538521 0.992004
0.972442 0.282307 0.98616
0.923445 0 0.823697
0 0.754345 0.909773
0 0.757412 0.914015
0 0.758328 0.915328
0.935729 0.965499 0.958404
0.998154 0.963027 0.943023
0 0.661112 0.410681
0 0.774029 0.794415
0 0.783001 0.844236
0.638453 0.945617 0.792905
0.998764 0.842512 0
0.761166 0 0.879408
0.763455 0 0.879545
0.786801 0 0.881422
0.890669 0 0.891936
0.950164 0 0.90898
0.765896 0 0.880018
0.773602 0 0.88072
0.806195 0 0.88365
0.908797 0 0.895186
0.954498 0 0.913039
0.757412 0 0.879194
0.76704 0 0.880125
0.804669 0 0.883528
0.912535 0 0.89575
0.95555 0 0.914015
0.585672 0.927825 1
0.576181 0.936996 1
0.706401 0.948974 1
0.943358 0.960037 0.999908
0.992935 0.95555 0.999649
0 0.795102 0.949432
0 0.797284 0.950957
0 0.798077 0.951522
0.820157 0.991653 1
0.983978 0.999954 0.999481
