LUT预设1/柯达5219&2393/柯达5219&2393尼康专用/R3D/柯达2393冷调-R3D.cube
TITLE "Generated by Resolve"
LUT_3D_SIZE 33
0.00471504 0.0482948 0.0409552
0.00665293 0.0483558 0.0405432
0.00852979 0.0484474 0.0402686
0.0109255 0.0485237 0.0398566
0.014435 0.0485389 0.0391546
0.0205234 0.0485389 0.038056
0.0302739 0.0484932 0.0363012
0.0453498 0.0485847 0.0331579
0.0677501 0.0491035 0.0270237
0.0969558 0.0499733 0.0170901
0.133272 0.0500343 0.00698863
0.182879 0.0483253 0.00183108
0.244678 0.0454414 0.000335698
0.31342 0.0424201 3.0518e-05
0.381567 0.0411536 0
0.444068 0.0426032 0
0.498131 0.0449989 0
0.544457 0.0487526 0
0.583368 0.0559243 0
0.615244 0.0647288 0
0.643824 0.0688182 0
0.668544 0.0690013 0
0.689448 0.0682841 0
0.708675 0.0691691 0
0.726482 0.0722057 0
0.741161 0.0742199 0
0.753094 0.0761578 0
0.762692 0.0786603 0
0.770352 0.0814679 0
0.776349 0.0841077 0
0.780957 0.0863355 0
0.784588 0.0879835 0
0.787488 0.0892805 0
0.0040589 0.0495918 0.0410925
0.00564584 0.0496376 0.0406806
0.00743114 0.0497139 0.0403449
0.00967422 0.0497597 0.0398718
0.0128939 0.0497444 0.0391241
0.018143 0.0496376 0.0380102
0.0271153 0.0494545 0.0362554
0.0407874 0.0494087 0.0334783
0.0622263 0.0497749 0.0280308
0.0926833 0.0508125 0.0180056
0.13048 0.0511635 0.0074464
0.18056 0.0496986 0.00181582
0.244236 0.0470588 0.000320439
0.315022 0.0442664 3.0518e-05
0.384985 0.0433204 0
0.4486 0.0450294 0
0.503334 0.0475166 0
0.549157 0.0511635 0
0.587869 0.0581216 0
0.619272 0.0665293 0
0.647334 0.0706035 0
0.671366 0.0702678 0
0.691752 0.0690318 0
0.710506 0.0695659 0
0.728054 0.0724346 0
0.74255 0.074403 0
0.754223 0.0763867 0
0.763622 0.0789654 0
0.771084 0.0817884 0
0.776928 0.0843977 0
0.781491 0.0865949 0
0.784985 0.0881666 0
0.787808 0.0894331 0
0.00364691 0.0507515 0.0413672
0.005066 0.0507515 0.0408789
0.00668345 0.0507515 0.0404822
0.0087129 0.0507057 0.0399176
0.01178 0.0507057 0.0391394
0.0166781 0.05066 0.038056
0.026154 0.0505989 0.036286
0.0408026 0.0506294 0.033341
0.0641184 0.0510567 0.0274205
0.0964828 0.0521401 0.0167697
0.136217 0.05243 0.00613413
0.190433 0.0506447 0.00154116
0.256947 0.0481117 0.000259403
0.329564 0.0456855 3.0518e-05
0.399832 0.0452583 0
0.463004 0.047425 0
0.516686 0.0501564 0
0.560586 0.0539864 0
0.596872 0.0614176 0
0.62768 0.0690623 0
0.654414 0.0721599 0
0.677195 0.0712902 0
0.696727 0.0695964 0
0.714809 0.0702831 0
0.731731 0.0729992 0
0.745602 0.0747692 0
0.756695 0.0768902 0
0.765621 0.0796368 0
0.772595 0.0824445 0
0.778058 0.084947 0
0.782452 0.0870375 0
0.785733 0.0885023 0
0.788266 0.0897841 0
0.00309758 0.0518196 0.0413672
0.0040589 0.0518502 0.0408789
0.00564584 0.0519265 0.040528
0.00769055 0.0520027 0.0400244
0.0106355 0.0520638 0.0392767
0.0153964 0.0521248 0.0381628
0.0253147 0.0520943 0.0363317
0.0410315 0.0521401 0.0331426
0.066453 0.0525826 0.0267033
0.100618 0.0537575 0.0155337
0.143832 0.0538643 0.00543221
0.201022 0.0521096 0.00128176
0.269841 0.0495918 0.000198367
0.343786 0.0473793 1.5259e-05
0.414664 0.0475319 0
0.476844 0.0501106 0
0.528557 0.0530404 0
0.571176 0.0571145 0
0.605615 0.0647135 0
0.63566 0.0716106 0
0.661173 0.0737469 0
0.682536 0.072343 0
0.701213 0.0701762 0
0.7187 0.0710307 0
0.734859 0.0734417 0
0.748135 0.0751507 0
0.758785 0.0773632 0
0.767361 0.0802167 0
0.773907 0.0830091 0
0.779065 0.08542 0
0.7832 0.0873732 0
0.786343 0.088777 0
0.788632 0.0900587 0
0.00238041 0.0534676 0.0414282
0.00296025 0.0535592 0.041001
0.00427253 0.0537575 0.0406653
0.00610361 0.0539101 0.0401923
0.00883497 0.0540322 0.0393988
0.0130007 0.0541695 0.0382696
0.0229191 0.0541543 0.0363928
0.0390784 0.0542 0.0331121
0.0662394 0.0545815 0.0264439
0.10219 0.0558175 0.0149386
0.147723 0.0560311 0.00497444
0.207095 0.0544594 0.00111391
0.278233 0.0522774 0.00015259
0.354009 0.0504616 1.5259e-05
0.425605 0.0509194 0
0.486992 0.0537118 0
0.53814 0.0566567 0
0.579904 0.0606699 0
0.61297 0.0679637 0
0.642023 0.0742504 0
0.66656 0.0757153 0
0.686793 0.0736095 0
0.704402 0.0708782 0
0.720989 0.0713664 0
0.736812 0.0736858 0
0.749737 0.0754711 0
0.760113 0.0778058 0
0.768475 0.0806439 0
0.774838 0.0834211 0
0.779782 0.085771 0
0.783749 0.0876173 0
0.786801 0.0889754 0
0.788891 0.0902724 0
0.00154116 0.0558785 0.0417182
0.00195315 0.0560769 0.0412451
0.00267033 0.0563668 0.0409552
0.00422675 0.0566262 0.0404669
0.00657664 0.0568551 0.0396582
0.00993362 0.0570535 0.0384375
0.0193027 0.057084 0.0364691
0.0353704 0.057084 0.0331731
0.0643473 0.0573129 0.0264286
0.102708 0.0585641 0.0145876
0.150256 0.0591135 0.00457771
0.211887 0.0578622 0.000976577
0.285649 0.0561837 0.000122072
0.363897 0.0549172 0
0.436347 0.0558175 0
0.497658 0.0585794 0
0.54786 0.0614939 0
0.589029 0.065156 0
0.621271 0.0717479 0
0.648356 0.0776532 0
0.671962 0.0784772 0
0.690501 0.075639 0
0.706966 0.0719921 0
0.722622 0.0716106 0
0.738216 0.0738537 0
0.750896 0.0757153 0
0.761074 0.0781262 0
0.769192 0.0809644 0
0.77554 0.0837262 0
0.780316 0.0860304 0
0.784146 0.0878004 0
0.787152 0.089128 0
0.789105 0.090425 0
0.000976577 0.0599222 0.0425269
0.0012665 0.0601511 0.0420233
0.00146487 0.0606394 0.0417487
0.00256352 0.0609903 0.0412146
0.00445563 0.0612802 0.0402686
0.0071107 0.0616007 0.0389105
0.0143282 0.061799 0.0368353
0.0282139 0.0619821 0.0335851
0.0573892 0.0621958 0.0268101
0.101213 0.0632944 0.0144656
0.151934 0.0642252 0.00422675
0.216999 0.063447 0.000823987
0.293721 0.0621958 9.15541e-05
0.374228 0.0613413 0
0.448371 0.0624399 0
0.51043 0.0652628 0
0.560494 0.0682383 0
0.600107 0.0712596 0
0.631373 0.0767224 0
0.656428 0.0822309 0
0.678035 0.082536 0
0.694621 0.0786908 0
0.709636 0.0737011 0
0.724025 0.0719768 0
0.7393 0.073991 0
0.751812 0.0758984 0
0.761807 0.0783703 0
0.769802 0.0812238 0
0.776013 0.0839551 0
0.780728 0.0862287 0
0.784451 0.0879377 0
0.787427 0.08925 0
0.789258 0.090547 0
0.000442512 0.0659037 0.0438239
0.000595102 0.0662852 0.0432288
0.000701915 0.0670481 0.0429541
0.000976577 0.0676738 0.0424048
0.00239567 0.0680552 0.0412604
0.00442512 0.0684215 0.0395666
0.0090486 0.0688182 0.0372473
0.018967 0.0692607 0.0339818
0.0451514 0.0697642 0.0275273
0.095201 0.0707103 0.0145571
0.152438 0.0720836 0.00375372
0.223285 0.0720226 0.000671397
0.304387 0.0716716 6.10361e-05
0.388556 0.07187 0
0.464805 0.0729686 0
0.527413 0.0752117 0
0.577127 0.0777752 0
0.615839 0.0806744 0
0.644999 0.0839704 0
0.668223 0.0887007 0
0.685634 0.0884871 0
0.700526 0.0833143 0
0.713146 0.076585 0
0.725612 0.0727703 0
0.740185 0.0740978 0
0.752544 0.0760357 0
0.762402 0.0785687 0
0.77026 0.0814221 0
0.776364 0.084123 0
0.781064 0.0863813 0
0.78471 0.0880446 0
0.78764 0.0893568 0
0.78938 0.0906386 0
9.15541e-05 0.0759442 0.0459907
0.000137331 0.0765545 0.0453193
0.000167849 0.0777905 0.0449836
0.000183108 0.0788891 0.0444495
0.000793469 0.0795605 0.0431067
0.00233463 0.0799573 0.0408026
0.00488289 0.0803693 0.0374914
0.0116884 0.081117 0.0335088
0.0276341 0.0827039 0.0276951
0.0747997 0.0846876 0.0144656
0.142977 0.0863966 0.00273136
0.228443 0.0874342 0.000381476
0.318441 0.0881819 3.0518e-05
0.407477 0.0893111 0
0.486976 0.090486 0
0.551232 0.0915999 0
0.601221 0.0932021 0
0.6383 0.0952468 0
0.665385 0.0955367 0
0.685695 0.0982986 0
0.698436 0.0976272 0
0.709163 0.0904402 0
0.717998 0.0813611 0
0.72784 0.0745556 0
0.740902 0.0741894 0
0.75314 0.076173 0
0.762921 0.0787366 0
0.770657 0.0816052 0
0.776684 0.0842756 0
0.781338 0.0865187 0
0.784909 0.0881361 0
0.787808 0.0894331 0
0.789487 0.0907301 0
0 0.0933547 0.0500496
0 0.0944076 0.0491646
0 0.0963607 0.0487373
0 0.0980392 0.0479286
0 0.0992142 0.0463417
0.000366217 0.100038 0.0431678
0.0010071 0.100557 0.0382849
0.00505074 0.101198 0.0315709
0.0155947 0.103151 0.0233921
0.0420996 0.108049 0.0126802
0.102449 0.112337 0.00230411
0.201404 0.115282 0.000137331
0.318013 0.117876 1.5259e-05
0.425376 0.120272 0
0.515084 0.121645 0
0.583169 0.122499 0
0.633692 0.121798 0
0.669749 0.119753 0
0.694835 0.116396 0
0.71252 0.113756 0
0.719554 0.11165 0
0.723674 0.102129 0
0.727047 0.0896315 0
0.731914 0.0785534 0
0.741512 0.0743114 0
0.753613 0.0762646 0
0.763333 0.0788739 0
0.770993 0.0817426 0
0.776928 0.0843977 0
0.781567 0.0866255 0
0.785092 0.0882124 0
0.787915 0.0895094 0
0.789578 0.0907912 0
0 0.117281 0.0538491
0 0.118685 0.0529183
0 0.121096 0.0522469
0 0.123217 0.0513619
0 0.124712 0.0496681
0 0.125963 0.0470588
1.5259e-05 0.126421 0.0411841
0.000534066 0.126848 0.0324712
0.00451667 0.128283 0.0197757
0.0211643 0.134524 0.00819409
0.0598764 0.144045 0.00192264
0.138964 0.151583 7.62951e-05
0.26566 0.157794 0
0.4047 0.163043 0
0.523323 0.168063 0
0.607752 0.171206 0
0.668101 0.171145 0
0.707912 0.167697 0
0.73431 0.157321 0
0.749722 0.144594 0
0.754849 0.133867 0
0.750011 0.121782 0
0.743679 0.103853 0
0.739818 0.0869459 0
0.743542 0.0763409 0
0.754009 0.0763409 0
0.763653 0.0789807 0
0.771237 0.0818494 0
0.777142 0.0845045 0
0.781781 0.0867323 0
0.785245 0.0882887 0
0.788006 0.0895857 0
0.789639 0.090837 0
0 0.149172 0.0600443
0 0.151324 0.0598764
0 0.154879 0.0602579
0 0.158328 0.0601358
0 0.160754 0.0587625
0 0.162722 0.0562295
0 0.164584 0.0517281
0 0.165164 0.0416876
0.000244144 0.165408 0.0248875
0.0074464 0.169329 0.00665293
0.0331884 0.18146 0.000656138
0.089601 0.193866 4.57771e-05
0.194278 0.205966 0
0.332158 0.217075 0
0.481621 0.225528 0
0.600092 0.230335 0
0.6795 0.23154 0
0.731701 0.228428 0
0.766964 0.221118 0
0.789288 0.209216 0
0.800381 0.184985 0
0.79585 0.155169 0
0.776776 0.129488 0
0.759274 0.104372 0
0.750423 0.0843214 0
0.754345 0.0764477 0
0.763912 0.0790723 0
0.77145 0.0819409 0
0.777325 0.0845808 0
0.781933 0.0868086 0
0.785351 0.0883345 0
0.788067 0.0896315 0
0.7897 0.090898 0
0 0.188281 0.0704814
0 0.191409 0.0708324
0 0.196399 0.071931
0 0.200885 0.0727398
0 0.204486 0.0728161
0 0.207355 0.0711833
0 0.210117 0.0676738
0 0.21239 0.0601816
0 0.212802 0.0430304
0.000869764 0.213062 0.0150912
0.0163729 0.223163 0.000640879
0.0554513 0.240574 0
0.136095 0.257939 0
0.260914 0.275929 0
0.404837 0.291691 0
0.549401 0.302022 0
0.662043 0.305577 0
0.735531 0.303868 0
0.783352 0.296895 0
0.816358 0.284199 0
0.836225 0.264149 0
0.844266 0.233677 0
0.83743 0.186206 0
0.802777 0.138933 0
0.772076 0.105837 0
0.759579 0.0830549 0
0.764096 0.0791333 0
0.771634 0.0820172 0
0.777447 0.0846418 0
0.782055 0.0868696 0
0.785458 0.0883803 0
0.788128 0.0896773 0
0.789761 0.0909438 0
0 0.23566 0.0870985
0 0.239246 0.0878004
0 0.244831 0.0894942
0 0.249622 0.0907454
0 0.253574 0.0911879
0 0.257237 0.0909438
0 0.261295 0.0899062
0 0.264897 0.0849317
0 0.268086 0.0733806
0 0.268559 0.04477
0.00260929 0.271351 0.00614939
0.0342718 0.290028 0
0.0972915 0.313481 0
0.206302 0.336767 0
0.342824 0.359472 0
0.486259 0.378195 0
0.616709 0.388891 0
0.715236 0.389685 0
0.7823 0.381338 0
0.828626 0.369574 0
0.858961 0.351385 0
0.876631 0.325551 0
0.882689 0.287816 0
0.873014 0.23415 0
0.833524 0.157458 0
0.784939 0.110323 0
0.767742 0.0836347 0
0.77174 0.0820783 0
0.777569 0.0847028 0
0.782162 0.0869154 0
0.785534 0.0884108 0
0.788174 0.0897231 0
0.789807 0.090959 0
0 0.287098 0.107851
0 0.29099 0.109178
0 0.296757 0.111528
0 0.3019 0.113451
0 0.306127 0.114733
0 0.309957 0.115297
0 0.314092 0.114824
0 0.318944 0.113512
0 0.324315 0.107836
0 0.329366 0.0912184
0 0.330114 0.0436561
0.0141299 0.340703 0.000167849
0.0768597 0.368704 0
0.170428 0.397238 0
0.302373 0.425498 0
0.442237 0.450996 0
0.575326 0.46952 0
0.686427 0.477211 0
0.769482 0.474067 0
0.82855 0.462043 0
0.869734 0.444389 0
0.895369 0.422187 0
0.909468 0.392935 0
0.913252 0.353384 0
0.905394 0.292317 0
0.873854 0.202106 0
0.802609 0.120439 0
0.775647 0.0865187 0
0.77763 0.0847334 0
0.782223 0.0869459 0
0.785595 0.0884413 0
0.78822 0.0897383 0
0.789837 0.0909895 0
0 0.340993 0.133227
0 0.344778 0.134768
0 0.350561 0.137469
0 0.355413 0.139635
0 0.359304 0.141146
0 0.362768 0.142123
0 0.366598 0.142855
0 0.371023 0.14316
0 0.376684 0.141543
0 0.384604 0.136355
0 0.39266 0.114916
0.000808728 0.395163 0.0292515
0.0560464 0.419913 0
0.163272 0.454612 0
0.283787 0.487083 0
0.421408 0.517464 0
0.55288 0.542184 0
0.664988 0.556176 0
0.753689 0.559091 0
0.820356 0.552163 0
0.870756 0.537926 0
0.905959 0.518456 0
0.926528 0.493828 0
0.936004 0.463981 0
0.937835 0.425361 0
0.931991 0.368231 0
0.909545 0.276524 0
0.838209 0.147509 0
0.786328 0.0936751 0
0.782254 0.0869612 0
0.785641 0.0884565 0
0.788251 0.0897688 0
0.789853 0.0910048 0
0 0.39498 0.161501
0 0.398352 0.16321
0 0.403586 0.165866
0 0.408087 0.168139
0 0.4112 0.169635
0 0.41387 0.170779
0 0.41622 0.17145
0 0.418952 0.171847
0 0.422873 0.171923
0 0.428809 0.170886
0 0.438682 0.165881
0 0.45182 0.13724
0.0106813 0.462409 0.00560006
0.15581 0.502693 0
0.292241 0.540322 0
0.414832 0.572946 0
0.541527 0.600809 0
0.652461 0.620356 0
0.740642 0.627909 0
0.808835 0.626001 0
0.862562 0.616846 0
0.904906 0.601221 0
0.934615 0.581048 0
0.950881 0.557382 0
0.956756 0.529503 0
0.956802 0.495949 0
0.953933 0.448295 0
0.941238 0.373831 0
0.905135 0.245655 0
0.815259 0.119722 0
0.786114 0.0888838 0
0.788266 0.0897841 0
0.789868 0.0910048 0
0 0.444327 0.186648
0 0.447227 0.188113
0 0.451743 0.190402
0 0.45539 0.192187
0 0.457557 0.193179
0 0.459205 0.193942
0 0.460594 0.194583
0 0.461738 0.195117
0 0.462852 0.195453
0 0.465095 0.195315
0 0.470253 0.194293
0 0.481346 0.188602
0 0.499306 0.143679
0.0679942 0.530404 4.57771e-05
0.297871 0.581064 0
0.422477 0.615381 0
0.534844 0.643168 0
0.641779 0.663981 0
0.728878 0.674937 0
0.797299 0.677745 0
0.850309 0.674403 0
0.894881 0.665003 0
0.930632 0.649943 0
0.955962 0.63183 0
0.970657 0.611368 0
0.975311 0.587884 0
0.974166 0.559731 0
0.971725 0.524269 0
0.967147 0.474876 0
0.952148 0.395209 0
0.914519 0.260288 0
0.826612 0.127428 0
0.792294 0.0929885 0
0 0.483284 0.205051
0 0.485695 0.206165
0 0.488853 0.207752
0 0.491569 0.209155
0 0.493523 0.210163
0 0.495048 0.210941
0 0.496239 0.211566
0 0.497337 0.212131
0 0.498085 0.212512
0 0.498741 0.212848
0 0.49929 0.213138
0 0.502327 0.212192
0 0.513268 0.205295
0 0.537057 0.131914
0.204929 0.598642 0
0.426917 0.646616 0
0.530892 0.674418 0
0.626963 0.695842 0
0.714153 0.70988 0
0.78291 0.715389 0
0.836774 0.71574 0
0.881682 0.71162 0
0.919585 0.702907 0
0.950362 0.689555 0
0.972045 0.673823 0
0.984863 0.657038 0
0.990707 0.639094 0
0.990982 0.61738 0
0.989563 0.592065 0
0.986267 0.561059 0
0.981277 0.522393 0
0.970779 0.467216 0
0.953628 0.389288 0
0 0.515145 0.221408
0 0.516762 0.222416
0 0.519249 0.223972
0 0.521385 0.225299
0 0.522911 0.226261
0 0.524117 0.227008
0 0.525139 0.227634
0 0.525994 0.228168
0 0.526757 0.228656
0 0.527276 0.228977
0 0.527779 0.229297
0 0.52813 0.229511
0 0.528618 0.229511
0 0.537774 0.222568
0.000503548 0.569604 0.0976425
0.349126 0.653986 0
0.527657 0.694957 0
0.612558 0.716258 0
0.693889 0.732158 0
0.764584 0.741314 0
0.820645 0.74461 0
0.864652 0.74345 0
0.904067 0.739528 0
0.938186 0.732967 0
0.965835 0.723384 0
0.984329 0.711147 0
0.993957 0.697536 0
0.997909 0.682918 0
0.999161 0.667308 0
0.999435 0.650523 0
0.998978 0.632578 0
0.99733 0.611597 0
0.99556 0.589685 0
0 0.538949 0.236637
0 0.54023 0.237613
0 0.542123 0.239048
0 0.54374 0.240284
0 0.544961 0.241215
0 0.545937 0.241947
0 0.546715 0.242542
0 0.547372 0.24303
0 0.547951 0.243473
0 0.548409 0.243824
0 0.548791 0.244114
0 0.549111 0.244358
0 0.549371 0.244556
0 0.549569 0.244709
0 0.555032 0.239826
0.00642405 0.600931 0.0347295
0.462882 0.698558 0
0.602625 0.731197 0
0.675669 0.748333 0
0.744259 0.760342 0
0.803723 0.767086 0
0.850004 0.769207 0
0.889021 0.767803 0
0.924178 0.764446 0
0.953964 0.759289 0
0.976776 0.752041 0
0.991562 0.743511 0
0.998093 0.734035 0
0.999863 0.723903 0
1 0.713115 0
1 0.702037 0
1 0.690364 0
1 0.679698 0
0 0.556054 0.250202
0 0.556939 0.251026
0 0.558206 0.252216
0 0.559319 0.253254
0 0.560159 0.254032
0 0.560815 0.254643
0 0.561395 0.255177
0 0.561868 0.255634
0 0.562264 0.256001
0 0.562615 0.256336
0 0.56289 0.25658
0 0.563149 0.256825
0 0.563333 0.256992
0 0.563455 0.257115
0 0.563546 0.257191
0 0.566186 0.25417
0.0442664 0.633707 0.00195315
0.553368 0.734569 0
0.662959 0.759655 0
0.727184 0.773465 0
0.786557 0.782727 0
0.837293 0.78819 0
0.877485 0.78938 0
0.913024 0.788205 0
0.943252 0.785702 0
0.968261 0.781979 0
0.986114 0.77705 0
0.996155 0.771267 0
0.999786 0.765316 0
0.999985 0.758892 0
1 0.75198 0
1 0.745434 0
1 0.739528 0
0 0.567193 0.261418
0 0.567803 0.262135
0 0.568689 0.263188
0 0.569451 0.264088
0 0.570016 0.264775
0 0.570474 0.265324
0 0.570871 0.265797
0 0.571206 0.266194
0 0.571511 0.266545
0 0.571756 0.266835
0 0.571939 0.267109
0 0.572061 0.267308
0 0.572198 0.267506
0 0.57229 0.267659
0 0.572366 0.267765
0 0.572412 0.267857
0 0.573434 0.266423
0.188113 0.673671 0
0.627802 0.762341 0
0.715694 0.782712 0
0.771725 0.793439 0
0.825376 0.801785 0
0.867536 0.805219 0
0.904158 0.805982 0
0.934493 0.804715 0
0.959899 0.802106 0
0.979644 0.798917 0
0.992645 0.795316 0
0.998993 0.791348 0
0.999908 0.787472 0
1 0.784146 0
1 0.780972 0
1 0.777707 0
0 0.575021 0.271931
0 0.575525 0.272709
0 0.576242 0.273838
0 0.576867 0.274815
0 0.577325 0.275532
0 0.577722 0.276158
0 0.578042 0.276661
0 0.578317 0.277104
0 0.578531 0.277516
0 0.578698 0.277852
0 0.578851 0.278157
0 0.578988 0.278401
0 0.579095 0.278614
0 0.579202 0.278828
0 0.579263 0.27895
0 0.579339 0.279072
0 0.579355 0.279118
0 0.579583 0.278767
0.37377 0.717266 0
0.691386 0.785809 0
0.76173 0.800076 0
0.812924 0.809079 0
0.856825 0.814374 0
0.894408 0.816739 0
0.92665 0.81709 0
0.952087 0.815534 0
0.972778 0.813382 0
0.988144 0.811246 0
0.997101 0.809064 0
0.999573 0.806836 0
1 0.805005 0
1 0.803326 0
1 0.802014 0
0 0.581399 0.283055
0 0.581811 0.283848
0 0.582406 0.285023
0 0.582956 0.286076
0 0.583368 0.28687
0 0.583688 0.287495
0 0.583947 0.288045
0 0.584161 0.288518
0 0.58436 0.28893
0 0.584512 0.289281
0 0.584649 0.28957
0 0.584787 0.28986
0 0.584878 0.290074
0 0.58497 0.290288
0 0.585031 0.290425
0 0.585092 0.290547
0 0.585138 0.290623
0 0.585168 0.290715
0 0.585214 0.290623
0.528664 0.75697 0
0.74493 0.803006 0
0.802396 0.813794 0
0.845869 0.820111 0
0.883925 0.823407 0
0.91809 0.824643 0
0.944732 0.823896 0
0.966064 0.822309 0
0.982559 0.821027 0
0.993591 0.819959 0
0.998688 0.818906 0
1 0.81796 0
1 0.81709 0
1 0.816526 0
0 0.58677 0.294224
0 0.587121 0.294987
0 0.587655 0.296178
0 0.588129 0.2972
0 0.588479 0.297963
0 0.588754 0.298558
0 0.589044 0.299199
0 0.589303 0.299748
0 0.589532 0.300237
0 0.589731 0.300633
0 0.589883 0.300984
0 0.590051 0.30132
0 0.590158 0.301564
0 0.59028 0.301808
0 0.590372 0.302007
0 0.590448 0.302159
0 0.590509 0.302312
0 0.590555 0.302403
0 0.590585 0.302449
0 0.590845 0.301671
0.649287 0.789075 0
0.790112 0.816358 0
0.835843 0.824125 0
0.873442 0.828244 0
0.908598 0.829953 0
0.936996 0.829786 0
0.959472 0.828336 0
0.977386 0.827207 0
0.989776 0.826719 0
0.996948 0.826627 0
0.999695 0.826444 0
0.999939 0.826185 0
0.999985 0.825803 0
0 0.592233 0.305959
0 0.592645 0.306844
0 0.593256 0.308125
0 0.59379 0.309255
0 0.594186 0.310094
0 0.594537 0.310842
0 0.594888 0.311513
0 0.595239 0.312169
0 0.595605 0.31281
0 0.59588 0.313329
0 0.596139 0.313771
0 0.596353 0.314168
0 0.596567 0.314549
0 0.596735 0.31487
0 0.596887 0.315129
0 0.596994 0.315328
0 0.597101 0.315526
0 0.597162 0.315648
0 0.597208 0.315709
0 0.597238 0.315785
0 0.60145 0.302831
0.737118 0.810849 0
0.827176 0.826612 0
0.865324 0.831617 0
0.899504 0.833738 0
0.929381 0.833921 0
0.952697 0.83267 0
0.971893 0.83151 0
0.985718 0.831144 0
0.994339 0.831205 0
0.998672 0.831388 0
0.999649 0.83154 0
0.999969 0.831434 0
0 0.599405 0.319722
0 0.600015 0.320821
0 0.60087 0.322362
0 0.601648 0.323781
0 0.602213 0.324819
0 0.602686 0.325658
0 0.603113 0.326436
0 0.603464 0.327077
0 0.603754 0.327596
