LUT预设1/柯达5219&2393/柯达5219&2393尼康专用/R3D/柯达2393-R3D.cube
TITLE "Generated by Resolve"
LUT_3D_SIZE 33
0.0059205 0.0257877 0.0216831
0.00695811 0.0258946 0.0217594
0.00781262 0.0260777 0.0218509
0.00892653 0.0262303 0.0219272
0.0105745 0.0263828 0.021912
0.0131228 0.026627 0.0217136
0.0169833 0.0270237 0.021149
0.0229953 0.027512 0.0200504
0.0331731 0.0281529 0.0176699
0.0497597 0.0291905 0.0123293
0.0706188 0.031342 0.00489815
0.096437 0.0335546 0.000595102
0.131304 0.0343938 0
0.178958 0.033402 0
0.239872 0.031342 0
0.307332 0.0293584 0
0.373266 0.0292668 0
0.432273 0.0317235 0
0.482643 0.0342107 0
0.525841 0.0349126 0
0.562554 0.0389105 0
0.599313 0.0478523 0
0.633173 0.0519417 0
0.662135 0.0503853 0
0.685786 0.0534829 0
0.702388 0.0619974 0
0.715343 0.069688 0
0.723812 0.0730297 0
0.73196 0.0762646 0
0.73959 0.0792859 0
0.74641 0.0820325 0
0.752194 0.0844434 0
0.756298 0.0864576 0
0.00517281 0.0267491 0.0218204
0.00596628 0.0268559 0.0218051
0.00679026 0.0269932 0.0218051
0.0078584 0.0271153 0.0218204
0.00944533 0.0272526 0.0218051
0.0117952 0.0273747 0.0216678
0.0154879 0.0276036 0.0211185
0.0209354 0.0280003 0.0202182
0.0300603 0.0285649 0.018204
0.0468299 0.0296178 0.0129854
0.0686961 0.031693 0.0053254
0.0953078 0.0340734 0.000701915
0.130663 0.03505 0
0.179797 0.0340429 0
0.242329 0.0319982 0
0.310933 0.0301366 0
0.377997 0.0301823 0
0.4374 0.033051 0
0.487541 0.0360266 0
0.530846 0.036347 0
0.567163 0.0404059 0
0.603189 0.0489509 0
0.636622 0.052018 0
0.665034 0.0507057 0
0.687922 0.054551 0
0.704143 0.0630655 0
0.716533 0.070161 0
0.725002 0.0735027 0
0.73312 0.0767224 0
0.740688 0.0797284 0
0.747387 0.0824292 0
0.75288 0.0847791 0
0.756893 0.0867475 0
0.00460822 0.0275731 0.0219883
0.00555428 0.0276493 0.0219577
0.00607309 0.0277562 0.0218662
0.00708019 0.0278019 0.0217594
0.00859083 0.0279088 0.0217136
0.0108034 0.0280766 0.0216068
0.0146944 0.0283818 0.021088
0.0205539 0.0288243 0.0201724
0.0305943 0.0294957 0.0179904
0.0485695 0.0305943 0.0123598
0.0713817 0.0327306 0.00448615
0.0993057 0.0350347 0.000289921
0.138323 0.0356146 0
0.190417 0.0344091 0
0.254932 0.0323186 0
0.324681 0.0306859 0
0.391943 0.031281 0
0.450141 0.0347448 0
0.498817 0.0381628 0
0.540902 0.0378424 0
0.575631 0.042649 0
0.610742 0.0499428 0
0.643229 0.0516976 0
0.670619 0.0512856 0
0.691859 0.0565499 0
0.707317 0.0650034 0
0.718563 0.0709544 0
0.726986 0.0742962 0
0.735027 0.0774853 0
0.742397 0.080415 0
0.748943 0.0830549 0
0.753948 0.0852979 0
0.757824 0.0872053 0
0.0039826 0.0283055 0.0218967
0.00474556 0.0283818 0.0218814
0.0053254 0.0285344 0.0218814
0.00616464 0.0287175 0.0218204
0.00761425 0.0288853 0.0217288
0.00979629 0.0290837 0.021622
0.0138552 0.0294347 0.0211185
0.0200656 0.0299077 0.0201724
0.0309453 0.0306096 0.0178378
0.0500191 0.031754 0.0118563
0.0738537 0.0339361 0.00370794
0.10428 0.0361334 0.000259403
0.145602 0.0364538 0
0.200351 0.0349279 0
0.266636 0.0328069 0
0.337484 0.0314031 0
0.405035 0.0324407 0
0.461845 0.0364996 0
0.508736 0.0400702 0
0.549142 0.0399481 0
0.583429 0.0449226 0
0.617441 0.0508278 0
0.649088 0.0514382 0
0.675578 0.0518196 0
0.695354 0.0583047 0
0.710124 0.0667124 0
0.720363 0.0716716 0
0.728756 0.0749981 0
0.73666 0.0781262 0
0.743877 0.0810101 0
0.750256 0.0835737 0
0.754849 0.0857404 0
0.758572 0.0875715 0
0.00309758 0.0293889 0.0217899
0.00364691 0.0295262 0.0218814
0.00466926 0.0296788 0.0218357
0.00495918 0.0299992 0.0218357
0.00624094 0.0302281 0.0217441
0.00817884 0.0304723 0.021622
0.0123598 0.0308232 0.021088
0.0187228 0.0312963 0.0201724
0.0299077 0.0319982 0.0178836
0.0494698 0.0332036 0.0118715
0.0740673 0.0352636 0.00357061
0.105852 0.0375219 0.000228885
0.14873 0.0378729 0
0.205646 0.0363775 0
0.273289 0.034226 0
0.344915 0.0325017 0
0.413565 0.0337987 0
0.469429 0.0385901 0
0.515923 0.0420539 0
0.555077 0.0420386 0
0.589029 0.0469062 0
0.621744 0.0514992 0
0.652964 0.0513466 0
0.67892 0.0521859 0
0.697749 0.0595102 0
0.712093 0.0679026 0
0.721584 0.0721599 0
0.729976 0.0754864 0
0.737835 0.0785992 0
0.74493 0.0814374 0
0.751186 0.0839551 0
0.755505 0.0860761 0
0.758938 0.0877394 0
0.0019379 0.030869 0.0216983
0.00231937 0.0310521 0.0217899
0.0028687 0.031342 0.0217899
0.00418097 0.0315251 0.0217746
0.00456245 0.0320134 0.0217288
0.0062562 0.0323491 0.0216068
0.0102998 0.0327306 0.0210727
0.0167391 0.0331884 0.0201572
0.0281682 0.0338903 0.0179751
0.0480354 0.0350805 0.0120699
0.0732738 0.0369726 0.00364691
0.105882 0.0393683 0.000228885
0.15021 0.0399329 0
0.208835 0.0385748 0
0.27863 0.03682 0
0.351064 0.0354925 0
0.419623 0.0361791 0
0.475929 0.0411231 0
0.522484 0.0450294 0
0.560265 0.0445411 0
0.593729 0.0490425 0
0.624613 0.0521096 0
0.655589 0.0514382 0
0.681117 0.0524453 0
0.699367 0.0603189 0
0.71342 0.0687114 0
0.722469 0.0724956 0
0.730846 0.0758221 0
0.738643 0.0789197 0
0.745693 0.0817426 0
0.75172 0.0842145 0
0.755978 0.086305 0
0.759167 0.0878462 0
0.00117494 0.0330053 0.0217746
0.00132753 0.0332647 0.021912
0.00172427 0.0337224 0.0220035
0.00276188 0.0339818 0.0218509
0.00357061 0.0345006 0.0218662
0.00407416 0.0352331 0.0217746
0.0074464 0.0357824 0.0212711
0.0133211 0.036347 0.0204013
0.0251469 0.0369421 0.0181277
0.0459907 0.0380713 0.012192
0.072343 0.0397345 0.0037995
0.106035 0.0417945 0.000198367
0.151431 0.042649 0
0.211597 0.0416724 0
0.283085 0.0404669 0
0.356817 0.0399634 0
0.425956 0.0412299 0
0.482963 0.0451362 0
0.529381 0.0493782 0
0.566613 0.0493324 0
0.598474 0.0516823 0
0.628031 0.0541238 0
0.65742 0.0517128 0
0.682719 0.0526894 0
0.700526 0.0608988 0
0.714366 0.0692912 0
0.723095 0.072755 0
0.731456 0.0760662 0
0.739254 0.0791638 0
0.746227 0.0819562 0
0.752132 0.0844129 0
0.756329 0.0864729 0
0.75935 0.0879225 0
0.000442512 0.0359045 0.0219425
0.000442512 0.0363012 0.0220798
0.000488289 0.0368658 0.0221866
0.00077821 0.0374609 0.0221561
0.0018616 0.0377356 0.021912
0.0018616 0.0390326 0.0219883
0.0041352 0.0400702 0.021622
0.00895705 0.0409094 0.020798
0.0207828 0.0414435 0.0184024
0.043122 0.0424201 0.012314
0.0715038 0.0438392 0.00386053
0.106737 0.045182 0.000167849
0.153521 0.0462806 0
0.215686 0.0460365 0
0.289937 0.0459754 0
0.36527 0.0467384 0
0.434699 0.0484779 0
0.492409 0.0517739 0
0.539147 0.055848 0
0.574655 0.0563363 0
0.605264 0.0557717 0
0.632578 0.0578775 0
0.658595 0.0522621 0
0.683757 0.0529488 0
0.701167 0.061265 0
0.714809 0.0694743 0
0.723522 0.0729229 0
0.731884 0.0762341 0
0.739696 0.0793317 0
0.746624 0.0821241 0
0.752422 0.0845502 0
0.756588 0.0865949 0
0.759472 0.0879835 0
7.62951e-05 0.0404212 0.0224002
7.62951e-05 0.041062 0.0225528
7.62951e-05 0.0419471 0.0227665
0.000167849 0.0429694 0.0228733
0.000503548 0.0434272 0.0225071
0.00122072 0.0441901 0.0222477
0.00120546 0.0466011 0.0221866
0.00367742 0.0479438 0.0212558
0.0141299 0.0485084 0.0188449
0.0388647 0.049485 0.012253
0.0715343 0.0505684 0.00337224
0.109102 0.0524147 7.62951e-05
0.159564 0.0539406 0
0.225666 0.0546731 0
0.304448 0.0562905 0
0.381857 0.0579232 0
0.450813 0.0596323 0
0.50753 0.0621195 0
0.553841 0.0655528 0
0.587442 0.0666819 0
0.616175 0.0622873 0
0.639338 0.0634165 0
0.661311 0.0557565 0
0.684596 0.0532998 0
0.701549 0.0614939 0
0.715053 0.0695659 0
0.723812 0.0730297 0
0.732219 0.0763714 0
0.739986 0.0794537 0
0.746914 0.0822309 0
0.752651 0.0846723 0
0.756786 0.0867018 0
0.759579 0.0880293 0
0 0.0468299 0.0224002
0 0.0477607 0.0223697
0 0.0490578 0.0223239
0 0.0504616 0.0222324
1.5259e-05 0.0517739 0.0218967
7.62951e-05 0.0521859 0.0215457
0.000213626 0.0542611 0.0209354
0.000198367 0.0580453 0.0206607
0.00579843 0.0598154 0.0185092
0.0301976 0.0616464 0.012192
0.0690623 0.0632639 0.00306706
0.111528 0.06598 4.57771e-05
0.169711 0.0693065 0
0.244312 0.0711833 0
0.331395 0.0738842 0
0.414939 0.0772259 0
0.484627 0.079469 0
0.537911 0.0797742 0
0.580652 0.0809644 0
0.609888 0.0817273 0
0.6336 0.0776684 0
0.654505 0.0693675 0
0.667887 0.065507 0
0.685344 0.0539254 0
0.701915 0.0616007 0
0.715206 0.0696269 0
0.723995 0.073106 0
0.732357 0.0764324 0
0.740169 0.07953 0
0.747097 0.0823072 0
0.752789 0.0847334 0
0.756893 0.0867475 0
0.759655 0.0880598 0
0 0.0551766 0.0216526
0 0.0564279 0.0218967
0 0.0580453 0.0222019
0 0.0596933 0.0224918
0 0.0614481 0.0226291
0 0.0626383 0.0218967
0 0.0642557 0.0210269
0 0.0688029 0.0202945
0.00103761 0.073106 0.0176699
0.0163577 0.075639 0.010544
0.061265 0.0791028 0.00195315
0.110857 0.0842756 0
0.176837 0.0895094 0
0.263615 0.0943923 0
0.360128 0.100694 0
0.454063 0.108202 0
0.531044 0.113069 0
0.587549 0.112764 0
0.628061 0.109743 0
0.654047 0.104433 0
0.669139 0.0998856 0
0.678462 0.0925002 0
0.684337 0.0809491 0
0.693416 0.0618448 0
0.702586 0.0617075 0
0.715267 0.0696574 0
0.724071 0.0731365 0
0.732464 0.076463 0
0.740276 0.0795605 0
0.747204 0.0823529 0
0.75288 0.0847791 0
0.756985 0.0867933 0
0.759701 0.0880751 0
0 0.0641642 0.0218662
0 0.0656138 0.0217746
0 0.0674907 0.0216068
0 0.0693675 0.0213016
0 0.071397 0.0207218
0 0.0734569 0.0200656
0 0.0749371 0.0191806
3.0518e-05 0.0797589 0.0177615
4.57771e-05 0.087892 0.0153811
0.00207523 0.0945602 0.00686656
0.0398108 0.10135 0.000411994
0.104646 0.108293 0
0.178775 0.115496 0
0.275257 0.123857 0
0.37966 0.133089 0
0.481331 0.143954 0
0.566705 0.152377 0
0.627497 0.156771 0
0.672877 0.155764 0
0.702754 0.153216 0
0.724376 0.141268 0
0.732845 0.127138 0
0.717525 0.11342 0
0.710292 0.0884413 0
0.710597 0.0638743 0
0.715679 0.0697337 0
0.724071 0.0731365 0
0.732509 0.0764782 0
0.740322 0.0795758 0
0.74728 0.0823835 0
0.752911 0.0847944 0
0.757046 0.0868238 0
0.759716 0.0880903 0
0 0.0744335 0.0218814
0 0.0764324 0.0219272
0 0.0788891 0.0220645
0 0.0814832 0.0221561
0 0.0844587 0.0221866
0 0.0878767 0.0220798
0 0.0905165 0.0201419
0 0.094789 0.0158846
0 0.102647 0.0106508
3.0518e-05 0.112871 0.00680552
0.0089723 0.124651 0.000106813
0.0782483 0.134951 0
0.16733 0.146624 0
0.272953 0.159457 0
0.38735 0.172168 0
0.494408 0.184024 0
0.585489 0.195636 0
0.653544 0.205249 0
0.702754 0.20824 0
0.738109 0.206012 0
0.76527 0.199573 0
0.781338 0.184283 0
0.786191 0.163668 0
0.761761 0.130587 0
0.735332 0.0893568 0
0.722713 0.0713359 0
0.724224 0.073167 0
0.732509 0.0764782 0
0.740322 0.0795758 0
0.74728 0.0823835 0
0.752941 0.0848096 0
0.757046 0.0868238 0
0.759731 0.0880903 0
0 0.0861982 0.0224765
0 0.0884413 0.0225223
0 0.0910964 0.0225986
0 0.093904 0.0225986
0 0.0969558 0.0225834
0 0.100618 0.0225528
0 0.104585 0.0220798
0 0.109346 0.0179141
0 0.119142 0.00898756
0 0.134493 0.00520333
0.00015259 0.151308 0.000228885
0.0361639 0.168048 0
0.14197 0.18761 0
0.261631 0.207446 0
0.385351 0.225895 0
0.502129 0.242374 0
0.599771 0.25417 0
0.672892 0.262531 0
0.72578 0.267994 0
0.764569 0.267475 0
0.796643 0.260578 0
0.81976 0.247166 0
0.831434 0.229236 0
0.832242 0.197452 0
0.810315 0.153994 0
0.760906 0.100023 0
0.732143 0.0749676 0
0.732509 0.0764782 0
0.740276 0.0795605 0
0.74728 0.0823835 0
0.752911 0.0847944 0
0.757046 0.0868238 0
0.759731 0.0880903 0
0 0.0982681 0.0221408
0 0.101778 0.0223392
0 0.106111 0.0225986
0 0.110582 0.022858
0 0.115572 0.0231174
0 0.121538 0.0233768
0 0.127855 0.0236362
0 0.13315 0.0222934
0 0.142107 0.0144961
0 0.158602 0.00315862
0 0.180682 0.00247196
0.00613413 0.203586 0
0.0899977 0.230121 0
0.234455 0.259495 0
0.375616 0.28574 0
0.504326 0.307271 0
0.609491 0.32398 0
0.685496 0.333349 0
0.741207 0.33846 0
0.782742 0.340032 0
0.818631 0.336355 0
0.847059 0.326375 0
0.865599 0.309102 0
0.873442 0.284001 0
0.870481 0.246906 0
0.852811 0.195804 0
0.793667 0.125521 0
0.745968 0.0795605 0
0.740322 0.0795758 0
0.74725 0.0823682 0
0.752911 0.0847944 0
0.757046 0.0868238 0
0.759716 0.0880903 0
0 0.118914 0.0230564
0 0.12253 0.0233616
0 0.127001 0.0240177
0 0.131975 0.0250248
0 0.137377 0.0260319
0 0.143801 0.0270848
0 0.151766 0.0281834
0 0.159182 0.0290379
0 0.168841 0.0258183
0 0.185504 0.0105592
0 0.211124 0.00334173
0 0.240955 0.0011902
0.0277714 0.273594 0
0.186786 0.31368 0
0.358038 0.351232 0
0.504189 0.380499 0
0.616831 0.40174 0
0.698543 0.414343 0
0.756603 0.421027 0
0.800107 0.422644 0
0.837598 0.41912 0
0.867658 0.410086 0
0.890486 0.397955 0
0.903136 0.381125 0
0.908019 0.354299 0
0.903258 0.313298 0
0.887587 0.258167 0
0.850996 0.177111 0
0.772229 0.0894636 0
0.747402 0.0823987 0
0.75288 0.0847791 0
0.757015 0.0868086 0
0.759701 0.0880751 0
0 0.140749 0.0279545
0 0.144518 0.028748
0 0.148974 0.0297551
0 0.153674 0.0307622
0 0.160647 0.0328069
0 0.169238 0.0352789
0 0.179675 0.0382849
0 0.190692 0.0409094
0 0.201007 0.0409857
0 0.219028 0.0336309
0 0.243412 0.00712596
0 0.276753 0.0037232
0 0.313298 0.000793469
0.107485 0.358495 0
0.323476 0.411383 0
0.497398 0.452308 0
0.624552 0.479591 0
0.713558 0.493477 0
0.775464 0.502785 0
0.82031 0.506172 0
0.857954 0.505211 0
0.887816 0.499931 0
0.911192 0.489525 0
0.923049 0.47483 0
0.931762 0.455665 0
0.934981 0.429023 0
0.931975 0.393011 0
0.920546 0.338567 0
0.897414 0.260014 0
0.8374 0.157336 0
0.76025 0.0867018 0
0.756985 0.0867933 0
0.759686 0.0880751 0
0 0.168078 0.0366064
0 0.172976 0.0380865
0 0.17908 0.0400092
0 0.185275 0.0419623
0 0.191867 0.044007
0 0.199847 0.0467231
0 0.210529 0.0506752
0 0.222827 0.0546731
0 0.23476 0.0565805
0 0.251286 0.0564736
0 0.28011 0.0349737
0 0.311055 0.00523384
0 0.350698 0.00573739
0.0224308 0.392493 0
0.257969 0.457511 0
0.478981 0.513008 0
0.62948 0.548989 0
0.725887 0.566842 0
0.792309 0.575235 0
0.838605 0.579675 0
0.876051 0.580392 0
0.904799 0.575769 0
0.927779 0.567956 0
0.941466 0.55671 0
0.949279 0.541711 0
0.952773 0.524437 0
0.953811 0.502983 0
0.953902 0.474067 0
0.950072 0.432563 0
0.936767 0.370352 0
0.911223 0.282338 0
0.858122 0.175463 0
0.772519 0.0908522 0
0 0.201923 0.0483711
0 0.206653 0.0502022
0 0.212924 0.0526894
0 0.219226 0.0551766
0 0.225696 0.0576944
0 0.233478 0.0606699
0 0.243168 0.0643626
0 0.255833 0.0690776
0 0.268406 0.0732128
0 0.282475 0.0747387
0 0.309834 0.0717937
0 0.346441 0.021912
0 0.383001 0.00241093
0.00360113 0.423392 0
0.135119 0.483497 0
0.427375 0.557855 0
0.62063 0.607263 0
0.733349 0.627329 0
0.804898 0.635233 0
0.850675 0.637812 0
0.887709 0.638376 0
0.915953 0.63505 0
0.938735 0.629755 0
0.954421 0.621942 0
0.966094 0.612009 0
0.972427 0.600244 0
0.973449 0.587198 0
0.974945 0.567773 0
0.972091 0.546044 0
0.969711 0.521385 0
0.967193 0.487327 0
0.957198 0.437888 0
0.942077 0.372473 0
0 0.239658 0.0639658
0 0.244175 0.0656901
0 0.250416 0.0681315
0 0.256672 0.070573
0 0.263233 0.0731212
0 0.27071 0.0760052
0 0.28014 0.0796216
0 0.291981 0.0841688
0 0.304265 0.0891432
0 0.314992 0.0927138
0 0.334707 0.0961776
0 0.374777 0.0821241
0 0.413886 0.00859083
0.005066 0.451987 0
0.0276036 0.495125 0
0.32253 0.575692 0
0.578515 0.637934 0
0.725597 0.667323 0
0.807004 0.677073 0
0.857023 0.679438 0
0.894224 0.679255 0
0.922896 0.67628 0
0.946731 0.672358 0
0.963897 0.668528 0
0.974929 0.662211 0
0.983658 0.654688 0
0.990463 0.646876 0
0.991714 0.638773 0
0.992844 0.626139 0
0.990539 0.611933 0
0.987305 0.595392 0
0.985885 0.576837 0
0.983139 0.556497 0
0 0.285023 0.0819257
0 0.288579 0.083299
0 0.293904 0.0854658
0 0.299351 0.0877852
0 0.304784 0.0900893
0 0.311025 0.0927443
0 0.319127 0.0961929
0 0.329229 0.100481
0 0.340887 0.105425
0 0.350912 0.109972
0 0.36202 0.114076
0 0.392493 0.117052
0 0.439933 0.0658427
0.0100099 0.48069 0
0.0144961 0.512337 0
0.14081 0.568383 0
0.486534 0.652964 0
0.691569 0.696208 0
0.796231 0.710628 0
0.854795 0.714839 0
0.896544 0.714916 0
0.927062 0.712886 0
0.952605 0.710735 0
0.970596 0.707713 0
0.98378 0.703273 0
0.990936 0.698695 0
0.998306 0.694362 0
0.999405 0.688655 0
0.999512 0.682399 0
0.999802 0.673625 0
0.999985 0.665003 0
0.999512 0.656397 0
0.999115 0.646448 0
0 0.331579 0.101488
0 0.334798 0.102861
0 0.339834 0.104997
0 0.34464 0.107134
0 0.34902 0.109255
0 0.354177 0.111757
0 0.360739 0.114931
0 0.36968 0.119249
0 0.380606 0.124544
0 0.390951 0.129534
0 0.396368 0.131899
0 0.409659 0.135531
0 0.450248 0.132967
0 0.496757 0.0191653
0.0259403 0.536736 0
0.0309606 0.565881 0
0.303319 0.635904 0
0.612894 0.705776 0
0.7664 0.73283 0
0.842588 0.740398 0
0.8916 0.742046 0
0.926879 0.74197 0
0.953582 0.741283 0
0.972747 0.73959 0
0.988113 0.736706 0
0.996536 0.733959 0
0.999924 0.731884 0
1 0.729839 0
1 0.727275 0
1 0.723186 0
1 0.717327 0
1 0.712657 0
1 0.707897 0
0 0.377432 0.123003
0 0.380606 0.124544
0 0.385779 0.127047
0 0.390356 0.129259
0 0.394537 0.131228
0 0.39823 0.132723
0 0.402686 0.134524
0 0.408515 0.136889
0 0.416205 0.140002
0 0.424491 0.143374
0 0.430488 0.1458
0 0.432731 0.146609
0 0.450004 0.147784
0 0.499397 0.130892
0.0114137 0.551034 0
0.0285191 0.576669 0
0.0662852 0.603357 0
0.449027 0.691005 0
0.70518 0.74406 0
0.820859 0.762112 0
0.879164 0.765316 0
0.923201 0.766964 0
0.953674 0.767819 0
0.974517 0.767452 0
0.990799 0.765576 0
0.998978 0.76376 0
0.999969 0.761196 0
1 0.759915 0
1 0.758923 0
1 0.757259 0
1 0.755184 0
1 0.752209 0
1 0.749493 0
0 0.41651 0.140124
0 0.41912 0.141192
0 0.422965 0.142748
0 0.42649 0.144183
0 0.429877 0.145541
0 0.433387 0.14696
0 0.437079 0.148211
0 0.441703 0.149783
0 0.447776 0.151843
0 0.454902 0.154269
0 0.461112 0.156374
0 0.464149 0.157397
0 0.465934 0.157977
0 0.48838 0.157
0 0.543526 0.0980545
0.0318151 0.589822 0
0.0125734 0.597894 0
0.143297 0.640253 0
0.571954 0.735058 0
0.772854 0.774929 0
0.861341 0.784207 0
0.914839 0.785565 0
0.94995 0.786633 0
0.973892 0.787457 0
0.990997 0.786099 0
0.999191 0.784863 0
1 0.783429 0
1 0.78201 0
1 0.78323 0
1 0.783093 0
1 0.781781 0
1 0.781003 0
1 0.780163 0
0 0.449226 0.152331
0 0.451331 0.153048
0 0.454643 0.154177
0 0.457801 0.155245
0 0.460578 0.156191
0 0.463478 0.157183
0 0.467048 0.158389
0 0.470542 0.159182
0 0.474998 0.160204
0 0.480613 0.161486
0 0.486122 0.162737
0 0.489723 0.163561
0 0.491112 0.163882
0 0.493645 0.164462
0 0.51751 0.160281
0 0.57644 0.0366064
0.0192721 0.609033 0
0 0.601709 0.00730907
0.264561 0.677394 0
0.674372 0.768383 0
0.82884 0.796643 0
0.899977 0.802289 0
0.944671 0.803525 0
0.974243 0.803601 0
0.992798 0.802731 0
0.999588 0.801801 0
1 0.800748 0
1 0.799969 0
1 0.801297 0
1 0.801617 0
1 0.800702 0
1 0.799466 0
1 0.798352 0
0 0.476905 0.160647
0 0.478706 0.161044
0 0.481361 0.161654
0 0.483894 0.162234
0 0.486015 0.162722
0 0.48835 0.163256
0 0.491005 0.163851
0 0.494255 0.164599
0 0.497337 0.16527
0 0.501122 0.166079
0 0.505287 0.166964
0 0.508675 0.167697
0 0.510216 0.168032
0 0.511299 0.168261
0 0.514351 0.168887
0 0.539666 0.162097
0 0.596109 0.0142061
0 0.599908 0.0199588
0 0.604257 0.0315709
0.41474 0.719524 0
0.758831 0.795895 0
0.872999 0.812116 0
0.934508 0.814313 0
0.971252 0.812802 0
0.991516 0.812085 0
0.999954 0.81149 0
1 0.811109 0
1 0.812619 0
1 0.813367 0
1 0.813245 0
1 0.812955 0
1 0.812375 0
1 0.811826 0
0 0.499123 0.165652
0 0.50042 0.165927
0 0.502358 0.166339
0 0.504204 0.166735
0 0.505745 0.167071
0 0.507439 0.167437
0 0.5093 0.167834
0 0.511452 0.168292
0 0.514229 0.168872
0 0.517067 0.169284
0 0.520333 0.169757
0 0.5234 0.170199
0 0.525307 0.170474
0 0.526055 0.170581
0 0.527535 0.170809
0 0.530678 0.171344
0 0.554818 0.160769
0 0.600702 0.0421607
0 0.582071 0.145266
0 0.610239 0.0469215
0.566262 0.761105 0
0.825086 0.812909 0
0.915175 0.821195 0
0.959487 0.820661 0
0.98584 0.819776 0
1 0.819257 0
1 0.820798 0
1 0.821988 0
1 0.821897 0
1 0.821561 0
1 0.821378 0
1 0.821042 0
1 0.820691 0
0 0.516014 0.169131
0 0.517067 0.169284
0 0.518608 0.169512
0 0.520012 0.169711
0 0.521248 0.169894
0 0.522545 0.170077
0 0.523964 0.170291
0 0.525628 0.17052
0 0.527718 0.170825
