LUT预设1/柯达5219&2393/柯达5219&2393尼康专用/R3D/柯达5219绿调-R3D.cube
TITLE "Generated by Resolve"
LUT_3D_SIZE 9
0.0230106 0.030518 0.0598459
0.0233158 0.0306249 0.0598917
0.0818494 0.0463111 0.0588083
0.308614 0.0704662 0.0357824
0.781704 0.0937972 3.0518e-05
0.873579 0.10251 0
0.873579 0.10251 0
0.873579 0.10251 0
0.873579 0.10251 0
0.0230106 0.030518 0.0598459
0.0230106 0.030518 0.0598459
0.0731365 0.0443885 0.0596017
0.28307 0.0687114 0.0390021
0.760983 0.0921798 0
0.873579 0.10251 0
0.873579 0.10251 0
0.873579 0.10251 0
0.873579 0.10251 0
0.0332036 0.0933394 0.108354
0.0330358 0.0961624 0.110262
0.0612802 0.0916609 0.0999008
0.424323 0.102464 0.0320592
0.854688 0.100465 0
0.873579 0.10251 0
0.873579 0.10251 0
0.873579 0.10251 0
0.873579 0.10251 0
0 0.391363 0.290715
0 0.405447 0.29958
0 0.399359 0.295659
0.404471 0.35938 0.124727
1 0.441001 0.0486763
1 0.367956 0.00962844
0.873579 0.10251 0
0.873579 0.10251 0
0.873579 0.10251 0
0 0.803433 0.608377
0 0.816831 0.62179
0 0.821286 0.626657
0 0.822248 0.626795
0.839887 0.758434 0.216556
1 0.730526 0.0890974
1 0.644633 0.0859083
1 0.510185 0.0603189
1 0.276448 3.0518e-05
0 0.901366 0.716442
0 0.901366 0.716442
0 0.901366 0.716442
0 0.901366 0.716442
0 0.908186 0.6972
1 0.939742 0.393362
1 0.898848 0.272068
1 0.842985 0.171344
1 0.814221 0.134096
0 0.901366 0.716442
0 0.901366 0.716442
0 0.901366 0.716442
0 0.901366 0.716442
0 0.901366 0.716442
0.246036 0.912032 0.563439
1 0.941421 0.370565
1 0.94136 0.370413
1 0.940948 0.369345
0 0.901366 0.716442
0 0.901366 0.716442
0 0.901366 0.716442
0 0.901366 0.716442
0 0.901366 0.716442
0 0.901366 0.716442
0.910002 0.942901 0.496681
1 0.941421 0.370565
1 0.941421 0.370565
0 0.901366 0.716442
0 0.901366 0.716442
0 0.901366 0.716442
0 0.901366 0.716442
0 0.901366 0.716442
0 0.901366 0.716442
0.684062 0.93315 0.560906
1 0.941375 0.375174
1 0.941421 0.370565
0.0230106 0.030518 0.0598459
0.0233005 0.0306096 0.0598917
0.0855573 0.0470436 0.0584726
0.347829 0.0730144 0.0307774
0.824704 0.0976425 0
0.873579 0.10251 0
0.873579 0.10251 0
0.873579 0.10251 0
0.873579 0.10251 0
0.0230106 0.030518 0.0598459
0.0230106 0.030518 0.0598459
0.0741131 0.0446021 0.0595102
0.309453 0.0704509 0.0356451
0.791516 0.0947433 0
0.873579 0.10251 0
0.873579 0.10251 0
0.873579 0.10251 0
0.873579 0.10251 0
0.0332952 0.0929274 0.108049
0.0332189 0.0957504 0.109987
0.0657511 0.0919051 0.0988785
0.428794 0.102434 0.0314641
0.840528 0.0989853 0
0.873579 0.10251 0
0.873579 0.10251 0
0.873579 0.10251 0
0.873579 0.10251 0
0 0.394995 0.29308
0 0.409751 0.302251
0 0.40412 0.298421
0.415061 0.363653 0.12369
1 0.44892 0.0500954
1 0.372427 0.0109712
0.873579 0.10251 0
0.873579 0.10251 0
0.873579 0.10251 0
0 0.808316 0.612863
0 0.821042 0.626413
0 0.825742 0.63154
0 0.825956 0.630945
0.846067 0.763119 0.218463
1 0.734081 0.0894179
1 0.648203 0.0859541
1 0.518135 0.0637369
1 0.307607 7.62951e-05
0 0.901366 0.716442
0 0.901366 0.716442
0 0.901366 0.716442
0 0.901366 0.716442
0 0.908278 0.695079
1 0.940429 0.393606
1 0.900908 0.276066
1 0.84593 0.176349
1 0.818326 0.13785
0 0.901366 0.716442
0 0.901366 0.716442
0 0.901366 0.716442
0 0.901366 0.716442
0 0.901366 0.716442
0.265644 0.912764 0.5626
1 0.941421 0.371023
1 0.94139 0.370489
1 0.941085 0.369696
0 0.901366 0.716442
0 0.901366 0.716442
0 0.901366 0.716442
0 0.901366 0.716442
0 0.901366 0.716442
0 0.901366 0.716442
0.915389 0.942855 0.492332
1 0.941421 0.370565
1 0.941421 0.370565
0 0.901366 0.716442
0 0.901366 0.716442
0 0.901366 0.716442
0 0.901366 0.716442
0 0.901366 0.716442
0 0.901366 0.716442
0.703777 0.934493 0.559152
1 0.94139 0.374334
1 0.941421 0.370565
0.0160678 0.0429084 0.103517
0.0170291 0.0411536 0.0988174
0.0796216 0.0496986 0.113573
0.326787 0.0767987 0.0661479
0.866438 0.101656 0
0.873579 0.10251 0
0.873579 0.10251 0
0.873579 0.10251 0
0.873579 0.10251 0
0.0173342 0.0402686 0.0964218
0.0178225 0.0393835 0.093843
0.0749218 0.0484169 0.104799
0.342672 0.076112 0.0569772
0.868116 0.101869 0
0.873579 0.10251 0
0.873579 0.10251 0
0.873579 0.10251 0
0.873579 0.10251 0
0.0328832 0.0856336 0.110735
0.0330358 0.0886091 0.114061
0.0671702 0.0853742 0.100725
0.334279 0.0888838 0.0421302
0.744732 0.0909438 3.0518e-05
0.873579 0.10251 0
0.873579 0.10251 0
0.873579 0.10251 0
0.873579 0.10251 0
0 0.388632 0.289448
0 0.403204 0.298314
0 0.39855 0.29427
0.41973 0.358724 0.120455
1 0.447929 0.0496681
1 0.371008 0.010544
0.873579 0.10251 0
0.873579 0.10251 0
0.873579 0.10251 0
0 0.809689 0.614115
0 0.822461 0.627939
0 0.827146 0.633082
0 0.826429 0.631495
0.852338 0.764477 0.215976
1 0.735103 0.0895094
1 0.649332 0.0859693
1 0.521035 0.0649729
1 0.319295 0.000106813
0 0.901366 0.716442
0 0.901366 0.716442
0 0.901366 0.716442
0 0.901366 0.716442
0 0.908354 0.692699
1 0.940734 0.39295
1 0.901823 0.277821
1 0.847303 0.178637
1 0.82031 0.139651
0 0.901366 0.716442
0 0.901366 0.716442
0 0.901366 0.716442
0 0.901366 0.716442
0 0.901366 0.716442
0.277699 0.913207 0.561837
1 0.941421 0.371176
1 0.941405 0.37052
1 0.941161 0.369863
0 0.901366 0.716442
0 0.901366 0.716442
0 0.901366 0.716442
0 0.901366 0.716442
0 0.901366 0.716442
0 0.901366 0.716442
0.918624 0.942824 0.489738
1 0.941421 0.370565
1 0.941421 0.370565
0 0.901366 0.716442
0 0.901366 0.716442
0 0.901366 0.716442
0 0.901366 0.716442
0 0.901366 0.716442
0 0.901366 0.716442
0.715389 0.935286 0.558114
1 0.94139 0.373754
1 0.941421 0.370565
0.00169375 0.102785 0.223087
0.00334173 0.0971695 0.21384
0.0410163 0.109163 0.300481
0.299901 0.0809491 0.395392
0.636896 0.176043 0.277699
0.758907 0.0738231 0.150332
0.873579 0.10251 0
0.873579 0.10251 0
0.873579 0.10251 0
0.00187686 0.101457 0.220645
0.0024567 0.0978408 0.214176
0.0383764 0.109285 0.295689
0.307408 0.0823529 0.399435
0.636942 0.183963 0.2878
0.746883 0.082063 0.168154
0.873579 0.10251 0
0.873579 0.10251 0
0.873579 0.10251 0
0.00404364 0.227558 0.394751
0.00367742 0.239979 0.413077
0.0345006 0.152575 0.31696
0.310628 0.0877852 0.379065
0.658946 0.165499 0.265599
0.767727 0.0758068 0.13695
0.873579 0.10251 0
0.873579 0.10251 0
0.873579 0.10251 0
0.00247196 0.396628 0.406867
0.00163272 0.411261 0.419379
0.00138857 0.411032 0.420737
0.308507 0.351522 0.364553
0.846235 0.290547 0.0803998
1 0.31162 0.00267033
0.873579 0.10251 0
0.873579 0.10251 0
0.873579 0.10251 0
0 0.806882 0.611063
0 0.82031 0.62536
0 0.825025 0.630549
0 0.819898 0.62385
0.856046 0.759762 0.207462
1 0.733944 0.0894331
1 0.648188 0.0859693
1 0.519234 0.0641947
1 0.315999 9.15541e-05
0 0.901366 0.716442
0 0.901366 0.716442
0 0.901366 0.716442
0 0.901366 0.716442
0 0.908385 0.686748
0.999802 0.940719 0.391379
1 0.902022 0.278202
1 0.847791 0.179477
1 0.82118 0.140917
0 0.901366 0.716442
0 0.901366 0.716442
0 0.901366 0.716442
0 0.901366 0.716442
0 0.901366 0.716442
0.292943 0.913741 0.560845
1 0.941421 0.371252
1 0.941421 0.37055
1 0.941192 0.369985
0 0.901366 0.716442
0 0.901366 0.716442
0 0.901366 0.716442
0 0.901366 0.716442
0 0.901366 0.716442
0 0.901366 0.716442
0.921691 0.942809 0.487297
1 0.941421 0.370565
1 0.941421 0.370565
0 0.901366 0.716442
0 0.901366 0.716442
0 0.901366 0.716442
0 0.901366 0.716442
0 0.901366 0.716442
0 0.901366 0.716442
0.72488 0.935943 0.557275
1 0.94139 0.373297
1 0.941421 0.370565
0.00270085 0.216861 0.435111
0.0108492 0.236545 0.477562
0.0456703 0.274022 0.585473
0.253498 0.247349 0.758022
0.749249 0.218997 0.705409
0.758251 0.234424 0.65893
0.680156 0.237156 0.477317
0.858305 0.105333 0.00820935
0.873579 0.10251 0
0.000183108 0.207492 0.415335
0.00956741 0.233326 0.470878
0.0472572 0.274464 0.588617
0.27924 0.24126 0.766049
0.758831 0.225864 0.7028
0.764614 0.234699 0.6766
0.705531 0.237201 0.531411
0.758724 0.0755779 0.149889
0.873579 0.10251 0
0 0.205646 0.399619
0.00341802 0.222446 0.442802
0.0335546 0.265339 0.555169
0.248417 0.246159 0.757351
0.758328 0.224857 0.701289
0.765805 0.234653 0.679774
0.71136 0.236606 0.544945
0.737789 0.0920577 0.177356
0.873579 0.10251 0
0.0240635 0.691493 0.835126
0.0228428 0.709987 0.843
0.0889754 0.7205 0.846235
0.244862 0.619379 0.796094
0.762188 0.45095 0.752911
0.798383 0.371221 0.649165
0.697765 0.237842 0.514
0.772122 0.0737621 0.130495
0.873579 0.10251 0
0 0.8121 0.762768
0 0.825238 0.774029
0 0.829847 0.77847
0 0.811765 0.77145
0.680537 0.740459 0.713466
0.984115 0.619516 0.400168
1 0.537728 0.0800031
1 0.504891 0.0580453
1 0.277638 3.0518e-05
0 0.901167 0.717311
0 0.901183 0.717266
0 0.901228 0.717098
0 0.901259 0.71696
0 0.908431 0.678843
0.998611 0.940932 0.391363
1 0.900923 0.276081
1 0.84683 0.177859
1 0.820447 0.139864
0 0.901366 0.716442
0 0.901366 0.716442
0 0.901366 0.716442
0 0.901366 0.716442
0 0.901366 0.716442
0.33341 0.91545 0.561547
1 0.941421 0.371221
1 0.941421 0.37055
1 0.941207 0.370001
0 0.901366 0.716442
0 0.901366 0.716442
0 0.901366 0.716442
0 0.901366 0.716442
0 0.901366 0.716442
0 0.901366 0.716442
0.925734 0.942763 0.484031
1 0.941421 0.370565
1 0.941421 0.370565
0 0.901366 0.716442
0 0.901366 0.716442
0 0.901366 0.716442
0 0.901366 0.716442
0 0.901366 0.716442
0 0.901366 0.716442
0.735958 0.93669 0.556283
1 0.941405 0.372763
1 0.941421 0.370565
0.0938125 0.279789 0.663294
0.109819 0.276829 0.677928
0.162539 0.266621 0.718959
0.401434 0.213901 0.789456
0.754803 0.222812 0.707454
0.771069 0.235569 0.695323
0.771069 0.235569 0.695323
0.771069 0.235569 0.695323
0.771069 0.235569 0.695323
0.0939956 0.279713 0.663401
0.11783 0.275334 0.685283
0.186114 0.261723 0.730068
0.449226 0.203433 0.791226
0.768215 0.231495 0.698177
0.771069 0.235569 0.695323
0.771069 0.235569 0.695323
0.771069 0.235569 0.695323
0.771069 0.235569 0.695323
0.078645 0.279713 0.642893
0.100679 0.27808 0.669047
0.166262 0.266178 0.720256
0.437919 0.206241 0.790219
0.768017 0.231342 0.698329
0.771069 0.235569 0.695323
0.771069 0.235569 0.695323
0.771069 0.235569 0.695323
0.771069 0.235569 0.695323
0.141588 0.668666 0.829053
0.166659 0.665278 0.828504
0.196262 0.633143 0.825315
0.349767 0.53228 0.847257
0.805585 0.355962 0.769955
0.771069 0.235569 0.695323
0.771069 0.235569 0.695323
0.771069 0.235569 0.695323
0.771069 0.235569 0.695323
0.0115053 0.794308 0.87396
0.00851453 0.805859 0.877653
0.00839246 0.845548 0.88806
0.336004 0.864012 0.882994
0.712245 0.801404 0.87068
0.89276 0.743618 0.835523
0.880018 0.654948 0.81059
0.851499 0.487251 0.769451
0.772274 0.237522 0.696025
0 0.942382 0.899794
0 0.943481 0.90248
0 0.943709 0.903014
0 0.943694 0.902983
0.140154 0.940978 0.902953
0.88127 0.916899 0.86949
0.98645 0.804013 0.671122
1 0.707591 0.451011
1 0.674876 0.341985
0.000137331 0.889097 0.784161
0.000122072 0.889265 0.787717
0.00030518 0.889647 0.789029
0.000381476 0.889769 0.789456
0.000289921 0.889555 0.788403
0.123552 0.910918 0.74229
0.99968 0.941268 0.461433
1 0.941421 0.370565
1 0.941146 0.369863
0 0.901366 0.716442
0 0.901366 0.716442
0 0.901366 0.716442
0 0.901366 0.716442
0 0.901366 0.716442
0 0.901366 0.716442
0.935531 0.942672 0.476066
1 0.941421 0.370565
1 0.941421 0.370565
0 0.901366 0.716442
0 0.901366 0.716442
0 0.901366 0.716442
0 0.901366 0.716442
0 0.901366 0.716442
0 0.901366 0.716442
0.757076 0.93814 0.554406
1 0.941405 0.371771
1 0.941421 0.370565
0.49044 0.196521 0.79115
0.504768 0.194034 0.78999
0.543603 0.187304 0.786786
0.653422 0.184024 0.761196
0.768139 0.23209 0.697978
0.771069 0.235569 0.695323
0.771069 0.235569 0.695323
0.771069 0.235569 0.695323
0.771069 0.235569 0.695323
0.500862 0.19472 0.79028
0.526452 0.190188 0.788296
0.573877 0.181811 0.784649
0.685985 0.186404 0.749859
0.771069 0.235569 0.695323
0.771069 0.235569 0.695323
0.771069 0.235569 0.695323
0.771069 0.235569 0.695323
0.771069 0.235569 0.695323
0.489799 0.196658 0.79115
0.520073 0.191318 0.788785
0.572259 0.18204 0.784848
0.690272 0.186572 0.748455
0.771069 0.235569 0.695323
0.771069 0.235569 0.695323
0.771069 0.235569 0.695323
0.771069 0.235569 0.695323
0.771069 0.235569 0.695323
0.442145 0.205798 0.791531
0.47567 0.199252 0.791882
0.535103 0.188373 0.787839
0.671199 0.185 0.755138
0.771069 0.235569 0.695323
0.771069 0.235569 0.695323
0.771069 0.235569 0.695323
0.771069 0.235569 0.695323
0.771069 0.235569 0.695323
0.542397 0.842618 0.869825
0.562463 0.848676 0.871809
0.596796 0.843976 0.871031
0.674083 0.815137 0.86807
0.790585 0.720439 0.865003
0.880842 0.661433 0.812604
0.859983 0.538567 0.780453
0.771069 0.235569 0.695323
0.771069 0.235569 0.695323
0 0.91635 0.90132
0 0.92079 0.902373
0 0.922362 0.902556
0.0321813 0.92903 0.909194
0.578729 0.942794 0.907927
0.894896 0.9075 0.899016
0.927932 0.868315 0.876799
0.917021 0.83183 0.863539
0.911635 0.81268 0.856565
0 0.945876 0.908827
0 0.945891 0.908858
0 0.945891 0.908858
0 0.945891 0.908858
0 0.945891 0.908858
0.566323 0.946334 0.90808
0.937957 0.944778 0.909224
0.96318 0.90631 0.830381
0.974029 0.871565 0.77734
0 0.922911 0.853727
0 0.925353 0.859159
0 0.926558 0.861814
0 0.927306 0.863432
0 0.927535 0.863905
0 0.927657 0.863874
0.743175 0.928206 0.845243
0.973053 0.934844 0.775647
0.976104 0.934462 0.757824
0.000640879 0.895308 0.805188
0.000289921 0.899336 0.811353
0.000122072 0.901503 0.814481
3.0518e-05 0.902754 0.816297
0 0.903441 0.817334
1.5259e-05 0.903075 0.816754
0.51162 0.920501 0.795819
0.979583 0.933593 0.67097
0.997742 0.936049 0.637125
0.750622 0.2168 0.71162
0.752209 0.21825 0.710353
0.755779 0.2215 0.707515
0.768017 0.232746 0.697765
0.771069 0.235569 0.695323
0.771069 0.235569 0.695323
0.771069 0.235569 0.695323
0.771069 0.235569 0.695323
0.771069 0.235569 0.695323
0.752346 0.218494 0.710201
0.75494 0.22092 0.70811
0.75964 0.225193 0.704387
0.771069 0.235569 0.695323
0.771069 0.235569 0.695323
0.771069 0.235569 0.695323
0.771069 0.235569 0.695323
0.771069 0.235569 0.695323
0.771069 0.235569 0.695323
0.751415 0.21767 0.710933
0.754574 0.220615 0.708385
0.759762 0.225345 0.704265
0.771069 0.235569 0.695323
0.771069 0.235569 0.695323
0.771069 0.235569 0.695323
0.771069 0.235569 0.695323
0.771069 0.235569 0.695323
0.771069 0.235569 0.695323
0.747677 0.214206 0.713909
0.751034 0.217395 0.711192
0.756695 0.222553 0.706706
0.771069 0.235569 0.695323
0.771069 0.235569 0.695323
0.771069 0.235569 0.695323
0.771069 0.235569 0.695323
0.771069 0.235569 0.695323
0.771069 0.235569 0.695323
0.714778 0.480797 0.852125
0.721736 0.524804 0.855238
0.740154 0.532372 0.854246
0.794995 0.516091 0.82948
0.850599 0.493339 0.773785
0.834928 0.382208 0.74316
0.771069 0.235569 0.695323
0.771069 0.235569 0.695323
0.771069 0.235569 0.695323
0.734646 0.94107 0.911681
0.727382 0.943191 0.91223
0.75172 0.94226 0.91339
0.829419 0.938308 0.915099
0.83888 0.935958 0.914519
0.917388 0.885512 0.886534
0.919188 0.83949 0.866392
0.907897 0.799664 0.851972
0.901518 0.778256 0.84509
0 0.945891 0.908858
0 0.945891 0.908858
0 0.945891 0.908858
0 0.945891 0.908858
0.0311589 0.945266 0.913909
0.710552 0.944778 0.912001
0.932311 0.943404 0.914336
0.945861 0.930419 0.904631
0.94464 0.921614 0.899855
0 0.945891 0.908858
0 0.945891 0.908858
0 0.945891 0.908858
0 0.945891 0.908858
0 0.945891 0.908858
0.0488899 0.945464 0.915221
0.824964 0.942016 0.916793
0.941924 0.945708 0.914046
0.946609 0.946105 0.912398
0 0.945891 0.908858
0 0.945891 0.908858
0 0.945891 0.908858
0 0.945891 0.908858
0 0.945891 0.908858
0 0.945891 0.908858
0.71545 0.943282 0.909819
0.917891 0.942321 0.905989
0.948623 0.944121 0.896086
0.771069 0.235569 0.695323
0.771069 0.235569 0.695323
0.771069 0.235569 0.695323
0.771069 0.235569 0.695323
0.771069 0.235569 0.695323
0.771069 0.235569 0.695323
0.771069 0.235569 0.695323
0.771069 0.235569 0.695323
0.771069 0.235569 0.695323
0.771069 0.235569 0.695323
0.771069 0.235569 0.695323
0.771069 0.235569 0.695323
0.771069 0.235569 0.695323
0.771069 0.235569 0.695323
0.771069 0.235569 0.695323
0.771069 0.235569 0.695323
0.771069 0.235569 0.695323
0.771069 0.235569 0.695323
0.771069 0.235569 0.695323
0.771069 0.235569 0.695323
0.771069 0.235569 0.695323
0.771069 0.235569 0.695323
0.771069 0.235569 0.695323
0.771069 0.235569 0.695323
0.771069 0.235569 0.695323
0.771069 0.235569 0.695323
0.771069 0.235569 0.695323
0.771069 0.235569 0.695323
0.771069 0.235569 0.695323
0.771069 0.235569 0.695323
0.771069 0.235569 0.695323
0.771069 0.235569 0.695323
0.771069 0.235569 0.695323
0.771069 0.235569 0.695323
0.771069 0.235569 0.695323
0.771069 0.235569 0.695323
0.771069 0.235569 0.695323
0.771069 0.235569 0.695323
0.771069 0.235569 0.695323
0.771069 0.235569 0.695323
0.771069 0.235569 0.695323
0.771069 0.235569 0.695323
0.771069 0.235569 0.695323
0.771069 0.235569 0.695323
0.771069 0.235569 0.695323
0.807919 0.937758 0.913909
0.828061 0.938796 0.915419
0.835996 0.938872 0.915892
0.832227 0.938064 0.91545
0.866499 0.921721 0.907774
0.923827 0.865736 0.876707
0.913207 0.817899 0.858442
0.900298 0.773953 0.8439
0.893278 0.74931 0.836927
0 0.945266 0.90866
0 0.945388 0.908705
0 0.945541 0.908751
0.0016022 0.94612 0.91046
0.381674 0.947005 0.909072
0.825345 0.942412 0.916259
0.938369 0.941466 0.912291
0.944961 0.923552 0.900877
0.943038 0.91516 0.896559
0 0.945891 0.908858
0 0.945891 0.908858
0 0.945891 0.908858
0 0.945891 0.908858
0 0.945891 0.908858
0.282139 0.946777 0.911879
0.859907 0.941375 0.918303
0.942702 0.945846 0.914168
0.946487 0.946227 0.91368
0 0.945891 0.908858
0 0.945891 0.908858
0 0.945891 0.908858
0 0.945891 0.908858
0 0.945891 0.908858
0 0.945891 0.908858
0.757519 0.943572 0.913909
0.926406 0.944289 0.915831
0.945373 0.946136 0.913817
