LUT预设1/iPhone 专用lut-合集1/iPhone 标准版合集1(log)/2383柯达胶片.cube
TITLE "Generated by Resolve"
LUT_3D_SIZE 5
0.026978 0.0279393 0.0319524
0.103349 0.045716 0.0335241
0.581003 0 0
0.69189 0 0
0.69189 0 0
3.0518e-05 0.0741131 0.0489509
0.0777295 0.0814374 0.0474861
0.587488 0.0838178 0
0.739071 0.00674449 0
0.729824 0 0
0 0.338766 0.00985733
0 0.364248 0.000457771
0.705043 0.575769 0
0.97464 0.586267 0
0.954681 0.532174 0
0 0.484825 0
0 0.521767 0
0.572213 0.78027 0
1 0.890135 0
1 0.88687 0
0 0.500282 0
0 0.513252 0
0.374487 0.723552 0
1 0.899062 0
1 0.895521 0
0.00605783 0.0241703 0.117128
0.104036 0.0439612 0.119646
0.589624 0 0.0780346
0.706477 0 0.00561532
0.705226 0 0
0 0.082063 0.105089
0.0711528 0.0870222 0.0963455
0.588098 0.0274968 0.0104219
0.751232 0 0
0.740001 0 0
0 0.358389 0.0894179
0 0.380865 0.0755474
0.710109 0.59118 0
0.983078 0.595071 0
0.962188 0.536217 0
0 0.493111 0.0999313
0 0.52369 0.0482795
0.547524 0.777478 0
1 0.892515 0
1 0.889647 0
0 0.503075 0.0588388
0 0.511543 0.0284428
0.340917 0.716274 0
1 0.898512 0
1 0.895232 0
0 0 0.460578
0.0502022 0 0.47866
0.621286 0 0.530663
0.753124 0 0.505302
0.749233 0 0.473671
0 0 0.477531
0.00128176 0.00605783 0.478645
0.610254 1.5259e-05 0.526818
0.786526 0 0.500862
0.774624 0 0.452598
0 0.448249 0.576761
0 0.46804 0.582498
0.649699 0.63389 0.604227
0.950011 0.616464 0.561074
0.936828 0.554635 0.505257
0 0.587839 0.565072
0 0.61593 0.559564
0.410086 0.82388 0.576059
1 0.920119 0.520974
1 0.907515 0.45861
0 0.586664 0.489067
0 0.592279 0.472358
0.115557 0.765591 0.494301
0.99411 0.915602 0.45388
1 0.907683 0.414923
0 0 0.554391
0.0208591 0 0.582712
0.656672 0 0.688426
0.81323 0 0.719753
0.812879 0 0.719081
0 0 0.605112
0 0.053727 0.629343
0.623606 0.161074 0.732631
0.829892 0.103853 0.75288
0.821653 0.0220951 0.739483
0 0.462272 0.775906
0 0.484382 0.794629
0.584634 0.652506 0.867079
0.947341 0.64242 0.884611
0.938018 0.585412 0.870085
0 0.624872 0.829999
0 0.651667 0.843717
0.133089 0.85565 0.892302
0.989746 0.971664 0.935744
1 0.969604 0.930404
0 0.636881 0.828199
0 0.6448 0.829343
0 0.816663 0.880476
0.964355 0.972519 0.923995
1 0.97641 0.918578
0 0 0.554391
0.0052491 0 0.580484
0.64155 0 0.686442
0.81323 0 0.719753
0.81323 0 0.719753
0 0 0.602869
0 0.0277409 0.623301
0.600595 0.152117 0.726894
0.827192 0.0838026 0.75021
0.823117 0.0343328 0.74345
0 0.449149 0.771634
0 0.467185 0.787793
0.550118 0.631495 0.860731
0.943786 0.62887 0.884016
0.93846 0.588205 0.875151
0 0.624781 0.832685
0 0.649012 0.846067
0.0834211 0.847745 0.895811
0.98555 0.970321 0.943648
0.99884 0.968185 0.94229
0 0.646937 0.843626
0 0.650156 0.845487
0 0.812833 0.894484
0.95494 0.973007 0.943954
0.999969 0.979294 0.945876
