LUT预设1/iPhone 专用lut-合集1/iPhone 标准版合集1(log)/2383柯达胶片.cube
TITLE "Generated by Resolve"
LUT_3D_SIZE 33
0.026978 0.0279393 0.0319524
0.0280766 0.0285954 0.0329137
0.0301671 0.0295567 0.0342107
0.0353094 0.0306401 0.0349432
0.0389105 0.0319677 0.0353399
0.0447395 0.0334783 0.0354467
0.059678 0.0360723 0.0354314
0.0782177 0.0407721 0.035172
0.103349 0.045716 0.0335241
0.14696 0.0494698 0.0281529
0.19501 0.0525368 0.0113222
0.25655 0.0533303 0.000350958
0.332525 0.0484932 0
0.406302 0.0283055 0
0.472618 0.000442512 0
0.533669 0 0
0.581003 0 0
0.61532 0 0
0.641627 0 0
0.660334 0 0
0.674144 0 0
0.683909 0 0
0.690272 0 0
0.69189 0 0
0.69189 0 0
0.69189 0 0
0.69189 0 0
0.69189 0 0
0.69189 0 0
0.69189 0 0
0.69189 0 0
0.69189 0 0
0.69189 0 0
0.0267185 0.0295872 0.0328069
0.0275731 0.0299229 0.0334173
0.0292668 0.0307164 0.034638
0.0339971 0.0316777 0.0354162
0.0383307 0.0329595 0.0358282
0.0426032 0.0344244 0.0360113
0.0567483 0.0366979 0.0359655
0.0757916 0.0410468 0.0356756
0.0994125 0.0461433 0.0342412
0.139574 0.049897 0.0304265
0.186648 0.0528878 0.0159152
0.244877 0.0539254 0.000656138
0.318624 0.0502937 0
0.394141 0.0371405 0
0.460426 0.00109865 0
0.522866 0 0
0.572976 0 0
0.610269 0 0
0.63772 0 0
0.657496 0 0
0.671794 0 0
0.68249 0 0
0.689555 0 0
0.69189 0 0
0.69189 0 0
0.69189 0 0
0.69189 0 0
0.69189 0 0
0.69189 0 0
0.69189 0 0
0.69189 0 0
0.69189 0 0
0.69189 0 0
0.0264286 0.0319219 0.0341192
0.0271153 0.0320592 0.0345312
0.0283055 0.0325933 0.035584
0.032639 0.0333257 0.0363012
0.0377661 0.0345159 0.0366827
0.0417487 0.035935 0.0369268
0.0536812 0.0379187 0.0369268
0.0737774 0.0420844 0.0366979
0.0960708 0.0475013 0.0353857
0.133349 0.0515908 0.0318914
0.17998 0.0543984 0.020676
0.234775 0.0558633 0.00103761
0.305562 0.0541238 0
0.38027 0.0443122 0
0.44654 0.00833143 0
0.507897 0 0
0.55935 0 0
0.598199 0 0
0.628229 0 0
0.651087 0 0
0.667689 0 0
0.679774 0 0
0.688289 0 0
0.69189 0 0
0.69189 0 0
0.69189 0 0
0.69189 0 0
0.69189 0 0
0.69189 0 0
0.69189 0 0
0.69189 0 0
0.69189 0 0
0.69189 0 0
0.0245975 0.0359197 0.0356909
0.0256962 0.0358129 0.0359045
0.0273442 0.0361181 0.0367437
0.0309606 0.0365606 0.0374456
0.0367742 0.0374609 0.0377508
0.0406653 0.0388952 0.0380407
0.0511025 0.0408026 0.0381018
0.0715801 0.0443885 0.0379187
0.0925765 0.0496223 0.0366674
0.126162 0.0537575 0.0335088
0.17261 0.0564431 0.0238499
0.22356 0.0583352 0.00241093
0.289815 0.0581521 0
0.36492 0.051545 0
0.434333 0.028397 0
0.496635 0.00062562 0
0.552071 0 0
0.594461 0 0
0.626154 0 0
0.649332 0 0
0.665629 0 0
0.677516 0 0
0.686519 0 0
0.69189 0 0
0.69189 0 0
0.69189 0 0
0.69189 0 0
0.69189 0 0
0.69189 0 0
0.69189 0 0
0.69189 0 0
0.69189 0 0
0.69189 0 0
0.0215915 0.0407568 0.0376287
0.0228885 0.0406653 0.037705
0.0260777 0.0409552 0.038407
0.0295262 0.0413672 0.0390631
0.0356756 0.0422065 0.0393225
0.0393378 0.0436713 0.0396124
0.0484627 0.0456397 0.0397192
0.0686809 0.0486915 0.0393683
0.088838 0.0530709 0.0381781
0.117235 0.057023 0.035584
0.161395 0.0593881 0.0277104
0.211994 0.0617075 0.00831617
0.273686 0.0627451 9.15541e-05
0.349523 0.05832 0
0.423636 0.0440833 0
0.490425 0.0081178 0
0.551492 1.5259e-05 0
0.597375 0 0
0.631251 0 0
0.656184 0 0
0.673213 0 0
0.684703 0 0
0.692638 0 0
0.69723 0 0
0.696574 0 0
0.69546 0 0
0.694469 0 0
0.694026 0 0
0.693782 0 0
0.693538 0 0
0.693294 0 0
0.693065 0 0
0.692821 0 0
0.0187228 0.0451972 0.0398108
0.0197299 0.0449378 0.0397498
0.0249485 0.0450294 0.0403449
0.0287938 0.045243 0.0408942
0.0352789 0.0458381 0.0410925
0.0389563 0.0471046 0.0413367
0.04654 0.0489204 0.0414893
0.0645457 0.0515297 0.0409857
0.0851148 0.0554818 0.0397192
0.110033 0.0603952 0.0378271
0.15465 0.0637369 0.030808
0.207431 0.0670481 0.0130312
0.268772 0.0701152 0.000793469
0.346059 0.0676127 0
0.423926 0.0582132 0
0.492393 0.0274205 0
0.55523 0.00149538 0
0.604257 0 0
0.639017 0 0
0.664347 0 0
0.682002 0 0
0.693675 0 0
0.701503 0 0
0.705913 0 0
0.705669 0 0
0.704173 0 0
0.702693 0 0
0.70164 0 0
0.701045 0 0
0.70045 0 0
0.699855 0 0
0.699275 0 0
0.69868 0 0
0.0116732 0.0520638 0.0421912
0.0122225 0.051545 0.0420386
0.0192111 0.0506294 0.042298
0.0250553 0.0501564 0.0426795
0.0331426 0.0502785 0.0428473
0.0382696 0.0511482 0.0430304
0.0440986 0.0527962 0.0432746
0.0615396 0.055314 0.0428626
0.0846113 0.0591745 0.0416724
0.109422 0.0642557 0.0398566
0.154665 0.0682841 0.0335241
0.209812 0.0724804 0.0160067
0.273381 0.0767681 0.00137331
0.352026 0.0767529 0
0.432761 0.0708019 0
0.502525 0.0504311 0
0.564767 0.0129397 0
0.615351 0.000228885 0
0.650339 0 0
0.675135 0 0
0.692287 0 0
0.70396 0 0
0.711452 0 0
0.715557 0 0
0.715373 0 0
0.713909 0 0
0.712459 0 0
0.711299 0 0
0.710704 0 0
0.710124 0 0
0.709545 0 0
0.708965 0 0
0.70837 0 0
0.0027924 0.0618448 0.0450294
0.00331121 0.0612039 0.0448463
0.00704967 0.0598917 0.0447242
0.0129091 0.0588846 0.0449378
0.0233463 0.0586709 0.0449989
0.0338293 0.0596323 0.0452735
0.0392157 0.061387 0.0457008
0.0556344 0.0636912 0.0455024
0.0822309 0.0673533 0.0441291
0.108797 0.072343 0.0421607
0.152605 0.0766613 0.03682
0.210132 0.0809644 0.0203098
0.275151 0.085481 0.00141909
0.355871 0.0873121 0
0.440879 0.0847486 0
0.513085 0.0728008 0
0.575952 0.0395972 0
0.626673 0.00921645 0
0.662486 0.00277714 0
0.687495 0.000656138 0
0.70425 0.000442512 0
0.715465 0.000701915 0
0.722637 0.000610361 0
0.727016 0.000320439 0
0.725978 6.10361e-05 0
0.72433 0 0
0.722805 0 0
0.721431 0 0
0.720806 0 0
0.72018 0 0
0.719554 0 0
0.718929 0 0
0.718318 0 0
3.0518e-05 0.0741131 0.0489509
4.57771e-05 0.0733196 0.0486915
0.000427253 0.0723888 0.0484474
0.00166323 0.0716106 0.0485237
0.00654612 0.071458 0.0484779
0.018616 0.0725414 0.0484474
0.027512 0.0745708 0.0487678
0.0449073 0.0772412 0.0488594
0.0777295 0.0814374 0.0474861
0.106325 0.0872816 0.0448157
0.149722 0.0929732 0.0393225
0.208865 0.098024 0.0213779
0.27541 0.104219 0.000839246
0.357946 0.108415 0
0.446189 0.108339 0
0.523003 0.102617 0
0.587488 0.0838178 0
0.638926 0.0551156 0
0.674571 0.0347143 0
0.700328 0.0199893 0
0.717083 0.0151064 0
0.728267 0.0154726 0
0.735576 0.0143587 0
0.740734 0.0115511 0
0.739071 0.00674449 0
0.737179 0.00291447 0
0.735363 0.000686656 0
0.733608 0 0
0.73283 0 0
0.732082 0 0
0.731334 0 0
0.730571 0 0
0.729824 0 0
0 0.0882734 0.0536507
0 0.0873884 0.0533608
0 0.0864576 0.0530861
0 0.0857862 0.0530861
1.5259e-05 0.0856031 0.0531472
0.00343328 0.0867323 0.052842
0.00924697 0.0891127 0.0528725
0.0284733 0.0920882 0.0527504
0.0709697 0.096437 0.0517281
0.102739 0.102983 0.0490272
0.145968 0.110033 0.0429694
0.207492 0.116564 0.0236362
0.275395 0.124743 0.000274662
0.359625 0.131853 0
0.451469 0.135225 0
0.532784 0.134051 0
0.601373 0.125948 0
0.655039 0.11223 0
0.69102 0.0966964 0
0.716274 0.0801404 0
0.733669 0.0702831 0
0.744686 0.0698863 0
0.752117 0.0695354 0
0.756848 0.067216 0
0.755688 0.0578164 0
0.75317 0.0464332 0
0.750668 0.0345922 0
0.748211 0.0230564 0
0.746777 0.0163424 0
0.745922 0.0152438 0
0.745068 0.0141604 0
0.744213 0.013077 0
0.743358 0.0119783 0
0 0.110338 0.0576944
0 0.108934 0.0574655
0 0.107546 0.0572366
0 0.106615 0.0572518
0 0.106416 0.057435
1.5259e-05 0.107256 0.0571756
0.000442512 0.110048 0.0569467
0.00817884 0.113512 0.056611
0.0494545 0.11783 0.0549172
0.0955367 0.12462 0.0523232
0.139528 0.132662 0.0453346
0.204898 0.140429 0.0255741
0.277241 0.14963 0.00317388
0.361135 0.158785 0
0.457237 0.164248 0
0.543969 0.1664 0
0.615305 0.162799 0
0.674083 0.155062 0
0.711391 0.146944 0
0.73698 0.138552 0
0.754757 0.134096 0
0.766445 0.133806 0
0.77406 0.1364 0
0.778805 0.139483 0
0.778408 0.136172 0
0.775525 0.129641 0
0.772549 0.122805 0
0.769558 0.115755 0
0.767452 0.11078 0
0.765911 0.10721 0
0.764569 0.102098 0
0.763333 0.0961471 0
0.762097 0.0901961 0
0 0.140887 0.0606851
0 0.138949 0.060502
0 0.137087 0.0603189
0 0.135882 0.0602884
0 0.135897 0.060502
0 0.136889 0.0603647
0 0.13991 0.0599069
0.000564584 0.144335 0.0595712
0.0174563 0.149065 0.0569467
0.0727398 0.156466 0.0522316
0.126757 0.166278 0.043061
0.198413 0.176593 0.0209354
0.277943 0.189014 0.00299077
0.364736 0.201053 0
0.463966 0.209644 0
0.556893 0.214237 0
0.631464 0.212924 0
0.693095 0.207401 0
0.735027 0.201038 0
0.761456 0.194308 0
0.779767 0.190555 0
0.79176 0.189853 0
0.799954 0.191638 0
0.804913 0.194766 0
0.805402 0.192691 0
0.802319 0.186618 0
0.799161 0.180407 0
0.795987 0.174197 0
0.793454 0.169238 0
0.79173 0.16582 0
0.790005 0.162417 0
0.788312 0.158968 0
0.78677 0.155383 0
0 0.174014 0.0634165
0 0.171801 0.0634012
0 0.169604 0.063386
0 0.168185 0.0632639
0 0.168856 0.0634012
0 0.170321 0.0632181
0 0.173831 0.0622721
0 0.179126 0.0614481
0.00189212 0.18497 0.0582437
0.0316167 0.193103 0.0496376
0.103914 0.204883 0.0341344
0.186999 0.218906 0.00968948
0.27628 0.235554 0.000534066
0.367727 0.251469 0
0.470085 0.263767 0
0.570932 0.272465 0
0.649638 0.274556 0
0.714549 0.271443 0
0.760586 0.266651 0
0.789563 0.260792 0
0.808667 0.257191 0
0.820905 0.256153 0
0.829267 0.257328 0
0.834745 0.260151 0
0.83595 0.258137 0
0.832593 0.250797 0
0.829236 0.243427 0
0.825788 0.235935 0
0.822736 0.229267 0
0.820813 0.224933 0
0.818891 0.2206 0
0.816953 0.216266 0
0.81503 0.211933 0
0 0.211612 0.0628367
0 0.209033 0.0630808
0 0.20647 0.0633097
0 0.204303 0.0635386
0 0.205188 0.0635386
0 0.207172 0.0632181
0 0.211276 0.0617533
0 0.217639 0.0597086
1.5259e-05 0.225116 0.0554818
0.00489815 0.234638 0.0409247
0.0587015 0.248661 0.0179751
0.166308 0.26656 0.0018616
0.270176 0.286885 0
0.36849 0.306752 0
0.474632 0.322438 0
0.582559 0.334417 0
0.66862 0.33994 0
0.737728 0.338918 0
0.788113 0.33518 0
0.819974 0.330343 0
0.840772 0.326879 0
0.853559 0.326635 0
0.862028 0.328389 0
0.867857 0.33225 0
0.870069 0.332448 0
0.86656 0.325017 0
0.862989 0.317449 0
0.859342 0.309667 0
0.855772 0.302113 0
0.853635 0.297566 0
0.851499 0.293004 0
0.849363 0.288457 0
0.847227 0.283909 0
0 0.255039 0.0562753
0 0.252277 0.0570382
0 0.249516 0.0578164
0 0.247257 0.0585031
0 0.24802 0.0588693
0 0.250156 0.0589609
0 0.255039 0.0561379
0 0.262684 0.050309
0 0.271534 0.0393683
0.000167849 0.283207 0.0202182
0.0157931 0.300603 0.0047303
0.117983 0.322042 0
0.253574 0.345968 0
0.363302 0.37055 0
0.475242 0.390753 0
0.589822 0.406332 0
0.685222 0.41593 0
0.760266 0.417594 0
0.815778 0.414954 0
0.85034 0.409644 0
0.87332 0.404532 0
0.887526 0.403571 0
0.896284 0.404669 0
0.902327 0.408331 0
0.905303 0.409873 0
0.902342 0.402945 0
0.898817 0.395163 0
0.895262 0.38732 0
0.891585 0.379294 0
0.88925 0.374182 0
0.887053 0.36936 0
0.88484 0.364538 0
0.882643 0.359716 0
0 0.298817 0.0364843
0 0.296315 0.0383612
0 0.293812 0.0402533
0 0.291676 0.0419013
0 0.292332 0.042359
0 0.295171 0.0425879
0 0.300328 0.0357671
0 0.309133 0.0236515
0 0.320165 0.0123445
0 0.334508 0.00357061
0.00180056 0.354864 9.15541e-05
0.0554665 0.379629 0
0.215228 0.40737 0
0.351415 0.437415 0
0.470512 0.463554 0
0.592874 0.484276 0
0.697658 0.498802 0
0.780194 0.504967 0
0.842557 0.50518 0
0.880644 0.500938 0
0.905455 0.495598 0
0.921492 0.493324 0
0.930831 0.493217 0
0.936919 0.495201 0
0.939986 0.495979 0
0.938094 0.489708 0
0.934722 0.481254 0
0.931304 0.472724 0
0.92781 0.464042 0
0.925292 0.457786 0
0.923125 0.452399 0
0.920943 0.447013 0
0.918776 0.441642 0
0 0.338766 0.00985733
0 0.336431 0.0111696
0 0.334096 0.0124971
0 0.331945 0.0136416
0 0.332296 0.0134127
0 0.335988 0.012192
0 0.341497 0.00717174
0 0.351522 0.0018616
0 0.364248 0.000457771
0 0.380682 0.000183108
0 0.402533 0
0.0193637 0.430289 0
0.160479 0.46154 0
0.330785 0.496254 0
0.460151 0.528923 0
0.590341 0.555398 0
0.705043 0.575769 0
0.7944 0.587076 0
0.865522 0.591623 0
0.908721 0.589807 0
0.936019 0.585229 0
0.953841 0.583124 0
0.964813 0.583535 0
0.971344 0.585275 0
0.97464 0.586267 0
0.973587 0.581125 0
0.97055 0.573281 0
0.967285 0.564797 0
0.963958 0.556191 0
0.961227 0.549126 0
0.959045 0.543465 0
0.956863 0.53782 0
0.954681 0.532174 0
0 0.376165 0.000106813
0 0.373953 0.000122072
0 0.371756 0.000137331
0 0.369558 0.00015259
0 0.369406 0.000137331
0 0.373892 9.15541e-05
0 0.380545 1.5259e-05
0 0.390738 0
0 0.40412 0
0 0.42182 0
0 0.445243 0
0.00108339 0.474678 0
0.0991836 0.508675 0
0.295949 0.54699 0
0.442847 0.584985 0
0.580133 0.617411 0
0.705486 0.643595 0
0.802075 0.659937 0
0.879026 0.668177 0
0.930938 0.669917 0
0.961212 0.66659 0
0.980209 0.664317 0
0.991089 0.663813 0
0.998367 0.664881 0
0.999619 0.665431 0
0.998398 0.661707 0
0.996475 0.654978 0
0.99443 0.64799 0
0.992309 0.640848 0
0.990326 0.634363 0
0.9888 0.629465 0
0.987274 0.624567 0
0.985748 0.619669 0
0 0.406989 0
0 0.40531 0
0 0.403616 0
0 0.401923 0
0 0.401053 0
0 0.405905 0
0 0.413504 0
0 0.423972 0
0 0.437308 0
0 0.455604 0
0 0.480171 0
4.57771e-05 0.51162 0
0.0308843 0.547265 0
0.240284 0.588342 0
0.419364 0.631251 0
0.562799 0.669032 0
0.699138 0.701518 0
0.802991 0.723369 0
0.885878 0.735866 0
0.944671 0.741558 0
0.980926 0.741238 0
0.995697 0.737453 0
0.999588 0.733898 0
1 0.731243 0
1 0.730312 0
1 0.727642 0
0.999985 0.722469 0
0.999863 0.716808 0
0.999695 0.711101 0
0.999451 0.705501 0
0.999283 0.701411 0
0.999115 0.697322 0
0.998947 0.693248 0
0 0.42855 0
0 0.427375 0
0 0.426215 0
0 0.42504 0
0 0.424323 0
0 0.428244 0
0 0.436835 0
0 0.447425 0
0 0.460639 0
0 0.47805 0
0 0.50222 0
0 0.534035 0
0.0131838 0.571572 0
0.182391 0.613565 0
0.391775 0.660288 0
0.540795 0.702754 0
0.682918 0.739895 0
0.797864 0.768505 0
0.886168 0.785443 0
0.951782 0.795529 0
0.989929 0.798184 0
0.999893 0.793484 0
1 0.78912 0
1 0.786511 0
1 0.78526 0
1 0.784009 0
1 0.780453 0
1 0.776699 0
1 0.771908 0
1 0.766903 0
1 0.763272 0
1 0.759625 0
1 0.755993 0
0 0.443473 0
0 0.442618 0
0 0.441779 0
0 0.440925 0
0 0.440314 0
0 0.443244 0
0 0.452323 0
0 0.463188 0
0 0.476204 0
0 0.492775 0
0 0.515251 0
0 0.546487 0
0.00708019 0.5841 0
0.136294 0.626917 0
0.361242 0.675364 0
0.514366 0.721202 0
0.660914 0.761761 0
0.784482 0.795193 0
0.880385 0.817014 0
0.952071 0.830564 0
0.991272 0.835355 0
0.999817 0.831495 0
1 0.827436 0
1 0.825193 0
1 0.824109 0
1 0.823102 0
1 0.820859 0
1 0.818402 0
1 0.815839 0
1 0.812924 0
1 0.810147 0
1 0.807477 0
1 0.804822 0
0 0.454826 0
0 0.454154 0
0 0.453483 0
0 0.452811 0
0 0.452262 0
0 0.454292 0
0 0.463462 0
0 0.475059 0
0 0.488396 0
0 0.504524 0
0 0.525994 0
0 0.555444 0
0.00303655 0.592554 0
0.0968032 0.634882 0
0.321294 0.683207 0
0.487404 0.731777 0
0.636927 0.774487 0
0.767178 0.811154 0
0.868833 0.836851 0
0.947921 0.853819 0
0.991287 0.861265 0
0.999969 0.858595 0
1 0.854871 0
1 0.852583 0
1 0.851469 0
1 0.850782 0
1 0.849302 0
1 0.847517 0
1 0.845685 0
1 0.843793 0
1 0.842206 0
1 0.84033 0
1 0.838453 0
0 0.463188 0
0 0.462638 0
0 0.462135 0
0 0.461631 0
0 0.461158 0
0 0.462394 0
0 0.471321 0
0 0.484428 0
0 0.49836 0
0 0.514214 0
0 0.534859 0
0 0.56231 0
0.000686656 0.597665 0
0.0619516 0.638788 0
0.280446 0.686122 0
0.463157 0.735348 0
0.613062 0.779828 0
0.748531 0.818952 0
0.854337 0.847562 0
0.938903 0.867292 0
0.991302 0.878431 0
1 0.876783 0
1 0.873686 0
1 0.871702 0
1 0.870619 0
1 0.870039 0
1 0.869139 0
1 0.868009 0
1 0.866835 0
1 0.865614 0
1 0.864515 0
1 0.863569 0
1 0.862364 0
0 0.472526 0
0 0.471809 0
0 0.471092 0
0 0.47042 0
0 0.469871 0
0 0.470314 0
0 0.478202 0
0 0.493553 0
0 0.508614 0
0 0.524483 0
0 0.54435 0
0 0.569986 0
0 0.60293 0
0.0350042 0.641749 0
0.254017 0.687068 0
0.442435 0.735622 0
0.59028 0.780606 0
0.728832 0.82121 0
0.838697 0.852338 0
0.926146 0.873808 0
0.987915 0.888121 0
1 0.888151 0
1 0.885451 0
1 0.883726 0
1 0.882704 0
1 0.882292 0
1 0.881773 0
1 0.881086 0
1 0.880354 0
1 0.879622 0
1 0.878935 0
1 0.878355 0
1 0.87776 0
0 0.484825 0
0 0.484016 0
0 0.483207 0
0 0.482399 0
0 0.481575 0
0 0.481331 0
0 0.486763 0
0 0.504891 0
0 0.521767 0
0 0.538155 0
0 0.557092 0
0 0.580774 0
1.5259e-05 0.611292 0
0.0166476 0.647211 0
0.264164 0.689693 0
0.429694 0.736171 0
0.572213 0.78027 0
0.710033 0.820844 0
0.822324 0.853437 0
0.911803 0.87631 0
0.978607 0.892332 0
0.999512 0.895354 0
1 0.892805 0
1 0.891203 0
1 0.890135 0
1 0.889632 0
1 0.88925 0
1 0.888853 0
1 0.888441 0
1 0.888014 0
1 0.887572 0
1 0.887221 0
1 0.88687 0
0 0.496162 0
0 0.49572 0
0 0.495277 0
0 0.49485 0
0 0.494408 0
0 0.494331 0
0 0.496345 0
0 0.516869 0
0 0.535927 0
0 0.553414 0
0 0.571511 0
0 0.592874 0
1.5259e-05 0.620371 0
0.0419013 0.653635 0
0.266835 0.6925 0
0.422232 0.736645 0
0.558297 0.779232 0
0.690654 0.818326 0
0.80592 0.851957 0
0.897154 0.875853 0
0.967758 0.893126 0
0.997772 0.899229 0
1 0.897414 0
1 0.89546 0
1 0.894286 0
1 0.893553 0
1 0.89308 0
1 0.892882 0
1 0.892699 0
1 0.8925 0
1 0.892302 0
1 0.892134 0
1 0.891981 0
0 0.500282 0
0 0.500282 0
0 0.500282 0
0 0.500282 0
0 0.500282 0
0 0.500282 0
0 0.500816 0
0 0.518837 0
0 0.538552 0
0 0.555749 0
0 0.573266 0
0 0.593301 0
0 0.619684 0
0.0455177 0.65214 0
0.234897 0.689723 0
0.404395 0.732448 0
0.538842 0.77496 0
0.668879 0.813687 0
0.785855 0.84773 0
0.881971 0.873899 0
0.956771 0.892393 0
0.995865 0.90132 0
1 0.900298 0
1 0.898726 0
1 0.897322 0
1 0.895888 0
1 0.895201 0
1 0.894987 0
1 0.894881 0
1 0.894759 0
1 0.894636 0
1 0.894514 0
1 0.894408 0
0 0.500282 0
0 0.500282 0
0 0.500282 0
0 0.500282 0
0 0.500282 0
0 0.500282 0
0 0.500282 0
0 0.513756 0
0 0.534539 0
