LUT预设1/iPhone 专用lut-合集1/iPhone 标准版合集1(log)/2383柯达胶片.cube
TITLE "Generated by Resolve"
LUT_3D_SIZE 9
0.026978 0.0279393 0.0319524
0.0389105 0.0319677 0.0353399
0.103349 0.045716 0.0335241
0.332525 0.0484932 0
0.581003 0 0
0.674144 0 0
0.69189 0 0
0.69189 0 0
0.69189 0 0
0.0215915 0.0407568 0.0376287
0.0356756 0.0422065 0.0393225
0.088838 0.0530709 0.0381781
0.273686 0.0627451 9.15541e-05
0.551492 1.5259e-05 0
0.673213 0 0
0.696574 0 0
0.693782 0 0
0.692821 0 0
3.0518e-05 0.0741131 0.0489509
0.00654612 0.071458 0.0484779
0.0777295 0.0814374 0.0474861
0.27541 0.104219 0.000839246
0.587488 0.0838178 0
0.717083 0.0151064 0
0.739071 0.00674449 0
0.73283 0 0
0.729824 0 0
0 0.174014 0.0634165
0 0.168856 0.0634012
0.00189212 0.18497 0.0582437
0.27628 0.235554 0.000534066
0.649638 0.274556 0
0.808667 0.257191 0
0.83595 0.258137 0
0.822736 0.229267 0
0.81503 0.211933 0
0 0.338766 0.00985733
0 0.332296 0.0134127
0 0.364248 0.000457771
0.160479 0.46154 0
0.705043 0.575769 0
0.936019 0.585229 0
0.97464 0.586267 0
0.963958 0.556191 0
0.954681 0.532174 0
0 0.443473 0
0 0.440314 0
0 0.476204 0
0.00708019 0.5841 0
0.660914 0.761761 0
0.991272 0.835355 0
1 0.824109 0
1 0.815839 0
1 0.804822 0
0 0.484825 0
0 0.481575 0
0 0.521767 0
1.5259e-05 0.611292 0
0.572213 0.78027 0
0.978607 0.892332 0
1 0.890135 0
1 0.888441 0
1 0.88687 0
0 0.500282 0
0 0.500282 0
0 0.529854 0
0 0.607309 0
0.483452 0.757702 0
0.929564 0.885664 0
1 0.898222 0
1 0.895521 0
1 0.895521 0
0 0.500282 0
0 0.500282 0
0 0.513252 0
0 0.587945 0
0.374487 0.723552 0
0.86659 0.869932 0
1 0.899062 0
1 0.895521 0
1 0.895521 0
0.025803 0.030045 0.0457465
0.0363622 0.0333867 0.0492103
0.105409 0.0475471 0.0495918
0.331975 0.017319 0.00267033
0.585992 0 0
0.67866 0 0
0.695399 0 0
0.693904 0 0
0.693172 0 0
0.0203098 0.0425574 0.0501564
0.0338293 0.0433814 0.0504005
0.088014 0.0533761 0.049546
0.26804 0.0584726 0.00561532
0.551217 1.5259e-05 0
0.67425 0 0
0.697368 0 0
0.693858 0 0
0.692561 0 0
0 0.0754864 0.0575113
0.00476081 0.0723888 0.0553445
0.0764782 0.0819867 0.0549935
0.272343 0.102251 0.00979629
0.58555 0.076463 0
0.717784 0.00856031 0
0.73933 0.00321965 0
0.73225 0 0
0.728878 0 0
0 0.175006 0.0686198
0 0.169177 0.067689
0.0015259 0.185153 0.0635233
0.271122 0.232731 0.00195315
0.644404 0.27071 0
0.805875 0.251453 0
0.833158 0.251637 0
0.819669 0.222309 0
0.812161 0.206195 0
0 0.337163 0.0184176
0 0.329397 0.0201267
0 0.359594 0.00216678
0.144884 0.454582 0
0.695567 0.568261 0
0.931289 0.577462 0
0.970657 0.576501 0
0.96022 0.546532 0
0.950835 0.52221 0
0 0.442115 0
0 0.438895 0
0 0.473289 0
0.00585946 0.578683 0
0.647868 0.755444 0
0.988586 0.831846 0
1 0.820737 0
1 0.811887 0
1 0.800275 0
0 0.483436 0
0 0.480339 0
0 0.518364 0
1.5259e-05 0.606516 0
0.55816 0.775662 0
0.973526 0.890471 0
1 0.889555 0
1 0.887861 0
1 0.886275 0
0 0.500282 0
0 0.500282 0
0 0.528038 0
0 0.605158 0
0.47158 0.753902 0
0.922286 0.883879 0
1 0.898314 0
1 0.895521 0
1 0.895521 0
0 0.500282 0
0 0.500282 0
0 0.51165 0
0 0.58616 0
0.359533 0.719615 0
0.857908 0.867567 0
1 0.899184 0
1 0.895521 0
1 0.895521 0
0.00605783 0.0241703 0.117128
0.032517 0.0301518 0.115541
0.104036 0.0439612 0.119646
0.332723 0.0106355 0.108522
0.589624 0 0.0780346
0.686458 0 0.0232395
0.706477 0 0.00561532
0.705745 0 0
0.705226 0 0
0.000823987 0.0433509 0.107836
0.0241093 0.0455634 0.100618
0.084123 0.0535592 0.0973983
0.267079 0.0573434 0.0798047
0.555215 0 0.0212711
0.68455 0 0.00187686
0.708934 0 0
0.704982 0 0
0.702983 0 0
0 0.082063 0.105089
0 0.0785382 0.0977798
0.0711528 0.0870222 0.0963455
0.275547 0.106645 0.0818036
0.588098 0.0274968 0.0104219
0.729015 0.00263981 0.000900282
0.751232 0 0
0.743969 0 0
0.740001 0 0
0 0.18912 0.108476
0 0.182391 0.103365
0.000579843 0.198901 0.101106
0.273548 0.243107 0.0639658
0.653193 0.273747 0.000213626
0.817777 0.252644 0
0.845045 0.254582 0
0.830167 0.222019 0
0.822156 0.205646 0
0 0.358389 0.0894179
0 0.350225 0.0880751
0 0.380865 0.0755474
0.1337 0.474174 0.000167849
0.710109 0.59118 0
0.946731 0.598672 0
0.983078 0.595071 0
0.971862 0.562661 0
0.962188 0.536217 0
0 0.45304 0.0391546
0 0.449668 0.0310216
0 0.484901 0.00267033
0.00747692 0.592325 0
0.654536 0.771176 0
0.99443 0.846586 0
1 0.832853 0
1 0.82266 0
1 0.810391 0
0 0.493111 0.0999313
0 0.488182 0.0765393
0 0.52369 0.0482795
0 0.608454 0.00543221
0.547524 0.777478 0
0.972457 0.893126 0
1 0.892515 0
1 0.891096 0
1 0.889647 0
0 0.50837 0.107042
0 0.507012 0.0969863
0 0.531777 0.0706188
0 0.604532 0.0178073
0.451545 0.750805 0
0.912718 0.880842 0
1 0.896651 0
1 0.893309 0
1 0.893584 0
0 0.503075 0.0588388
0 0.501869 0.0454261
0 0.511543 0.0284428
0 0.584863 0.00383001
0.340917 0.716274 0
0.848905 0.864591 0
1 0.898512 0
1 0.894743 0
1 0.895232 0
0 0 0.305425
0 0 0.302876
0.10103 0 0.313146
0.344701 0 0.323018
0.604196 0 0.311604
0.706142 0 0.283543
0.724605 0 0.254871
0.722194 0 0.229328
0.720943 0 0.214893
0 0 0.286519
0 0 0.271977
0.0755169 0.00335698 0.267521
0.267613 0.00459297 0.265263
0.565698 0 0.259281
0.698497 0 0.236912
0.723568 0 0.212024
0.718853 0 0.182971
0.716731 0 0.168109
0 0.0505226 0.273701
0 0.0536812 0.262348
0.0264897 0.0864576 0.269566
0.273045 0.104311 0.276768
0.594125 0.0093843 0.261936
0.739925 0 0.242679
0.761837 0 0.219623
0.754314 0 0.18761
0.750149 0 0.169924
0 0.217914 0.294286
0 0.208942 0.28127
0 0.226825 0.291951
0.252842 0.267048 0.286839
0.6448 0.275685 0.263767
0.806378 0.229511 0.223728
0.8336 0.229725 0.201755
0.819684 0.190005 0.165698
0.811948 0.166217 0.143893
0 0.403265 0.28455
0 0.392477 0.271504
0 0.423133 0.281758
0.0407874 0.503197 0.267628
0.679072 0.589685 0.205081
0.9187 0.582544 0.117998
0.957382 0.578592 0.0797436
0.949081 0.545998 0.0223392
0.942306 0.520714 0.00637827
0 0.496056 0.256016
0 0.49015 0.241001
0 0.523659 0.246311
0 0.615351 0.231144
0.610681 0.761486 0.0665751
0.97557 0.837949 0.00515755
1 0.830594 0.00207523
1 0.822538 0.000671397
1 0.813367 0
0 0.531838 0.28893
0 0.525017 0.267613
0 0.559731 0.270863
0 0.637385 0.273335
0.499352 0.772839 0.181231
0.937835 0.873075 0.0287785
1 0.883284 0.00500496
1 0.884153 0.000823987
1 0.885786 1.5259e-05
0 0.543343 0.281086
0 0.540856 0.269429
0 0.566415 0.270542
0 0.635828 0.276967
0.40087 0.755367 0.222507
0.875975 0.860365 0.0656291
1 0.882963 0.00163272
1 0.880796 0.0112612
1 0.882261 0.00366217
0 0.534783 0.240452
0 0.532647 0.230243
0 0.541878 0.226993
0 0.610269 0.229603
0.251759 0.718822 0.160113
0.819684 0.849287 0.00732433
1 0.889265 0
1 0.884565 0
1 0.885405 0
0 0 0.460578
0 0 0.46363
0.0502022 0 0.47866
0.348287 0 0.515938
0.621286 0 0.530663
0.733181 0 0.52282
0.753124 0 0.505302
0.750713 0 0.485298
0.749233 0 0.473671
0 0 0.467048
0 0 0.458305
0.0087892 0 0.458488
0.274403 0 0.481987
0.583291 0 0.498878
0.723278 0 0.489113
0.751217 0 0.472511
0.746303 0 0.447547
0.744533 0 0.43415
0 0 0.477531
0 0 0.468177
0.00128176 0.00605783 0.478645
0.270695 0.0258183 0.509377
0.610254 1.5259e-05 0.526818
0.763195 0 0.518013
0.786526 0 0.500862
0.779019 0 0.471351
0.774624 0 0.452598
0 0.202487 0.530739
0 0.191135 0.517296
0 0.219074 0.538659
0.199298 0.283726 0.557351
0.641108 0.28896 0.571679
0.814389 0.239841 0.548699
0.843885 0.243717 0.53344
0.832105 0.203174 0.499214
0.824704 0.17731 0.476967
0 0.448249 0.576761
0 0.43624 0.561532
0 0.46804 0.582498
0 0.551369 0.601968
0.649699 0.63389 0.604227
0.908415 0.621775 0.58117
0.950011 0.616464 0.561074
0.943587 0.583307 0.530144
0.936828 0.554635 0.505257
0 0.558099 0.564172
0 0.553002 0.547723
0 0.584787 0.562646
0 0.676326 0.587442
0.544732 0.814054 0.576791
0.937148 0.871183 0.552316
0.999939 0.867369 0.524498
1 0.8551 0.496376
1 0.842054 0.469276
0 0.587839 0.565072
0 0.582315 0.545907
0 0.61593 0.559564
0 0.692668 0.585687
0.410086 0.82388 0.576059
0.901045 0.911665 0.555428
1 0.920119 0.520974
1 0.913329 0.491157
1 0.907515 0.45861
0 0.595941 0.539117
0 0.59379 0.526741
0 0.618692 0.533608
0 0.687648 0.559396
0.273686 0.801907 0.553079
0.845609 0.902968 0.545037
0.999496 0.925124 0.522148
1 0.919936 0.504067
1 0.917021 0.483604
0 0.586664 0.489067
0 0.583932 0.475044
0 0.592279 0.472358
0 0.661128 0.50016
0.115557 0.765591 0.494301
0.782879 0.881727 0.480369
0.99411 0.915602 0.45388
1 0.910353 0.435096
1 0.907683 0.414923
0 0 0.540841
0 0 0.54522
0.033814 0 0.561212
0.348562 0 0.606516
0.640909 0 0.639597
0.759747 0 0.650233
0.781247 0 0.650935
0.778241 0 0.643244
0.776547 0 0.637842
0 0 0.553506
0 0 0.54905
0 0 0.55697
0.26807 0 0.591852
0.59527 0 0.630442
0.74667 0 0.639094
0.77731 0 0.637964
0.772793 0 0.625971
0.771771 0 0.619791
0 0 0.575586
0 0 0.573663
0 0.000106813 0.589746
0.261692 0.020325 0.631556
0.617594 0 0.675242
0.783581 0 0.684199
0.811337 0 0.682002
0.805142 0 0.665263
0.801328 0 0.654215
0 0.159564 0.641535
0 0.142947 0.634256
0 0.186221 0.660426
0.149264 0.283955 0.70106
0.63064 0.287648 0.745083
0.819471 0.231342 0.742367
0.853422 0.236011 0.738933
0.843626 0.185229 0.71841
0.836973 0.149248 0.70457
0 0.453498 0.744823
0 0.440299 0.736568
0 0.470329 0.757351
0 0.557153 0.793637
0.612634 0.63949 0.82298
0.897017 0.629786 0.826719
0.945129 0.625223 0.818112
0.940505 0.59585 0.800931
0.934493 0.5682 0.785794
0 0.584115 0.770596
0 0.581018 0.764889
0 0.611551 0.781399
0 0.701839 0.817517
0.472694 0.840223 0.836515
0.913115 0.901778 0.85124
0.99324 0.90161 0.84094
0.995911 0.8925 0.827115
0.994812 0.880949 0.813291
0 0.617639 0.774166
0 0.613779 0.76582
0 0.646113 0.781949
0 0.721904 0.812451
0.269886 0.853635 0.825284
0.872435 0.94609 0.846098
0.996063 0.9626 0.837446
1 0.959304 0.821622
1 0.955856 0.805371
0 0.630137 0.761624
0 0.629541 0.754238
0 0.654246 0.763989
0 0.722026 0.792966
0.0839857 0.835523 0.802594
0.814298 0.937499 0.825666
0.987411 0.963989 0.821576
1 0.962463 0.80885
1 0.960662 0.795987
0 0.626871 0.730632
0 0.625422 0.720974
0 0.633249 0.719982
0 0.70251 0.753841
0.017258 0.806287 0.765301
0.745983 0.920348 0.782773
0.975998 0.95697 0.778607
1 0.95642 0.765652
1 0.954589 0.752636
0 0 0.554391
0 0 0.562951
0.0208591 0 0.582712
0.337026 0 0.639216
0.656672 0 0.688426
0.78941 0 0.708995
0.81323 0 0.719753
0.81323 0 0.719753
0.812879 0 0.719081
0 0 0.577768
0 0 0.579889
0 0.00144961 0.59411
0.265812 0.0161135 0.639185
0.608682 1.5259e-05 0.688716
0.77969 0 0.70901
0.813367 0 0.720165
0.812268 0 0.717891
0.810834 0 0.715145
0 0 0.605112
0 0 0.607523
0 0.053727 0.629343
0.244068 0.184482 0.684108
0.623606 0.161074 0.732631
0.794949 0.0370642 0.743984
0.829892 0.103853 0.75288
0.824521 0.049958 0.744457
0.821653 0.0220951 0.739483
0 0.229541 0.683864
0 0.218875 0.680293
0 0.258717 0.709041
0.0801099 0.345251 0.745647
0.630045 0.375235 0.798032
0.841154 0.34168 0.807996
0.881163 0.349187 0.8121
0.872984 0.314473 0.801358
0.865873 0.286488 0.792569
0 0.462272 0.775906
0 0.451453 0.772335
0 0.484382 0.794629
0 0.56849 0.831464
0.584634 0.652506 0.867079
0.891722 0.650019 0.884611
0.947341 0.64242 0.884611
0.943877 0.614176 0.877485
0.938018 0.585412 0.870085
0 0.589105 0.815488
0 0.585702 0.81413
0 0.617319 0.832837
0 0.703151 0.86807
0.413153 0.838178 0.895689
0.896681 0.901381 0.926329
0.987945 0.902617 0.928496
0.992065 0.895491 0.925551
0.9906 0.884459 0.922011
0 0.624872 0.829999
0 0.622202 0.828092
0 0.651667 0.843717
0 0.725307 0.87274
0.133089 0.85565 0.892302
0.853605 0.952224 0.930114
0.989746 0.971664 0.935744
1 0.971374 0.933104
1 0.969604 0.930404
0 0.638331 0.833219
0 0.637842 0.831952
0 0.662913 0.844144
0 0.72929 0.870802
0.0299229 0.841352 0.887602
0.790799 0.9458 0.923842
0.979126 0.975509 0.93312
1 0.97789 0.931197
1 0.977569 0.928603
0 0.636881 0.828199
0 0.636881 0.826627
0 0.6448 0.829343
0 0.712978 0.860197
0 0.816663 0.880476
0.715633 0.932143 0.911894
0.964355 0.972519 0.923995
1 0.976837 0.922362
1 0.97641 0.918578
0 0 0.554391
0 0 0.562402
0.0121614 0 0.581384
0.322362 0 0.636652
0.647181 0 0.68716
0.787488 0 0.708461
0.81323 0 0.719753
0.81323 0 0.719753
0.81323 0 0.719753
0 0 0.575875
0 0 0.577325
0 0.000442512 0.591348
0.25185 0.0113832 0.634256
0.595972 0 0.685069
0.776165 0 0.707347
0.81323 0 0.719753
0.81323 0 0.719753
0.81323 0 0.719753
0 0 0.603632
0 0 0.605493
0 0.0370031 0.625406
0.228443 0.177188 0.678843
0.609583 0.155047 0.729
0.790463 0.0243534 0.74168
0.828397 0.0935073 0.751553
0.825193 0.0562448 0.746868
0.823621 0.0399023 0.744411
0 0.21944 0.679301
0 0.208072 0.675013
0 0.244709 0.702434
0.0653544 0.332143 0.74052
0.614359 0.363958 0.793149
0.835126 0.33164 0.80499
0.880201 0.346441 0.812039
0.875944 0.326863 0.806195
0.871809 0.311177 0.801511
0 0.454444 0.773404
0 0.442924 0.769558
0 0.474235 0.790677
0 0.55642 0.828229
0.56492 0.641657 0.864027
0.885466 0.642985 0.884031
0.946105 0.638926 0.886122
0.944808 0.619379 0.882033
0.940368 0.597528 0.877226
0 0.587854 0.816541
0 0.584039 0.815656
0 0.615228 0.833753
0 0.698741 0.868864
0.370077 0.832151 0.89601
0.8878 0.896727 0.928649
0.985855 0.898787 0.932723
0.991226 0.892989 0.931914
0.989807 0.882353 0.930327
0 0.625757 0.833036
0 0.623758 0.832349
0 0.652094 0.847807
0 0.724056 0.875914
0.104509 0.851896 0.896391
0.840803 0.950286 0.935622
0.986862 0.971206 0.943832
0.998993 0.970611 0.942794
0.998901 0.968917 0.942443
0 0.646937 0.843626
0 0.646937 0.843626
0 0.667582 0.853925
0 0.731792 0.879042
0.000946059 0.8392 0.895308
0.775708 0.944213 0.933074
0.974319 0.975616 0.944839
0.999969 0.979294 0.945876
0.999969 0.979294 0.945876
0 0.646937 0.843626
0 0.646937 0.843626
0 0.652125 0.846494
0 0.717159 0.873442
0 0.815839 0.894591
0.695247 0.930526 0.927672
0.957076 0.973297 0.94406
0.999969 0.979294 0.945876
0.999969 0.979294 0.945754
0 0 0.554391
0 0 0.562081
0.0052491 0 0.580484
0.314794 0 0.635355
0.64155 0 0.686442
0.786313 0 0.708141
0.81323 0 0.719753
0.81323 0 0.719753
0.81323 0 0.719753
0 0 0.575143
0 0 0.576379
0 0.000213626 0.590097
0.244663 0.00985733 0.631739
0.588693 0 0.683101
0.773999 0 0.706233
0.81323 0 0.719753
0.81323 0 0.719753
0.81323 0 0.719753
0 0 0.602869
0 0 0.604425
0 0.0277409 0.623301
0.219471 0.172992 0.675792
0.600595 0.152117 0.726894
0.787747 0.0204318 0.740459
0.827192 0.0838026 0.75021
0.824247 0.0469673 0.745632
0.823117 0.0343328 0.74345
0 0.213535 0.676585
0 0.20145 0.671977
0 0.236423 0.698604
0.0564279 0.324407 0.737438
0.604486 0.357214 0.790143
0.830915 0.324834 0.802747
0.877943 0.338643 0.80975
0.874189 0.32018 0.804196
0.870008 0.304341 0.799481
0 0.449149 0.771634
0 0.437507 0.767758
0 0.467185 0.787793
0 0.546563 0.825086
0.550118 0.631495 0.860731
0.880247 0.633936 0.881865
0.943786 0.62887 0.884016
0.942977 0.610391 0.880064
0.93846 0.588205 0.875151
0 0.586465 0.816281
0 0.581903 0.815122
0 0.611811 0.832502
0 0.693507 0.867185
0.332403 0.825803 0.89395
0.881727 0.89189 0.927626
0.984451 0.894133 0.932006
0.990677 0.888808 0.931304
0.988861 0.875822 0.92932
0 0.624781 0.832685
0 0.622797 0.831983
0 0.649012 0.846067
0 0.720058 0.874525
0.0834211 0.847745 0.895811
0.832425 0.948501 0.934966
0.98555 0.970321 0.943648
0.998947 0.969924 0.942657
0.99884 0.968185 0.94229
0 0.646937 0.843626
0 0.646937 0.843626
0 0.665751 0.853086
0 0.730007 0.878386
0 0.836271 0.895216
0.765606 0.942504 0.932403
0.972107 0.975311 0.944732
0.999969 0.979294 0.945876
0.999969 0.979294 0.945876
0 0.646937 0.843626
0 0.646937 0.843626
0 0.650156 0.845487
0 0.715297 0.872663
0 0.812833 0.894484
0.685283 0.928832 0.926986
0.95494 0.973007 0.943954
0.999969 0.979294 0.945876
0.999969 0.979294 0.945876
