LUT预设1/iPhone 专用lut-合集1/iPhone 标准版合集1(log)/3513富士胶片.cube
TITLE "Generated by Resolve"
LUT_3D_SIZE 9
0.0299535 0.0318914 0.0315862
0.0325933 0.031754 0.0322881
0.108614 0.0399176 0.0295262
0.29395 0.00895705 0
0.498207 0 0
0.614115 0 0
0.646708 0 0
0.646708 0 0
0.646708 0 0
0.0275425 0.0522469 0.0363165
0.0317845 0.0487984 0.0377356
0.0945449 0.0568399 0.0362097
0.283513 0.0593576 7.62951e-05
0.505394 0.000396735 0
0.628275 0 0
0.658396 0 0
0.651026 0 0
0.649409 0 0
0.000503548 0.104067 0.0429389
0.00311284 0.0961929 0.0441596
0.0698405 0.100496 0.0417029
0.270909 0.121462 0.000900282
0.520211 0.103975 0
0.663981 0.0347143 0
0.701823 0.0161135 0
0.692576 0.0027924 0
0.688716 0.0010071 0
0 0.193088 0.0310826
0 0.187839 0.0343938
0.00408942 0.185306 0.0293278
0.237324 0.22475 9.15541e-05
0.538033 0.250736 0
0.72813 0.229862 0
0.781155 0.222782 0
0.771221 0.197528 0
0.764828 0.184558 0
0 0.32015 0
0 0.321569 0
0 0.313283 0
0.108248 0.36321 0
0.522194 0.432349 0
0.77969 0.433997 0
0.863325 0.426108 0
0.86154 0.403769 0
0.855161 0.3888 0
0 0.416953 0
0 0.418677 0
0 0.417258 0
0.000106813 0.468925 0
0.454612 0.588861 0
0.808469 0.645029 0
0.950149 0.652552 0
0.969162 0.646296 0
0.963256 0.632914 0
0 0.456275 0
0 0.457099 0
0 0.458839 0
0 0.502556 0
0.339178 0.634272 0
0.770184 0.748882 0
0.987488 0.787427 0
0.997513 0.783169 0
0.997543 0.778195 0
0 0.487541 0
0 0.487907 0
0 0.487984 0
0 0.534783 0
0.28304 0.650462 0
0.714366 0.772946 0
0.989364 0.836713 0
0.997406 0.831113 0
0.997421 0.829007 0
0 0.487907 0
0 0.487907 0
0 0.487907 0
0 0.519081 0
0.184192 0.625818 0
0.646021 0.755337 0
0.966552 0.83447 0
0.997406 0.834928 0
0.997406 0.835492 0
0.0275731 0.0297856 0.0548104
0.0272984 0.0308385 0.0487373
0.114229 0.0411688 0.0428473
0.311437 0.000808728 0.000885023
0.524239 0 0
0.633936 0 0
0.660761 0 0
0.653391 0 0
0.650584 0 0
0.0232547 0.0540322 0.0483253
0.0307317 0.050721 0.0446479
0.101015 0.0596017 0.0424353
0.300984 0.0534981 0.000167849
0.52903 6.10361e-05 0
0.645274 0 0
0.668605 0 0
0.654536 0 0
0.65214 0 0
0.00015259 0.108263 0.0495308
0.00242618 0.0995041 0.0462348
0.0724193 0.103777 0.0420233
0.285267 0.124483 0.000564584
0.537545 0.104387 0
0.674754 0.0325628 0
0.705364 0.0153201 0
0.693217 0.00291447 0
0.689403 0.00123598 0
0 0.198871 0.0225834
0 0.193179 0.0248722
0.0037232 0.18999 0.0214694
0.244053 0.230091 4.57771e-05
0.545068 0.253346 0
0.731029 0.230594 0
0.781643 0.22327 0
0.771496 0.198154 0
0.76527 0.185672 0
0 0.320302 0
0 0.322484 0
0 0.314778 0
0.108629 0.364797 0
0.523262 0.433188 0
0.781125 0.435309 0
0.864164 0.427817 0
0.862455 0.405783 0
0.856168 0.390997 0
0 0.417273 0
0 0.419165 0
0 0.417899 0
0.000167849 0.469764 0
0.456138 0.589883 0
0.810605 0.64686 0
0.951568 0.65449 0
0.969848 0.647807 0
0.964187 0.634989 0
0 0.456413 0
0 0.457282 0
0 0.459144 0
0 0.503777 0
0.343084 0.635874 0
0.772854 0.750057 0
0.987884 0.788373 0
0.997528 0.783871 0
0.997543 0.779049 0
0 0.487663 0
0 0.487907 0
0 0.48809 0
0 0.53579 0
0.285985 0.651499 0
0.71754 0.773693 0
0.988403 0.836271 0
0.997406 0.83154 0
0.997421 0.829465 0
0 0.487907 0
0 0.487907 0
0 0.487907 0
0 0.519799 0
0.185595 0.627054 0
0.649607 0.756252 0
0.968734 0.834974 0
0.997406 0.834943 0
0.997406 0.835492 0
0.0102846 0.005066 0.168872
0.0165408 0.00717174 0.154711
0.114458 0.0166629 0.14844
0.325658 0 0.129366
0.550149 0 0.10219
0.663035 0 0.0759594
0.689769 0 0.0479286
0.685863 0 0.0135348
0.684169 0 0.00987259
0.000198367 0.0496834 0.152773
0.0039826 0.0490272 0.134997
0.0999466 0.0581216 0.131273
0.313207 0.0285649 0.103655
0.557061 0 0.0663462
0.676173 0 0.0437018
0.698573 0 0.0350958
0.687434 0 0.0113985
0.685054 0 0.0034638
0 0.119905 0.142168
0 0.110002 0.124941
0.0581826 0.113283 0.114885
0.301549 0.124926 0.0792706
0.565301 0.0598001 0.0147097
0.711559 0.0100404 0.00125124
0.740688 0.00396735 0.00471504
0.72755 0.000656138 3.0518e-05
0.721767 0.000350958 0
0 0.225086 0.109651
0 0.218936 0.101823
0.00120546 0.213199 0.0851759
0.257572 0.246662 0.0226139
0.58468 0.26569 0.000137331
0.773526 0.237507 0
0.814771 0.222751 0
0.80032 0.195956 0
0.792493 0.18323 0
0 0.354589 0.0275731
0 0.357336 0.0278019
0 0.349172 0.014435
0.109804 0.404715 0.000427253
0.563622 0.472541 0
0.824826 0.466377 0
0.895613 0.449088 0
0.885771 0.419623 0
0.876295 0.402716 0
0 0.439551 0
0 0.442573 0.0024567
0 0.441871 0.00111391
0.000167849 0.494743 0
0.477058 0.618753 0
0.835431 0.670909 0
0.966155 0.668009 0
0.974212 0.651545 0
0.966766 0.636851 0
0 0.461021 0
0 0.462699 6.10361e-05
0 0.463706 0
0 0.506157 0
0.338796 0.636103 0
0.771038 0.749676 0
0.987488 0.788098 0
0.997528 0.783703 0
0.997543 0.77882 0
0 0.487648 0.000259403
0 0.487953 0.00109865
0 0.488121 0.00149538
0 0.534997 9.15541e-05
0.281285 0.650431 0
0.715602 0.773083 0
0.987274 0.835813 0
0.997406 0.831495 0
0.997421 0.82945 0
0 0.487907 0
0 0.487907 0
0 0.487907 0
0 0.519295 0
0.180926 0.626398 0
0.64741 0.755627 0
0.967651 0.834714 0
0.997406 0.834943 0
0.997406 0.835492 0
0 0 0.342397
0.000366217 0 0.32845
0.10515 0 0.329244
0.335866 0 0.325536
0.56524 0 0.311025
0.682155 0 0.302861
0.70985 0 0.293355
0.70724 0 0.257465
0.706264 0 0.244709
0 6.10361e-05 0.336583
0 0.000106813 0.314046
0.090135 0.00172427 0.316579
0.321324 0.000549325 0.309239
0.572259 0 0.293172
0.693492 0 0.284443
0.716838 0 0.280095
0.708629 0 0.245716
0.706996 0 0.231739
0 0.09337 0.332158
0 0.0868238 0.313802
0.0182193 0.100816 0.308522
0.300206 0.119875 0.305531
0.573465 0.0235752 0.264698
0.725765 0 0.245594
0.754879 0 0.245777
0.745953 0 0.211063
0.741848 0 0.196963
0 0.240192 0.312917
0 0.236667 0.307866
0 0.230869 0.293568
0.220081 0.272312 0.284413
0.585962 0.263584 0.234302
0.770413 0.200137 0.176394
0.806455 0.174334 0.176974
0.795834 0.131044 0.140749
0.790692 0.112917 0.12459
0 0.416052 0.294835
0 0.419364 0.299168
0 0.409354 0.279881
0.0332494 0.450874 0.245106
0.556405 0.493294 0.147189
0.832059 0.470115 0.0522621
0.89778 0.446616 0.0598306
0.892622 0.415946 0.0300603
0.887297 0.399054 0.0121004
0 0.498772 0.249409
0 0.502831 0.25893
0 0.500191 0.24448
0 0.543465 0.203372
0.460319 0.656199 0.0546273
0.871275 0.719341 0.00250248
0.994888 0.714977 6.10361e-05
0.996307 0.695628 0
0.995926 0.683085 0
0 0.513268 0.218036
0 0.516945 0.231693
0 0.517952 0.229297
0 0.553872 0.193393
0.285313 0.670146 0.047715
0.806226 0.791318 6.10361e-05
0.996902 0.820417 0
0.997467 0.810117 0
0.997482 0.805005 0
0 0.536614 0.250538
0 0.539879 0.263752
0 0.539925 0.264149
0 0.579339 0.247776
0.161318 0.669169 0.159976
0.693004 0.775296 0.0254978
0.981674 0.838483 0.000167849
0.997406 0.832837 0.000122072
0.997421 0.830671 0
0 0.521492 0.193606
0 0.525841 0.211505
0 0.525994 0.213138
0 0.55111 0.195468
0.0624704 0.637095 0.0999313
0.625834 0.755673 0.00743114
0.958358 0.833524 0
0.997406 0.834195 0
0.997406 0.834226 0
0 0 0.453315
0 0 0.447578
0.0471351 0 0.459327
0.328389 0 0.484291
0.576486 0 0.498268
0.703182 0 0.501945
0.733547 0 0.50161
0.729229 0 0.476753
0.727718 0 0.467384
0 0 0.475029
0 0 0.463554
0.0358282 0 0.472816
0.319539 0 0.493782
0.579919 0 0.498344
0.712154 0 0.498878
0.737224 0 0.496605
0.729702 0 0.469383
0.72755 0 0.458656
0 0.00955215 0.501396
0 0.0068513 0.491783
0.0053254 0.0292515 0.49369
0.284947 0.0486 0.516228
0.577417 0.00154116 0.508507
0.740353 0 0.50071
0.771328 0 0.50161
0.762509 0 0.470207
0.758419 0 0.456794
0 0.219425 0.512032
0 0.216571 0.510323
0 0.205646 0.504311
0.135134 0.256031 0.516075
0.571237 0.271061 0.528466
0.770291 0.199313 0.494026
0.807324 0.166598 0.49163
0.79826 0.124956 0.460227
0.7935 0.103975 0.444678
0 0.408682 0.514626
0 0.41268 0.519295
0 0.401358 0.507652
0.00123598 0.448447 0.511269
0.513573 0.536828 0.528176
0.819745 0.504631 0.48574
0.886748 0.47808 0.477256
0.881987 0.444648 0.450797
0.876829 0.425467 0.433326
0 0.531929 0.517235
0 0.533043 0.523201
0 0.53431 0.518273
0 0.589654 0.523003
0.339422 0.713695 0.499458
0.828183 0.753689 0.440528
0.965682 0.741787 0.413367
0.974166 0.723873 0.406821
0.971237 0.707881 0.385809
0 0.558495 0.499001
0 0.558877 0.509117
0 0.559976 0.508125
0 0.603937 0.509514
0.117693 0.724575 0.481071
0.747097 0.81529 0.416236
0.979065 0.838437 0.346624
0.99733 0.832578 0.328725
0.99736 0.825147 0.293889
0 0.575647 0.497826
0 0.575586 0.506981
0 0.575311 0.506996
0 0.620829 0.51487
0.0332494 0.720165 0.501427
0.642023 0.812985 0.453986
0.943954 0.856748 0.39501
0.997269 0.859556 0.371344
0.997284 0.853864 0.337896
0 0.575921 0.463264
0 0.576089 0.47274
0 0.57557 0.473014
0 0.604288 0.47454
0.00564584 0.695888 0.462226
0.568078 0.791363 0.408438
0.914595 0.844373 0.336446
0.997253 0.853193 0.310094
0.997299 0.851438 0.305211
0 0 0.483589
0 0 0.482582
0.00808728 0 0.499321
0.30631 0 0.538231
0.56849 0 0.572152
0.714748 0 0.59411
0.751919 0 0.604379
0.750469 0 0.597025
0.749752 0 0.594232
0 0 0.517601
0 0 0.513817
0.00550851 0 0.526665
0.296162 0 0.559731
0.572 0 0.586557
0.722454 0 0.600763
0.754177 0 0.605081
0.751141 0 0.595789
0.749981 0 0.59176
0 0 0.559976
0 0.000198367 0.556893
0 0.00376898 0.566598
0.260487 0.0226749 0.599405
0.569818 1.5259e-05 0.622919
0.752804 0 0.634516
0.789578 0 0.639536
0.78378 0 0.624659
0.780468 0 0.617243
0 0.198734 0.596689
0 0.1953 0.596368
0 0.181811 0.600717
0.0909285 0.236271 0.620722
0.54728 0.258991 0.672129
0.768597 0.170565 0.668772
0.813748 0.129778 0.66949
0.809155 0.082063 0.655726
0.806043 0.0559854 0.647456
0 0.401328 0.634562
0 0.404883 0.636393
0 0.391485 0.633997
0 0.426993 0.648035
0.430442 0.512596 0.691524
0.809323 0.524147 0.729641
0.887724 0.493965 0.725933
0.885008 0.463447 0.710796
0.879942 0.44419 0.698985
0 0.515984 0.653391
0 0.517952 0.656733
0 0.517876 0.657115
0 0.562158 0.674968
0.14934 0.688548 0.69276
0.796872 0.802594 0.756909
0.9579 0.794217 0.749569
0.968032 0.77612 0.740703
0.964782 0.760922 0.727977
0 0.541238 0.651576
0 0.541222 0.654994
0 0.54165 0.654673
0 0.578988 0.669367
0.0131838 0.71487 0.69543
0.693828 0.864851 0.739284
0.961379 0.901473 0.726299
0.997177 0.902281 0.724071
0.996872 0.896361 0.710628
0 0.557473 0.649424
0 0.556603 0.654124
0 0.556848 0.653712
0 0.597482 0.669093
0.000259403 0.708629 0.692195
0.578439 0.851057 0.730205
0.922744 0.911223 0.723522
0.997635 0.920928 0.715953
0.998398 0.917327 0.700984
0 0.560616 0.631769
0 0.560204 0.638498
0 0.560189 0.639689
0 0.585687 0.646998
0 0.690562 0.671519
0.489082 0.829892 0.69691
0.887144 0.898817 0.685252
0.994598 0.915084 0.67895
0.998169 0.913893 0.671748
0 0 0.484932
0 0 0.484672
0 0 0.501472
0.283253 0 0.544259
0.554986 0 0.585641
0.715892 0 0.61387
0.758709 0 0.627848
0.759503 0 0.628214
0.759213 0 0.627634
0 0 0.522179
0 0 0.519097
0 0 0.531823
0.270863 0 0.567208
0.554147 0 0.600275
0.720714 0 0.621698
0.759991 0 0.629664
0.759625 0 0.627878
0.758999 0 0.626932
0 0 0.567941
0 0 0.566064
0 0.00135805 0.576806
0.235752 0.0189822 0.611597
0.550027 0.000396735 0.644297
0.752255 0 0.665949
0.795651 0 0.672679
0.79173 0 0.664546
0.788769 0 0.660121
0 0.193225 0.608438
0 0.191791 0.608484
0 0.171695 0.613901
0.0583047 0.22739 0.636011
0.521569 0.259434 0.699641
0.761517 0.168658 0.709667
0.814984 0.122301 0.711406
0.813413 0.0753185 0.704952
0.81117 0.0466011 0.701122
0 0.391165 0.651499
0 0.395956 0.652796
0 0.382055 0.654566
0 0.414176 0.67277
0.376318 0.490318 0.713619
0.791974 0.520989 0.784237
0.885222 0.488029 0.785214
0.885466 0.462226 0.778988
0.880476 0.442481 0.772808
0 0.512779 0.680552
0 0.514855 0.681102
0 0.514336 0.683726
0 0.550195 0.704463
0.0761578 0.661341 0.722148
0.766598 0.801617 0.831785
0.953429 0.802823 0.848646
0.967041 0.787121 0.846891
0.963775 0.772442 0.842512
0 0.53872 0.689189
0 0.539147 0.689952
0 0.539498 0.690242
0 0.569146 0.70721
0 0.694224 0.741329
0.645121 0.865507 0.828061
0.95201 0.924269 0.860792
0.995499 0.926604 0.862882
0.995254 0.922454 0.859617
0 0.550393 0.694423
0 0.55079 0.695262
0 0.550729 0.695277
0 0.585946 0.71252
0 0.688594 0.740993
0.498238 0.832486 0.799161
0.906447 0.933165 0.856703
0.99585 0.947677 0.861692
0.999466 0.947173 0.859159
0 0.551095 0.69276
0 0.551095 0.69337
0 0.551186 0.693492
0 0.573648 0.704555
0 0.668879 0.734569
0.372778 0.801236 0.774227
0.865141 0.924788 0.845716
0.990616 0.946883 0.853284
0.999481 0.948013 0.851759
0 0 0.481956
0 0 0.481743
0 0 0.499046
0.262501 0 0.540902
0.538094 0 0.582971
0.710689 0 0.61326
0.758144 0 0.627756
0.759655 0 0.62855
0.759655 0 0.62855
0 0 0.517266
0 0 0.514076
0 0 0.525505
0.247745 0 0.559579
0.5337 0 0.593744
0.711147 0 0.617395
0.758877 0 0.629114
0.759808 0 0.628733
0.759655 0 0.62855
0 0 0.564233
0 0 0.562554
0 0 0.571435
0.213687 0.0130159 0.604227
0.530983 0.000640879 0.638346
0.74284 0 0.661341
0.793164 0 0.669993
0.790661 0 0.66421
0.788144 0 0.660899
0 0.175952 0.60499
0 0.176135 0.605203
0 0.15256 0.609262
0.0433661 0.210391 0.631403
0.501045 0.242374 0.693706
0.750362 0.14522 0.705821
0.811933 0.103273 0.71014
0.812757 0.0674754 0.706935
0.811078 0.0468299 0.704219
0 0.378225 0.649287
0 0.383291 0.650431
0 0.369772 0.651499
0 0.397513 0.669993
0.348638 0.471366 0.707576
0.776898 0.506798 0.783368
0.880369 0.475319 0.786923
0.88278 0.451591 0.782727
0.877943 0.43241 0.777783
0 0.509606 0.681956
0 0.51191 0.682445
0 0.510765 0.684459
0 0.541375 0.703853
0.0402533 0.650477 0.723568
0.74229 0.788464 0.831937
0.948165 0.796216 0.857237
0.965652 0.782208 0.857191
0.962234 0.767056 0.854414
0 0.538247 0.692088
0 0.538537 0.692195
0 0.538796 0.69247
0 0.564233 0.708721
0 0.684642 0.744045
0.614527 0.854841 0.828168
0.944823 0.924575 0.87483
0.99443 0.927764 0.879637
0.994415 0.924071 0.879088
0 0.549599 0.698238
0 0.55021 0.698665
0 0.550179 0.698619
0 0.581399 0.715328
0 0.679835 0.744503
0.448142 0.8168 0.795987
0.8934 0.933974 0.872892
0.994278 0.951247 0.882445
0.999252 0.951385 0.882628
0 0.550774 0.698909
0 0.550759 0.699016
0 0.550759 0.699001
0 0.569772 0.709651
0 0.659342 0.740001
0.303014 0.783368 0.773129
0.844022 0.925505 0.867796
0.987366 0.951751 0.881132
0.999664 0.953933 0.882368
0 0 0.481758
0 0 0.481498
0 0 0.498329
0.255329 0 0.539727
0.532464 0 0.582086
0.708873 0 0.613031
0.757824 0 0.627588
0.759655 0 0.62855
0.759655 0 0.62855
0 0 0.515908
0 0 0.512825
0 0 0.523781
0.240925 0 0.557427
0.526864 0 0.59176
0.708202 0 0.61648
0.75845 0 0.628794
0.759747 0 0.628656
0.759655 0 0.62855
0 0 0.563073
0 0 0.561425
0 0 0.569848
0.206897 0.0117037 0.602045
0.525048 0.000671397 0.63653
0.73933 0 0.659739
0.792126 0 0.668727
0.789914 0 0.663172
0.787167 0 0.659709
0 0.170489 0.603922
0 0.171344 0.604212
0 0.146868 0.607843
0.0387274 0.205249 0.629923
0.494591 0.237552 0.691875
0.746242 0.137606 0.704173
0.81059 0.093843 0.708827
0.812299 0.0609903 0.706127
0.810575 0.0411536 0.703319
0 0.373465 0.648203
0 0.378561 0.649348
0 0.365316 0.650263
0 0.391836 0.668818
0.340948 0.464729 0.70518
0.77174 0.500465 0.781476
0.878141 0.468574 0.785183
0.8813 0.445747 0.781231
0.876234 0.425483 0.775982
0 0.508171 0.681651
0 0.510552 0.682109
0 0.509316 0.68394
0 0.538186 0.702815
0.0333562 0.64593 0.722698
0.735103 0.783123 0.829862
0.945815 0.791562 0.856306
0.964691 0.777859 0.856397
0.961044 0.761807 0.853437
0 0.538064 0.692012
0 0.538384 0.692119
0 0.538613 0.692393
0 0.562615 0.707912
0 0.681834 0.743435
0.6056 0.851362 0.825895
0.942367 0.923186 0.874525
0.993988 0.926558 0.879591
0.994125 0.92256 0.879133
0 0.549325 0.698054
0 0.550027 0.698558
0 0.550072 0.698589
0 0.579919 0.714748
0 0.677378 0.74403
0.435172 0.813245 0.793637
0.890364 0.933272 0.872923
0.993729 0.95108 0.883101
0.999222 0.951324 0.883726
0 0.550744 0.699062
0 0.550744 0.699062
0 0.550744 0.699062
0 0.568383 0.70901
0 0.656367 0.739345
0.278202 0.778607 0.770535
0.835325 0.923964 0.867948
0.986038 0.952087 0.882887
0.99968 0.954284 0.88455
