LUT预设1/iPhone 专用lut-合集1/iPhone 标准版合集1(log)/3513富士胶片.cube
TITLE "Generated by Resolve"
LUT_3D_SIZE 5
0.0299535 0.0318914 0.0315862
0.108614 0.0399176 0.0295262
0.498207 0 0
0.646708 0 0
0.646708 0 0
0.000503548 0.104067 0.0429389
0.0698405 0.100496 0.0417029
0.520211 0.103975 0
0.701823 0.0161135 0
0.688716 0.0010071 0
0 0.32015 0
0 0.313283 0
0.522194 0.432349 0
0.863325 0.426108 0
0.855161 0.3888 0
0 0.456275 0
0 0.458839 0
0.339178 0.634272 0
0.987488 0.787427 0
0.997543 0.778195 0
0 0.487907 0
0 0.487907 0
0.184192 0.625818 0
0.966552 0.83447 0
0.997406 0.835492 0
0.0102846 0.005066 0.168872
0.114458 0.0166629 0.14844
0.550149 0 0.10219
0.689769 0 0.0479286
0.684169 0 0.00987259
0 0.119905 0.142168
0.0581826 0.113283 0.114885
0.565301 0.0598001 0.0147097
0.740688 0.00396735 0.00471504
0.721767 0.000350958 0
0 0.354589 0.0275731
0 0.349172 0.014435
0.563622 0.472541 0
0.895613 0.449088 0
0.876295 0.402716 0
0 0.461021 0
0 0.463706 0
0.338796 0.636103 0
0.987488 0.788098 0
0.997543 0.77882 0
0 0.487907 0
0 0.487907 0
0.180926 0.626398 0
0.967651 0.834714 0
0.997406 0.835492 0
0 0 0.453315
0.0471351 0 0.459327
0.576486 0 0.498268
0.733547 0 0.50161
0.727718 0 0.467384
0 0.00955215 0.501396
0.0053254 0.0292515 0.49369
0.577417 0.00154116 0.508507
0.771328 0 0.50161
0.758419 0 0.456794
0 0.408682 0.514626
0 0.401358 0.507652
0.513573 0.536828 0.528176
0.886748 0.47808 0.477256
0.876829 0.425467 0.433326
0 0.558495 0.499001
0 0.559976 0.508125
0.117693 0.724575 0.481071
0.979065 0.838437 0.346624
0.99736 0.825147 0.293889
0 0.575921 0.463264
0 0.57557 0.473014
0.00564584 0.695888 0.462226
0.914595 0.844373 0.336446
0.997299 0.851438 0.305211
0 0 0.484932
0 0 0.501472
0.554986 0 0.585641
0.758709 0 0.627848
0.759213 0 0.627634
0 0 0.567941
0 0.00135805 0.576806
0.550027 0.000396735 0.644297
0.795651 0 0.672679
0.788769 0 0.660121
0 0.391165 0.651499
0 0.382055 0.654566
0.376318 0.490318 0.713619
0.885222 0.488029 0.785214
0.880476 0.442481 0.772808
0 0.53872 0.689189
0 0.539498 0.690242
0 0.694224 0.741329
0.95201 0.924269 0.860792
0.995254 0.922454 0.859617
0 0.551095 0.69276
0 0.551186 0.693492
0 0.668879 0.734569
0.865141 0.924788 0.845716
0.999481 0.948013 0.851759
0 0 0.481758
0 0 0.498329
0.532464 0 0.582086
0.757824 0 0.627588
0.759655 0 0.62855
0 0 0.563073
0 0 0.569848
0.525048 0.000671397 0.63653
0.792126 0 0.668727
0.787167 0 0.659709
0 0.373465 0.648203
0 0.365316 0.650263
0.340948 0.464729 0.70518
0.878141 0.468574 0.785183
0.876234 0.425483 0.775982
0 0.538064 0.692012
0 0.538613 0.692393
0 0.681834 0.743435
0.942367 0.923186 0.874525
0.994125 0.92256 0.879133
0 0.550744 0.699062
0 0.550744 0.699062
0 0.656367 0.739345
0.835325 0.923964 0.867948
0.99968 0.954284 0.88455
