LUT预设1/iPhone 专用lut-合集1/iPhone 标准版合集1(log)/3513富士胶片.cube
TITLE "Generated by Resolve"
LUT_3D_SIZE 33
0.0299535 0.0318914 0.0315862
0.0302281 0.0316625 0.0321202
0.0308232 0.0315557 0.0323796
0.0298772 0.0315862 0.0324559
0.0325933 0.031754 0.0322881
0.043061 0.0322881 0.0318608
0.0588846 0.0347143 0.0318303
0.0784466 0.0382544 0.0315709
0.108614 0.0399176 0.0295262
0.148302 0.0392767 0.0215
0.192004 0.0364233 0.00869764
0.239841 0.0280156 0.000213626
0.29395 0.00895705 0
0.349828 0 0
0.402747 0 0
0.453254 0 0
0.498207 0 0
0.535714 0 0
0.567956 0 0
0.594003 0 0
0.614115 0 0
0.628977 0 0
0.639078 0 0
0.645045 0 0
0.646708 0 0
0.646708 0 0
0.646708 0 0
0.646708 0 0
0.646708 0 0
0.646708 0 0
0.646708 0 0
0.646708 0 0
0.646708 0 0
0.0301518 0.0347448 0.0319829
0.0304417 0.034165 0.0325933
0.0314183 0.0337835 0.03299
0.0304723 0.0335851 0.0332799
0.0320287 0.0335699 0.0333562
0.041001 0.0338598 0.0331121
0.0577707 0.0359655 0.0330968
0.0768597 0.0394598 0.03299
0.106004 0.0416876 0.0314794
0.145083 0.0419471 0.0243534
0.18938 0.0403754 0.0113985
0.237842 0.0348211 0.000793469
0.292363 0.0200504 0
0.348943 0.00276188 0
0.402441 0 0
0.452949 0 0
0.497887 0 0
0.535439 0 0
0.567422 0 0
0.59324 0 0
0.612955 0 0
0.628061 0 0
0.638529 0 0
0.64477 0 0
0.646708 0 0
0.646708 0 0
0.646708 0 0
0.646708 0 0
0.646708 0 0
0.646708 0 0
0.646708 0 0
0.646708 0 0
0.646708 0 0
0.0296025 0.0400702 0.0330205
0.0298619 0.0392157 0.0335851
0.0311284 0.0384527 0.0340124
0.030808 0.0379644 0.0343938
0.0317388 0.037705 0.0346227
0.0388495 0.0376593 0.0345617
0.0560922 0.0393683 0.0345159
0.0747539 0.0426032 0.0344549
0.102434 0.0453193 0.0331731
0.140551 0.0463264 0.0271916
0.185534 0.0457313 0.0145876
0.234775 0.0425116 0.0016022
0.289937 0.0324254 1.5259e-05
0.347601 0.0108644 0
0.402075 0.00114443 0
0.453864 6.10361e-05 0
0.500328 0 0
0.539086 0 0
0.571084 0 0
0.596368 0 0
0.615473 0 0
0.629755 0 0
0.63946 0 0
0.645426 0 0
0.647364 0 0
0.647211 0 0
0.647044 0 0
0.646891 0 0
0.646769 0 0
0.646708 0 0
0.646708 0 0
0.646708 0 0
0.646708 0 0
0.0290379 0.0457771 0.0345312
0.0292973 0.0448005 0.0349889
0.0306706 0.0438697 0.0353704
0.0310521 0.0431678 0.0357671
0.031693 0.0427558 0.0361181
0.0370489 0.0426947 0.0362249
0.0537118 0.0441291 0.0361486
0.0723583 0.0472114 0.0359503
0.0986038 0.0503395 0.0347448
0.135668 0.0521401 0.0296635
0.181552 0.052491 0.0176089
0.231128 0.051194 0.00257877
0.286763 0.0454108 3.0518e-05
0.345769 0.0272068 0
0.401373 0.00534066 0
0.454383 0.000350958 0
0.503227 0 0
0.54345 0 0
0.57644 0 0
0.602167 0 0
0.621164 0 0
0.634928 0 0
0.64416 0 0
0.649409 0 0
0.650584 0 0
0.649516 0 0
0.648585 0 0
0.647745 0 0
0.647059 0 0
0.646738 0 0
0.646708 0 0
0.646708 0 0
0.646708 0 0
0.0275425 0.0522469 0.0363165
0.0280156 0.051194 0.0366369
0.0295109 0.0501106 0.0369421
0.0307774 0.0492561 0.0373083
0.0317845 0.0487984 0.0377356
0.0352026 0.0487831 0.038056
0.0506752 0.0502022 0.0379797
0.0694591 0.053254 0.0375525
0.0945449 0.0568399 0.0362097
0.130617 0.059617 0.0315404
0.176715 0.0609445 0.0199741
0.227207 0.0614023 0.00352483
0.283513 0.0593576 7.62951e-05
0.343923 0.0487221 0
0.401144 0.0267033 0
0.455039 0.0069276 0
0.505394 0.000396735 0
0.547295 0 0
0.581811 0 0
0.608621 0 0
0.628275 0 0
0.642451 0 0
0.652079 0 0
0.657588 0 0
0.658396 0 0
0.656214 0 0
0.654337 0 0
0.652613 0 0
0.651026 0 0
0.649866 0 0
0.649714 0 0
0.649638 0 0
0.649409 0 0
0.0223697 0.0605173 0.0380102
0.0237278 0.0592508 0.0382086
0.0259556 0.0578622 0.038407
0.0285344 0.0565805 0.0387121
0.0309911 0.0556954 0.0391546
0.0326543 0.055436 0.0397192
0.0463264 0.0564584 0.039826
0.065568 0.0590982 0.0392767
0.0902876 0.0629282 0.0378576
0.124758 0.0665904 0.0337072
0.171786 0.0692149 0.0226902
0.223545 0.0713664 0.00502022
0.280324 0.0721141 0.000198367
0.342412 0.0669413 0
0.401907 0.0521401 0
0.456031 0.026627 0
0.507622 0.00593576 0
0.551125 0.000518807 0
0.587243 0 0
0.615518 0 0
0.635859 0 0
0.650217 0 0
0.660227 0 0
0.666407 0 0
0.66775 0 0
0.66569 0 0
0.663569 0 0
0.661479 0 0
0.659373 0 0
0.657572 0 0
0.65716 0 0
0.656779 0 0
0.656229 0 0
0.0123598 0.0729076 0.0395972
0.0137789 0.0715496 0.0397192
0.0160067 0.0697795 0.0398566
0.019089 0.0679942 0.0400702
0.0233158 0.0666056 0.0404669
0.0242466 0.06598 0.041062
0.0369726 0.0664836 0.0413672
0.0589151 0.0686503 0.0408942
0.085893 0.0723278 0.0392767
0.118898 0.076463 0.0353399
0.166125 0.0798505 0.0252384
0.219654 0.0829328 0.00697337
0.27776 0.085771 0.000427253
0.34049 0.0836805 0
0.402701 0.0763256 0
0.458091 0.0564431 0
0.510399 0.0239261 0
0.555703 0.00604257 0
0.593149 0.00125124 0
0.62266 0.000366217 0
0.644007 3.0518e-05 0
0.658946 0 0
0.669352 0 0
0.675959 0 0
0.67776 0 0
0.675715 0 0
0.673579 0 0
0.671473 0 0
0.669352 0 0
0.667475 0 0
0.667063 0 0
0.666697 0 0
0.666117 0 0
0.00447089 0.087541 0.0412909
0.00537118 0.086244 0.0414435
0.00674449 0.0842908 0.0416114
0.00875868 0.0820172 0.0418402
0.0123903 0.0802014 0.0421302
0.0132753 0.0794537 0.042649
0.024094 0.0796826 0.0429694
0.0478523 0.0814527 0.0424659
0.0796674 0.0850385 0.040528
0.112825 0.089662 0.036347
0.159472 0.0936904 0.026688
0.215503 0.0976883 0.00808728
0.274678 0.101762 0.000762951
0.338552 0.101793 3.0518e-05
0.40296 0.097673 0
0.461051 0.0875257 0
0.514473 0.0615396 0
0.561517 0.0292668 0
0.599527 0.00999466 0
0.630732 0.00518807 0
0.653239 0.00373846 0
0.669001 0.00291447 0
0.679911 0.00241093 0
0.686793 0.00187686 0
0.68893 0.00106813 0
0.687007 0.000244144 0
0.684703 0 0
0.68246 0 0
0.680262 0 0
0.678172 0 0
0.677699 0 0
0.677272 0 0
0.676738 0 0
0.000503548 0.104067 0.0429389
0.000732433 0.102953 0.0431067
0.00106813 0.101091 0.0434272
0.0016022 0.0983597 0.0438697
0.00311284 0.0961929 0.0441596
0.00381476 0.0951858 0.0445716
0.011368 0.0953536 0.0447852
0.0332952 0.0969406 0.0441138
0.0698405 0.100496 0.0417029
0.10576 0.10576 0.0369421
0.152178 0.11075 0.0263828
0.209979 0.115923 0.00775158
0.270909 0.121462 0.000900282
0.336065 0.123903 3.0518e-05
0.40296 0.122667 0
0.464363 0.117418 0
0.520211 0.103975 0
0.569009 0.08159 0
0.608408 0.0560159 0
0.64033 0.0426642 0
0.663981 0.0347143 0
0.680797 0.0290074 0
0.692103 0.0247044 0
0.699229 0.0208286 0
0.701823 0.0161135 0
0.700023 0.0103609 0
0.697383 0.00576791 0
0.694972 0.00387579 0
0.692576 0.0027924 0
0.690196 0.0018616 0
0.689677 0.00155642 0
0.689235 0.00125124 0
0.688716 0.0010071 0
0 0.122194 0.0439155
0 0.121492 0.0441138
0 0.11989 0.0445869
0 0.11696 0.0454719
6.10361e-05 0.114168 0.0460365
0.000228885 0.112688 0.0464485
0.00381476 0.112673 0.0465553
0.0187076 0.114076 0.0457313
0.0544137 0.117403 0.0427405
0.0966506 0.122942 0.0373388
0.143389 0.128954 0.0250553
0.202564 0.135485 0.00747692
0.266163 0.142611 0.000823987
0.33286 0.147646 1.5259e-05
0.402747 0.149615 0
0.46775 0.147646 0
0.526574 0.140322 0
0.578607 0.127352 0
0.620233 0.111955 0
0.653178 0.0985122 0
0.677943 0.0878309 0
0.695094 0.0790112 0
0.706996 0.0721752 0
0.714427 0.0664073 0
0.71751 0.0593118 0
0.715862 0.0488899 0
0.712657 0.0376287 0
0.709667 0.0300298 0
0.706874 0.0235294 0
0.704189 0.01738 0
0.703563 0.0151369 0
0.703166 0.0134432 0
0.70248 0.0112612 0
0 0.143603 0.0426032
0 0.14342 0.042771
0 0.142275 0.0432441
0 0.139071 0.04448
0 0.135775 0.045594
0 0.133516 0.0463417
0.00102235 0.132982 0.0465705
0.00773632 0.13434 0.0458839
0.0340734 0.137224 0.0424964
0.0804761 0.142702 0.0351568
0.131441 0.149691 0.0213779
0.19295 0.157687 0.00680552
0.25977 0.166644 0.000854505
0.329076 0.173785 0
0.400946 0.177661 0
0.469871 0.178393 0
0.532418 0.175021 0
0.588327 0.167208 0
0.633799 0.158389 0
0.668376 0.148302 0
0.694438 0.13962 0
0.712398 0.133135 0
0.725002 0.128313 0
0.732952 0.125048 0
0.736828 0.12134 0
0.735439 0.11284 0
0.731762 0.102602 0
0.728023 0.0934615 0
0.724743 0.08336 0
0.721386 0.0710613 0
0.720668 0.0687419 0
0.720073 0.0670024 0
0.719203 0.064271 0
0 0.16762 0.0387732
0 0.167666 0.0388037
0 0.167163 0.0390326
0 0.164279 0.0404517
0 0.160815 0.0420691
0 0.15787 0.0432898
0.000183108 0.156725 0.043595
0.00167849 0.157488 0.0429694
0.0153811 0.160372 0.0384833
0.0563973 0.166003 0.0276036
0.113283 0.174289 0.0135195
0.179629 0.184131 0.00375372
0.250446 0.19469 0.000442512
0.32253 0.203586 0
0.39678 0.209537 0
0.470085 0.212406 0
0.536629 0.211536 0
0.597177 0.206928 0
0.646525 0.200031 0
0.683833 0.192142 0
0.711788 0.184848 0
0.731426 0.180133 0
0.745052 0.177905 0
0.753964 0.176913 0
0.758679 0.175891 0
0.758236 0.170993 0
0.75436 0.16318 0
0.750515 0.155444 0
0.746899 0.147295 0
0.74313 0.137774 0
0.742061 0.135454 0
0.741375 0.134218 0
0.740551 0.132097 0
0 0.193088 0.0310826
0 0.193408 0.0307927
0 0.193133 0.0309758
0 0.190967 0.0323339
0 0.187839 0.0343938
0 0.184314 0.0365454
1.5259e-05 0.182193 0.0373693
0.000137331 0.182544 0.036347
0.00408942 0.185306 0.0293278
0.028687 0.191089 0.0170901
0.0854658 0.201053 0.00645457
0.160037 0.212726 0.00137331
0.237324 0.22475 9.15541e-05
0.313207 0.235843 0
0.390036 0.243961 0
0.46714 0.249149 0
0.538033 0.250736 0
0.602426 0.248051 0
0.656458 0.242924 0
0.697566 0.236576 0
0.72813 0.229862 0
0.750317 0.225635 0
0.765118 0.223804 0
0.775189 0.222858 0
0.781155 0.222782 0
0.782086 0.21915 0
0.77847 0.211841 0
0.774884 0.204746 0
0.771221 0.197528 0
0.767559 0.190173 0
0.766262 0.187594 0
0.765698 0.186419 0
0.764828 0.184558 0
0 0.22089 0.0123751
0 0.221424 0.0117494
0 0.221607 0.0114595
0 0.220417 0.0116579
0 0.217517 0.0134585
0 0.213367 0.017319
0 0.210208 0.0201724
0 0.210224 0.0169985
0.000518807 0.212818 0.0119478
0.00917067 0.218982 0.00614939
0.0533455 0.22945 0.00201419
0.131899 0.24271 0.000320439
0.218967 0.256626 0
0.300954 0.269825 0
0.38117 0.280385 0
0.46125 0.2878 0
0.536019 0.291386 0
0.604212 0.290867 0
0.66305 0.287312 0
0.708568 0.282246 0
0.742855 0.27689 0
0.767529 0.272801 0
0.784009 0.271168 0
0.795117 0.270253 0
0.802045 0.2701 0
0.804852 0.267918 0
0.801938 0.261021 0
0.798627 0.253742 0
0.7953 0.246464 0
0.791928 0.239139 0
0.790692 0.236378 0
0.790448 0.235767 0
0.789578 0.234043 0
0 0.252827 7.62951e-05
0 0.253483 0.000427253
0 0.254078 0.000717174
0 0.253407 0.000991836
0 0.251377 0.00167849
0 0.247089 0.00373846
0 0.243366 0.00534066
0 0.242618 0.00395209
1.5259e-05 0.244816 0.00213626
0.0015259 0.250645 0.000885023
0.0248417 0.26096 0.000274662
0.0933089 0.275212 3.0518e-05
0.191455 0.291035 0
0.285527 0.306859 0
0.370748 0.320027 0
0.453651 0.329412 0
0.532494 0.334905 0
0.604196 0.336339 0
0.667567 0.334081 0
0.717983 0.33019 0
0.755856 0.325399 0
0.783291 0.321477 0
0.801968 0.31986 0
0.813886 0.318959 0
0.821485 0.318517 0
0.824887 0.316197 0
0.823041 0.309865 0
0.820172 0.302892 0
0.817166 0.295781 0
0.814221 0.288838 0
0.813214 0.286412 0
0.812802 0.285374 0
0.8121 0.283848 0
0 0.287205 0
0 0.288197 0
0 0.288716 0
0 0.28864 0
0 0.287648 1.5259e-05
0 0.283818 0.000183108
0 0.279911 0.000381476
0 0.27805 0.000289921
0 0.279408 9.15541e-05
9.15541e-05 0.284703 0
0.00639353 0.294743 0
0.0505989 0.309651 0
0.153079 0.327764 0
0.262882 0.345937 0
0.357 0.362341 0
0.444587 0.374685 0
0.527718 0.38265 0
0.603906 0.386053 0
0.671122 0.385504 0
0.726131 0.382071 0
0.767971 0.377829 0
0.798947 0.373907 0
0.819806 0.371878 0
0.833341 0.370993 0
0.841291 0.369711 0
0.845121 0.367636 0
0.844053 0.361486 0
0.841123 0.354101 0
0.838239 0.34699 0
0.835325 0.339818 0
0.833982 0.336538 0
0.833448 0.335195 0
0.832898 0.333852 0
0 0.32015 0
0 0.32108 0
0 0.321721 0
0 0.321798 0
0 0.321569 0
0 0.318822 0
0 0.315007 0
0 0.312612 0
0 0.313283 0
0 0.318074 0
0.00047303 0.327993 0
0.0218967 0.343664 0
0.108248 0.36321 0
0.231495 0.384146 0
0.339055 0.404501 0
0.432959 0.42092 0
0.522194 0.432349 0
0.603235 0.438468 0
0.673777 0.439353 0
0.733211 0.437186 0
0.77969 0.433997 0
0.814618 0.430732 0
0.838758 0.428779 0
0.8542 0.427405 0
0.863325 0.426108 0
0.867979 0.424521 0
0.867933 0.419242 0
0.864973 0.411826 0
0.86154 0.403769 0
0.858106 0.395682 0
0.856413 0.391699 0
0.855833 0.390372 0
0.855161 0.3888 0
0 0.349599 0
0 0.350652 0
0 0.351263 0
0 0.351583 0
0 0.351644 0
0 0.350103 0
0 0.347036 0
0 0.344274 0
0 0.344564 0
0 0.349279 0
0 0.358785 0
0.00766003 0.374548 0
0.0635843 0.395727 0
0.190661 0.419211 0
0.314885 0.442924 0
0.417334 0.463951 0
0.512016 0.478813 0
0.599176 0.48835 0
0.674495 0.4925 0
0.738964 0.492164 0
0.790295 0.490517 0
0.829526 0.48835 0
0.857313 0.486458 0
0.875151 0.485283 0
0.886778 0.484779 0
0.893187 0.48484 0
0.895323 0.482155 0
0.892317 0.474693 0
0.888701 0.466575 0
0.885023 0.45832 0
0.882979 0.453712 0
0.882383 0.452415 0
0.88188 0.451316 0
0 0.376211 0
0 0.377142 0
0 0.377813 0
0 0.378256 0
0 0.378347 0
0 0.377722 0
0 0.375845 0
0 0.373358 0
0 0.373312 0
0 0.377661 0
0 0.387091 0
0.00128176 0.403098 0
0.0239261 0.425727 0
0.138109 0.451926 0
0.28246 0.478218 0
0.396216 0.502327 0
0.496956 0.521279 0
0.590539 0.534783 0
0.671962 0.542687 0
0.742504 0.545663 0
0.799512 0.545754 0
0.842863 0.544457 0
0.874434 0.543084 0
0.895369 0.54226 0
0.909468 0.54229 0
0.918273 0.544015 0
0.922789 0.543465 0
0.920485 0.536965 0
0.917067 0.529381 0
0.913664 0.521889 0
0.911604 0.517388 0
0.911086 0.516228 0
0.910521 0.514992 0
0 0.398932 0
0 0.399908 0
0 0.400458 0
0 0.400839 0
0 0.400961 0
0 0.400824 0
0 0.399969 0
0 0.398367 0
0 0.397894 0
0 0.40177 0
0 0.410956 0
0 0.426963 0
0.00280766 0.450996 0
0.0715648 0.479545 0
0.236957 0.508309 0
0.371099 0.535912 0
0.477348 0.558999 0
0.577295 0.57673 0
0.6663 0.589502 0
0.742855 0.59585 0
0.80618 0.598383 0
0.854444 0.598856 0
0.889952 0.59852 0
0.914397 0.598383 0
0.930861 0.599283 0
0.941375 0.600366 0
0.947829 0.60119 0
0.946746 0.595743 0
0.943832 0.588922 0
0.940902 0.5823 0
0.938903 0.577783 0
0.938262 0.576318 0
0.937758 0.575158 0
0 0.416953 0
0 0.4177 0
0 0.418204 0
0 0.418509 0
0 0.418677 0
0 0.418692 0
0 0.418463 0
0 0.417746 0
0 0.417258 0
0 0.420935 0
0 0.429969 0
0 0.445396 0
0.000106813 0.468925 0
0.0251926 0.498802 0
0.184573 0.530236 0
0.339391 0.561013 0
0.454612 0.588861 0
0.560265 0.611139 0
0.655467 0.628199 0
0.738247 0.639109 0
0.808469 0.645029 0
0.862715 0.648127 0
0.903075 0.649653 0
0.931258 0.650782 0
0.950149 0.652552 0
0.962493 0.654017 0
0.970275 0.655299 0
0.971359 0.651987 0
0.969162 0.646296 0
0.966308 0.639826 0
0.964324 0.63534 0
0.963638 0.633799 0
0.963256 0.632914 0
0 0.430777 0
0 0.431373 0
0 0.431754 0
0 0.432059 0
0 0.432334 0
0 0.432395 0
0 0.432349 0
0 0.432334 0
0 0.432929 0
0 0.436332 0
0 0.444846 0
0 0.459098 0
0 0.481209 0
0.00959792 0.511223 0
0.142168 0.544594 0
0.303502 0.578195 0
0.428122 0.609613 0
0.538262 0.636133 0
0.639918 0.657694 0
0.728374 0.673182 0
0.805478 0.683207 0
0.866346 0.689464 0
0.911589 0.692576 0
0.943984 0.695033 0
0.965805 0.697704 0
0.979751 0.699809 0
0.987488 0.701152 0
0.990127 0.699931 0
0.989059 0.695583 0
0.987228 0.69041 0
0.985748 0.686442 0
0.985336 0.685267 0
0.985183 0.684779 0
0 0.441413 0
0 0.441886 0
0 0.442206 0
0 0.442512 0
0 0.442679 0
0 0.442786 0
0 0.442786 0
0 0.443107 0
0 0.444709 0
0 0.448356 0
0 0.456245 0
0 0.469795 0
0 0.490501 0
0.00610361 0.519432 0
0.102998 0.553964 0
0.26247 0.589441 0
0.399756 0.623713 0
0.514199 0.653864 0
0.620401 0.679179 0
0.715007 0.69929 0
0.797589 0.713161 0
0.86508 0.72253 0
0.915663 0.728176 0
0.952865 0.732067 0
0.977539 0.735546 0
0.990814 0.737316 0
0.995636 0.737087 0
0.996841 0.735759 0
0.99678 0.732525 0
0.996567 0.729046 0
0.996231 0.726009 0
0.99617 0.725261 0
0.996139 0.724743 0
0 0.449439 0
0 0.44979 0
0 0.45005 0
0 0.450263 0
0 0.45037 0
0 0.450431 0
0 0.450401 0
0 0.450843 0
0 0.452613 0
0 0.456397 0
0 0.464088 0
0 0.477211 0
0 0.496895 0
0.00140383 0.524514 0
0.069688 0.558419 0
0.220142 0.594812 0
0.369055 0.631327 0
0.488853 0.664546 0
0.59884 0.693446 0
0.698192 0.717266 0
0.785077 0.734813 0
0.858961 0.747295 0
0.915419 0.75581 0
0.95761 0.761486 0
0.984695 0.765652 0
0.995407 0.766445 0
0.997345 0.765072 0
0.997543 0.763561 0
0.997559 0.76112 0
0.997559 0.758328 0
0.997543 0.755993 0
0.997528 0.755138 0
0.997528 0.754711 0
0 0.456275 0
0 0.456611 0
0 0.45684 0
0 0.457008 0
0 0.457099 0
0 0.457099 0
0 0.457099 0
0 0.457237 0
0 0.458839 0
0 0.462898 0
0 0.470573 0
0 0.483482 0
0 0.502556 0
4.57771e-05 0.528222 0
0.0497597 0.560647 0
0.18677 0.596887 0
0.339178 0.634272 0
0.463951 0.669886 0
0.575616 0.701091 0
0.678721 0.727718 0
0.770184 0.748882 0
0.84889 0.764294 0
0.91107 0.775525 0
0.958373 0.783108 0
0.987488 0.787427 0
0.996567 0.787671 0
0.997497 0.786206 0
0.997513 0.784772 0
0.997513 0.783169 0
0.997528 0.78114 0
0.997528 0.779293 0
0.997543 0.778561 0
0.997543 0.778195 0
0 0.464393 0
0 0.464912 0
0 0.465248 0
0 0.465522 0
0 0.465751 0
0 0.465843 0
0 0.465858 0
0 0.465751 0
0 0.467033 0
0 0.471794 0
0 0.480781 0
0 0.493568 0
0 0.512016 0
6.10361e-05 0.536049 0
0.0344396 0.566079 0
0.158602 0.600916 0
0.317052 0.637919 0
0.443671 0.673793 0
0.555703 0.706416 0
0.660319 0.734661 0
0.754086 0.757977 0
0.838056 0.776303 0
0.904814 0.789578 0
0.956146 0.798733 0
0.987915 0.803601 0
0.996674 0.803433 0
0.997467 0.80177 0
0.997482 0.800443 0
0.997482 0.799115 0
0.997482 0.797742 0
0.997497 0.796368 0
0.997497 0.795789 0
0.997497 0.795544 0
0 0.474571 0
0 0.475227 0
0 0.4757 0
0 0.476158 0
0 0.476417 0
0 0.476555 0
0 0.476616 0
0 0.47657 0
0 0.477592 0
0 0.482658 0
0 0.492988 0
0 0.507149 0
0 0.525841 0
0 0.548989 0
0.0347295 0.577066 0
0.162432 0.609995 0
0.310826 0.644984 0
0.433249 0.679622 0
0.542062 0.711955 0
0.646006 0.740871 0
0.742031 0.76582 0
0.827253 0.785489 0
0.89958 0.800717 0
0.954223 0.811383 0
0.987869 0.816709 0
0.996689 0.816144 0
0.997452 0.814374 0
0.997452 0.812894 0
0.997452 0.811749 0
0.997467 0.810544 0
0.997467 0.809369 0
0.997467 0.808896 0
0.997467 0.808728 0
0 0.483787 0
0 0.484398 0
0 0.485191 0
0 0.485832 0
0 0.48629 0
0 0.486671 0
0 0.486961 0
0 0.487312 0
0 0.488197 0
