LUT预设1/iPhone 专用lut-合集1/iPhone 标准版合集1(log)/cine电影.cube
TITLE "Generated by Resolve"
LUT_3D_SIZE 33
0.0150759 0 0.0285039
0.0147707 0 0.0285496
0.0154421 0 0.0284276
0.0207523 0 0.0274968
0.0361334 1.5259e-05 0.0250248
0.0639963 0.000106813 0.021622
0.102419 0.000869764 0.0202182
0.14786 0.002533 0.0208286
0.197681 0.00469978 0.0214847
0.248524 0.00721752 0.0221103
0.29926 0.011429 0.0234989
0.354559 0.0205844 0.0282139
0.415885 0.0333867 0.0372473
0.48072 0.0479896 0.0497902
0.546944 0.0639506 0.0656138
0.615702 0.082414 0.0841077
0.688075 0.103746 0.105226
0.763622 0.129152 0.130373
0.839323 0.162829 0.163149
0.911391 0.204685 0.204074
0.970306 0.251835 0.25095
0.997909 0.292393 0.291447
1 0.306493 0.305455
1 0.307683 0.30663
1 0.307713 0.306661
1 0.307729 0.306691
1 0.307759 0.306706
1 0.30779 0.306737
1 0.30782 0.306767
1 0.30782 0.306767
1 0.30782 0.306767
1 0.30782 0.306767
1 0.30782 0.306767
0.0153506 0 0.0284886
0.0150607 0 0.0285649
0.0152438 0 0.0285801
0.0184634 0 0.0280156
0.0306859 0 0.0259403
0.0574044 4.57771e-05 0.022385
0.0958572 0.000701915 0.0205692
0.142077 0.00227359 0.0208286
0.193179 0.00447089 0.0214847
0.245411 0.00704967 0.0221103
0.29749 0.0112764 0.0234531
0.353491 0.0203708 0.0280766
0.415213 0.0332341 0.0371405
0.48072 0.0479896 0.0497902
0.547173 0.0639963 0.0656596
0.615946 0.082475 0.0841688
0.688792 0.10396 0.10544
0.764599 0.129564 0.13077
0.840726 0.163577 0.163882
0.913359 0.205982 0.205356
0.971756 0.253178 0.252293
0.998215 0.293187 0.292241
1 0.306569 0.305516
1 0.307683 0.30663
1 0.307713 0.306661
1 0.307729 0.306691
1 0.307774 0.306722
1 0.307805 0.306752
1 0.30782 0.306767
1 0.30782 0.306767
1 0.30782 0.306767
1 0.30782 0.306767
1 0.30782 0.306767
0.0155642 0 0.0285801
0.0153353 0 0.0286412
0.015198 0 0.0287175
0.0164187 0 0.0285344
0.0242924 0 0.0271
0.0487373 0 0.0236057
0.0852674 0.000411994 0.0212558
0.130297 0.00173953 0.0209201
0.181064 0.00386053 0.0215152
0.234028 0.00642405 0.0221714
0.287251 0.0104372 0.0234073
0.343633 0.0184939 0.0272068
0.406348 0.0312352 0.0357366
0.473075 0.0461585 0.0481727
0.541466 0.0625315 0.0642557
0.611933 0.0812848 0.0830854
0.68661 0.103273 0.104799
0.763775 0.129229 0.130465
0.84097 0.163699 0.164004
0.913573 0.206119 0.205493
0.972244 0.253635 0.25275
0.998245 0.2934 0.292454
1 0.3066 0.305562
1 0.307683 0.30663
1 0.307713 0.306661
1 0.307729 0.306691
1 0.307774 0.306722
1 0.307805 0.306752
1 0.30782 0.306767
1 0.30782 0.306767
1 0.30782 0.306767
1 0.30782 0.306767
1 0.30782 0.306767
0.0157015 0 0.0287785
0.0155795 0 0.0287938
0.0153353 0 0.0288396
0.0152895 0 0.0288853
0.0209964 0 0.0278477
0.0432898 0 0.0246433
0.0789044 0.000259403 0.021912
0.124422 0.00148013 0.021088
0.175555 0.00355535 0.0215763
0.228565 0.00611887 0.0222629
0.282353 0.0101015 0.0235142
0.338186 0.0176394 0.0270237
0.399863 0.0297704 0.0348516
0.466041 0.0444495 0.0468147
0.533684 0.0605173 0.0623789
0.603479 0.0787518 0.080827
0.678325 0.100664 0.102419
0.756985 0.126513 0.127993
0.836408 0.161166 0.161761
0.91104 0.204547 0.204074
0.970962 0.252934 0.25214
0.998306 0.292988 0.292149
1 0.306584 0.305638
1 0.307668 0.306676
1 0.307698 0.306691
1 0.307729 0.306706
1 0.307774 0.306722
1 0.307805 0.306752
1 0.30782 0.306767
1 0.30782 0.306767
1 0.30782 0.306767
1 0.30782 0.306767
1 0.30782 0.306767
0.0158694 0 0.0288853
0.0157931 0 0.0289006
0.0155642 0 0.0289464
0.0155337 0 0.0289464
0.0191348 0 0.0283207
0.0377813 0 0.0255436
0.0719615 0.000137331 0.0224918
0.117662 0.00122072 0.0212711
0.169802 0.00328069 0.0216373
0.22446 0.00590524 0.0223545
0.279133 0.00993362 0.0236667
0.335912 0.0174258 0.0271916
0.398047 0.0293431 0.0347753
0.465064 0.0442206 0.046891
0.533776 0.0604715 0.0625315
0.605203 0.0791485 0.0814374
0.68127 0.101549 0.103548
0.76083 0.127733 0.129381
0.840192 0.162768 0.1635
0.914229 0.206699 0.206348
0.972274 0.2551 0.254459
0.998901 0.294102 0.293431
1 0.306737 0.305959
1 0.307607 0.306798
1 0.307652 0.306813
1 0.307668 0.306844
1 0.307713 0.306859
1 0.307744 0.306874
1 0.30779 0.306874
1 0.30779 0.306859
1 0.30779 0.306859
1 0.30779 0.306844
1 0.307805 0.306828
0.0157778 0.0056611 0.0275578
0.0157473 0.0056611 0.0275731
0.0155489 0.00534066 0.0277104
0.0155795 0.00523384 0.0277562
0.0175937 0.00500496 0.0274662
0.03093 0.00456245 0.0254215
0.06215 0.00373846 0.0224155
0.108217 0.00334173 0.0209354
0.162448 0.00422675 0.0213626
0.218769 0.00621042 0.0222324
0.275151 0.0099794 0.0236667
0.333593 0.0174258 0.0272679
0.396857 0.0292973 0.0348669
0.465568 0.0443732 0.0472114
0.535805 0.0609751 0.0632639
0.608347 0.0800336 0.082475
0.685573 0.10277 0.104997
0.76611 0.129625 0.131441
0.846326 0.16553 0.166308
0.920653 0.210986 0.210727
0.976333 0.260121 0.259617
0.999634 0.2972 0.296651
1 0.307347 0.306706
1 0.307561 0.306905
1 0.307607 0.30692
1 0.307622 0.30695
1 0.307652 0.306966
1 0.307698 0.306981
1 0.307729 0.306996
1 0.307744 0.306996
1 0.307744 0.306981
1 0.307744 0.306981
1 0.307744 0.306966
0.0159609 0.0233768 0.024567
0.0159609 0.0237278 0.0245212
0.0157626 0.0230564 0.0246586
0.0157015 0.0226596 0.0247807
0.0167086 0.0222629 0.0247196
0.0243687 0.0213931 0.0236667
0.0491188 0.0190738 0.0213474
0.094316 0.015259 0.0197604
0.150378 0.0119936 0.0201572
0.209461 0.0112154 0.0211948
0.268498 0.0132601 0.0228733
0.328939 0.0193942 0.0267491
0.394125 0.0303807 0.0346075
0.463584 0.0449073 0.0468605
0.534569 0.0614176 0.0630808
0.608164 0.0803693 0.0825666
0.686336 0.103059 0.105318
0.768078 0.130434 0.132265
0.849714 0.167056 0.167727
0.923964 0.213245 0.212863
0.978271 0.262806 0.262257
0.999268 0.298344 0.29778
1 0.307576 0.306966
1 0.307576 0.307012
1 0.307576 0.307027
1 0.307637 0.307042
1 0.307683 0.307057
1 0.307729 0.307088
1 0.307774 0.307103
1 0.307805 0.307103
1 0.30779 0.307103
1 0.307774 0.307088
1 0.307774 0.307088
0.0168765 0.0527199 0.0215305
0.0168917 0.0531777 0.0215152
0.0167239 0.0527352 0.0215763
0.0165408 0.0525521 0.0216526
0.016907 0.0528572 0.0216526
0.020325 0.0525673 0.0212711
0.0352789 0.0506142 0.0200656
0.0739452 0.044831 0.0186313
0.132052 0.0367742 0.0183261
0.19379 0.0313725 0.0186007
0.254719 0.0298466 0.019852
0.317189 0.0334783 0.0237888
0.383963 0.0414893 0.0321508
0.454429 0.0534829 0.0447852
0.526543 0.0671244 0.0610056
0.601236 0.0838331 0.0806592
0.680674 0.105241 0.103548
0.763455 0.132097 0.130495
0.845884 0.167803 0.165454
0.921721 0.213809 0.211063
0.977279 0.263081 0.260807
0.998444 0.298283 0.296422
1 0.308583 0.306828
1 0.308614 0.307073
1 0.308598 0.307103
1 0.308736 0.307103
1 0.308843 0.307118
1 0.308934 0.307149
1 0.30901 0.307164
1 0.309071 0.307164
1 0.308934 0.307164
1 0.308812 0.307149
1 0.308705 0.307149
0.0192569 0.0885634 0.0206607
0.0193332 0.0892348 0.020676
0.0192569 0.0895247 0.0207218
0.0191196 0.0899977 0.020798
0.0191806 0.0914778 0.0208743
0.0202487 0.0922255 0.0208286
0.0265965 0.0916609 0.0204623
0.0510719 0.0892348 0.0196231
0.108263 0.0836805 0.018677
0.174868 0.0742351 0.017319
0.237308 0.0681926 0.0171511
0.29984 0.0676585 0.0201724
0.366995 0.0730449 0.0284428
0.437949 0.0819562 0.0410773
0.511009 0.0928359 0.0569772
0.586831 0.106432 0.0763409
0.667262 0.123735 0.0986954
0.750683 0.1458 0.124971
0.834836 0.176791 0.159548
0.913085 0.218875 0.204929
0.972717 0.26566 0.255253
0.997055 0.301472 0.293248
1 0.313542 0.306249
1 0.313893 0.306966
1 0.313771 0.307012
1 0.313954 0.307027
1 0.314122 0.307042
1 0.31426 0.307057
1 0.314351 0.307073
1 0.314427 0.307073
1 0.314 0.307088
1 0.313603 0.307103
1 0.313313 0.307103
0.0240482 0.128725 0.0221256
0.0242313 0.129992 0.0222324
0.0242924 0.130755 0.0222934
0.0243229 0.132113 0.022446
0.0244602 0.134249 0.0226139
0.0246586 0.135744 0.0227359
0.0270085 0.136248 0.0226902
0.0399023 0.135714 0.0224765
0.0810407 0.140154 0.0234836
0.152255 0.131334 0.0216831
0.219516 0.120455 0.0197604
0.282414 0.114931 0.0204013
0.348669 0.116228 0.0267338
0.419135 0.122103 0.0381476
0.492912 0.131075 0.0531014
0.568704 0.142168 0.0709544
0.649866 0.156817 0.0921187
0.733974 0.174762 0.117449
0.818936 0.199832 0.151171
0.900114 0.235416 0.195895
0.965301 0.277699 0.247349
0.994827 0.312749 0.288914
0.999924 0.326284 0.305135
1 0.327047 0.306661
1 0.326558 0.306737
1 0.326665 0.306752
1 0.326787 0.306783
1 0.326818 0.306813
1 0.326848 0.306828
1 0.327031 0.306828
1 0.326207 0.306844
1 0.325643 0.306859
1 0.324956 0.306874
0.0308385 0.17261 0.025742
0.0310979 0.174197 0.0259403
0.0312352 0.175219 0.0260624
0.0313725 0.176974 0.0263066
0.0316625 0.179599 0.026627
0.0318456 0.181567 0.0268711
0.0328679 0.182666 0.0269932
0.0400397 0.18352 0.0272831
0.0666819 0.186328 0.0286717
0.122805 0.186114 0.031693
0.195392 0.177005 0.0294347
0.266148 0.170382 0.0290379
0.33344 0.168719 0.0319829
0.402136 0.171283 0.0394293
0.474205 0.176776 0.0508888
0.549889 0.185931 0.0658885
0.630747 0.198306 0.0848249
0.715068 0.213611 0.108995
0.800763 0.23444 0.141833
0.88368 0.262928 0.184771
0.953643 0.29868 0.236439
0.990829 0.332235 0.282521
0.99942 0.346822 0.302831
1 0.348745 0.306218
1 0.348318 0.306416
1 0.347738 0.306447
1 0.347631 0.306462
1 0.347555 0.306508
1 0.347585 0.306538
1 0.347768 0.306538
1 0.346899 0.306554
1 0.345892 0.306569
1 0.344961 0.306584
0.0382391 0.217609 0.0315404
0.0384985 0.219043 0.0317998
0.0386816 0.220111 0.0319829
0.0389715 0.222477 0.0324102
0.0393225 0.225299 0.0328985
0.0395666 0.227543 0.0332952
0.0400092 0.229343 0.0336309
0.0432898 0.229923 0.0339361
0.0590219 0.230747 0.0352178
0.101381 0.23328 0.0395056
0.164248 0.230274 0.0443122
0.241856 0.227161 0.0444495
0.321065 0.228748 0.0465858
0.393179 0.231067 0.0511177
0.463676 0.233722 0.057496
0.536339 0.239033 0.0665446
0.613382 0.247654 0.0801404
0.69575 0.260594 0.101122
0.780697 0.277577 0.131975
0.8636 0.300282 0.172915
0.937713 0.328222 0.222675
0.984665 0.358984 0.273136
0.998428 0.375509 0.299962
1 0.378668 0.305852
1 0.378012 0.306172
1 0.377096 0.306203
1 0.376364 0.306233
1 0.37586 0.306279
1 0.37586 0.30631
1 0.376303 0.306325
1 0.375204 0.306325
1 0.373922 0.30634
1 0.372854 0.30634
0.0468147 0.264012 0.0399329
0.0472267 0.265904 0.0403601
0.0474861 0.267033 0.0406195
0.0479286 0.269535 0.0411841
0.0485542 0.273121 0.0419928
0.0490272 0.276066 0.042649
0.0494087 0.278019 0.0431067
0.0509346 0.278447 0.0433814
0.0602579 0.278813 0.04448
0.0897993 0.280949 0.0484932
0.142947 0.281804 0.0562142
0.211658 0.28011 0.063035
0.297688 0.285023 0.0654307
0.385702 0.294545 0.068986
0.464225 0.30193 0.0747234
0.53576 0.306462 0.0805524
0.607126 0.310857 0.0875868
0.682567 0.317174 0.100847
0.762539 0.328557 0.125566
0.842969 0.344793 0.162051
0.918212 0.365438 0.207858
0.975326 0.391897 0.260716
0.996887 0.410681 0.296651
0.999954 0.414511 0.305486
1 0.413535 0.30602
1 0.412345 0.30605
1 0.411383 0.306081
1 0.410666 0.306111
1 0.410071 0.306142
1 0.410391 0.306157
1 0.40943 0.306172
1 0.408087 0.306172
1 0.406989 0.306188
0.0582589 0.314244 0.0513313
0.0588388 0.316457 0.0518807
0.059266 0.318074 0.0522774
0.0598917 0.320623 0.0529335
0.0607309 0.324392 0.0539101
0.0615244 0.327932 0.0548257
0.0620432 0.330312 0.0554665
0.0628977 0.331212 0.0558175
0.0684825 0.33164 0.056672
0.0891585 0.333043 0.06009
0.131762 0.33373 0.0675822
0.191928 0.332494 0.0778515
0.268284 0.334859 0.0853437
0.364385 0.349172 0.0887465
0.461769 0.36817 0.0945907
0.544884 0.381491 0.10251
0.617395 0.388022 0.109545
0.685924 0.390097 0.116716
0.756237 0.392157 0.13164
0.828534 0.398779 0.158495
0.899825 0.410956 0.197253
0.961349 0.429984 0.247028
0.993454 0.448478 0.29044
0.999695 0.453559 0.304738
1 0.452583 0.306081
1 0.451118 0.306081
1 0.449958 0.306096
1 0.448707 0.306096
1 0.448066 0.306127
1 0.448234 0.306127
1 0.447349 0.306111
1 0.44625 0.306081
1 0.445182 0.306081
0.0729534 0.368627 0.0649577
0.0737011 0.37116 0.0655985
0.0743725 0.373465 0.0661936
0.0749523 0.375494 0.0667277
0.0761273 0.379934 0.0679484
0.0771649 0.384024 0.0690471
0.0777752 0.386557 0.0697642
0.0782635 0.388037 0.070222
0.0811933 0.388159 0.0706798
0.0954604 0.388113 0.0730144
0.129717 0.387655 0.0793774
0.182574 0.38616 0.0897383
0.249775 0.386114 0.101274
0.335256 0.395773 0.108843
0.441871 0.421149 0.115526
0.544091 0.447517 0.123613
0.629892 0.464271 0.132418
0.702617 0.471092 0.142138
0.767239 0.470268 0.153262
0.829038 0.466911 0.170062
0.890166 0.467109 0.197192
0.948684 0.474891 0.237659
0.988052 0.488548 0.282399
0.999191 0.494942 0.304555
1 0.494133 0.30753
1 0.492515 0.307454
1 0.490806 0.307378
1 0.489296 0.307317
1 0.48838 0.307286
1 0.488701 0.307317
1 0.488304 0.307256
1 0.486992 0.307149
1 0.485817 0.307057
0.0902724 0.426902 0.0799268
0.0912032 0.429923 0.080705
0.0918746 0.43209 0.0812543
0.0924086 0.433814 0.0817121
0.0937209 0.438514 0.0829633
0.0949111 0.442771 0.0840925
0.0957656 0.446021 0.0849775
0.0959945 0.447135 0.0852979
0.0970932 0.446784 0.085359
0.106615 0.445762 0.0864881
0.134752 0.443687 0.0912184
0.181552 0.441245 0.100435
0.243091 0.440558 0.113115
0.316014 0.444419 0.125154
0.410208 0.462043 0.134325
0.524102 0.497536 0.145434
0.627649 0.527565 0.153994
0.71371 0.544137 0.163806
0.785657 0.550179 0.179004
0.843824 0.545327 0.194949
0.896071 0.536736 0.213367
0.946349 0.53228 0.242054
0.985428 0.53611 0.281407
0.99884 0.540978 0.308568
1 0.539971 0.313787
1 0.537728 0.313542
1 0.535729 0.313252
1 0.533837 0.312993
1 0.532799 0.312917
1 0.533593 0.313161
1 0.533333 0.313085
1 0.531868 0.312764
1 0.530556 0.312474
0.109163 0.487968 0.0954147
0.110124 0.491066 0.0961776
0.110887 0.493507 0.096788
0.111513 0.495506 0.0972915
0.112688 0.499519 0.0982834
0.114015 0.504158 0.0994583
0.114763 0.506935 0.100175
0.114916 0.507774 0.10042
0.115465 0.507118 0.100343
0.122301 0.505013 0.100572
0.144457 0.502251 0.103395
0.185992 0.498604 0.11104
0.241688 0.496208 0.122805
0.307942 0.497307 0.136843
0.38613 0.505806 0.149966
0.488746 0.532799 0.163485
0.607477 0.575433 0.178042
0.710231 0.604364 0.186999
0.793301 0.617594 0.200214
0.859602 0.619852 0.220569
0.913237 0.613504 0.241337
0.957488 0.602792 0.264302
0.989868 0.596658 0.296361
0.999374 0.595285 0.322667
1 0.593347 0.330632
1 0.590417 0.330236
1 0.588022 0.329458
1 0.585855 0.328786
1 0.585 0.328634
1 0.585718 0.329046
1 0.585534 0.329015
1 0.584024 0.32842
1 0.582513 0.327825
0.128862 0.5505 0.110643
0.129915 0.553796 0.111421
0.130755 0.556435 0.112047
0.131456 0.558633 0.112581
0.132494 0.562036 0.11339
0.133715 0.566217 0.114412
0.13434 0.56846 0.114961
0.134386 0.568963 0.115129
0.134371 0.567712 0.114885
0.139315 0.565545 0.114778
0.157748 0.561517 0.116136
0.193133 0.556634 0.121538
0.243839 0.55288 0.132082
0.305165 0.551919 0.145724
0.374624 0.55584 0.161334
0.45771 0.570611 0.177447
0.568399 0.606897 0.196353
0.687465 0.649561 0.212863
0.787076 0.674601 0.224262
0.865782 0.684764 0.24239
0.927596 0.685084 0.269413
0.973495 0.679896 0.299031
0.996414 0.67013 0.328588
1 0.662196 0.352331
1 0.657755 0.361715
1 0.654063 0.361425
1 0.651133 0.359991
1 0.648569 0.35874
1 0.647059 0.358099
1 0.648157 0.358816
1 0.648371 0.358999
1 0.646403 0.357946
1 0.645304 0.357382
0.149386 0.613687 0.125551
0.150561 0.617212 0.126375
0.151568 0.62031 0.127092
0.152377 0.622736 0.127672
0.15317 0.625223 0.128252
0.154299 0.629023 0.129168
0.154894 0.631128 0.129702
0.154696 0.630838 0.129671
0.15436 0.629618 0.129427
0.156847 0.626383 0.128893
0.171572 0.621698 0.129213
0.203189 0.615991 0.132815
0.248798 0.610895 0.141512
0.306004 0.608454 0.154284
0.371267 0.610117 0.169772
0.442924 0.617945 0.188083
0.529976 0.638056 0.208148
0.645823 0.679179 0.231571
0.762936 0.718807 0.250034
0.858976 0.740612 0.26627
0.933776 0.749584 0.294362
0.980575 0.751583 0.332433
0.998306 0.746807 0.368505
1 0.738537 0.395605
1 0.732158 0.405951
1 0.728222 0.40589
1 0.724071 0.403326
1 0.720348 0.401007
1 0.718761 0.400092
1 0.719921 0.400946
1 0.720775 0.401541
1 0.71931 0.400656
1 0.717601 0.399619
0.171679 0.678782 0.14139
0.173175 0.68307 0.142458
0.174197 0.686 0.143175
0.175067 0.688487 0.143801
0.175799 0.690593 0.14432
0.176928 0.694209 0.145235
0.177539 0.696117 0.1458
0.177295 0.695766 0.145754
0.176287 0.693111 0.145129
0.176715 0.689357 0.144335
0.18732 0.684199 0.144015
0.215518 0.677699 0.146014
0.258396 0.671855 0.152773
0.310719 0.667796 0.164034
0.371695 0.666743 0.178103
0.438224 0.670985 0.195956
0.510674 0.681559 0.217548
0.601267 0.704692 0.241291
0.721004 0.747524 0.268284
0.835386 0.784543 0.291203
0.929061 0.805386 0.319051
0.982055 0.814862 0.361486
0.998352 0.817212 0.405997
1 0.813565 0.440558
1 0.808515 0.455268
1 0.803632 0.4551
1 0.799634 0.452644
1 0.795621 0.45008
1 0.793988 0.449058
1 0.795956 0.450416
1 0.796796 0.450965
1 0.795193 0.449882
1 0.793545 0.448753
0.196902 0.74522 0.159579
0.198367 0.749004 0.160647
0.199619 0.752087 0.161547
0.200763 0.75462 0.162371
0.201617 0.756527 0.162997
0.202701 0.759152 0.163867
0.203403 0.760876 0.164523
0.202869 0.759793 0.164233
0.201694 0.757244 0.1635
0.200641 0.753124 0.162371
0.207279 0.74789 0.161624
0.231495 0.741421 0.162631
0.271275 0.734386 0.166934
0.320302 0.728801 0.175937
0.375692 0.725124 0.18822
0.437873 0.725872 0.204028
0.504051 0.731548 0.224796
0.576745 0.742397 0.248524
0.673182 0.768872 0.275776
0.794095 0.812345 0.309133
0.907485 0.849592 0.345541
0.978775 0.86978 0.388373
0.99794 0.87863 0.437461
1 0.88072 0.479423
1 0.878157 0.501686
1 0.874113 0.503639
1 0.870253 0.501259
1 0.866575 0.498817
1 0.865156 0.497932
1 0.866545 0.498924
1 0.867506 0.499596
1 0.866133 0.498634
1 0.864637 0.497581
0.225116 0.808042 0.180194
0.227008 0.811627 0.181643
0.228489 0.814404 0.182773
0.229862 0.816999 0.18381
0.231113 0.819379 0.184787
0.232029 0.821164 0.18555
0.232364 0.821912 0.185931
0.231662 0.820768 0.185504
0.230152 0.81796 0.184421
0.228458 0.813916 0.183017
0.231662 0.809186 0.181918
0.250645 0.802365 0.181842
0.286717 0.794919 0.184192
0.332845 0.787961 0.190372
0.38471 0.782986 0.200839
0.441611 0.780987 0.214755
0.503426 0.783032 0.232853
0.568093 0.787762 0.254719
0.643244 0.799512 0.280446
0.747021 0.831678 0.316732
0.869444 0.877791 0.364324
0.964752 0.91371 0.414237
0.996414 0.930617 0.46453
1 0.937621 0.511177
1 0.938552 0.540932
1 0.935714 0.547295
1 0.932342 0.545113
1 0.929519 0.543206
1 0.927626 0.541939
1 0.928801 0.542855
1 0.929564 0.543481
1 0.928527 0.542748
1 0.927779 0.542214
0.257404 0.867094 0.205325
0.259541 0.870542 0.207095
0.261448 0.87361 0.208682
0.263249 0.876478 0.210178
0.264439 0.878401 0.21117
0.2654 0.879973 0.212039
0.265599 0.8804 0.21236
0.264698 0.879164 0.211719
0.262821 0.876341 0.210254
0.260884 0.872511 0.208499
0.26183 0.867445 0.206622
0.274342 0.86099 0.205432
0.305196 0.853117 0.205966
0.347967 0.845518 0.209445
0.397223 0.839689 0.217304
0.449531 0.835599 0.228824
0.505867 0.834348 0.244007
0.566583 0.835981 0.263905
0.633204 0.841657 0.28925
0.715068 0.858152 0.322698
0.823972 0.894911 0.371313
0.934936 0.939559 0.430014
0.993729 0.969711 0.487556
0.999985 0.980346 0.53817
1 0.982696 0.573083
1 0.981674 0.584726
1 0.979507 0.582849
1 0.977676 0.581064
1 0.976287 0.579828
1 0.976944 0.580667
1 0.977295 0.581338
1 0.976837 0.581064
1 0.976043 0.580362
0.295003 0.923476 0.237232
0.297856 0.92723 0.239734
0.300038 0.930083 0.241657
0.301946 0.932586 0.243336
0.303304 0.934371 0.244526
0.304311 0.935683 0.245457
0.304479 0.935988 0.245762
0.303532 0.935256 0.245014
0.300908 0.932433 0.242802
0.298146 0.928573 0.240238
0.297566 0.923522 0.237583
0.305577 0.917266 0.235401
0.328939 0.909438 0.234333
0.367849 0.902022 0.236149
0.413352 0.895064 0.240833
0.461997 0.889754 0.249393
0.513634 0.886275 0.261692
0.570062 0.885512 0.279301
0.632013 0.8878 0.303258
0.701183 0.894652 0.333715
0.788113 0.914763 0.375708
0.894072 0.952178 0.43357
0.978775 0.987503 0.500404
0.998795 0.997223 0.559091
1 0.998428 0.599115
1 0.998581 0.614786
1 0.998672 0.615106
1 0.998886 0.613581
1 0.999054 0.612772
1 0.998917 0.613321
1 0.998978 0.614145
1 0.998703 0.613779
1 0.998352 0.613062
0.337346 0.970565 0.275151
0.3402 0.973175 0.277745
0.342626 0.975387 0.279957
0.344472 0.977081 0.281651
0.346044 0.978515 0.28307
0.34728 0.979644 0.284215
0.347555 0.979812 0.284596
0.34612 0.979065 0.283391
0.343679 0.977523 0.281254
0.340795 0.974823 0.278569
0.338949 0.970886 0.275319
0.343175 0.965469 0.27187
0.360525 0.959319 0.269963
0.392508 0.952834 0.270375
0.433967 0.946792 0.273564
0.479667 0.941588 0.279942
0.527596 0.937118 0.289631
0.579858 0.934493 0.303868
0.636683 0.933516 0.323445
0.698482 0.935149 0.34963
0.76875 0.942596 0.384329
0.856733 0.964782 0.434501
0.949554 0.992142 0.501122
0.996689 0.999756 0.570642
0.999924 1 0.61883
1 1 0.639796
1 1 0.643076
1 1 0.641779
1 1 0.64126
0.999954 1 0.64181
0.999832 1 0.64239
0.999832 1 0.642252
0.999832 1 0.641703
0.372763 0.994003 0.307897
0.374807 0.994965 0.309804
0.376547 0.995789 0.311437
0.377981 0.99646 0.312779
0.378927 0.996887 0.313664
0.379187 0.996963 0.313909
0.378485 0.996658 0.313359
0.377691 0.99646 0.312734
0.376989 0.996277 0.3122
0.375769 0.995712 0.311116
0.374594 0.994446 0.308904
0.377768 0.992432 0.306249
0.391974 0.989731 0.305058
0.41883 0.986862 0.306203
0.456855 0.984131 0.31043
0.499687 0.981567 0.317067
0.545464 0.978378 0.325963
0.592905 0.974487 0.335698
0.644999 0.971832 0.349187
0.701244 0.970962 0.369009
0.762692 0.972503 0.397253
0.834348 0.981826 0.438865
0.919524 0.99556 0.497765
0.987854 0.999893 0.569512
0.999588 1 0.629404
1 1 0.658106
1 1 0.664408
1 1 0.663874
1 1 0.663554
0.999939 1 0.66392
0.999786 1 0.664317
0.999771 1 0.664302
0.999771 1 0.663981
0.385046 0.998749 0.319432
0.385336 0.998825 0.319707
0.385382 0.99884 0.319738
0.385412 0.99884 0.319783
0.385443 0.998856 0.319814
0.385473 0.998856 0.319829
0.385382 0.998856 0.319829
0.385306 0.998886 0.31989
0.385397 0.998947 0.320104
0.385611 0.999039 0.320409
0.386557 0.999069 0.320577
0.391775 0.998978 0.321065
0.406744 0.99855 0.323003
0.43331 0.997925 0.327184
0.469322 0.997192 0.33373
0.511452 0.996506 0.342535
0.555505 0.995468 0.352148
0.601678 0.994064 0.361608
0.651041 0.992966 0.37171
0.704082 0.992691 0.386221
0.761715 0.993393 0.409766
0.824369 0.995712 0.444831
0.897917 0.998947 0.495689
0.969268 0.999985 0.56199
0.999863 1 0.630549
1 1 0.667277
1 1 0.676448
1 1 0.676844
1 1 0.676661
0.999985 1 0.676844
0.999969 1 0.677073
0.999954 1 0.677134
0.999954 1 0.677012
0.385977 0.998932 0.320317
0.385977 0.998932 0.320317
0.385977 0.998932 0.320317
0.385977 0.998932 0.320317
0.385992 0.998932 0.320333
0.385992 0.998932 0.320333
0.385946 0.998932 0.320348
0.385855 0.998962 0.320394
0.385794 0.998993 0.32047
