LUT预设1/iPhone 专用lut-合集1/iPhone 标准版合集1(log)/cine电影.cube
TITLE "Generated by Resolve"
LUT_3D_SIZE 5
0.0150759 0 0.0285039
0.197681 0.00469978 0.0214847
0.688075 0.103746 0.105226
1 0.307713 0.306661
1 0.30782 0.306767
0.0192569 0.0885634 0.0206607
0.108263 0.0836805 0.018677
0.667262 0.123735 0.0986954
1 0.313771 0.307012
1 0.313313 0.307103
0.109163 0.487968 0.0954147
0.115465 0.507118 0.100343
0.607477 0.575433 0.178042
1 0.593347 0.330632
1 0.582513 0.327825
0.337346 0.970565 0.275151
0.343679 0.977523 0.281254
0.527596 0.937118 0.289631
0.999924 1 0.61883
0.999832 1 0.641703
0.38616 0.998856 0.320485
0.385992 0.998917 0.320607
0.555062 0.998398 0.359457
0.992844 1 0.620523
1 1 0.682017
0.0226444 0.00450141 0.124834
0.150515 0.00602731 0.121553
0.681697 0.10135 0.126574
1 0.307912 0.30695
1 0.308003 0.307256
0.0187228 0.0920119 0.0780041
0.0940414 0.0861982 0.0716564
0.681895 0.129396 0.121538
1 0.314717 0.310994
1 0.314199 0.310994
0.111086 0.494499 0.0967575
0.117922 0.515145 0.101747
0.613565 0.581155 0.179644
1 0.596017 0.331273
1 0.585306 0.328573
0.33959 0.972915 0.276783
0.345846 0.979965 0.28278
0.529091 0.939742 0.291203
0.999924 1 0.620432
1 1 0.6421
0.38616 0.998886 0.320241
0.386007 0.998947 0.320333
0.555367 0.998413 0.359274
0.992813 1 0.620371
1 1 0.681865
0.0370489 0.03122 0.585153
0.0267033 0.0231785 0.623774
0.602808 0.164813 0.609049
1 0.366995 0.651591
1 0.361746 0.636271
0.0582895 0.0589914 0.541909
0.0287785 0.0781415 0.56202
0.622843 0.181643 0.629938
1 0.379355 0.678126
1 0.374609 0.668406
0.0152743 0.54876 0.535714
0.0152895 0.571237 0.557733
0.451637 0.530877 0.531609
0.999283 0.578622 0.568414
0.999329 0.571893 0.561593
0.237613 0.972671 0.537331
0.246754 0.977356 0.545052
0.472526 0.937972 0.494774
0.999603 0.999908 0.704234
0.999268 1 0.729335
0.346242 1 0.53254
0.344808 1 0.538521
0.528191 0.999008 0.512947
0.978592 1 0.653391
1 1 0.737301
0.204761 0.206638 0.88127
0.195377 0.203479 0.963119
0.357733 0.229816 0.97966
0.996277 0.561807 0.987716
0.996124 0.560876 0.986068
0.221851 0.204089 0.89482
0.19585 0.216846 0.906828
0.416052 0.24387 0.979828
0.997055 0.561547 0.986923
0.996643 0.561456 0.987488
0.107408 0.599329 0.971084
0.114504 0.613275 0.964263
0.113085 0.579629 0.958526
0.976043 0.662196 0.965194
0.997131 0.666026 0.957198
0.419913 0.967529 0.957488
0.435355 0.97084 0.960922
0.33225 0.949126 0.937987
0.898985 0.914717 0.912383
0.998566 0.90045 0.894774
0.505043 0.999954 0.93846
0.509285 0.999924 0.94258
0.474235 1 0.909636
0.879133 0.998688 0.883909
0.99971 0.99971 0.901564
0.205814 0.207721 0.867445
0.193759 0.205234 0.947967
0.334554 0.226108 0.977707
0.995087 0.56083 0.987274
0.995697 0.562264 0.987701
0.223713 0.203891 0.874739
0.19791 0.216434 0.889052
0.398383 0.239567 0.97734
0.996918 0.561669 0.985901
0.996475 0.561502 0.986587
0.137209 0.593378 0.945769
0.134218 0.608576 0.937697
0.12221 0.578454 0.941421
0.965927 0.664088 0.982208
0.995132 0.674083 0.981445
0.488426 0.959136 0.989822
0.496498 0.962966 0.989181
0.452888 0.934768 0.982986
0.871733 0.910735 0.973404
0.996963 0.906538 0.985489
0.567086 0.998764 0.992264
0.566949 0.99881 0.992309
0.570092 1 0.993683
0.862455 0.998108 0.992264
1 0.996124 0.983154
