LUT预设1/iPhone 专用lut-合集1/iPhone 标准版合集1(log)/cine电影.cube
TITLE "Generated by Resolve"
LUT_3D_SIZE 9
0.0150759 0 0.0285039
0.0361334 1.5259e-05 0.0250248
0.197681 0.00469978 0.0214847
0.415885 0.0333867 0.0372473
0.688075 0.103746 0.105226
0.970306 0.251835 0.25095
1 0.307713 0.306661
1 0.30782 0.306767
1 0.30782 0.306767
0.0158694 0 0.0288853
0.0191348 0 0.0283207
0.169802 0.00328069 0.0216373
0.398047 0.0293431 0.0347753
0.68127 0.101549 0.103548
0.972274 0.2551 0.254459
1 0.307652 0.306813
1 0.30779 0.306874
1 0.307805 0.306828
0.0192569 0.0885634 0.0206607
0.0191806 0.0914778 0.0208743
0.108263 0.0836805 0.018677
0.366995 0.0730449 0.0284428
0.667262 0.123735 0.0986954
0.972717 0.26566 0.255253
1 0.313771 0.307012
1 0.314351 0.307073
1 0.313313 0.307103
0.0468147 0.264012 0.0399329
0.0485542 0.273121 0.0419928
0.0602579 0.278813 0.04448
0.297688 0.285023 0.0654307
0.607126 0.310857 0.0875868
0.918212 0.365438 0.207858
1 0.413535 0.30602
1 0.410071 0.306142
1 0.406989 0.306188
0.109163 0.487968 0.0954147
0.112688 0.499519 0.0982834
0.115465 0.507118 0.100343
0.241688 0.496208 0.122805
0.607477 0.575433 0.178042
0.913237 0.613504 0.241337
1 0.593347 0.330632
1 0.585 0.328634
1 0.582513 0.327825
0.196902 0.74522 0.159579
0.201617 0.756527 0.162997
0.201694 0.757244 0.1635
0.271275 0.734386 0.166934
0.504051 0.731548 0.224796
0.907485 0.849592 0.345541
1 0.878157 0.501686
1 0.865156 0.497932
1 0.864637 0.497581
0.337346 0.970565 0.275151
0.346044 0.978515 0.28307
0.343679 0.977523 0.281254
0.360525 0.959319 0.269963
0.527596 0.937118 0.289631
0.76875 0.942596 0.384329
0.999924 1 0.61883
1 1 0.64126
0.999832 1 0.641703
0.386053 0.998901 0.320378
0.386069 0.998901 0.320394
0.38587 0.998962 0.320546
0.408194 0.999374 0.326314
0.553246 0.998444 0.358984
0.755932 0.999908 0.413092
0.994751 1 0.62002
1 1 0.681819
1 1 0.681865
0.38616 0.998856 0.320485
0.38616 0.998856 0.320485
0.385992 0.998917 0.320607
0.409323 0.999298 0.326574
0.555062 0.998398 0.359457
0.757519 0.999939 0.412924
0.992844 1 0.620523
1 1 0.681926
1 1 0.682017
0.0176242 0.000427253 0.00691234
0.0332647 1.5259e-05 0.0259403
0.196429 0.00477607 0.0206149
0.415351 0.033341 0.0365148
0.688258 0.103868 0.104829
0.970581 0.252293 0.251072
1 0.307729 0.306477
1 0.307836 0.306661
1 0.30782 0.306737
0.017319 0 0.0273442
0.0195926 0 0.026688
0.173098 0.00355535 0.0210727
0.40206 0.0302892 0.0348821
0.686061 0.10309 0.104677
0.974487 0.257694 0.256733
1 0.307668 0.306615
1 0.307805 0.306737
1 0.307805 0.306752
0.0193179 0.0894179 0.0202792
0.0193637 0.0936294 0.0204929
0.111589 0.0870985 0.0183871
0.373007 0.0763104 0.0289464
0.67422 0.127825 0.100267
0.975631 0.270054 0.258793
1 0.314229 0.306844
1 0.314809 0.306966
1 0.31371 0.307027
0.047425 0.267002 0.0403143
0.0493019 0.2766 0.0424659
0.062089 0.283558 0.0453651
0.302403 0.289876 0.0670939
0.613611 0.31603 0.0891432
0.92253 0.370504 0.211292
1 0.415991 0.305928
1 0.412421 0.306096
1 0.409003 0.306157
0.110246 0.491463 0.0961776
0.114031 0.503822 0.0992294
0.116854 0.511345 0.101259
0.245777 0.500237 0.124269
0.612085 0.579782 0.179873
0.917388 0.617533 0.244495
1 0.596719 0.332021
1 0.588449 0.329961
1 0.586114 0.329229
0.198199 0.748562 0.160525
0.203235 0.760113 0.164187
0.203159 0.760494 0.164553
0.275288 0.73785 0.168399
0.508095 0.734966 0.226642
0.912673 0.854215 0.349645
1 0.882139 0.504784
1 0.86923 0.500786
1 0.869123 0.50074
0.339773 0.972778 0.277363
0.348898 0.981125 0.285679
0.346288 0.980072 0.283635
0.364233 0.961975 0.272282
0.532128 0.940352 0.292607
0.773709 0.945998 0.388312
0.999924 1 0.622034
1 1 0.642832
0.999832 1 0.643351
0.386053 0.998901 0.320394
0.386069 0.998901 0.320409
0.38587 0.998962 0.320562
0.409857 0.999359 0.32665
0.556435 0.998444 0.359777
0.759884 0.999924 0.414923
0.996612 1 0.624674
1 1 0.681819
1 1 0.68188
0.38616 0.998856 0.320485
0.38616 0.998856 0.320485
0.385992 0.998917 0.320623
0.410361 0.999283 0.326787
0.557641 0.998383 0.360098
0.760693 0.999939 0.414603
0.993484 1 0.623285
1 1 0.681926
1 1 0.682017
0.0226444 0.00450141 0.124834
0.016968 0.00233463 0.159121
0.150515 0.00602731 0.121553
0.404395 0.0307774 0.0934005
0.681697 0.10135 0.126574
0.969177 0.251392 0.254597
1 0.307912 0.30695
1 0.308064 0.307942
1 0.308003 0.307256
0.0354162 9.15541e-05 0.120607
0.0217136 0.0018616 0.122621
0.135622 0.00402838 0.107042
0.397604 0.0292668 0.0838636
0.68687 0.102861 0.127703
0.975174 0.259144 0.26421
1 0.308003 0.309178
1 0.308125 0.309483
1 0.30808 0.308629
0.0187228 0.0920119 0.0780041
0.0184787 0.0992599 0.082475
0.0940414 0.0861982 0.0716564
0.37911 0.0756847 0.0601968
0.681895 0.129396 0.121538
0.979477 0.274784 0.270512
1 0.314717 0.310994
1 0.315328 0.311772
1 0.314199 0.310994
0.0449531 0.268833 0.0481117
0.0464179 0.279667 0.0524605
0.0577401 0.288716 0.0567483
0.304921 0.292805 0.0731823
0.621256 0.317906 0.0941024
0.928725 0.374075 0.21706
1 0.416114 0.305669
1 0.412024 0.30605
1 0.409247 0.30602
0.111086 0.494499 0.0967575
0.115023 0.507271 0.0997787
0.117922 0.515145 0.101747
0.24416 0.503182 0.123781
0.613565 0.581155 0.179644
0.919493 0.616953 0.244617
1 0.596017 0.331273
1 0.586923 0.328954
1 0.585306 0.328573
0.198581 0.749523 0.160266
0.203738 0.761318 0.163989
0.20383 0.761959 0.164462
0.272374 0.739254 0.167452
0.506004 0.735439 0.225483
0.912352 0.85388 0.348791
1 0.880842 0.503792
1 0.866896 0.498772
1 0.867018 0.498909
0.33959 0.972915 0.276783
0.348455 0.98117 0.28484
0.345846 0.979965 0.28278
0.361746 0.961364 0.271229
0.529091 0.939742 0.291203
0.770779 0.944915 0.385962
0.999924 1 0.620432
1 1 0.641642
1 1 0.6421
0.386069 0.998917 0.320104
0.386084 0.998917 0.320089
0.385885 0.998993 0.320226
0.408698 0.99939 0.326085
0.553964 0.998474 0.358831
0.757183 0.999924 0.413214
0.996551 1 0.621653
1 1 0.681605
1 1 0.681666
0.38616 0.998886 0.320241
0.38616 0.998886 0.320211
0.386007 0.998947 0.320333
0.409155 0.999329 0.326268
0.555367 0.998413 0.359274
0.758267 0.999954 0.413123
0.992813 1 0.620371
1 1 0.681773
1 1 0.681865
0.0299382 0.0118257 0.330236
0.0216678 0.00956741 0.371298
0.0306554 0.00856031 0.359564
0.33756 0.0658732 0.321157
0.659861 0.0968338 0.346685
0.956344 0.249409 0.401312
1 0.320058 0.427207
1 0.319234 0.421332
1 0.317998 0.411185
0.048249 0.00436408 0.318242
0.0283055 0.00955215 0.325399
0.0290837 0.00790417 0.348455
0.332586 0.0631113 0.3178
0.669978 0.09897 0.354116
0.96582 0.260197 0.416571
1 0.32137 0.438911
1 0.321218 0.436698
1 0.31989 0.426963
0.0365301 0.0624094 0.304738
0.0373236 0.0682841 0.307973
0.0224155 0.0705425 0.31516
0.32018 0.0920729 0.311818
0.673487 0.122545 0.353323
0.975555 0.27866 0.427207
1 0.327764 0.448325
1 0.327688 0.445975
1 0.325978 0.439811
0.0155489 0.286336 0.271168
0.0148775 0.298528 0.284016
0.0141146 0.307668 0.293324
0.221271 0.278691 0.271382
0.60502 0.291737 0.274968
0.924315 0.36672 0.35288
1 0.41593 0.405371
1 0.411383 0.401007
1 0.409003 0.398871
0.0296483 0.508812 0.258961
0.0287785 0.523201 0.273365
0.0296788 0.531304 0.277104
0.180301 0.502846 0.244587
0.579187 0.553552 0.273457
0.886656 0.578088 0.306172
0.999985 0.57937 0.37351
1 0.571969 0.37084
1 0.570977 0.370184
0.156909 0.745098 0.259083
0.156176 0.75816 0.274327
0.159213 0.758648 0.271031
0.237705 0.731991 0.245197
0.487602 0.728664 0.268299
0.900725 0.845045 0.382773
1 0.866163 0.511208
1 0.851057 0.504875
0.999969 0.851072 0.505791
0.328878 0.968215 0.316045
0.337774 0.977157 0.331472
0.334554 0.973709 0.324788
0.347997 0.955642 0.300053
0.514458 0.933532 0.304738
0.755352 0.937118 0.386053
0.999939 1 0.617914
1 1 0.6421
1 1 0.642237
0.383612 0.99881 0.34313
0.382788 0.99881 0.35198
0.382696 0.998886 0.350011
0.403128 0.999268 0.3449
0.54461 0.998337 0.365881
0.745617 0.999756 0.411261
0.994659 1 0.611307
1 1 0.681788
1 1 0.682094
0.383291 0.998764 0.347585
0.382757 0.998764 0.353643
0.382818 0.998825 0.35082
0.403677 0.999207 0.345113
0.546029 0.99826 0.366049
0.746578 0.999802 0.410513
0.9897 1 0.61001
1 1 0.682368
1 1 0.682551
0.0370489 0.03122 0.585153
0.0248264 0.0290684 0.622492
0.0267033 0.0231785 0.623774
0.13814 0.0442054 0.578927
0.602808 0.164813 0.609049
0.917113 0.280186 0.638956
1 0.366995 0.651591
1 0.364752 0.645792
1 0.361746 0.636271
0.0546578 0.0203555 0.562737
0.035523 0.0251621 0.572625
0.0266575 0.0219425 0.610086
0.142397 0.0448615 0.581353
0.615732 0.169467 0.621988
0.929198 0.29662 0.655055
1 0.372366 0.666377
1 0.371054 0.662593
1 0.367483 0.653758
0.0582895 0.0589914 0.541909
0.0513924 0.0710765 0.547967
0.0287785 0.0781415 0.56202
0.127977 0.0704051 0.580118
0.622843 0.181643 0.629938
0.944686 0.314824 0.668421
1 0.379355 0.678126
1 0.377401 0.673609
1 0.374609 0.668406
0.0258946 0.29836 0.530159
0.0266117 0.312734 0.543648
0.0286259 0.322957 0.550591
0.0433509 0.305287 0.54403
0.56199 0.322148 0.57789
0.897337 0.373159 0.603647
1 0.438819 0.626657
1 0.432624 0.618021
1 0.430365 0.615412
0.0152743 0.54876 0.535714
0.0155795 0.563409 0.550134
0.0152895 0.571237 0.557733
0.0165713 0.55378 0.53994
0.451637 0.530877 0.531609
0.838102 0.527947 0.517342
0.999283 0.578622 0.568414
0.999374 0.572732 0.562463
0.999329 0.571893 0.561593
0.021088 0.787259 0.543633
0.0214237 0.800015 0.556786
0.0208438 0.800595 0.555184
0.0319371 0.77731 0.528283
0.399237 0.747707 0.491554
0.838193 0.80383 0.551736
0.999756 0.795926 0.593683
0.999863 0.780957 0.584924
0.999771 0.781201 0.585901
0.237613 0.972671 0.537331
0.25417 0.980835 0.551186
0.246754 0.977356 0.545052
0.254444 0.961379 0.517143
0.472526 0.937972 0.494774
0.720562 0.929503 0.517189
0.999603 0.999908 0.704234
0.999557 1 0.728161
0.999268 1 0.729335
0.346532 1 0.528939
0.343633 1 0.541344
0.345373 1 0.536492
0.371664 1 0.517662
0.526696 0.999054 0.510842
0.7243 0.998947 0.525811
0.977615 1 0.653361
1 1 0.736996
0.999939 1 0.737713
0.346242 1 0.53254
0.343038 1 0.543175
0.344808 1 0.538521
0.371939 1 0.519341
0.528191 0.999008 0.512947
0.724926 0.99884 0.527443
0.978592 1 0.653391
1 1 0.736919
1 1 0.737301
0.151888 0.157519 0.83827
0.137255 0.15259 0.868879
0.124025 0.136156 0.888777
0.0961013 0.110903 0.854704
0.497734 0.17908 0.846479
0.865232 0.349538 0.862135
0.999985 0.483574 0.863233
0.999985 0.481132 0.859144
1 0.477058 0.852262
0.146242 0.137026 0.81883
0.132723 0.140017 0.829129
0.118349 0.13312 0.872328
0.0998245 0.114183 0.860304
0.511971 0.188266 0.860105
0.879652 0.369207 0.876051
1 0.491325 0.876799
0.999985 0.48957 0.873747
0.999985 0.485573 0.86688
0.119127 0.131426 0.804181
0.116823 0.143862 0.812863
0.102098 0.155001 0.828977
0.0911421 0.133837 0.859342
0.519341 0.200229 0.870573
0.895827 0.38822 0.889754
1 0.498451 0.888518
1 0.495918 0.883803
0.999985 0.493538 0.880064
0.0471809 0.324254 0.792248
0.0471962 0.339406 0.802701
0.0406806 0.352422 0.807736
0.0182498 0.341741 0.805936
0.419013 0.327535 0.829114
0.842939 0.427497 0.845273
0.999756 0.52752 0.845624
0.999969 0.52166 0.83653
0.999954 0.519707 0.834363
0.0268559 0.581384 0.795483
0.0273442 0.593973 0.807233
0.030457 0.598611 0.811215
0.0324102 0.579629 0.789593
0.222522 0.545724 0.78732
0.776577 0.566018 0.792782
0.995422 0.617411 0.790722
0.998611 0.612207 0.781903
0.998489 0.611444 0.780423
0.0218814 0.80798 0.795575
0.0221256 0.819562 0.807385
0.0215915 0.818662 0.806348
0.0205234 0.798932 0.786465
0.076463 0.784466 0.767529
0.689052 0.752834 0.76112
0.98616 0.748592 0.741238
0.998032 0.74548 0.737713
0.997848 0.746029 0.738293
0.205921 0.988373 0.773922
0.236896 0.991897 0.782773
0.224369 0.989929 0.77911
0.181018 0.981247 0.760174
0.301946 0.962737 0.731853
0.657893 0.940612 0.716457
0.986923 0.973449 0.789044
0.999237 0.975708 0.811536
0.999054 0.97557 0.812573
0.368887 1 0.745235
0.37348 1 0.75668
0.371771 1 0.751842
0.365911 1 0.732158
0.457832 0.999954 0.713512
0.69131 0.998825 0.706828
0.925338 0.999588 0.740246
1 1 0.821363
0.999405 1 0.822126
0.370718 1 0.748745
0.374044 1 0.758267
0.372351 1 0.753857
0.366384 1 0.733562
0.460273 0.999954 0.715236
0.693477 0.998749 0.709194
0.923384 0.999588 0.740612
1 0.999924 0.821302
1 1 0.821622
0.204761 0.206638 0.88127
0.194812 0.206668 0.912444
0.195377 0.203479 0.963119
0.197131 0.202853 0.974258
0.357733 0.229816 0.97966
0.813596 0.403494 0.991516
0.996277 0.561807 0.987716
0.996078 0.561227 0.986709
0.996124 0.560876 0.986068
0.215457 0.20293 0.881926
0.203571 0.205524 0.892546
0.194629 0.205188 0.94519
0.197345 0.202762 0.973861
0.387747 0.237079 0.981231
0.833143 0.416709 0.99147
0.996353 0.561898 0.988052
0.995956 0.561944 0.98819
0.995972 0.561593 0.987457
0.221851 0.204089 0.89482
0.213306 0.208789 0.894591
0.19585 0.216846 0.906828
0.190249 0.210147 0.959274
0.416052 0.24387 0.979828
0.853437 0.427115 0.989975
0.997055 0.561547 0.986923
0.996735 0.561578 0.987335
0.996643 0.561456 0.987488
0.174838 0.358343 0.927565
0.169162 0.370336 0.926711
0.157336 0.381628 0.923858
0.145663 0.37435 0.932845
0.277195 0.362432 0.976043
0.785138 0.464912 0.986542
0.995178 0.593027 0.982132
0.996857 0.592859 0.980941
0.996826 0.591852 0.980407
0.107408 0.599329 0.971084
0.110231 0.610285 0.972549
0.114504 0.613275 0.964263
0.109468 0.597711 0.954437
0.113085 0.579629 0.958526
0.695079 0.584726 0.981735
0.976043 0.662196 0.965194
0.997208 0.66659 0.958007
0.997131 0.666026 0.957198
0.164874 0.805173 0.983459
0.189197 0.813733 0.985718
0.185412 0.812222 0.984741
0.138766 0.79678 0.975647
0.109773 0.778546 0.960525
0.599039 0.757046 0.961135
0.945113 0.777478 0.942535
0.996643 0.780026 0.928801
0.99646 0.780606 0.928191
0.419913 0.967529 0.957488
0.445762 0.972976 0.963363
0.435355 0.97084 0.960922
0.387381 0.960739 0.950164
0.33225 0.949126 0.937987
0.572961 0.940093 0.926406
0.898985 0.914717 0.912383
0.998764 0.89984 0.89424
0.998566 0.90045 0.894774
0.500832 1 0.935256
0.511757 0.999969 0.944198
0.507866 0.999939 0.941115
0.490303 1 0.925872
0.471763 1 0.90988
0.649042 0.999741 0.895598
0.878416 0.998718 0.883406
0.999863 0.999878 0.9019
0.999313 0.999969 0.902953
0.505043 0.999954 0.93846
0.513787 0.999939 0.945891
0.509285 0.999924 0.94258
0.490318 1 0.92636
0.474235 1 0.909636
0.652277 0.999649 0.895796
0.879133 0.998688 0.883909
1 0.999451 0.901488
0.99971 0.99971 0.901564
0.205814 0.207721 0.867445
0.195895 0.208179 0.893477
0.193912 0.205066 0.950057
0.196933 0.203082 0.972381
0.348211 0.228321 0.978241
0.80827 0.400809 0.990662
0.995697 0.561608 0.987366
0.995743 0.562234 0.987747
0.995712 0.562234 0.987854
0.215885 0.204562 0.865904
0.204959 0.206851 0.876844
0.194141 0.206928 0.928374
0.196719 0.203326 0.970031
0.377707 0.234882 0.979553
0.82977 0.414374 0.990509
0.996139 0.562097 0.987396
0.995743 0.562234 0.987762
0.995712 0.562249 0.987793
0.223438 0.205325 0.876173
0.214984 0.210513 0.876677
0.197223 0.218341 0.890532
0.189242 0.211963 0.944945
0.408652 0.242344 0.977951
0.848753 0.424277 0.988983
0.996948 0.561685 0.986007
0.996597 0.561669 0.986542
0.996506 0.561547 0.986725
0.183169 0.358892 0.905882
0.175586 0.370687 0.905608
0.160174 0.3823 0.905074
0.148394 0.375402 0.916625
0.266102 0.363272 0.967758
0.775982 0.461662 0.986572
0.993729 0.592691 0.983078
0.996384 0.594278 0.983474
0.996292 0.593561 0.983597
0.134127 0.595834 0.951858
0.134173 0.606653 0.952255
0.132647 0.610346 0.942931
0.125704 0.596277 0.937713
0.121019 0.579431 0.945632
0.68043 0.58471 0.986694
0.967269 0.664775 0.982467
0.9953 0.674632 0.981613
0.995178 0.674281 0.981704
0.232044 0.798474 0.98439
0.245884 0.807385 0.98439
0.246174 0.804944 0.979583
0.227802 0.789166 0.972061
0.199512 0.773861 0.963836
0.586557 0.761501 0.966781
0.925933 0.780621 0.985687
0.995209 0.788418 0.982589
0.995041 0.788785 0.982712
0.485634 0.959884 0.991913
0.498161 0.966232 0.99176
0.493782 0.963806 0.991455
0.472435 0.950622 0.991516
0.448096 0.936019 0.989471
0.585885 0.923568 0.981033
0.871122 0.910185 0.980865
0.997192 0.906188 0.985779
0.997009 0.906249 0.985855
0.567041 0.998779 0.992279
0.567071 0.998764 0.992264
0.566873 0.998825 0.992325
0.569299 0.999481 0.99324
0.570031 0.999985 0.993683
0.645701 0.998978 0.992905
0.861845 0.997925 0.991852
0.998566 0.995499 0.982193
0.999252 0.995102 0.982391
0.567071 0.998749 0.992432
0.567071 0.998749 0.992416
0.566918 0.998795 0.992477
0.569375 0.999435 0.993408
0.570077 1 0.993851
0.647257 0.998932 0.993011
0.861295 0.998108 0.991791
0.997391 0.996384 0.982177
0.999496 0.996399 0.981445
0.205814 0.207721 0.867445
0.196582 0.208194 0.891051
0.193759 0.205234 0.947967
0.196887 0.203098 0.972122
0.334554 0.226108 0.977707
0.801282 0.39678 0.990616
0.995087 0.56083 0.987274
0.995743 0.562249 0.98764
0.995697 0.562264 0.987701
0.215183 0.204837 0.865736
0.205066 0.206882 0.876448
0.194125 0.206943 0.927749
0.196674 0.203357 0.969802
0.362768 0.232029 0.978882
0.823438 0.410117 0.990524
0.996109 0.562097 0.987305
0.995727 0.562249 0.987671
0.995697 0.562264 0.987701
0.223713 0.203891 0.874739
0.215839 0.208621 0.87538
0.19791 0.216434 0.889052
0.189654 0.210681 0.943282
0.398383 0.239567 0.97734
0.843687 0.421241 0.988937
0.996918 0.561669 0.985901
0.996567 0.561639 0.986435
0.996475 0.561502 0.986587
0.18529 0.355169 0.902281
0.17792 0.36672 0.90251
0.161868 0.379034 0.901778
0.149783 0.372808 0.913359
0.260533 0.361135 0.965087
0.772473 0.458976 0.986297
0.99321 0.591882 0.982864
0.996353 0.593973 0.983276
0.996262 0.593347 0.983383
0.137209 0.593378 0.945769
0.136919 0.604105 0.947158
0.134218 0.608576 0.937697
0.126314 0.595193 0.932967
0.12221 0.578454 0.941421
0.677745 0.583917 0.984985
0.965927 0.664088 0.982208
0.99527 0.674495 0.981338
0.995132 0.674083 0.981445
0.236103 0.797055 0.979248
0.248661 0.805768 0.980102
0.249332 0.803494 0.973861
0.230396 0.788144 0.96492
0.199741 0.773465 0.957137
0.586694 0.761807 0.960891
0.924178 0.780621 0.985
0.995163 0.788785 0.982238
0.99498 0.789075 0.982391
0.488426 0.959136 0.989822
0.500359 0.965469 0.990005
0.496498 0.962966 0.989181
0.476097 0.949538 0.987839
0.452888 0.934768 0.982986
0.591806 0.92314 0.971618
0.871733 0.910735 0.973404
0.997131 0.906462 0.985306
0.996963 0.906538 0.985489
0.567559 0.998657 0.991928
0.567468 0.998688 0.991989
0.567346 0.998718 0.992004
0.570001 0.999283 0.992813
0.571115 0.999527 0.993027
0.649912 0.998489 0.991684
0.868009 0.997162 0.988373
0.998886 0.995514 0.97731
0.999191 0.994904 0.982971
0.567086 0.998764 0.992264
0.567086 0.998764 0.992264
0.566949 0.99881 0.992309
0.56939 0.999451 0.99324
0.570092 1 0.993683
0.649271 0.998947 0.99295
0.862455 0.998108 0.992264
0.997406 0.99617 0.983627
1 0.996124 0.983154
