LUT预设1/iPhone 专用lut-合集1/iPhone 标准版合集1(log)/SHINE清新.cube
TITLE "Generated by Resolve"
LUT_3D_SIZE 5
0 0 0
0.335149 0.0225071 0.0107576
0.86833 0.0911269 0.0251011
0.962112 0.100999 0.0275731
0.962112 0.100999 0.0275731
0.0689097 0.232837 0.0660105
0.150088 0.169741 0.0305791
0.732479 0.1832 0.0196231
0.961883 0.177935 0.0274357
0.961944 0.159838 0.0277867
0.242069 0.723125 0.233524
0.259541 0.687236 0.222232
0.630503 0.558053 0.122011
0.960052 0.569284 0.00508125
0.960708 0.53904 4.57771e-05
0.319417 0.963867 0.307988
0.319478 0.963867 0.307988
0.397986 0.959655 0.278553
0.940948 0.849622 0.224369
0.947768 0.840833 0.223575
0.319417 0.963867 0.307988
0.319417 0.963867 0.307988
0.414481 0.962386 0.305974
0.906752 0.882124 0.235386
0.947906 0.852964 0.224231
0.0590524 0.125124 0.346716
0.284779 0.00480659 0.331044
0.865431 0.0305943 0.152453
0.964492 0.0454719 0.133227
0.964492 0.0457618 0.125856
0.0235142 0.221698 0.226047
0.136126 0.180346 0.186969
0.72813 0.184741 0.104356
0.962127 0.17377 0.0687266
0.962112 0.15227 0.0563821
0.22977 0.706111 0.252888
0.243702 0.673472 0.236286
0.615915 0.548867 0.130877
0.960388 0.551461 0.00836194
0.960647 0.519448 0.00155642
0.319051 0.963882 0.309575
0.319417 0.963867 0.307988
0.373983 0.961349 0.288167
0.937652 0.848096 0.224781
0.94754 0.833646 0.222538
0.319417 0.963867 0.307988
0.319417 0.963867 0.307988
0.417075 0.962264 0.305333
0.899977 0.894926 0.240284
0.947906 0.852964 0.224231
0.155657 0.360082 0.8692
0.243687 0.221393 0.834974
0.84654 0 0.854978
0.964263 0.000366217 0.817823
0.964004 0.000549325 0.8065
0.11989 0.452842 0.781781
0.213184 0.405219 0.742184
0.731701 0.102419 0.740688
0.962692 0.0639658 0.684886
0.962676 0.0432593 0.65304
0.0110475 0.673884 0.676524
0.0280461 0.642405 0.644297
0.580514 0.604028 0.612451
0.963561 0.557839 0.514611
0.963272 0.532418 0.482261
0.180697 0.964965 0.516136
0.201953 0.964523 0.453864
0.334997 0.962722 0.322454
0.936355 0.885863 0.480552
0.951598 0.864134 0.454871
0.22948 0.964355 0.348211
0.248554 0.96408 0.298909
0.396582 0.963149 0.326116
0.89543 0.938445 0.400931
0.950698 0.87631 0.360372
0.159121 0.367742 0.909117
0.249424 0.261448 0.898543
0.825666 0 0.964233
0.962951 0 0.964096
0.962951 0 0.964096
0.150927 0.496864 0.925322
0.234012 0.462654 0.916274
0.707958 0.0858473 0.964157
0.962921 0.0448157 0.964126
0.962936 0.0242008 0.964111
0.0859236 0.728359 0.953292
0.106249 0.709377 0.951492
0.592386 0.698283 0.933303
0.962707 0.528267 0.964416
0.962707 0.497551 0.964401
0 0.965423 0.961288
0 0.964385 0.961288
0.371984 0.961975 0.961318
0.935073 0.944015 0.951873
0.963577 0.923369 0.935225
0 0.965423 0.956588
0.00015259 0.965423 0.935683
0.218448 0.965255 0.907149
0.824735 0.964553 0.848096
0.960189 0.944961 0.826474
0.159121 0.367742 0.909117
0.245335 0.265476 0.898085
0.815579 0 0.964248
0.962951 0 0.964096
0.962951 0 0.964096
0.151507 0.488975 0.924376
0.225376 0.452766 0.915541
0.694469 0.0750591 0.964019
0.962936 0.0361791 0.964111
0.962936 0.0184176 0.964111
0.088838 0.722393 0.95285
0.105699 0.702892 0.950927
0.581979 0.692317 0.932708
0.962707 0.516182 0.964401
0.962722 0.483604 0.964401
0 0.965423 0.961288
0 0.963455 0.961303
0.358709 0.957305 0.96257
0.927993 0.937346 0.964157
0.9635 0.913359 0.96466
0 0.965423 0.961288
0 0.965423 0.961288
0.200473 0.96527 0.96199
0.81915 0.964797 0.964187
0.964691 0.964691 0.964691
