LUT预设1/iPhone 专用lut-合集1/iPhone 标准版合集1(log)/SHINE清新.cube
TITLE "Generated by Resolve"
LUT_3D_SIZE 33
0 0 0
0.00109865 0 0
0.00772107 1.5259e-05 0
0.02916 3.0518e-05 6.10361e-05
0.0647135 0.000915541 0.000869764
0.116625 0.00367742 0.00297551
0.189151 0.010071 0.00543221
0.261921 0.0161593 0.0080415
0.335149 0.0225071 0.0107576
0.407919 0.0304265 0.0135348
0.478065 0.0399481 0.016022
0.544442 0.049073 0.0178531
0.607889 0.0569924 0.0191043
0.668879 0.0653697 0.0205539
0.730617 0.074342 0.0213474
0.798001 0.0818647 0.0232395
0.86833 0.0911269 0.0251011
0.92813 0.0987869 0.0267796
0.956451 0.100999 0.0276188
0.962112 0.100999 0.0275731
0.962112 0.100999 0.0275731
0.962112 0.100999 0.0275731
0.962112 0.100999 0.0275731
0.962112 0.100999 0.0275731
0.962112 0.100999 0.0275731
0.962112 0.100999 0.0275731
0.962112 0.100999 0.0275731
0.962112 0.100999 0.0275731
0.962112 0.100999 0.0275731
0.962112 0.100999 0.0275731
0.962112 0.100999 0.0275731
0.962112 0.100999 0.0275731
0.962112 0.100999 0.0275731
0 0.00015259 0
0.000411994 6.10361e-05 0
0.00421149 3.0518e-05 0
0.0220951 4.57771e-05 0
0.0536355 0.000564584 0.000610361
0.100328 0.00231937 0.00247196
0.171588 0.00874342 0.00485237
0.244999 0.014847 0.00747692
0.31841 0.0209354 0.0102083
0.391348 0.028397 0.0129854
0.462654 0.0376898 0.0155642
0.530205 0.0471199 0.0174868
0.594079 0.0553445 0.0188449
0.655512 0.0634318 0.0204471
0.716457 0.0724041 0.0209659
0.781933 0.0800336 0.0227665
0.851957 0.0889296 0.0245823
0.916625 0.0973983 0.0263676
0.952667 0.100999 0.0276341
0.962112 0.100999 0.0275731
0.962112 0.100999 0.0275731
0.962112 0.100999 0.0275731
0.962112 0.100999 0.0275731
0.962112 0.100999 0.0275731
0.962112 0.100999 0.0275731
0.962112 0.100999 0.0275731
0.962112 0.100999 0.0275731
0.962112 0.100999 0.0275731
0.962112 0.100999 0.0275731
0.962112 0.100999 0.0275731
0.962112 0.100999 0.0275731
0.962112 0.100999 0.0275731
0.962112 0.100999 0.0275731
0 0.00134279 0
6.10361e-05 0.000656138 0
0.00166323 0.000228885 0
0.0156558 6.10361e-05 0
0.0431983 0.000289921 0.000457771
0.0847334 0.00114443 0.00210575
0.153414 0.00738537 0.00427253
0.227008 0.0134585 0.00694286
0.300908 0.0193332 0.00968948
0.37409 0.0263218 0.0124666
0.446357 0.0353246 0.0150759
0.515206 0.0450294 0.0171054
0.579446 0.0536049 0.0186618
0.641367 0.0614328 0.0203555
0.702052 0.0703899 0.0206912
0.766186 0.0784314 0.0224308
0.835904 0.0868238 0.0242771
0.904204 0.0957961 0.0260929
0.948363 0.100969 0.0276646
0.962112 0.100999 0.0275731
0.962112 0.100999 0.0275731
0.962112 0.100999 0.0275731
0.962112 0.100999 0.0275731
0.962112 0.100999 0.0275731
0.962112 0.100999 0.0275731
0.962112 0.100999 0.0275731
0.962112 0.100999 0.0275731
0.962112 0.100999 0.0275731
0.962112 0.100999 0.0275731
0.962112 0.100999 0.0275731
0.962112 0.100999 0.0275731
0.962112 0.100999 0.0275731
0.962112 0.100999 0.0275731
0.00169375 0.0138552 0.00149538
0.00144961 0.0120546 0.0012665
0.00161746 0.0103609 0.00105287
0.0109102 0.00874342 0.000976577
0.0328527 0.0075227 0.00112917
0.0711223 0.00759899 0.00181582
0.137087 0.0126955 0.00361639
0.21091 0.018204 0.00628672
0.285023 0.0231479 0.00907912
0.357443 0.0285954 0.0117952
0.430335 0.0360571 0.0144961
0.49958 0.0446021 0.0166476
0.564675 0.0526284 0.0184939
0.626825 0.0595712 0.0202945
0.687587 0.0682994 0.0205386
0.751278 0.0770886 0.0222171
0.820157 0.0848096 0.0241245
0.890394 0.0939651 0.0259861
0.943389 0.100923 0.0276799
0.962051 0.100999 0.0275731
0.962112 0.100999 0.0275731
0.962112 0.100999 0.0275731
0.962112 0.100999 0.0275731
0.962112 0.100999 0.0275731
0.962112 0.100999 0.0275731
0.962112 0.100999 0.0275731
0.962112 0.100999 0.0275731
0.962112 0.100999 0.0275731
0.962112 0.100999 0.0275731
0.962112 0.100999 0.0275731
0.962112 0.100999 0.0275731
0.962112 0.100999 0.0275731
0.962112 0.100999 0.0275731
0.00621042 0.0376898 0.0056611
0.00560006 0.0347448 0.00508125
0.00495918 0.0316014 0.00448615
0.00988785 0.0282139 0.00401312
0.0246891 0.0249638 0.00364691
0.0575113 0.02327 0.00274662
0.120882 0.0267643 0.00318914
0.196231 0.0322118 0.00541695
0.271824 0.0370031 0.00820935
0.34316 0.0412146 0.0107881
0.413489 0.0464027 0.0134737
0.48275 0.0524605 0.0157931
0.548394 0.0587167 0.017731
0.611383 0.0641184 0.01944
0.672877 0.0705577 0.0203555
0.736049 0.0776379 0.0218662
0.803937 0.0838026 0.0236973
0.875105 0.0920729 0.0255894
0.934798 0.100084 0.0273899
0.95996 0.101106 0.0275578
0.962036 0.10132 0.0275731
0.962112 0.101411 0.0275731
0.962112 0.101396 0.0275731
0.962112 0.101305 0.0275731
0.962112 0.101167 0.0275731
0.962112 0.100999 0.0275731
0.962112 0.100999 0.0275731
0.962112 0.100999 0.0275731
0.962112 0.100999 0.0275731
0.962112 0.100999 0.0275731
0.962112 0.100999 0.0275731
0.962112 0.100999 0.0275731
0.962112 0.100999 0.0275731
0.0174258 0.0781872 0.0163577
0.0164034 0.0743572 0.0153811
0.0153964 0.0704814 0.0144198
0.0174868 0.0659495 0.0129397
0.0260014 0.0602426 0.0106203
0.0436866 0.0522469 0.00978103
0.0922255 0.0520638 0.00570687
0.168887 0.0574502 0.00453193
0.253483 0.064332 0.00662242
0.327596 0.0690318 0.00950637
0.397452 0.0732738 0.0120699
0.465614 0.0770581 0.0145876
0.530419 0.0808881 0.0167391
0.594018 0.0845808 0.0186007
0.65594 0.088304 0.0202029
0.719112 0.0925307 0.0215152
0.786084 0.0967117 0.0232242
0.857572 0.102068 0.0254368
0.922759 0.107958 0.0272526
0.955337 0.108019 0.0276036
0.96173 0.106538 0.0276036
0.962112 0.105058 0.0275883
0.962112 0.103716 0.0275883
0.962112 0.103105 0.0275883
0.962112 0.103136 0.0275883
0.962112 0.103014 0.0275883
0.962112 0.1028 0.0275883
0.962112 0.102495 0.0275883
0.962112 0.102144 0.0275731
0.962112 0.101991 0.0275731
0.962112 0.101991 0.0275731
0.962112 0.101991 0.0275731
0.962112 0.101915 0.0275731
0.0321508 0.124269 0.0305333
0.0310521 0.120546 0.0294652
0.0297246 0.116121 0.0281834
0.0299382 0.111467 0.0267338
0.0346532 0.105867 0.0246281
0.0530251 0.0981308 0.0199435
0.0785687 0.0903487 0.0144808
0.133898 0.0883192 0.0100862
0.217121 0.0924849 0.00784314
0.302693 0.0977951 0.00773632
0.378851 0.101961 0.0100099
0.4486 0.10576 0.0128023
0.513939 0.1093 0.0151827
0.576623 0.112596 0.017258
0.637949 0.11574 0.0193484
0.700969 0.118761 0.0208591
0.766979 0.123461 0.0226139
0.838743 0.128618 0.0255131
0.908782 0.133684 0.0276188
0.94905 0.132952 0.0278019
0.960983 0.129473 0.0277256
0.962051 0.126467 0.0276951
0.962051 0.123659 0.0276799
0.962051 0.121141 0.0276799
0.962066 0.119005 0.0276646
0.962066 0.11693 0.0276493
0.962066 0.115023 0.0276341
0.962081 0.113115 0.0276341
0.962081 0.111376 0.0276188
0.962081 0.110521 0.0276188
0.962081 0.110201 0.0276188
0.962097 0.109773 0.0276036
0.962097 0.108995 0.0276036
0.0492409 0.175753 0.0469978
0.0477302 0.171283 0.0455329
0.0461891 0.16669 0.0440528
0.0450904 0.161791 0.0425116
0.0470283 0.156573 0.0408789
0.0650492 0.150118 0.0357824
0.08365 0.140551 0.0282139
0.114672 0.130175 0.0209506
0.176806 0.125139 0.0155795
0.266499 0.127855 0.0108034
0.353613 0.132601 0.00852979
0.430228 0.136721 0.0102083
0.497276 0.139773 0.0127413
0.560708 0.142718 0.015198
0.621378 0.145769 0.0173037
0.683482 0.148379 0.0194095
0.749279 0.15227 0.0215915
0.819333 0.156863 0.0243992
0.893462 0.161807 0.027039
0.942046 0.163272 0.0278782
0.959823 0.160342 0.0278935
0.961944 0.156695 0.0278477
0.961959 0.153307 0.0278325
0.961975 0.149722 0.0278172
0.96199 0.146212 0.0278019
0.96199 0.142626 0.0277714
0.96199 0.139254 0.0277562
0.96202 0.136233 0.0277409
0.96202 0.133318 0.0277409
0.96202 0.131395 0.0277256
0.96202 0.130816 0.0277256
0.96202 0.130159 0.0277104
0.962036 0.128756 0.0277104
0.0689097 0.232837 0.0660105
0.067155 0.227893 0.0643015
0.0653239 0.22269 0.0625315
0.0634928 0.217288 0.0607309
0.0632181 0.212406 0.0592203
0.0772106 0.206317 0.0559243
0.0982071 0.198291 0.0480659
0.119844 0.18616 0.0380865
0.150088 0.169741 0.0305791
0.226566 0.162387 0.0230411
0.319387 0.166232 0.012604
0.406363 0.170672 0.00866712
0.479133 0.172732 0.00967422
0.544488 0.17435 0.0123445
0.606119 0.176913 0.0147402
0.668208 0.179568 0.0170291
0.732479 0.1832 0.0196231
0.801328 0.187671 0.0221256
0.875105 0.191928 0.0246891
0.933516 0.194766 0.0269017
0.958282 0.192386 0.0272679
0.961852 0.188769 0.0272984
0.961868 0.185122 0.0273442
0.961868 0.181521 0.0273899
0.961883 0.177935 0.0274357
0.961898 0.174182 0.027512
0.961898 0.170657 0.0275731
0.961913 0.167498 0.0276188
0.961929 0.164431 0.0276799
0.961929 0.162371 0.0277256
0.961929 0.161761 0.0277409
0.961944 0.160967 0.0277562
0.961944 0.159838 0.0277867
0.0918288 0.29546 0.0882124
0.0898604 0.290043 0.0863203
0.0879988 0.284779 0.0845045
0.0861219 0.279454 0.0826886
0.0840925 0.273716 0.0807202
0.0928511 0.26743 0.0780652
0.112627 0.260487 0.0732128
0.135592 0.25095 0.0642557
0.152956 0.234562 0.0511635
0.203174 0.20914 0.041886
0.282673 0.203265 0.031281
0.376562 0.210178 0.0163729
0.458778 0.212787 0.00839246
0.528222 0.212451 0.00807202
0.591379 0.212772 0.0105745
0.652232 0.213489 0.0132753
0.715663 0.216159 0.0162356
0.783856 0.220005 0.019028
0.856596 0.224155 0.0218814
0.922942 0.228138 0.0244907
0.955428 0.226459 0.0252079
0.961532 0.222736 0.0254826
0.961746 0.21886 0.0257572
0.961761 0.215167 0.0259556
0.961776 0.211398 0.0261387
0.961791 0.207996 0.0263066
0.961791 0.204242 0.0265049
0.961807 0.200778 0.026688
0.961822 0.197635 0.0268711
0.961822 0.195453 0.0270085
0.961837 0.194888 0.0270695
0.961837 0.194354 0.0271153
0.961837 0.193103 0.0271916
0.116869 0.361746 0.11252
0.114916 0.356481 0.110643
0.112764 0.350652 0.108553
0.11078 0.345281 0.10663
0.108629 0.339406 0.104524
0.113207 0.333165 0.102068
0.12871 0.326558 0.0985275
0.153353 0.319158 0.0925307
0.172259 0.308873 0.0824292
0.204501 0.288746 0.0642557
0.268711 0.258656 0.0503243
0.346731 0.249348 0.0398566
0.434546 0.256596 0.0243687
0.512596 0.261402 0.0118105
0.578119 0.259617 0.00686656
0.638544 0.256077 0.00770581
0.699931 0.254719 0.0108797
0.765896 0.256031 0.0142519
0.838254 0.259541 0.017792
0.909606 0.26331 0.021088
0.950057 0.262364 0.0222171
0.960647 0.258686 0.0226444
0.961624 0.254673 0.0230564
0.961639 0.25069 0.0234073
0.961654 0.247135 0.0236515
0.961669 0.24332 0.0239109
0.961685 0.239704 0.0241703
0.961685 0.236164 0.0244144
0.9617 0.232746 0.0246586
0.961715 0.230289 0.0248417
0.961715 0.22977 0.0248875
0.961715 0.229068 0.024979
0.96173 0.227863 0.0250858
0.142641 0.430503 0.137545
0.140703 0.425055 0.135668
0.13875 0.419623 0.133761
0.13669 0.41413 0.131762
0.134447 0.408225 0.12958
0.135897 0.401923 0.127184
0.146563 0.395392 0.124285
0.170413 0.388373 0.119966
0.192966 0.37995 0.11281
0.211872 0.367605 0.0977188
0.269718 0.341878 0.0733654
0.336889 0.310399 0.0596628
0.411551 0.29897 0.0493019
0.49221 0.306508 0.033463
0.564965 0.31313 0.0172122
0.627634 0.31136 0.00735485
0.686854 0.305684 0.00544747
0.750271 0.30161 0.00770581
0.819837 0.300618 0.0116732
0.892958 0.302251 0.0158389
0.942397 0.30161 0.0178988
0.959045 0.297856 0.0186007
0.961486 0.293706 0.0190738
0.961517 0.289555 0.019501
0.961517 0.285389 0.0198825
0.961532 0.281132 0.0202487
0.961547 0.277272 0.0205539
0.961563 0.273411 0.0208591
0.961578 0.27013 0.0211185
0.961578 0.267247 0.0213931
0.961578 0.266453 0.0214694
0.961593 0.265843 0.0215305
0.961593 0.264607 0.0216373
0.166308 0.495796 0.160464
0.164462 0.490608 0.158679
0.1626 0.485435 0.156878
0.160571 0.479942 0.15491
0.158663 0.47483 0.153063
0.158145 0.469093 0.150958
0.163394 0.462577 0.148394
0.186313 0.456168 0.145083
0.211292 0.448661 0.139879
0.226261 0.439689 0.13106
0.263005 0.424536 0.108858
0.335271 0.395468 0.0834669
0.404334 0.362783 0.0705882
0.472847 0.349722 0.0602426
0.547265 0.357656 0.0439612
0.615702 0.366583 0.0248569
0.676768 0.366827 0.0106355
0.737194 0.360204 0.00448615
0.802884 0.353353 0.00512703
0.874891 0.349325 0.00848402
0.932006 0.346273 0.0115816
0.956893 0.342657 0.0128328
0.961334 0.337926 0.0134737
0.961364 0.333013 0.0141604
0.961364 0.328099 0.0148165
0.961395 0.323613 0.0153964
0.96141 0.31928 0.0159304
0.96141 0.315419 0.0163882
0.96144 0.311345 0.0168612
0.96144 0.308156 0.017258
0.961456 0.307195 0.0173953
0.961456 0.306584 0.0174868
0.961456 0.305455 0.0175937
0.188373 0.557916 0.181811
0.186526 0.552682 0.180041
0.184817 0.547814 0.178378
0.183169 0.54316 0.176776
0.181353 0.538079 0.175021
0.179889 0.532998 0.173266
0.180285 0.527626 0.171344
0.201801 0.521324 0.168246
0.22707 0.51458 0.16437
0.245411 0.507622 0.15935
0.26099 0.497734 0.145678
0.317082 0.47982 0.115572
0.400183 0.449073 0.0892805
0.467765 0.414298 0.0806439
0.530068 0.399558 0.0726482
0.59939 0.408637 0.0561227
0.664775 0.420813 0.0352483
0.725902 0.423209 0.0162509
0.788724 0.416922 0.00517281
0.857191 0.408392 0.00262455
0.919615 0.401144 0.00462348
0.954238 0.395331 0.0061799
0.961166 0.389471 0.00686656
0.961181 0.383566 0.00767529
0.961196 0.377569 0.00848402
0.961227 0.372259 0.00915541
0.961242 0.367315 0.00976577
0.961257 0.362478 0.0103914
0.961273 0.357717 0.0110323
0.961288 0.353735 0.0115969
0.961303 0.352422 0.0118257
0.961303 0.352239 0.0118868
0.961303 0.350973 0.0120394
0.207782 0.615305 0.200549
0.206058 0.610422 0.198886
0.204562 0.606226 0.197452
0.20293 0.601556 0.195865
0.201389 0.59704 0.194354
0.199817 0.592279 0.192844
0.198749 0.587655 0.191394
0.215915 0.582437 0.189227
0.240284 0.576211 0.186099
0.263416 0.570031 0.182376
0.272206 0.562661 0.175647
0.298146 0.551522 0.152926
0.381689 0.531502 0.115068
0.472343 0.499077 0.0943313
0.526665 0.462715 0.0929122
0.583581 0.448264 0.0854505
0.648753 0.458747 0.0693065
0.713054 0.473213 0.0461585
0.776104 0.478782 0.0223239
0.841901 0.474907 0.0065919
0.906081 0.46566 0.00158694
0.948608 0.457465 0.00134279
0.960678 0.450874 0.00158694
0.960983 0.444312 0.00189212
0.960998 0.438163 0.00218204
0.961013 0.432288 0.00239567
0.961028 0.426459 0.00254826
0.961059 0.420691 0.00268559
0.961074 0.415259 0.0027924
0.961074 0.410574 0.00283818
0.961074 0.4094 0.00274662
0.961089 0.40882 0.00267033
0.961089 0.407462 0.00289921
0.224948 0.66894 0.21709
0.22356 0.664698 0.215732
0.222126 0.660365 0.214359
0.220645 0.655818 0.212924
0.219287 0.651606 0.211612
0.217945 0.647288 0.21033
0.216693 0.643168 0.209125
0.228519 0.638605 0.207645
0.250675 0.633204 0.205203
0.276356 0.627375 0.201892
0.290806 0.621256 0.198047
0.29659 0.613199 0.186618
0.347478 0.600702 0.153079
0.454597 0.58027 0.114137
0.53341 0.547616 0.106355
0.580713 0.510903 0.107607
0.633143 0.496529 0.0985885
0.696193 0.507271 0.082002
0.76112 0.524666 0.0574044
0.826368 0.533272 0.0294652
0.891218 0.531182 0.00975052
0.939666 0.524147 0.0021973
0.958541 0.517662 0.00077821
0.960662 0.511757 0.000442512
0.960739 0.505104 0.000183108
0.960784 0.498726 3.0518e-05
0.96083 0.492622 0
0.960845 0.486275 0
0.960861 0.480781 0
0.960876 0.475761 0
0.960876 0.473991 0
0.960891 0.473472 0
0.960891 0.471992 4.57771e-05
0.242069 0.723125 0.233524
0.240497 0.718105 0.232029
0.239017 0.713405 0.23061
0.237613 0.708995 0.229252
0.236225 0.704662 0.227924
0.235019 0.700862 0.226764
0.233631 0.696437 0.225422
0.240726 0.692073 0.224201
0.259541 0.687236 0.222232
0.285481 0.681605 0.219165
0.307637 0.67628 0.216159
0.311055 0.669963 0.211582
0.319768 0.660578 0.192493
0.411536 0.64593 0.14725
0.529335 0.627176 0.11606
0.589014 0.594812 0.121157
0.630503 0.558053 0.122011
0.680415 0.543618 0.111803
0.742611 0.5552 0.0952621
0.808927 0.57409 0.068574
0.874632 0.584756 0.0372625
0.927703 0.585138 0.0163424
0.954086 0.580819 0.00927749
0.959838 0.57525 0.00694286
0.960052 0.569284 0.00508125
0.96025 0.563546 0.00363165
0.960403 0.557946 0.00267033
0.960479 0.552743 0.00205997
0.960525 0.547326 0.00148013
0.960586 0.542412 0.000991836
0.960616 0.540764 0.000671397
0.960662 0.540383 0.000366217
0.960708 0.53904 4.57771e-05
0.259113 0.777752 0.249836
0.257145 0.771649 0.247929
0.255482 0.766583 0.246296
0.254032 0.762219 0.244877
0.252628 0.757931 0.243488
0.251194 0.753491 0.242069
0.24979 0.749126 0.240711
0.253101 0.744869 0.239551
0.267689 0.740246 0.238025
0.293767 0.735424 0.235599
0.319478 0.729885 0.232776
0.33225 0.724132 0.230396
0.320882 0.716457 0.222858
0.36759 0.70338 0.188937
0.496849 0.689525 0.135821
0.590188 0.673762 0.124193
0.639658 0.640406 0.138033
0.677119 0.603204 0.136233
0.726406 0.590219 0.125521
0.789212 0.602228 0.108248
0.856214 0.621317 0.0797284
0.914076 0.632914 0.0510872
0.947845 0.633387 0.0364385
0.958053 0.62948 0.0314946
0.958648 0.624964 0.0280003
0.958801 0.620295 0.0249027
0.958907 0.616022 0.022446
0.958968 0.61149 0.0199283
0.958999 0.607095 0.0175021
0.95903 0.603006 0.0152285
0.959014 0.60148 0.0141756
0.958999 0.601205 0.0137331
0.958999 0.600534 0.0132143
0.275975 0.8318 0.266041
0.273671 0.824887 0.263783
0.272007 0.819745 0.262119
0.270527 0.815198 0.2607
0.269108 0.810773 0.259297
0.267704 0.806409 0.257923
0.266392 0.802228 0.256626
0.266987 0.797864 0.25536
0.276478 0.793759 0.254154
0.302296 0.788724 0.252262
0.329076 0.783642 0.249653
0.350622 0.777966 0.247425
0.346426 0.771221 0.244633
0.338582 0.76144 0.228855
0.441764 0.745953 0.177768
0.570382 0.735317 0.130816
0.642206 0.719631 0.138415
0.687816 0.685039 0.15555
0.723918 0.649378 0.151522
0.77348 0.636576 0.139696
0.836606 0.647822 0.121233
0.898253 0.665125 0.0958419
0.939849 0.672511 0.077821
0.955322 0.67071 0.0712291
0.956817 0.667277 0.0670481
0.957031 0.664118 0.0634775
0.957244 0.660639 0.0596017
0.957473 0.657252 0.0558633
0.957717 0.653895 0.0521553
0.957961 0.650843 0.0487831
0.958083 0.649683 0.0473793
0.958129 0.649622 0.0471351
0.958175 0.649027 0.0463722
0.293782 0.884428 0.283314
0.291325 0.878309 0.280919
0.289479 0.873594 0.279118
0.287999 0.8692 0.277684
0.286625 0.865003 0.276341
0.285206 0.86067 0.274968
0.284001 0.856901 0.273793
0.283436 0.852842 0.272541
0.287892 0.848219 0.271153
0.311635 0.842649 0.269429
0.33846 0.837797 0.266972
0.363973 0.832685 0.264515
0.375067 0.826566 0.262547
0.343664 0.819409 0.258793
0.384833 0.805341 0.227298
0.52639 0.790295 0.164324
0.627436 0.782666 0.129534
0.693095 0.766522 0.155169
0.736034 0.731456 0.174533
0.770718 0.694636 0.167895
0.820432 0.681544 0.155062
0.880674 0.690562 0.137667
0.929397 0.700816 0.121675
0.950973 0.701167 0.11458
0.954177 0.69865 0.110735
0.954437 0.695994 0.106844
0.954635 0.693462 0.103075
0.954833 0.690913 0.0992447
0.955062 0.688472 0.0955673
0.955322 0.686244 0.0922103
0.955444 0.685161 0.0905318
0.955459 0.684947 0.0901656
0.955489 0.684504 0.0894636
0.310292 0.925612 0.299382
0.308492 0.92134 0.297627
0.307179 0.918257 0.29633
0.305898 0.914839 0.295094
0.304585 0.911376 0.293828
0.303319 0.90811 0.292592
0.302068 0.904952 0.291371
0.301015 0.901732 0.290105
0.302174 0.898268 0.288777
0.321752 0.893355 0.286976
0.347921 0.88922 0.284657
0.374594 0.884779 0.282063
0.393271 0.879728 0.279881
0.37998 0.874128 0.278676
0.360937 0.865629 0.265446
0.463416 0.8486 0.218463
0.600244 0.837491 0.150301
0.680705 0.832212 0.138705
0.742458 0.813596 0.176242
0.783276 0.777661 0.193103
0.81828 0.741039 0.185794
0.865751 0.725734 0.172885
0.915892 0.727718 0.161089
0.944106 0.728222 0.154635
0.95082 0.725719 0.150835
0.951461 0.723049 0.147311
0.951736 0.720531 0.143847
0.951995 0.718196 0.140459
0.95227 0.71606 0.137285
0.952544 0.713954 0.134112
0.952728 0.712688 0.132219
0.952758 0.712489 0.131975
0.952804 0.712062 0.131365
0.319158 0.950027 0.307973
0.318761 0.947265 0.307622
0.318059 0.945418 0.306935
0.317205 0.943404 0.306111
0.316335 0.94136 0.305257
0.315496 0.939208 0.304448
0.314748 0.937102 0.303716
0.314 0.934981 0.302998
0.31519 0.932647 0.30222
0.329702 0.929915 0.301213
0.354894 0.92697 0.299641
0.382254 0.923568 0.297414
0.405646 0.919966 0.295476
0.409796 0.916594 0.294926
0.375708 0.91281 0.291554
0.408026 0.902815 0.264195
0.546349 0.889403 0.208637
0.657603 0.884398 0.149813
0.72987 0.879881 0.151308
0.790982 0.861509 0.195422
0.830884 0.825071 0.213489
0.864347 0.786389 0.205035
0.903975 0.766262 0.193927
0.935378 0.760388 0.188098
0.946914 0.756893 0.184726
0.948348 0.753597 0.181796
0.948608 0.750393 0.17882
0.948837 0.7476 0.176135
0.949096 0.744747 0.173327
0.949355 0.741909 0.170489
0.949523 0.74023 0.168811
0.949538 0.739971 0.168597
0.949569 0.739773 0.168399
0.319402 0.9626 0.308003
0.319402 0.961532 0.308019
0.319371 0.96051 0.308003
0.31931 0.959442 0.307958
0.319203 0.958236 0.307866
0.319066 0.957107 0.307759
0.318929 0.956024 0.307637
0.318807 0.955032 0.30753
0.31986 0.953933 0.307393
0.330388 0.952758 0.307149
0.353857 0.951293 0.306432
0.381857 0.949386 0.304982
0.408072 0.947112 0.303548
0.421881 0.94464 0.303304
0.398535 0.942885 0.303624
0.377539 0.939788 0.29073
0.483223 0.929854 0.250492
0.627375 0.923293 0.190829
0.709865 0.925109 0.131975
0.780758 0.921035 0.170672
0.839063 0.901244 0.225193
0.873335 0.860182 0.231266
0.900984 0.819715 0.219745
0.928954 0.800763 0.212268
0.944274 0.794934 0.209461
0.946868 0.79147 0.207645
0.946914 0.787915 0.205768
0.946944 0.784497 0.203952
0.94696 0.780789 0.201907
0.946975 0.777157 0.199878
0.94699 0.774701 0.198459
0.946975 0.774594 0.198428
0.946975 0.774044 0.198138
0.319417 0.963867 0.307988
0.319417 0.963867 0.307988
0.319417 0.963836 0.307988
0.319417 0.963699 0.307988
0.319417 0.963485 0.307988
0.319417 0.963256 0.307988
0.319417 0.963058 0.307988
0.319402 0.96289 0.308003
0.319844 0.962692 0.308003
0.326665 0.962463 0.307942
0.347265 0.962097 0.30753
0.375113 0.961486 0.306462
0.402686 0.960433 0.304967
0.421637 0.959121 0.304433
0.412268 0.958282 0.30547
0.367193 0.957809 0.299901
0.432654 0.951827 0.26833
0.59295 0.944671 0.217136
0.691676 0.948211 0.140551
0.762036 0.951476 0.147326
0.83122 0.944533 0.218082
0.875471 0.913649 0.242222
0.901549 0.868925 0.234928
0.925536 0.839124 0.224979
0.943191 0.830442 0.221698
0.947494 0.828138 0.221164
0.947463 0.825589 0.22063
0.947417 0.822919 0.22002
0.947341 0.819837 0.219181
0.947188 0.816373 0.218082
0.947082 0.814038 0.217319
0.947066 0.813687 0.217227
0.947051 0.813214 0.21709
0.319417 0.963867 0.307988
0.319417 0.963867 0.307988
0.319417 0.963867 0.307988
0.319417 0.963867 0.307988
0.319417 0.963867 0.307988
0.319417 0.963867 0.307988
0.319417 0.963867 0.307988
0.319417 0.963867 0.307988
0.319478 0.963867 0.307988
0.323796 0.963836 0.307958
0.340536 0.963699 0.307683
0.367559 0.963363 0.306813
0.395605 0.962798 0.305272
0.41796 0.962142 0.304326
0.42005 0.961975 0.305257
0.371756 0.962585 0.303075
0.397986 0.959655 0.278553
0.555016 0.952758 0.231846
0.672038 0.9552 0.158968
0.743648 0.961074 0.139116
0.815991 0.961059 0.202258
0.86807 0.93959 0.242069
0.897795 0.897612 0.240665
0.921141 0.861631 0.229114
0.940948 0.849622 0.224369
0.947738 0.848707 0.224216
0.947906 0.847593 0.224216
0.947906 0.846174 0.224186
0.94789 0.844617 0.224063
0.947829 0.842741 0.223819
0.947784 0.84126 0.223606
0.947768 0.841062 0.22359
0.947768 0.840833 0.223575
0.319417 0.963867 0.307988
0.319417 0.963867 0.307988
0.319417 0.963867 0.307988
0.319417 0.963867 0.307988
0.319417 0.963867 0.307988
0.319417 0.963867 0.307988
0.319417 0.963867 0.307988
0.319417 0.963867 0.307988
0.319417 0.963867 0.307988
0.322271 0.963851 0.307973
0.335271 0.963745 0.30779
0.360113 0.963485 0.307103
0.388266 0.963012 0.305715
0.41297 0.962417 0.304555
0.422736 0.962158 0.305043
0.386252 0.962768 0.304463
0.383093 0.961624 0.286625
0.515038 0.955276 0.244907
0.648219 0.954818 0.180163
0.725917 0.961059 0.135042
0.79733 0.963485 0.17937
0.857801 0.950134 0.237888
0.891752 0.911864 0.243626
0.914992 0.871168 0.231647
0.936706 0.854231 0.224933
0.946868 0.852934 0.224231
0.947906 0.852781 0.224231
0.947906 0.852491 0.224231
0.947906 0.852125 0.224231
0.947906 0.851743 0.224231
0.947906 0.851377 0.224231
0.947906 0.851316 0.224231
0.947906 0.851255 0.224231
0.319417 0.963867 0.307988
0.319417 0.963867 0.307988
0.319417 0.963867 0.307988
0.319417 0.963867 0.307988
0.319417 0.963867 0.307988
0.319417 0.963867 0.307988
0.319417 0.963867 0.307988
0.319417 0.963867 0.307988
0.319417 0.963867 0.307988
0.321157 0.963851 0.307988
0.330663 0.96379 0.307881
0.352667 0.963577 0.307378
0.380896 0.963165 0.306157
