LUT预设1/iPhone 专用lut-合集1/iPhone 标准版合集1(log)/SHINE清新.cube
TITLE "Generated by Resolve"
LUT_3D_SIZE 9
0 0 0
0.0647135 0.000915541 0.000869764
0.335149 0.0225071 0.0107576
0.607889 0.0569924 0.0191043
0.86833 0.0911269 0.0251011
0.962112 0.100999 0.0275731
0.962112 0.100999 0.0275731
0.962112 0.100999 0.0275731
0.962112 0.100999 0.0275731
0.00621042 0.0376898 0.0056611
0.0246891 0.0249638 0.00364691
0.271824 0.0370031 0.00820935
0.548394 0.0587167 0.017731
0.803937 0.0838026 0.0236973
0.962036 0.10132 0.0275731
0.962112 0.101167 0.0275731
0.962112 0.100999 0.0275731
0.962112 0.100999 0.0275731
0.0689097 0.232837 0.0660105
0.0632181 0.212406 0.0592203
0.150088 0.169741 0.0305791
0.479133 0.172732 0.00967422
0.732479 0.1832 0.0196231
0.958282 0.192386 0.0272679
0.961883 0.177935 0.0274357
0.961929 0.164431 0.0276799
0.961944 0.159838 0.0277867
0.166308 0.495796 0.160464
0.158663 0.47483 0.153063
0.211292 0.448661 0.139879
0.404334 0.362783 0.0705882
0.676768 0.366827 0.0106355
0.932006 0.346273 0.0115816
0.961364 0.328099 0.0148165
0.96144 0.311345 0.0168612
0.961456 0.305455 0.0175937
0.242069 0.723125 0.233524
0.236225 0.704662 0.227924
0.259541 0.687236 0.222232
0.319768 0.660578 0.192493
0.630503 0.558053 0.122011
0.874632 0.584756 0.0372625
0.960052 0.569284 0.00508125
0.960525 0.547326 0.00148013
0.960708 0.53904 4.57771e-05
0.310292 0.925612 0.299382
0.304585 0.911376 0.293828
0.302174 0.898268 0.288777
0.393271 0.879728 0.279881
0.600244 0.837491 0.150301
0.81828 0.741039 0.185794
0.95082 0.725719 0.150835
0.95227 0.71606 0.137285
0.952804 0.712062 0.131365
0.319417 0.963867 0.307988
0.319417 0.963867 0.307988
0.319478 0.963867 0.307988
0.395605 0.962798 0.305272
0.397986 0.959655 0.278553
0.815991 0.961059 0.202258
0.940948 0.849622 0.224369
0.94789 0.844617 0.224063
0.947768 0.840833 0.223575
0.319417 0.963867 0.307988
0.319417 0.963867 0.307988
0.319417 0.963867 0.307988
0.366537 0.963409 0.306905
0.382208 0.962982 0.30309
0.743633 0.962036 0.140093
0.920195 0.864286 0.229206
0.947906 0.852964 0.224231
0.947906 0.852964 0.224231
0.319417 0.963867 0.307988
0.319417 0.963867 0.307988
0.319417 0.963867 0.307988
0.352636 0.963592 0.307424
0.414481 0.962386 0.305974
0.70576 0.959091 0.14461
0.906752 0.882124 0.235386
0.947906 0.852964 0.224231
0.947906 0.852964 0.224231
0.012192 0.0234073 0.0970779
0.0535744 0.0174716 0.0835737
0.309133 0.0106355 0.047013
0.607904 0.0399023 0.0459907
0.862867 0.0824903 0.0418097
0.962219 0.0966506 0.0365911
0.962142 0.0996109 0.0307927
0.962127 0.0997482 0.0302586
0.962127 0.099443 0.0307927
0.00749218 0.0400092 0.0480049
0.0226139 0.0268559 0.0350805
0.2551 0.0290227 0.0172122
0.544076 0.051545 0.0223545
0.79794 0.0813153 0.0247196
0.961929 0.100771 0.0280613
0.962112 0.100938 0.027924
0.962112 0.100999 0.0275731
0.962112 0.100999 0.0275731
0.0656596 0.224613 0.0657054
0.0595254 0.204501 0.0570535
0.142107 0.162707 0.0293126
0.473594 0.166873 0.00987259
0.726741 0.17792 0.0196841
0.957153 0.187366 0.027451
0.961898 0.173037 0.0275578
0.961929 0.15993 0.0277409
0.961959 0.155016 0.0277867
0.163287 0.487373 0.157549
0.155306 0.465797 0.149798
0.205402 0.440513 0.137301
0.394766 0.354971 0.0690471
0.670283 0.357885 0.00955215
0.927901 0.339727 0.0123903
0.961395 0.322042 0.0155337
0.961456 0.305409 0.0175326
0.961471 0.299245 0.0183413
0.239673 0.715404 0.231235
0.234043 0.697765 0.225818
0.253986 0.680659 0.220386
0.316045 0.654429 0.19266
0.622873 0.550729 0.119615
0.868132 0.577249 0.0358587
0.96025 0.560494 0.00411994
0.960479 0.537804 0.00163272
0.960632 0.528725 0.000579843
0.308095 0.920668 0.29723
0.302205 0.905272 0.291508
0.298833 0.892103 0.286381
0.389502 0.87332 0.277562
0.588876 0.830167 0.155489
0.810895 0.734234 0.18291
0.951232 0.721614 0.145205
0.952758 0.711925 0.130846
0.953307 0.707851 0.124651
0.319417 0.963867 0.307988
0.319417 0.963867 0.307988
0.319432 0.963867 0.307988
0.391745 0.962814 0.305501
0.383246 0.960525 0.283619
0.805722 0.960754 0.188235
0.939529 0.849271 0.224506
0.947784 0.841459 0.223667
0.947662 0.837064 0.223026
0.319417 0.963867 0.307988
0.319417 0.963867 0.307988
0.319417 0.963867 0.307988
0.362173 0.96347 0.307073
0.387335 0.962829 0.303792
0.732799 0.961563 0.136584
0.916976 0.868299 0.230747
0.947906 0.852964 0.224231
0.947906 0.852964 0.224231
0.319417 0.963867 0.307988
0.319417 0.963867 0.307988
0.319417 0.963867 0.307988
0.34818 0.963653 0.307561
0.414359 0.962325 0.30547
0.695735 0.957809 0.151766
0.903365 0.888319 0.237827
0.947906 0.852964 0.224231
0.947906 0.852964 0.224231
0.0590524 0.125124 0.346716
0.0826734 0.0886397 0.329168
0.284779 0.00480659 0.331044
0.613581 0.0188754 0.24979
0.865431 0.0305943 0.152453
0.964508 0.0375067 0.137102
0.964492 0.0454719 0.133227
0.964492 0.0483406 0.126711
0.964492 0.0457618 0.125856
0.0464027 0.127047 0.285649
0.0548867 0.104204 0.267216
0.20415 0.0139773 0.26244
0.550286 0.0200046 0.179248
0.80734 0.0305028 0.124254
0.964202 0.0550088 0.116381
0.964248 0.0621347 0.10663
0.964019 0.0688334 0.0975204
0.964111 0.0708934 0.0947738
0.0235142 0.221698 0.226047
0.0221866 0.203387 0.208148
0.136126 0.180346 0.186969
0.47042 0.167147 0.13019
0.72813 0.184741 0.104356
0.95642 0.192248 0.0814374
0.962127 0.17377 0.0687266
0.962112 0.157412 0.0596475
0.962112 0.15227 0.0563821
0.136706 0.472374 0.169543
0.133211 0.452476 0.163241
0.180972 0.431617 0.157244
0.378607 0.366278 0.126543
0.660075 0.347585 0.0631571
0.92343 0.336736 0.0414588
0.961501 0.319127 0.0341802
0.961532 0.301793 0.0301671
0.961547 0.295323 0.0286717
0.22977 0.706111 0.252888
0.226246 0.689845 0.244892
0.243702 0.673472 0.236286
0.311009 0.649165 0.214328
0.615915 0.548867 0.130877
0.861814 0.570016 0.0419471
0.960388 0.551461 0.00836194
0.960525 0.528069 0.00283818
0.960647 0.519448 0.00155642
0.304463 0.91548 0.304555
0.299229 0.899718 0.294453
0.295735 0.886091 0.287633
0.384741 0.867018 0.277668
0.576516 0.823224 0.161089
0.803708 0.727398 0.180285
0.951644 0.717937 0.139879
0.953262 0.708217 0.125124
0.953826 0.704097 0.118608
0.319051 0.963882 0.309575
0.319371 0.963867 0.308186
0.319417 0.963867 0.307988
0.387884 0.962844 0.30576
0.373983 0.961349 0.288167
0.79646 0.960983 0.173693
0.937652 0.848096 0.224781
0.947707 0.838514 0.22327
0.94754 0.833646 0.222538
0.319417 0.963867 0.307988
0.319417 0.963867 0.307988
0.319417 0.963867 0.307988
0.358221 0.963516 0.30721
0.392172 0.962676 0.304509
0.723415 0.961135 0.134676
0.914092 0.872084 0.232151
0.947906 0.852964 0.224231
0.947906 0.852964 0.224231
0.319417 0.963867 0.307988
0.319417 0.963867 0.307988
0.319417 0.963867 0.307988
0.343923 0.963699 0.307683
0.417075 0.962264 0.305333
0.685847 0.95668 0.15816
0.899977 0.894926 0.240284
0.947906 0.852964 0.224231
0.947906 0.852964 0.224231
0.108965 0.244556 0.620096
0.132982 0.210742 0.59939
0.235752 0.0628214 0.609232
0.603021 0 0.610452
0.857435 0.0118563 0.570123
0.962692 0.0205234 0.514824
0.962875 0.022034 0.486213
0.962982 0.0230716 0.466499
0.963027 0.0229343 0.466865
0.0987869 0.246738 0.569253
0.106249 0.226001 0.551873
0.182605 0.0990158 0.545373
0.537743 0.000137331 0.552132
0.800397 0.013489 0.503395
0.962951 0.0255283 0.420096
0.963745 0.0274205 0.381643
0.964202 0.0289921 0.346944
0.96434 0.0295109 0.335012
0.0712291 0.33727 0.525353
0.0708019 0.320134 0.50779
0.16759 0.291112 0.482139
0.45893 0.134371 0.485573
0.742061 0.111971 0.410071
0.956313 0.0949569 0.308843
0.963836 0.080415 0.273823
0.964187 0.0686046 0.241001
0.96437 0.0631113 0.22739
0.0247196 0.459998 0.461067
0.0240787 0.440894 0.442832
0.0713207 0.420142 0.422431
0.352789 0.393515 0.403708
0.660121 0.354192 0.31751
0.921187 0.362951 0.280827
0.962768 0.344808 0.255955
0.962676 0.325917 0.233555
0.962631 0.321584 0.22771
0.145205 0.686275 0.343572
0.147555 0.670481 0.317723
0.167926 0.655116 0.291234
0.268956 0.640436 0.262333
0.605737 0.580987 0.3093
0.852018 0.559686 0.218448
0.96173 0.532998 0.186572
0.961685 0.510109 0.166842
0.961669 0.501503 0.159457
0.258869 0.904677 0.270451
0.258595 0.888701 0.289372
0.258671 0.873625 0.293309
0.356909 0.85832 0.31313
0.480018 0.823667 0.281468
0.797375 0.742885 0.289693
0.955139 0.737224 0.217914
0.956329 0.7234 0.18999
0.956603 0.717571 0.178775
0.293507 0.964141 0.340093
0.298177 0.964141 0.343145
0.301579 0.964065 0.345266
0.368597 0.963623 0.348333
0.366552 0.963317 0.358328
0.772381 0.961288 0.199237
0.935668 0.856504 0.277714
0.948165 0.843244 0.265171
0.948119 0.837003 0.259739
0.306462 0.964126 0.346868
0.307927 0.964096 0.342306
0.309987 0.96408 0.339345
0.346014 0.963882 0.335744
0.401846 0.963256 0.337514
0.708659 0.958679 0.170245
0.911055 0.879377 0.249195
0.947951 0.854749 0.233326
0.947936 0.854139 0.230518
0.309377 0.96408 0.342
0.31133 0.964065 0.339132
0.31281 0.964034 0.333257
0.334585 0.963897 0.327703
0.419364 0.962676 0.323293
0.67126 0.955154 0.178698
0.896544 0.902632 0.245808
0.947906 0.85304 0.224704
0.947906 0.852964 0.224231
0.155657 0.360082 0.8692
0.178164 0.333928 0.851072
0.243687 0.221393 0.834974
0.58648 0.00143435 0.874617
0.84654 0 0.854978
0.964584 6.10361e-05 0.834607
0.964263 0.000366217 0.817823
0.963928 0.000457771 0.804822
0.964004 0.000549325 0.8065
0.146105 0.358679 0.82385
0.1505 0.338918 0.806912
0.218585 0.230961 0.781674
0.511635 0.00637827 0.81886
0.790066 0 0.798032
0.962875 0.00062562 0.773022
0.962982 0.00184634 0.749935
0.962936 0.00386053 0.728328
0.962875 0.0043183 0.721935
0.11989 0.452842 0.781781
0.118624 0.436728 0.766735
0.213184 0.405219 0.742184
0.382696 0.161669 0.744091
0.731701 0.102419 0.740688
0.952865 0.0825971 0.710704
0.962692 0.0639658 0.684886
0.962676 0.0484016 0.660685
0.962676 0.0432593 0.65304
0.0712444 0.542107 0.734752
0.0717021 0.526375 0.71989
0.127764 0.513222 0.703395
0.364569 0.486992 0.675502
0.666178 0.340871 0.679042
0.919005 0.313985 0.620218
0.962554 0.28809 0.58613
0.962585 0.263325 0.558709
0.96257 0.254582 0.549096
0.0110475 0.673884 0.676524
0.0140688 0.657969 0.660151
0.0280461 0.642405 0.644297
0.235126 0.625223 0.626215
0.580514 0.604028 0.612451
0.848859 0.570901 0.543984
0.963561 0.557839 0.514611
0.963333 0.538796 0.490791
0.963272 0.532418 0.482261
0.12459 0.887785 0.60444
0.125002 0.868391 0.581094
0.126558 0.851926 0.561624
0.217456 0.834714 0.536919
0.420951 0.82121 0.45919
0.788205 0.768093 0.523674
0.960693 0.753017 0.459403
0.961685 0.734173 0.431357
0.961791 0.725597 0.419638
0.180697 0.964965 0.516136
0.192645 0.964858 0.481239
0.201953 0.964523 0.453864
0.271717 0.96408 0.41767
0.334997 0.962722 0.322454
0.727581 0.951888 0.312459
0.936355 0.885863 0.480552
0.951583 0.870588 0.463096
0.951598 0.864134 0.454871
0.214847 0.964599 0.406165
0.224689 0.964462 0.372992
0.233814 0.964309 0.342214
0.273472 0.963973 0.307546
0.383948 0.963195 0.318196
0.637583 0.954131 0.293553
0.910796 0.914748 0.428733
0.950988 0.883635 0.406302
0.950927 0.882261 0.397604
0.22948 0.964355 0.348211
0.239185 0.964172 0.312154
0.248554 0.96408 0.298909
0.272557 0.963973 0.294652
0.396582 0.963149 0.326116
0.563577 0.956924 0.322713
0.89543 0.938445 0.400931
0.950805 0.878187 0.372366
0.950698 0.87631 0.360372
0.159121 0.367742 0.909117
0.179858 0.349676 0.903639
0.251347 0.254444 0.899107
0.560311 0.0075227 0.960998
0.835523 0 0.964233
0.962951 0 0.964096
0.962951 0 0.963943
0.962951 0 0.963623
0.962951 0 0.963958
0.159075 0.382834 0.910674
0.164233 0.371954 0.908965
0.234058 0.275837 0.89688
0.442374 0.0368353 0.949737
0.776898 0 0.963912
0.962753 0 0.963958
0.962951 0 0.964096
0.962966 0 0.960113
0.962997 0 0.957137
0.150393 0.502968 0.925841
0.151263 0.493156 0.924254
0.240024 0.469215 0.915679
0.313985 0.262516 0.908095
0.718898 0.0941329 0.959777
0.949432 0.072221 0.954238
0.963211 0.0527352 0.947005
0.963226 0.0363165 0.938979
0.963394 0.0305333 0.933974
0.130053 0.617548 0.939132
0.13196 0.608392 0.933883
0.189441 0.599817 0.925505
0.396078 0.58053 0.905821
0.609018 0.346258 0.92195
0.910735 0.300572 0.923873
0.964126 0.273274 0.906538
0.964569 0.248753 0.888426
0.964553 0.240391 0.88101
0.0814527 0.731182 0.93077
0.0831464 0.718181 0.918242
0.0982376 0.705531 0.905684
0.308782 0.699992 0.887556
0.594522 0.682795 0.860975
0.848142 0.561578 0.864973
0.963424 0.538415 0.83653
0.963241 0.517433 0.813001
0.963241 0.509407 0.803464
0.0089723 0.877668 0.882551
0.0125124 0.858228 0.863035
0.0123598 0.841627 0.846708
0.134112 0.823667 0.829236
0.486564 0.806607 0.810315
0.765988 0.783444 0.78909
0.962417 0.758144 0.751522
0.963668 0.739315 0.729473
0.963684 0.731319 0.720165
0.0419471 0.965377 0.815839
0.0547951 0.96524 0.79263
0.0644083 0.964767 0.775235
0.128359 0.964508 0.755779
0.335988 0.963684 0.731579
0.654536 0.957351 0.673701
0.938399 0.917586 0.715511
0.957183 0.901106 0.69958
0.957275 0.895094 0.691188
0.0792248 0.965316 0.748745
0.0906081 0.965301 0.728313
0.100099 0.965286 0.709636
0.135134 0.96524 0.689204
0.233722 0.965118 0.662623
0.564065 0.964096 0.591516
0.90338 0.949722 0.653498
0.956497 0.918029 0.641306
0.956344 0.916579 0.632746
0.0953689 0.965286 0.718517
0.105699 0.96527 0.698741
0.11574 0.96524 0.677714
0.137011 0.965209 0.655314
0.241718 0.965072 0.625742
0.505653 0.964004 0.543359
0.872755 0.960876 0.606439
0.9552 0.912398 0.6047
0.954543 0.910323 0.590753
0.159121 0.367742 0.909117
0.176562 0.352453 0.904692
0.249424 0.261448 0.898543
0.542062 0.0115969 0.959899
0.825666 0 0.964233
0.962936 0 0.964096
0.962951 0 0.964096
0.962951 0 0.964096
0.962951 0 0.964096
0.15903 0.378805 0.910277
0.162295 0.369436 0.908965
0.230518 0.27808 0.896452
0.418036 0.0458076 0.946365
0.766201 0 0.964294
0.961578 0 0.964096
0.962951 0 0.964096
0.962951 0 0.964096
0.962951 0 0.964096
0.150927 0.496864 0.925322
0.151659 0.486946 0.924102
0.234012 0.462654 0.916274
0.306981 0.264942 0.908995
0.707958 0.0858473 0.964157
0.944076 0.0641337 0.964157
0.962921 0.0448157 0.964126
0.962936 0.0297704 0.964111
0.962936 0.0242008 0.964111
0.131579 0.612253 0.941115
0.133867 0.60351 0.939941
0.185916 0.595346 0.93666
0.387259 0.577081 0.923705
0.588708 0.340246 0.945953
0.900633 0.289677 0.96434
0.962829 0.261753 0.964263
0.962829 0.237675 0.964248
0.962829 0.229282 0.964233
0.0859236 0.728359 0.953292
0.0903944 0.718502 0.952499
0.106249 0.709377 0.951492
0.315969 0.708736 0.946349
0.592386 0.698283 0.933303
0.832242 0.55259 0.962997
0.962707 0.528267 0.964416
0.962707 0.505882 0.964401
0.962707 0.497551 0.964401
0.0203403 0.874266 0.96022
0.0278935 0.857221 0.959762
0.0340124 0.843412 0.959609
0.161395 0.831937 0.959213
0.504417 0.828656 0.956527
0.767056 0.812512 0.948775
0.960555 0.745357 0.964553
0.9626 0.726467 0.963836
0.9626 0.718471 0.962921
0 0.965423 0.961288
0 0.964965 0.961044
0 0.964385 0.961288
0.0555123 0.963973 0.961471
0.371984 0.961975 0.961318
0.687037 0.954345 0.957916
0.935073 0.944015 0.951873
0.963836 0.930999 0.941802
0.963577 0.923369 0.935225
0 0.965423 0.961059
0 0.965423 0.9552
0 0.965423 0.949722
0.0203098 0.965423 0.943893
0.271733 0.965225 0.935912
0.615579 0.96495 0.922377
0.873808 0.964065 0.89781
0.962036 0.954833 0.883116
0.9617 0.95314 0.873426
0 0.965423 0.956588
0 0.965423 0.946181
0.00015259 0.965423 0.935683
0.0075227 0.965423 0.925002
0.218448 0.965255 0.907149
0.569009 0.964981 0.884718
0.824735 0.964553 0.848096
0.960571 0.947799 0.842466
0.960189 0.944961 0.826474
0.159121 0.367742 0.909117
0.173983 0.354681 0.905425
0.246754 0.264378 0.898253
0.524437 0.0156863 0.958785
0.816861 0 0.964233
0.962737 0 0.964096
0.962951 0 0.964096
0.962951 0 0.964096
0.962951 0 0.964096
0.158953 0.376043 0.910002
0.161044 0.367697 0.908873
0.227726 0.281895 0.896422
0.394766 0.0539254 0.943023
0.756939 1.5259e-05 0.964309
0.959854 0 0.964096
0.962951 0 0.964096
0.962951 0 0.964096
0.962951 0 0.964096
0.151324 0.491234 0.924651
0.152026 0.481178 0.9234
0.227756 0.455817 0.915801
0.301549 0.267185 0.907927
0.697948 0.0779736 0.96405
0.938277 0.0569467 0.964157
0.962921 0.0384375 0.964126
0.962936 0.0241398 0.964111
0.962936 0.0192569 0.964111
0.132906 0.607446 0.940505
0.135164 0.598566 0.939239
0.181796 0.590036 0.936141
0.377905 0.57142 0.923476
0.573907 0.332494 0.944366
0.8916 0.279301 0.96434
0.962829 0.25185 0.964248
0.962844 0.227543 0.964233
0.962844 0.218967 0.964233
0.0881819 0.723659 0.952941
0.0927443 0.713481 0.952117
0.105928 0.704448 0.951049
0.309331 0.703609 0.945922
0.584405 0.693538 0.93283
0.821393 0.544305 0.962493
0.962707 0.518883 0.964416
0.962707 0.496513 0.964401
0.962722 0.487663 0.964401
0.023743 0.867124 0.960113
0.0313878 0.849577 0.95967
0.0369421 0.836637 0.959396
0.159442 0.825635 0.958938
0.497978 0.823117 0.955932
0.759441 0.807599 0.947723
0.959228 0.737896 0.964553
0.9626 0.718456 0.964553
0.962615 0.709575 0.964538
0 0.965423 0.961288
0 0.964523 0.961288
0 0.963806 0.961303
0.0514382 0.963226 0.961486
0.361837 0.958801 0.9626
0.681544 0.950362 0.963577
0.930312 0.939483 0.964218
0.963958 0.925933 0.96466
0.963653 0.917159 0.96466
0 0.965423 0.961288
0 0.965423 0.961288
0 0.965423 0.961288
0.0168612 0.965423 0.961349
0.2607 0.96524 0.962203
0.607691 0.964965 0.963439
0.869947 0.964767 0.964355
0.964691 0.964691 0.964691
0.964691 0.964691 0.964691
0 0.965423 0.961288
0 0.965423 0.961288
0 0.965423 0.961288
0.00418097 0.965423 0.961303
0.206439 0.96527 0.96202
0.560403 0.964996 0.963272
0.824506 0.964797 0.964202
0.964691 0.964691 0.964691
0.964691 0.964691 0.964553
0.159121 0.367742 0.909117
0.172274 0.3561 0.905821
0.245335 0.265476 0.898085
0.519142 0.0170443 0.958572
0.815579 0 0.964248
0.962722 0 0.964096
0.962951 0 0.964096
0.962951 0 0.964096
0.962951 0 0.964096
0.158968 0.374929 0.909895
0.161181 0.367895 0.908858
0.226612 0.284382 0.896574
0.383658 0.0573587 0.94136
0.753628 1.5259e-05 0.964309
0.958556 0 0.964096
0.962951 0 0.964096
0.962951 0 0.964096
0.962951 0 0.964096
0.151507 0.488975 0.924376
0.152239 0.478798 0.92314
0.225376 0.452766 0.915541
0.300526 0.268498 0.907622
0.694469 0.0750591 0.964019
0.935775 0.0541085 0.964157
0.962936 0.0361791 0.964111
0.962936 0.022034 0.964111
0.962936 0.0184176 0.964111
0.133364 0.605875 0.940307
0.135576 0.596841 0.93901
0.180392 0.588235 0.935958
0.375006 0.569848 0.9234
0.568887 0.32987 0.943862
0.888197 0.276066 0.96434
0.962829 0.248875 0.964248
0.962844 0.224567 0.964233
0.962829 0.215991 0.964233
0.088838 0.722393 0.95285
0.0935378 0.711864 0.951995
0.105699 0.702892 0.950927
0.307042 0.701915 0.945769
0.581979 0.692317 0.932708
0.81796 0.541543 0.962356
0.962707 0.516182 0.964401
0.962722 0.493645 0.964401
0.962722 0.483604 0.964401
0.0247807 0.864927 0.960098
0.032578 0.846937 0.95967
0.0379034 0.83447 0.959335
0.158923 0.823453 0.958831
0.495369 0.820996 0.955688
0.756725 0.806165 0.947341
0.958434 0.735393 0.964553
0.962615 0.715587 0.964553
0.962615 0.706294 0.964538
0 0.965423 0.961288
0 0.96434 0.961288
0 0.963455 0.961303
0.0502022 0.962615 0.961486
0.358709 0.957305 0.96257
0.679316 0.948592 0.963516
0.927993 0.937346 0.964157
0.963897 0.923278 0.96466
0.9635 0.913359 0.96466
0 0.965423 0.961288
0 0.965423 0.961288
0 0.965423 0.961288
0.0156252 0.965423 0.961349
0.256718 0.96524 0.962203
0.604608 0.964965 0.963424
0.867552 0.964782 0.964355
0.964691 0.964691 0.964691
0.964691 0.964691 0.964691
0 0.965423 0.961288
0 0.965423 0.961288
0 0.965423 0.961288
0.00408942 0.965423 0.961303
0.200473 0.96527 0.96199
0.554955 0.964996 0.963256
0.81915 0.964797 0.964187
0.964691 0.964691 0.964691
0.964691 0.964691 0.964691
