LUT预设1/iPhone 专用lut-合集1/iPhone 标准版合集1(log)/柯达5213.cube
TITLE "Generated by Resolve"
LUT_3D_SIZE 5
0.0360723 0.0411688 0.0419623
0.113619 0.0411231 0.0316777
0.353536 0.0487373 0.0424506
0.360998 0.0475471 0.0431525
0.360998 0.0475471 0.0431525
0.0313878 0.101061 0.0664836
0.140429 0.14197 0.0695659
0.472892 0.0727703 0.048127
0.401587 0.0531319 0.0452583
0.408057 0.0543221 0.0455482
0.088716 0.386709 0.172717
0.0787671 0.370443 0.166735
0.802533 0.619791 0.263752
0.899565 0.476829 0.155459
0.89134 0.455817 0.14374
0.529503 0.67657 0.305943
0.529503 0.67657 0.305943
0.745007 0.785657 0.452033
0.963989 0.84686 0.61059
0.963989 0.846677 0.610147
0.529503 0.67657 0.305943
0.529503 0.67657 0.305943
0.725093 0.774182 0.425147
0.963973 0.84686 0.610544
0.963989 0.84686 0.61059
0.0290684 0.0304112 0.0611429
0.105791 0.034699 0.110414
0.298497 0.0399481 0.0438087
0.308309 0.040589 0.0387121
0.308263 0.0406195 0.0386053
0.0317235 0.102144 0.13901
0.0875257 0.104891 0.121813
0.455634 0.0569467 0.0480964
0.386862 0.0501717 0.0442206
0.383871 0.0501717 0.0441596
0.0842145 0.381582 0.17322
0.0766461 0.365316 0.165469
0.780529 0.60734 0.256336
0.893202 0.46331 0.149828
0.883467 0.439094 0.1364
0.529503 0.67657 0.305943
0.529503 0.67657 0.305943
0.737346 0.781292 0.441428
0.963989 0.84686 0.61059
0.964004 0.846601 0.609934
0.529503 0.67657 0.305943
0.529503 0.67657 0.305943
0.713573 0.767193 0.409735
0.963973 0.84686 0.610513
0.963989 0.84686 0.61059
0.0296635 0.0296941 0.0919509
0.038117 0.0314794 0.139361
0.180041 0.0349126 0.187778
0.256168 0.0394903 0.165652
0.256184 0.0394903 0.166995
0.0327916 0.0364996 0.157794
0.0340124 0.035996 0.178485
0.215213 0.0367742 0.203449
0.266529 0.0401617 0.146471
0.265095 0.040116 0.143832
0.0686809 0.496635 0.569558
0.0660716 0.484108 0.562158
0.568292 0.566644 0.537758
0.806332 0.356542 0.297765
0.795727 0.328939 0.262791
0.630213 0.754208 0.466804
0.63386 0.754482 0.463355
0.699351 0.77467 0.45922
0.96669 0.831098 0.535943
0.966613 0.831571 0.538109
0.641016 0.755413 0.457694
0.646311 0.753735 0.443168
0.720333 0.773465 0.423728
0.965347 0.837018 0.562707
0.964782 0.842359 0.588617
0.0296635 0.0296941 0.0921645
0.0336156 0.0310521 0.128099
0.140673 0.0332341 0.194217
0.24448 0.0382086 0.20557
0.24448 0.0382086 0.20557
0.0319371 0.032639 0.136751
0.0323033 0.032517 0.144915
0.13875 0.0346685 0.206348
0.247822 0.0383459 0.207797
0.246952 0.0383154 0.207218
0.0642863 0.464866 0.661006
0.0629892 0.450217 0.650752
0.339895 0.558816 0.693553
0.679286 0.485695 0.673274
0.661479 0.44509 0.658396
0.288411 0.747677 0.779507
0.288411 0.747677 0.779492
0.423178 0.781231 0.795346
0.87187 0.834714 0.815198
0.896132 0.827604 0.805356
0.288441 0.747677 0.779461
0.288518 0.747677 0.779416
0.349874 0.763439 0.785489
0.832242 0.843183 0.771344
0.922957 0.859541 0.785306
0.0296635 0.0296941 0.0921645
0.0327153 0.0308995 0.123842
0.136507 0.0333104 0.193271
0.24448 0.0382086 0.20557
0.24448 0.0382086 0.20557
0.0315404 0.0316167 0.128847
0.0319829 0.0322423 0.138033
0.135531 0.0346838 0.205341
0.2486 0.0383612 0.208316
0.247028 0.0383154 0.207263
0.0637827 0.459388 0.657084
0.0622721 0.443915 0.646586
0.291066 0.537972 0.683894
0.674784 0.473823 0.669017
0.657526 0.434684 0.654688
0.288396 0.747677 0.779507
0.288396 0.747677 0.779507
0.407355 0.777523 0.793652
0.864561 0.83299 0.830137
0.882628 0.828748 0.825559
0.288396 0.747677 0.779507
0.288396 0.747677 0.779507
0.338689 0.76051 0.784985
0.806287 0.844495 0.835828
0.899962 0.855467 0.845548
