LUT预设1/iPhone 专用lut-合集1/iPhone 标准版合集1(log)/柯达5213.cube
TITLE "Generated by Resolve"
LUT_3D_SIZE 33
0.0360723 0.0411688 0.0419623
0.0361639 0.0412299 0.0419928
0.0368048 0.0412451 0.0419013
0.0390784 0.0409705 0.0413519
0.0459754 0.0395361 0.0392615
0.0546426 0.0379187 0.0365606
0.0658885 0.0371252 0.0340887
0.0843671 0.0382696 0.0324102
0.113619 0.0411231 0.0316777
0.14313 0.0413977 0.0323949
0.171893 0.0417639 0.033875
0.208957 0.0438544 0.0358892
0.250446 0.0465248 0.0380407
0.28574 0.0480049 0.0399634
0.313436 0.0483406 0.0412451
0.337499 0.0488441 0.0419776
0.353536 0.0487373 0.0424506
0.359625 0.0478828 0.0429694
0.360906 0.0475776 0.0431373
0.360998 0.0475471 0.0431525
0.360998 0.0475471 0.0431525
0.360998 0.0475471 0.0431525
0.360998 0.0475471 0.0431525
0.360998 0.0475471 0.0431525
0.360998 0.0475471 0.0431525
0.360998 0.0475471 0.0431525
0.360998 0.0475471 0.0431525
0.360998 0.0475471 0.0431525
0.360998 0.0475471 0.0431525
0.360998 0.0475471 0.0431525
0.360998 0.0475471 0.0431525
0.360998 0.0475471 0.0431525
0.360998 0.0475471 0.0431525
0.0360418 0.0413519 0.0420996
0.0361181 0.0413519 0.0420844
0.0365759 0.0413214 0.0419928
0.0383612 0.0411078 0.0415503
0.0438392 0.0399786 0.0399176
0.0512551 0.0385443 0.0375982
0.0615549 0.0373541 0.0349737
0.0776074 0.0377356 0.0328985
0.104387 0.0401923 0.0318303
0.135714 0.041413 0.032166
0.165637 0.0416419 0.0335546
0.201709 0.0434119 0.0354925
0.244236 0.0461433 0.0377203
0.28188 0.0478828 0.0397498
0.311238 0.0482948 0.0411688
0.336431 0.0488289 0.0419471
0.353338 0.0487678 0.0424353
0.359564 0.0478981 0.0429541
0.360906 0.0475776 0.0431373
0.360998 0.0475471 0.0431525
0.360998 0.0475471 0.0431525
0.360998 0.0475471 0.0431525
0.360998 0.0475471 0.0431525
0.360998 0.0475471 0.0431525
0.360998 0.0475471 0.0431525
0.360998 0.0475471 0.0431525
0.360998 0.0475471 0.0431525
0.360998 0.0475471 0.0431525
0.360998 0.0475471 0.0431525
0.360998 0.0475471 0.0431525
0.360998 0.0475471 0.0431525
0.360998 0.0475471 0.0431525
0.360998 0.0475471 0.0431525
0.0359808 0.041825 0.0424659
0.0360113 0.0417487 0.0424048
0.0362402 0.0416571 0.0422827
0.0372168 0.0416419 0.0420844
0.0416571 0.0407721 0.0407874
0.049897 0.0390326 0.0381476
0.0599374 0.0374151 0.0352331
0.0735637 0.0373693 0.0330816
0.0953231 0.0393683 0.0320134
0.124697 0.0411994 0.0319677
0.154299 0.0415656 0.0329747
0.186481 0.0425269 0.0346838
0.227375 0.0450904 0.0368353
0.268147 0.0475013 0.0389715
0.29955 0.0481727 0.0406958
0.326162 0.0485389 0.0416724
0.347341 0.0489204 0.0422522
0.357839 0.0483253 0.0427253
0.360601 0.0476539 0.0430915
0.360998 0.0475471 0.0431525
0.360998 0.0475471 0.0431525
0.360998 0.0475471 0.0431525
0.360998 0.0475471 0.0431525
0.360998 0.0475471 0.0431525
0.360998 0.0475471 0.0431525
0.360998 0.0475471 0.0431525
0.360998 0.0475471 0.0431525
0.360998 0.0475471 0.0431525
0.360998 0.0475471 0.0431525
0.360998 0.0475471 0.0431525
0.360998 0.0475471 0.0431525
0.360998 0.0475471 0.0431525
0.360998 0.0475471 0.0431525
0.0358434 0.0429847 0.0432136
0.0358587 0.0428931 0.0431525
0.0360113 0.0428016 0.0430304
0.0368811 0.0429694 0.0429389
0.04065 0.0425269 0.0419013
0.0491951 0.0406043 0.0390784
0.0592203 0.0384985 0.0359197
0.0726787 0.0377356 0.0332341
0.0986343 0.0400549 0.0319677
0.130999 0.0417639 0.0319982
0.157305 0.0415351 0.0330968
0.184405 0.0424201 0.0345617
0.220706 0.0446479 0.0364996
0.261295 0.047303 0.0385595
0.293446 0.0481575 0.0404364
0.319844 0.0483558 0.041474
0.343069 0.0489357 0.0421607
0.356451 0.048661 0.0425574
0.360327 0.047715 0.043061
0.360998 0.0475471 0.0431525
0.360998 0.0475471 0.0431525
0.360998 0.0475471 0.0431525
0.360998 0.0475471 0.0431525
0.360998 0.0475471 0.0431525
0.360998 0.0475471 0.0431525
0.360998 0.0475471 0.0431525
0.360998 0.0475471 0.0431525
0.360998 0.0475471 0.0431525
0.360998 0.0475471 0.0431525
0.360998 0.0475471 0.0431525
0.360998 0.0475471 0.0431525
0.360998 0.0475471 0.0431525
0.360998 0.0475471 0.0431525
0.0353094 0.0475319 0.0451209
0.0353552 0.0471351 0.0449836
0.035523 0.0463111 0.0446479
0.0361181 0.046128 0.0444648
0.039704 0.0465248 0.0437018
0.0490578 0.0454261 0.0409705
0.0617533 0.0426947 0.0374304
0.0804303 0.042649 0.0345006
0.10428 0.0439765 0.0327916
0.132738 0.0440681 0.0323644
0.160998 0.0428931 0.0332647
0.193698 0.0435645 0.0349889
0.233875 0.0458534 0.0371557
0.26952 0.0478065 0.0390173
0.294865 0.0482338 0.0405127
0.317159 0.0483101 0.0413977
0.339834 0.0488899 0.0420844
0.355169 0.0489357 0.0424048
0.360052 0.0477913 0.0430152
0.360998 0.0475471 0.0431525
0.360998 0.0475471 0.0431525
0.360998 0.0475471 0.0431525
0.360998 0.0475471 0.0431525
0.360998 0.0475471 0.0431525
0.360998 0.0475471 0.0431525
0.360998 0.0475471 0.0431525
0.360998 0.0475471 0.0431525
0.360998 0.0475471 0.0431525
0.360998 0.0475471 0.0431525
0.360998 0.0475471 0.0431525
0.360998 0.0475471 0.0431525
0.360998 0.0475471 0.0431525
0.360998 0.0475471 0.0431525
0.034287 0.0564126 0.0484321
0.0343175 0.0560922 0.0483253
0.0344396 0.0550851 0.0479591
0.034699 0.0545968 0.0476692
0.0370489 0.0553292 0.0467079
0.0480812 0.058854 0.0448768
0.0686198 0.0586557 0.042237
0.0948653 0.0565957 0.0391241
0.124041 0.0562295 0.0362707
0.152499 0.053666 0.0343786
0.177768 0.0492256 0.034226
0.206821 0.0471656 0.035462
0.243442 0.0479438 0.0374914
0.279622 0.0490883 0.0395361
0.308034 0.0493019 0.0410468
0.331716 0.0495003 0.0419776
0.350256 0.049836 0.0423285
0.358816 0.0489052 0.0427405
0.360739 0.0478981 0.0430457
0.360937 0.0475624 0.0431373
0.360998 0.0475471 0.0431525
0.360998 0.0475471 0.0431525
0.361013 0.0475471 0.0431525
0.360998 0.0475471 0.0431525
0.361013 0.0475471 0.0431525
0.361059 0.0475471 0.0431525
0.361044 0.0475471 0.0431525
0.361013 0.0475471 0.0431525
0.360998 0.0475471 0.0431525
0.360998 0.0475471 0.0431525
0.360998 0.0475471 0.0431525
0.360998 0.0475471 0.0431525
0.360998 0.0475471 0.0431525
0.0337377 0.0691844 0.0516976
0.033753 0.0689403 0.0515908
0.0338293 0.0676127 0.0511635
0.0338903 0.0670329 0.0510109
0.0347448 0.0668498 0.0507362
0.0433967 0.0718242 0.0505226
0.0673991 0.0797742 0.0498207
0.107179 0.080705 0.0476387
0.15172 0.0781872 0.043534
0.194461 0.0739757 0.0396124
0.231022 0.0684215 0.037583
0.262425 0.0623331 0.0378729
0.29015 0.0580911 0.0394446
0.31458 0.0554818 0.041001
0.333516 0.0535286 0.0421149
0.348318 0.0522164 0.04271
0.365286 0.0517891 0.0431067
0.373327 0.0503243 0.0435492
0.373083 0.0490272 0.0437934
0.371115 0.0486152 0.0437324
0.369009 0.0483711 0.0436103
0.366781 0.0481422 0.0434882
0.364248 0.0478828 0.0433356
0.363836 0.047837 0.0433204
0.364034 0.0478676 0.0433204
0.36376 0.0478218 0.0433051
0.363012 0.0477607 0.0432746
0.36257 0.047715 0.0432441
0.362585 0.047715 0.0432441
0.362539 0.0476997 0.0432441
0.362631 0.047715 0.0432441
0.362951 0.0477455 0.0432593
0.363455 0.0478065 0.0432898
0.032639 0.0839704 0.0573892
0.0326848 0.0838331 0.0572366
0.0328832 0.0823987 0.0563516
0.03299 0.0818647 0.0559243
0.033402 0.0809644 0.0554208
0.0366674 0.0831922 0.0567025
0.0519265 0.0927138 0.0592355
0.0956283 0.107073 0.0590372
0.158846 0.111452 0.054612
0.223865 0.109483 0.0495918
0.280293 0.10219 0.0449073
0.327855 0.0910658 0.0427405
0.361837 0.0792859 0.043061
0.383597 0.0704204 0.044007
0.397375 0.0652781 0.0447547
0.40444 0.0621958 0.0449836
0.408743 0.0597238 0.0451209
0.40853 0.0568551 0.0452277
0.40264 0.0537575 0.0452125
0.394842 0.0519417 0.0449531
0.38851 0.0509499 0.0446479
0.384237 0.0504005 0.044419
0.381094 0.049958 0.0442512
0.378408 0.049546 0.0441291
0.375875 0.0491493 0.0439918
0.373449 0.0488441 0.0438697
0.373098 0.0489052 0.0438239
0.373266 0.0489815 0.0438239
0.373114 0.0489662 0.0438239
0.37232 0.0487984 0.0437934
0.372564 0.0487678 0.0438239
0.373968 0.0488746 0.0439002
0.376089 0.0491035 0.0440223
0.0313878 0.101061 0.0664836
0.0313573 0.101122 0.0665293
0.031342 0.0996414 0.0657969
0.0313268 0.0990921 0.0655375
0.0314488 0.0976272 0.0647593
0.0322271 0.097612 0.0648051
0.0421912 0.104631 0.0671092
0.0745403 0.122026 0.0701305
0.140429 0.14197 0.0695659
0.227253 0.150378 0.0641489
0.307881 0.146868 0.0566873
0.371695 0.134325 0.0510719
0.4206 0.117449 0.0487221
0.454551 0.101274 0.048249
0.473259 0.0886091 0.0485542
0.476768 0.0790417 0.0483711
0.472892 0.0727703 0.048127
0.464378 0.068452 0.0478981
0.454353 0.0644999 0.0475166
0.44387 0.061799 0.0471351
0.434272 0.0597086 0.0467079
0.424811 0.0576638 0.0462806
0.415839 0.0558022 0.0458839
0.407645 0.0542153 0.0455177
0.401587 0.0531319 0.0452583
0.39762 0.0525063 0.0450599
0.394629 0.0520027 0.0449226
0.392508 0.0516518 0.0448157
0.391394 0.0514687 0.04477
0.392462 0.0516365 0.044831
0.395865 0.0522011 0.0449836
0.401633 0.0532082 0.045243
0.408057 0.0543221 0.0455482
0.0317082 0.121233 0.0762188
0.0317082 0.12163 0.0764172
0.0316167 0.120089 0.0757458
0.0315557 0.119524 0.0755169
0.0314488 0.117876 0.0748455
0.0315404 0.11667 0.0741588
0.0352026 0.119356 0.0747387
0.0546426 0.133577 0.0797742
0.110048 0.161578 0.0841993
0.204303 0.187701 0.0820172
0.304433 0.196628 0.0736553
0.390265 0.189578 0.0643015
0.45568 0.171237 0.057557
0.50396 0.147585 0.0543374
0.534447 0.125307 0.0531472
0.545907 0.106493 0.0525063
0.542733 0.0929885 0.0519112
0.53254 0.0851911 0.0513771
0.519203 0.0810559 0.0507057
0.507103 0.0777752 0.0501259
0.495537 0.0745861 0.0495613
0.484092 0.071458 0.0489967
0.473289 0.0686961 0.0484779
0.463508 0.0663767 0.0480354
0.4542 0.0641794 0.0476081
0.445777 0.0621347 0.0472267
0.437446 0.0600748 0.0468452
0.430762 0.0586099 0.04654
0.426917 0.0579538 0.0463874
0.427863 0.0582895 0.0464332
0.434913 0.0598917 0.0467689
0.442924 0.061738 0.0471199
0.450935 0.0635996 0.0474861
0.0328679 0.146075 0.0855573
0.0328985 0.1467 0.0858015
0.0328222 0.144839 0.0852216
0.0328374 0.144396 0.085069
0.0327764 0.142855 0.0845197
0.0327001 0.140978 0.0837568
0.0328985 0.140291 0.0827955
0.0428168 0.149767 0.0870832
0.0869306 0.176303 0.0940108
0.17145 0.213138 0.0957961
0.279423 0.241505 0.0907759
0.38854 0.248554 0.0825208
0.474754 0.235996 0.0727855
0.535027 0.212085 0.0661479
0.574884 0.183536 0.061677
0.596643 0.155077 0.0587015
0.604288 0.12929 0.0567941
0.59939 0.110826 0.0553445
0.586847 0.101213 0.0543069
0.573358 0.0966659 0.0535286
0.56173 0.0932784 0.0529183
0.551125 0.0902113 0.052369
0.540352 0.0871138 0.0518196
0.530449 0.0842451 0.0513161
0.521096 0.08159 0.0508278
0.511772 0.0789654 0.0503548
0.503014 0.0765698 0.0499275
0.495415 0.0745861 0.0495613
0.489937 0.073228 0.0493019
0.489372 0.0731365 0.0492866
0.494942 0.0746319 0.0495613
0.501198 0.0763104 0.0498665
0.507424 0.0780041 0.0501717
0.0353552 0.176471 0.0953689
0.0354772 0.177737 0.0957809
0.0353246 0.175692 0.0951553
0.0353094 0.175265 0.0950637
0.0352026 0.173907 0.0946059
0.0349584 0.171313 0.0937362
0.0348516 0.169223 0.0926528
0.0385138 0.172335 0.0931258
0.0647898 0.191928 0.0993362
0.1393 0.231495 0.108415
0.243244 0.27396 0.108049
0.364599 0.300847 0.103883
0.474205 0.30312 0.0955978
0.555077 0.286625 0.0871138
0.608331 0.259113 0.0794842
0.638483 0.224155 0.0718242
0.653696 0.188037 0.0663615
0.654963 0.156878 0.0616464
0.647883 0.135912 0.0588388
0.636957 0.125978 0.057435
0.626139 0.119799 0.056611
0.61593 0.114549 0.0559548
0.606073 0.109667 0.055375
0.596994 0.105638 0.0548409
0.587701 0.102327 0.0543374
0.579202 0.0996414 0.0538796
0.571099 0.0970321 0.0534524
0.563684 0.0944839 0.0530556
0.558953 0.0926833 0.0527962
0.558221 0.092134 0.0527352
0.563272 0.0935988 0.0530098
0.56875 0.0951553 0.0532998
0.574319 0.0967575 0.0535897
0.0394293 0.212329 0.107744
0.0396277 0.214038 0.108629
0.0393683 0.21207 0.108248
0.0393378 0.21178 0.108339
0.0391394 0.210071 0.107683
0.038819 0.207263 0.106508
0.0384833 0.204166 0.105241
0.0395972 0.203662 0.104036
0.0534981 0.216022 0.107164
0.109209 0.249653 0.11957
0.205966 0.295003 0.12813
0.325948 0.336751 0.128405
0.450828 0.360616 0.1243
0.556237 0.358831 0.116701
0.630121 0.338842 0.10724
0.675731 0.308293 0.0967727
0.697795 0.26981 0.0855573
0.70454 0.229572 0.0750286
0.704402 0.19675 0.0677043
0.699535 0.175875 0.0637675
0.691615 0.163241 0.0617838
0.682445 0.154482 0.0606851
0.67245 0.147265 0.0598459
0.663005 0.141344 0.0591745
0.653895 0.135927 0.0585336
0.645487 0.130877 0.0579232
0.637797 0.12607 0.0573434
0.630915 0.121798 0.0568399
0.62594 0.118883 0.0565194
0.625086 0.118288 0.0564584
0.630014 0.120714 0.0567483
0.635554 0.123476 0.057084
0.640803 0.126101 0.0573892
0.0444038 0.252522 0.126986
0.0447547 0.25452 0.127825
0.0444953 0.252628 0.127001
0.04448 0.252033 0.126665
0.0442969 0.25037 0.125841
0.0439307 0.247532 0.124498
0.0434882 0.244175 0.122957
0.043534 0.241581 0.121248
0.0496834 0.24712 0.121965
0.0809644 0.270085 0.131472
0.16524 0.312459 0.147951
0.284825 0.360372 0.156252
0.412497 0.400504 0.156725
0.536782 0.420157 0.153231
0.635966 0.41529 0.144015
0.703334 0.395163 0.131838
0.740017 0.363607 0.117494
0.755856 0.323293 0.101244
0.761563 0.282765 0.0870832
0.761685 0.251057 0.0774395
0.757244 0.231113 0.0720684
0.748791 0.218357 0.069749
0.739254 0.208118 0.0681773
0.730007 0.198459 0.0666972
0.721141 0.188922 0.0652018
0.713237 0.180392 0.0638743
0.705913 0.173312 0.0628824
0.698848 0.167559 0.062211
0.693584 0.163607 0.0617533
0.69276 0.162982 0.061677
0.697414 0.166476 0.062089
0.702922 0.170642 0.062562
0.708888 0.175418 0.0631571
0.0521248 0.294148 0.143465
0.0526741 0.296757 0.144305
0.0521553 0.294652 0.143725
0.0520485 0.294072 0.14345
0.0517281 0.292348 0.142779
0.0512398 0.289845 0.141894
0.0505531 0.286412 0.140703
0.0499123 0.282948 0.139452
0.0512551 0.282795 0.138796
0.0653391 0.295583 0.144183
0.125399 0.330251 0.162112
0.238285 0.377966 0.180789
0.369741 0.424857 0.188418
0.502586 0.463188 0.188876
0.623896 0.4813 0.184619
0.716838 0.477012 0.17435
0.774014 0.457527 0.160327
0.804334 0.426947 0.142336
0.818387 0.389639 0.123247
0.822507 0.353948 0.107317
0.819593 0.326146 0.0955673
0.81265 0.307668 0.0889296
0.804044 0.293385 0.0849317
0.795621 0.280018 0.0813764
0.787381 0.267292 0.0783551
0.780148 0.256825 0.0762493
0.772747 0.247288 0.0745708
0.766247 0.239246 0.0731975
0.761288 0.232639 0.0720073
0.760143 0.230411 0.071519
0.764935 0.235584 0.0723125
0.770291 0.243153 0.0738537
0.775509 0.250874 0.0755016
0.0639963 0.338216 0.156771
0.0649424 0.340932 0.157519
0.0634623 0.338476 0.156619
0.0629282 0.337697 0.156222
0.0621805 0.335943 0.155612
0.0610513 0.33344 0.154788
0.059968 0.330007 0.153841
0.0590524 0.326207 0.152911
0.058793 0.323247 0.152056
0.0635691 0.326802 0.153674
0.0963455 0.350042 0.168429
0.188052 0.394354 0.194827
0.326665 0.445289 0.21416
0.464317 0.492317 0.220218
0.598566 0.531182 0.222248
0.717968 0.55082 0.220127
0.796948 0.546044 0.209522
0.841703 0.527657 0.195819
0.865644 0.501045 0.178317
0.874861 0.468391 0.158007
0.87512 0.436866 0.138933
0.870588 0.412375 0.124254
0.864393 0.39527 0.114977
0.857206 0.381079 0.109392
0.849653 0.367758 0.105196
0.842664 0.355749 0.10164
0.836027 0.344366 0.0982223
0.830091 0.333822 0.0948806
0.825498 0.325612 0.092256
0.824567 0.323903 0.0916915
0.828885 0.331487 0.0940261
0.833661 0.339818 0.0966049
0.838315 0.348074 0.0992294
0.088716 0.386709 0.172717
0.0907454 0.389853 0.173907
0.0888228 0.387854 0.172976
0.0880293 0.387304 0.172641
0.087068 0.385718 0.172061
0.0855421 0.383078 0.17113
0.0835279 0.379477 0.169879
0.081117 0.375021 0.168353
0.0787671 0.370443 0.166735
0.0786145 0.368505 0.165927
0.0944839 0.380545 0.17496
0.157473 0.415534 0.200824
0.280583 0.465003 0.22948
0.427008 0.516442 0.246754
0.568658 0.564721 0.254459
0.701961 0.603571 0.261311
0.802533 0.619791 0.263752
0.862593 0.615305 0.258961
0.895582 0.599832 0.247593
0.912139 0.576822 0.227817
0.91783 0.550271 0.203693
0.915801 0.524254 0.183001
0.911009 0.505211 0.170428
0.905425 0.491127 0.162905
0.899565 0.476829 0.155459
0.894347 0.463951 0.148669
0.889601 0.451881 0.142016
0.885466 0.441108 0.135927
0.882185 0.432853 0.131426
0.881575 0.431556 0.130846
0.884642 0.439094 0.134798
0.887922 0.447181 0.139101
0.89134 0.455817 0.14374
0.127306 0.437507 0.193851
0.129992 0.440757 0.19527
0.127749 0.438697 0.19411
0.127123 0.438453 0.19379
0.125551 0.436713 0.192966
0.123659 0.43415 0.191959
0.120882 0.430549 0.190478
0.117479 0.426215 0.188678
0.113725 0.421454 0.186618
0.111696 0.418235 0.184878
0.119738 0.423468 0.187961
0.158068 0.446418 0.206531
0.251331 0.489128 0.238041
0.394659 0.541772 0.267811
0.544732 0.591989 0.287068
0.678965 0.636835 0.300832
0.790311 0.669261 0.315969
0.86566 0.681834 0.325048
0.908293 0.678553 0.323095
0.930465 0.665782 0.309941
0.939895 0.646525 0.289631
0.940627 0.624689 0.269429
0.938079 0.608148 0.255207
0.934905 0.594949 0.243702
0.931868 0.582376 0.232532
0.929122 0.570779 0.22211
0.926528 0.559991 0.212528
0.923919 0.550393 0.204852
0.921233 0.542016 0.199161
0.920317 0.53991 0.198276
0.92221 0.546639 0.203494
0.924346 0.55433 0.209522
0.926604 0.562493 0.21593
0.17821 0.489891 0.219196
0.181628 0.493263 0.220874
0.179461 0.491524 0.219913
0.178576 0.490913 0.219608
0.176928 0.489311 0.218814
0.174151 0.486534 0.217441
0.170245 0.482887 0.21561
0.165164 0.47834 0.213336
0.159533 0.473304 0.210819
0.155688 0.46894 0.208179
0.160449 0.470207 0.207233
0.189334 0.487083 0.219089
0.260639 0.522164 0.247349
0.382025 0.569909 0.282536
0.527276 0.620264 0.315694
0.659663 0.665019 0.340261
0.771817 0.703075 0.363622
0.857084 0.729046 0.386007
0.910155 0.737514 0.39646
0.937957 0.732021 0.39144
0.950591 0.719188 0.376837
0.953964 0.704738 0.360983
0.953552 0.693049 0.347707
0.952224 0.682811 0.335225
0.950866 0.673732 0.323857
0.949401 0.664393 0.312642
0.947799 0.655467 0.302892
0.945968 0.646647 0.294148
0.94435 0.639353 0.287221
0.943832 0.637156 0.285176
0.944976 0.642847 0.290959
0.946303 0.649409 0.297597
0.947692 0.656229 0.304524
0.261357 0.549599 0.249241
0.269764 0.554086 0.251347
0.265705 0.551766 0.250233
0.264347 0.551156 0.249973
0.261555 0.549447 0.249134
0.256565 0.546242 0.247562
0.25005 0.542092 0.245518
0.242725 0.537469 0.243244
0.233631 0.53167 0.240375
0.22623 0.525872 0.23714
0.227527 0.524437 0.234485
0.253376 0.53669 0.239918
0.308629 0.56405 0.26157
0.401389 0.603632 0.296071
0.523293 0.649058 0.336492
0.646555 0.692027 0.374838
0.754742 0.729656 0.408057
0.841794 0.759808 0.438392
0.902724 0.776165 0.458167
0.938216 0.777325 0.461357
0.954681 0.770275 0.45388
0.960189 0.76257 0.444694
0.961089 0.756436 0.43624
0.960891 0.75024 0.426368
0.960388 0.743557 0.415457
0.959655 0.736751 0.405463
0.958679 0.729229 0.395422
0.957778 0.722484 0.386465
0.957061 0.716854 0.378759
0.957 0.715801 0.376959
0.957626 0.720119 0.382422
0.958404 0.725521 0.389319
0.959197 0.731014 0.396262
0.380407 0.611536 0.277943
0.387549 0.614755 0.279347
0.385122 0.613825 0.278981
0.384817 0.613794 0.278981
0.38172 0.612207 0.278248
0.37554 0.609003 0.276768
0.368032 0.605066 0.274922
0.358679 0.600183 0.272663
0.34757 0.5944 0.269993
0.335912 0.58819 0.267033
0.330434 0.584573 0.264256
0.349615 0.592569 0.266545
0.396048 0.614862 0.282933
0.461769 0.645136 0.313176
0.549401 0.681422 0.353765
0.649638 0.71928 0.400809
0.74638 0.753445 0.444404
0.827482 0.78175 0.479637
0.890715 0.80116 0.504524
0.933272 0.807691 0.514565
0.954513 0.80528 0.51548
0.961913 0.80238 0.515343
0.963577 0.800931 0.514427
0.96376 0.797864 0.509026
0.963577 0.79295 0.499947
0.963302 0.787625 0.49044
0.963012 0.782544 0.481483
0.962798 0.777996 0.473304
0.962661 0.774365 0.466468
0.962722 0.773541 0.464424
0.962997 0.777005 0.470008
0.963195 0.780362 0.475898
0.963272 0.783261 0.481468
0.475654 0.653986 0.296345
0.479866 0.655787 0.297124
0.480888 0.656306 0.297353
0.482307 0.656947 0.297627
0.479576 0.655711 0.297093
0.475059 0.653696 0.296208
0.468864 0.650965 0.295033
0.46186 0.647868 0.29369
0.453208 0.644007 0.292012
0.443931 0.639872 0.290196
0.437675 0.636912 0.288563
0.451484 0.642588 0.29073
0.493523 0.661631 0.304082
0.546609 0.687449 0.331304
0.603601 0.714778 0.368627
0.670787 0.743587 0.415076
0.746715 0.772305 0.464622
0.816953 0.797253 0.504738
0.876265 0.815946 0.532189
0.923415 0.826078 0.547219
0.951141 0.827863 0.555825
0.961578 0.82768 0.56408
0.963882 0.828321 0.56907
0.964218 0.827741 0.56878
0.964202 0.82504 0.563424
0.964172 0.821881 0.557015
0.964157 0.818982 0.551019
0.964157 0.816648 0.546151
0.964172 0.814817 0.542214
0.964202 0.814679 0.541741
0.964202 0.816098 0.544717
0.964202 0.817639 0.547906
0.964218 0.819409 0.551583
0.520836 0.673014 0.304448
0.522271 0.673609 0.304692
0.523339 0.674052 0.304875
0.524041 0.674342 0.304997
0.523018 0.673915 0.304814
0.521599 0.67332 0.30457
0.52015 0.672709 0.304326
0.518303 0.671946 0.304006
0.516075 0.671046 0.303609
0.513451 0.669978 0.303166
0.512444 0.669551 0.302892
0.524269 0.674311 0.304875
0.56405 0.691661 0.31635
0.613123 0.715755 0.341573
0.656184 0.739147 0.376593
0.698573 0.761379 0.420066
0.751537 0.784482 0.470405
0.807858 0.805341 0.512566
0.861524 0.82211 0.541939
0.91104 0.834226 0.560922
0.945464 0.839948 0.574746
0.960128 0.841062 0.587533
0.963455 0.841413 0.595636
0.96405 0.841657 0.598321
0.964126 0.841169 0.597498
0.964141 0.840162 0.595239
0.964172 0.839094 0.592905
0.964187 0.838148 0.590829
0.964218 0.837263 0.588907
0.964218 0.83682 0.587945
0.964202 0.837354 0.58909
0.964202 0.837934 0.590387
0.964187 0.83859 0.591821
0.529503 0.67657 0.305943
0.529503 0.67657 0.305943
0.529503 0.67657 0.305943
0.529458 0.676555 0.305928
0.529442 0.676539 0.305928
0.529503 0.67657 0.305943
0.529503 0.67657 0.305943
0.529503 0.67657 0.305943
0.529503 0.67657 0.305943
0.529503 0.67657 0.305943
0.530266 0.67686 0.30602
0.539712 0.680629 0.307454
0.574502 0.695369 0.315938
0.627726 0.720302 0.338567
0.6757 0.745922 0.373434
0.713405 0.768109 0.416052
0.752529 0.788647 0.464591
0.798383 0.807446 0.508492
0.847517 0.822766 0.540337
0.899001 0.835187 0.561746
0.939727 0.842832 0.577401
0.958419 0.845075 0.592767
0.963043 0.845624 0.603845
0.963912 0.845991 0.607965
0.964019 0.846036 0.608515
0.964019 0.845869 0.608118
0.964019 0.845716 0.607706
0.964034 0.845502 0.607202
0.96405 0.84506 0.606195
0.96405 0.844724 0.605447
0.96405 0.844862 0.605768
0.96405 0.845014 0.606134
0.964034 0.845182 0.606546
0.529503 0.67657 0.305943
0.529503 0.67657 0.305943
0.529503 0.67657 0.305943
0.529503 0.67657 0.305943
0.529503 0.67657 0.305943
0.529503 0.67657 0.305943
0.529503 0.67657 0.305943
0.529503 0.67657 0.305943
0.529503 0.67657 0.305943
0.529503 0.67657 0.305943
0.529702 0.676646 0.305959
0.534264 0.678431 0.306554
0.561242 0.689509 0.311803
0.615167 0.713756 0.330373
0.66894 0.741161 0.363165
0.709865 0.764965 0.404761
0.745007 0.785657 0.452033
0.786252 0.804562 0.498085
0.833051 0.820218 0.533669
0.884978 0.832914 0.55758
0.931487 0.841794 0.574289
0.955444 0.845228 0.590738
0.962509 0.846326 0.604364
0.963867 0.846799 0.609873
0.963989 0.84686 0.61059
0.963989 0.84686 0.61059
0.963989 0.846845 0.610574
0.963989 0.846784 0.610422
0.963989 0.846677 0.610132
0.964004 0.846601 0.609949
0.964004 0.846632 0.609995
0.964004 0.846647 0.610071
0.963989 0.846677 0.610147
0.529503 0.67657 0.305943
0.529503 0.67657 0.305943
0.529503 0.67657 0.305943
0.529503 0.67657 0.305943
0.529503 0.67657 0.305943
0.529503 0.67657 0.305943
0.529503 0.67657 0.305943
0.529503 0.67657 0.305943
0.529503 0.67657 0.305943
0.529503 0.67657 0.305943
0.529503 0.67657 0.305943
0.531441 0.677317 0.306142
0.549279 0.684489 0.309056
0.597345 0.705348 0.322637
0.654047 0.733181 0.352209
0.698619 0.758297 0.392157
0.734356 0.779751 0.438087
0.773648 0.799344 0.485527
0.818647 0.816052 0.524742
0.869337 0.829511 0.552071
0.919676 0.839872 0.570123
0.950179 0.844633 0.58616
0.961227 0.846113 0.601251
0.963745 0.846723 0.609125
0.963989 0.84686 0.610574
0.963989 0.84686 0.61059
0.963989 0.84686 0.61059
0.963989 0.84686 0.61059
0.963989 0.84686 0.61059
0.963989 0.84686 0.61059
0.963989 0.84686 0.61059
0.963989 0.84686 0.61059
0.963989 0.84686 0.61059
0.529503 0.67657 0.305943
0.529503 0.67657 0.305943
0.529503 0.67657 0.305943
0.529503 0.67657 0.305943
0.529503 0.67657 0.305943
0.529503 0.67657 0.305943
