LUT预设1/iPhone 专用lut-合集1/iPhone 标准版合集1(log)/柯达5213.cube
TITLE "Generated by Resolve"
LUT_3D_SIZE 9
0.0360723 0.0411688 0.0419623
0.0459754 0.0395361 0.0392615
0.113619 0.0411231 0.0316777
0.250446 0.0465248 0.0380407
0.353536 0.0487373 0.0424506
0.360998 0.0475471 0.0431525
0.360998 0.0475471 0.0431525
0.360998 0.0475471 0.0431525
0.360998 0.0475471 0.0431525
0.0353094 0.0475319 0.0451209
0.039704 0.0465248 0.0437018
0.10428 0.0439765 0.0327916
0.233875 0.0458534 0.0371557
0.339834 0.0488899 0.0420844
0.360998 0.0475471 0.0431525
0.360998 0.0475471 0.0431525
0.360998 0.0475471 0.0431525
0.360998 0.0475471 0.0431525
0.0313878 0.101061 0.0664836
0.0314488 0.0976272 0.0647593
0.140429 0.14197 0.0695659
0.4206 0.117449 0.0487221
0.472892 0.0727703 0.048127
0.434272 0.0597086 0.0467079
0.401587 0.0531319 0.0452583
0.391394 0.0514687 0.04477
0.408057 0.0543221 0.0455482
0.0394293 0.212329 0.107744
0.0391394 0.210071 0.107683
0.0534981 0.216022 0.107164
0.450828 0.360616 0.1243
0.697795 0.26981 0.0855573
0.691615 0.163241 0.0617838
0.653895 0.135927 0.0585336
0.62594 0.118883 0.0565194
0.640803 0.126101 0.0573892
0.088716 0.386709 0.172717
0.087068 0.385718 0.172061
0.0787671 0.370443 0.166735
0.280583 0.465003 0.22948
0.802533 0.619791 0.263752
0.91783 0.550271 0.203693
0.899565 0.476829 0.155459
0.882185 0.432853 0.131426
0.89134 0.455817 0.14374
0.380407 0.611536 0.277943
0.38172 0.612207 0.278248
0.34757 0.5944 0.269993
0.396048 0.614862 0.282933
0.74638 0.753445 0.444404
0.954513 0.80528 0.51548
0.963577 0.79295 0.499947
0.962661 0.774365 0.466468
0.963272 0.783261 0.481468
0.529503 0.67657 0.305943
0.529503 0.67657 0.305943
0.529503 0.67657 0.305943
0.561242 0.689509 0.311803
0.745007 0.785657 0.452033
0.931487 0.841794 0.574289
0.963989 0.84686 0.61059
0.963989 0.846677 0.610132
0.963989 0.846677 0.610147
0.529503 0.67657 0.305943
0.529503 0.67657 0.305943
0.529503 0.67657 0.305943
0.532372 0.677699 0.30631
0.708217 0.764263 0.404105
0.881163 0.83209 0.55668
0.963821 0.846769 0.609567
0.963989 0.84686 0.61059
0.963989 0.84686 0.61059
0.529503 0.67657 0.305943
0.529503 0.67657 0.305943
0.529503 0.67657 0.305943
0.539803 0.680598 0.307256
0.725093 0.774182 0.425147
0.901167 0.836423 0.563363
0.963973 0.84686 0.610544
0.963989 0.84686 0.61059
0.963989 0.84686 0.61059
0.032578 0.037705 0.0441749
0.047303 0.038407 0.0493477
0.115068 0.0389258 0.0403296
0.249653 0.0450904 0.0380102
0.351843 0.0483558 0.0423133
0.360922 0.0475319 0.0431525
0.360998 0.0475471 0.0431525
0.360998 0.0475471 0.0431525
0.360998 0.0475471 0.0431525
0.0344396 0.0473182 0.0487526
0.0380865 0.0454871 0.0461585
0.0985122 0.0423133 0.0334783
0.226658 0.0450904 0.036759
0.347539 0.0491646 0.0421454
0.360998 0.0475471 0.0431525
0.360998 0.0475471 0.0431525
0.360998 0.0475471 0.0431525
0.360998 0.0475471 0.0431525
0.0313268 0.0999161 0.0665293
0.0314183 0.096788 0.0645151
0.132906 0.139605 0.0692302
0.415259 0.115343 0.0482948
0.469398 0.0720836 0.0478981
0.450568 0.0632944 0.0474403
0.425238 0.057847 0.0463417
0.406104 0.0541238 0.0454261
0.410758 0.0547646 0.0456703
0.039353 0.211749 0.107836
0.0390631 0.209415 0.107561
0.0483864 0.21207 0.105653
0.442695 0.358282 0.123903
0.695399 0.270039 0.0857252
0.690654 0.16286 0.0617533
0.652674 0.135439 0.0584726
0.624231 0.118242 0.0564126
0.639933 0.125338 0.0573281
0.0885023 0.386847 0.172702
0.0869459 0.385534 0.172
0.0788281 0.370123 0.166751
0.272419 0.461707 0.227588
0.796613 0.617395 0.262654
0.916335 0.549111 0.204776
0.898466 0.475578 0.155978
0.880095 0.430182 0.131365
0.889677 0.452476 0.142412
0.381064 0.611841 0.278096
0.381994 0.611887 0.278019
0.347646 0.59443 0.269993
0.390799 0.612329 0.280858
0.740459 0.751339 0.441932
0.954055 0.805402 0.515206
0.963638 0.792798 0.499275
0.962737 0.773709 0.464668
0.963149 0.781231 0.477989
0.529503 0.67657 0.305943
0.529503 0.67657 0.305943
0.529503 0.67657 0.305943
0.558099 0.688212 0.311162
0.743069 0.784466 0.449042
0.92903 0.841459 0.573236
0.963989 0.84686 0.61059
0.963989 0.846708 0.610208
0.963989 0.846693 0.610147
0.529503 0.67657 0.305943
0.529503 0.67657 0.305943
0.529503 0.67657 0.305943
0.532158 0.677607 0.306279
0.704509 0.761975 0.39968
0.876249 0.831037 0.55491
0.963806 0.846754 0.609506
0.963989 0.84686 0.61059
0.963989 0.84686 0.61059
0.529503 0.67657 0.305943
0.529503 0.67657 0.305943
0.529503 0.67657 0.305943
0.537758 0.679805 0.306996
0.720836 0.771618 0.419501
0.893858 0.834897 0.561181
0.963973 0.84686 0.610544
0.963989 0.84686 0.61059
0.963989 0.84686 0.61059
0.0290684 0.0304112 0.0611429
0.0363317 0.0309148 0.0729839
0.105791 0.034699 0.110414
0.218448 0.038941 0.0964981
0.298497 0.0399481 0.0438087
0.302037 0.0400702 0.0386206
0.308309 0.040589 0.0387121
0.315373 0.0413367 0.0392157
0.308263 0.0406195 0.0386053
0.0291447 0.0337224 0.0647593
0.0303349 0.0327916 0.0639963
0.102205 0.0354467 0.101625
0.210986 0.0387884 0.0838331
0.297795 0.0398566 0.0413367
0.304875 0.0402838 0.038468
0.312306 0.0409857 0.0388952
0.318593 0.0415198 0.0394446
0.314168 0.0411231 0.0390478
0.0317235 0.102144 0.13901
0.0315862 0.099733 0.136843
0.0875257 0.104891 0.121813
0.353567 0.0892805 0.071458
0.455634 0.0569467 0.0480964
0.410391 0.0528878 0.0451362
0.386862 0.0501717 0.0442206
0.376684 0.0491188 0.0438697
0.383871 0.0501717 0.0441596
0.0368048 0.219471 0.144945
0.0366674 0.217517 0.145022
0.0409705 0.210758 0.128939
0.414481 0.343786 0.129656
0.682246 0.259251 0.0852827
0.681529 0.154269 0.0608682
0.658625 0.139055 0.0588693
0.6486 0.130526 0.0579232
0.661494 0.141009 0.0591287
0.0842145 0.381582 0.17322
0.0830549 0.380179 0.171695
0.0766461 0.365316 0.165469
0.246204 0.447333 0.220508
0.780529 0.60734 0.256336
0.912001 0.540078 0.198825
0.893202 0.46331 0.149828
0.874281 0.418006 0.126101
0.883467 0.439094 0.1364
0.367956 0.605081 0.274952
0.369223 0.605447 0.275059
0.336812 0.588769 0.267384
0.367514 0.600931 0.273625
0.722454 0.742061 0.430579
0.952087 0.80296 0.509453
0.963455 0.788235 0.490822
0.962646 0.76907 0.455573
0.962936 0.775799 0.467872
0.529503 0.67657 0.305943
0.529503 0.67657 0.305943
0.529503 0.67657 0.305943
0.551415 0.68542 0.309682
0.737346 0.781292 0.441428
0.922667 0.84033 0.570916
0.963989 0.84686 0.61059
0.964004 0.846586 0.609918
0.964004 0.846601 0.609934
0.529503 0.67657 0.305943
0.529503 0.67657 0.305943
0.529503 0.67657 0.305943
0.530846 0.677089 0.306111
0.698283 0.758206 0.392432
0.867582 0.82916 0.551598
0.963729 0.846708 0.609049
0.963989 0.84686 0.61059
0.963989 0.84686 0.61059
0.529503 0.67657 0.305943
0.529503 0.67657 0.305943
0.529503 0.67657 0.305943
0.533898 0.678264 0.306386
0.713573 0.767193 0.409735
0.882383 0.832425 0.557122
0.963973 0.84686 0.610513
0.963989 0.84686 0.61059
0.963989 0.84686 0.61059
0.0284581 0.0285954 0.0715648
0.0293736 0.0289464 0.0789197
0.0569314 0.0319219 0.124865
0.137057 0.0337224 0.144961
0.248631 0.0394293 0.131395
0.279179 0.0408179 0.0996262
0.28687 0.0410315 0.0903182
0.2907 0.0411078 0.0835431
0.286366 0.0410468 0.0906233
0.0285954 0.0289006 0.0747387
0.0287022 0.0289311 0.0754101
0.0538491 0.0318761 0.121798
0.131563 0.0337377 0.139696
0.251637 0.0395666 0.131655
0.284123 0.0409705 0.0935378
0.289616 0.0410163 0.0841077
0.29308 0.0409552 0.0765087
0.290944 0.041062 0.0823224
0.0330358 0.055848 0.164355
0.0325933 0.0531472 0.156893
0.040528 0.0583963 0.17293
0.247761 0.0437934 0.203037
0.340658 0.0434424 0.148745
0.325872 0.0419623 0.0751812
0.311437 0.0412299 0.0643626
0.305455 0.0407721 0.0562905
0.309728 0.041062 0.0610056
0.0416266 0.265187 0.33994
0.0414282 0.260746 0.336278
0.0407721 0.247395 0.320287
0.287907 0.299596 0.303944
0.608743 0.206683 0.192065
0.601907 0.0869917 0.0682383
0.577508 0.0746929 0.0585031
0.558389 0.0690776 0.0553902
0.570001 0.0728771 0.0563821
0.0644694 0.430137 0.340047
0.0641184 0.431189 0.343221
0.0607462 0.415045 0.328267
0.152453 0.448936 0.299962
0.729915 0.596674 0.311543
0.892134 0.502052 0.216754
0.869673 0.415534 0.148867
0.856748 0.386648 0.126619
0.884001 0.440009 0.143389
0.371466 0.628641 0.337591
0.375647 0.630823 0.340719
0.334051 0.610483 0.329488
0.3337 0.602686 0.309071
0.693507 0.732692 0.421439
0.949615 0.799588 0.496132
0.963134 0.780697 0.474556
0.962325 0.760967 0.439429
0.962646 0.767361 0.450202
0.538415 0.68188 0.313207
0.547387 0.687099 0.320333
0.544518 0.68542 0.318029
0.552178 0.687083 0.314458
0.730907 0.777173 0.430426
0.912322 0.83827 0.567117
0.963989 0.84686 0.610574
0.964004 0.846372 0.609354
0.964004 0.846418 0.609491
0.531945 0.678019 0.307912
0.531197 0.677577 0.307332
0.530312 0.677058 0.3066
0.530175 0.67686 0.306142
0.689158 0.752773 0.382544
0.855619 0.826459 0.54667
0.963561 0.846616 0.608087
0.963989 0.84686 0.61059
0.963989 0.84686 0.61059
0.538766 0.682048 0.31342
0.538796 0.682063 0.313436
0.534401 0.679469 0.309895
0.533516 0.678386 0.307271
0.704372 0.761486 0.397482
0.867521 0.829099 0.551247
0.963851 0.846784 0.609766
0.963989 0.84686 0.61059
0.963989 0.84686 0.61059
0.0296635 0.0296941 0.0919509
0.0297704 0.0298009 0.0941024
0.038117 0.0314794 0.139361
0.0956741 0.0334325 0.173968
0.180041 0.0349126 0.187778
0.255116 0.039353 0.175814
0.256168 0.0394903 0.165652
0.25684 0.0395819 0.159884
0.256184 0.0394903 0.166995
0.0297551 0.0297704 0.093492
0.0297398 0.0297551 0.0931868
0.0348974 0.0310674 0.129763
0.0915541 0.0332341 0.169558
0.171939 0.0345312 0.183124
0.25658 0.0395209 0.168872
0.256672 0.0395666 0.15967
0.257206 0.0396582 0.154437
0.256794 0.0395972 0.15903
0.0327916 0.0364996 0.157794
0.0323491 0.0347448 0.148699
0.0340124 0.035996 0.178485
0.133547 0.0379034 0.240024
0.215213 0.0367742 0.203449
0.277211 0.0406043 0.15935
0.266529 0.0401617 0.146471
0.26244 0.0400244 0.139132
0.265095 0.040116 0.143832
0.0474861 0.245136 0.453437
0.0473945 0.242359 0.450782
0.0463569 0.222324 0.43064
0.0966812 0.245121 0.436683
0.493187 0.178576 0.419379
0.543969 0.0629435 0.250385
0.504753 0.0526894 0.191745
0.47364 0.0500801 0.167681
0.488518 0.0511482 0.18088
0.0686809 0.496635 0.569558
0.0690471 0.497642 0.573159
0.0660716 0.484108 0.562158
0.0996262 0.50695 0.55938
0.568292 0.566644 0.537758
0.80856 0.432822 0.39089
0.806332 0.356542 0.297765
0.784649 0.307057 0.243977
0.795727 0.328939 0.262791
0.375708 0.691508 0.520211
0.37792 0.692546 0.523522
0.339696 0.677699 0.516869
0.302266 0.663355 0.508644
0.574029 0.724361 0.494652
0.942199 0.807584 0.539605
0.962615 0.793545 0.515084
0.961852 0.775372 0.489067
0.961456 0.778347 0.49633
0.630213 0.754208 0.466804
0.629862 0.754055 0.467887
0.63386 0.754482 0.463355
0.642664 0.755062 0.453437
0.699351 0.77467 0.45922
0.923278 0.834195 0.532326
0.96669 0.831098 0.535943
0.966537 0.832029 0.54023
0.966613 0.831571 0.538109
0.651713 0.753277 0.4336
0.649744 0.752239 0.43209
0.645884 0.748867 0.423529
0.64094 0.744167 0.411048
0.716213 0.77023 0.416159
0.858961 0.82359 0.518959
0.965148 0.837385 0.564141
0.965026 0.840955 0.58204
0.965103 0.840543 0.580102
0.641016 0.755413 0.457694
0.643931 0.755535 0.454032
0.646311 0.753735 0.443168
0.648875 0.750637 0.42649
0.720333 0.773465 0.423728
0.86978 0.825467 0.519875
0.965347 0.837018 0.562707
0.964858 0.841932 0.586664
0.964782 0.842359 0.588617
0.0296635 0.0296941 0.0921645
0.0297246 0.0297398 0.0931411
0.035111 0.0312657 0.133974
0.090547 0.0339208 0.178134
0.153323 0.0337072 0.196414
0.24448 0.0382086 0.20557
0.24448 0.0382086 0.20557
0.24448 0.0382086 0.20557
0.24448 0.0382086 0.20557
0.0297246 0.0297551 0.0933089
0.0297246 0.0297551 0.0931868
0.0333715 0.0309606 0.125246
0.0854353 0.0339361 0.176226
0.142962 0.0335699 0.194553
0.24448 0.0382086 0.20557
0.24448 0.0382086 0.20557
0.24448 0.0382086 0.205554
0.24448 0.0382086 0.20557
0.0325322 0.0340734 0.148775
0.0322576 0.0332341 0.143084
0.0330053 0.0335546 0.158999
0.0936141 0.0372625 0.233219
0.151659 0.0351263 0.214496
0.25977 0.0387427 0.216495
0.249821 0.0384375 0.208713
0.247364 0.0383459 0.206668
0.24889 0.0383917 0.207874
0.047364 0.214893 0.461387
0.0472877 0.213886 0.459403
0.0463111 0.19118 0.436744
0.0545205 0.196399 0.469749
0.331914 0.147829 0.476432
0.454078 0.0579843 0.426291
0.431983 0.0474861 0.376059
0.410925 0.0456092 0.338109
0.41883 0.046128 0.354818
0.0655528 0.476005 0.665858
0.0658579 0.477028 0.665873
0.0639963 0.462165 0.654398
0.0662699 0.454398 0.654658
0.386831 0.573007 0.691936
0.68632 0.533761 0.680812
0.705943 0.482887 0.666239
0.698695 0.402869 0.628824
0.700755 0.437675 0.644892
0.257511 0.725261 0.750759
0.258228 0.724132 0.750103
0.246067 0.716335 0.742748
0.219547 0.698634 0.734203
0.404166 0.741405 0.74406
0.773144 0.751446 0.724575
0.891661 0.734051 0.695537
0.891127 0.716182 0.673518
0.892927 0.722866 0.675685
0.322515 0.743206 0.716579
0.32549 0.743893 0.718151
0.331258 0.743465 0.710231
0.343008 0.742748 0.695048
0.402335 0.762539 0.719341
0.78352 0.827832 0.709209
0.935149 0.8551 0.733089
0.942382 0.853117 0.716838
0.941039 0.852399 0.720195
0.382757 0.742184 0.656977
0.382605 0.742 0.655344
0.40441 0.742 0.638102
0.433906 0.741955 0.614588
0.44802 0.74609 0.616373
0.722103 0.806668 0.626734
0.955139 0.852735 0.653269
0.95906 0.85008 0.637064
0.958114 0.849928 0.639231
0.336553 0.743053 0.702113
0.344854 0.74284 0.694102
0.364981 0.742535 0.674113
0.39942 0.742428 0.642771
0.425895 0.747723 0.639261
0.734707 0.811261 0.637034
0.954818 0.851789 0.648463
0.960815 0.847333 0.620615
0.961776 0.846357 0.613764
0.0296635 0.0296941 0.0921645
0.0296788 0.0297093 0.0925002
0.0336156 0.0310521 0.128099
0.0863508 0.0339055 0.176455
0.140673 0.0332341 0.194217
0.24448 0.0382086 0.20557
0.24448 0.0382086 0.20557
0.24448 0.0382086 0.20557
0.24448 0.0382086 0.20557
0.0296788 0.0297093 0.0923629
0.0296635 0.0296941 0.0922713
0.0323491 0.0307622 0.119997
0.0806897 0.0338598 0.173861
0.135256 0.0334936 0.192782
0.24448 0.0382086 0.20557
0.24448 0.0382086 0.20557
0.24448 0.0382086 0.20557
0.24448 0.0382086 0.20557
0.0319371 0.032639 0.136751
0.0317998 0.0323339 0.13402
0.0323033 0.032517 0.144915
0.0819104 0.0364233 0.219593
0.13875 0.0346685 0.206348
0.254673 0.0385443 0.213886
0.247822 0.0383459 0.207797
0.245686 0.0382544 0.206378
0.246952 0.0383154 0.207218
0.0465248 0.196201 0.442084
0.0464637 0.195834 0.44062
0.0453956 0.173297 0.415915
0.0514382 0.175158 0.452125
0.310353 0.136019 0.463661
0.428382 0.0513161 0.412146
0.406455 0.046128 0.368017
0.382513 0.0441291 0.335409
0.392813 0.0449073 0.348898
0.0642863 0.464866 0.661006
0.0644999 0.465904 0.661646
0.0629892 0.450217 0.650752
0.0627604 0.435325 0.651453
0.339895 0.558816 0.693553
0.67747 0.545876 0.692683
0.679286 0.485695 0.673274
0.651057 0.4168 0.648417
0.661479 0.44509 0.658396
0.250309 0.723018 0.773053
0.249714 0.722133 0.772671
0.237232 0.713466 0.770291
0.21529 0.696056 0.765637
0.468238 0.758862 0.789014
0.796551 0.786404 0.805203
0.860502 0.79968 0.807523
0.856413 0.793805 0.8038
0.856916 0.794873 0.804501
0.288411 0.747677 0.779507
0.288411 0.747677 0.779492
0.288411 0.747677 0.779492
0.288472 0.747646 0.779461
0.423178 0.781231 0.795346
0.729549 0.83093 0.823453
0.87187 0.834714 0.815198
0.895354 0.826658 0.805814
0.896132 0.827604 0.805356
0.288533 0.747677 0.779385
0.288899 0.747692 0.779095
0.289143 0.747707 0.778881
0.289815 0.747738 0.778317
0.335637 0.759518 0.783291
0.685435 0.828748 0.81677
0.830884 0.842496 0.772396
0.920653 0.859159 0.790143
0.920516 0.859129 0.790341
0.288441 0.747677 0.779461
0.288472 0.747677 0.779446
0.288518 0.747677 0.779416
0.288655 0.747677 0.779309
0.349874 0.763439 0.785489
0.690959 0.829404 0.81651
0.832242 0.843183 0.771344
0.92224 0.859419 0.78677
0.922957 0.859541 0.785306
0.0296635 0.0296941 0.0921645
0.0296635 0.0296941 0.092256
0.0326085 0.0308843 0.123369
0.0825055 0.0338598 0.174578
0.135714 0.0333104 0.193027
0.24448 0.0382086 0.20557
0.24448 0.0382086 0.20557
0.24448 0.0382086 0.20557
0.24448 0.0382086 0.20557
0.0296635 0.0296941 0.0921645
0.0296635 0.0296941 0.0921645
0.031693 0.0306249 0.115709
0.0765393 0.0337682 0.171664
0.13051 0.0335241 0.191257
0.24448 0.0382086 0.20557
0.24448 0.0382086 0.20557
0.24448 0.0382086 0.20557
0.24448 0.0382086 0.20557
0.0314946 0.0315709 0.127626
0.0314641 0.031693 0.127092
0.0318914 0.0320592 0.135973
0.0733349 0.0357214 0.20856
0.132433 0.0344854 0.202304
0.249256 0.0383307 0.211627
0.247517 0.0383307 0.207584
0.245441 0.0382544 0.20621
0.246509 0.0383001 0.206928
0.0458076 0.181842 0.425513
0.0457923 0.182055 0.42504
0.0446174 0.159854 0.399008
0.049134 0.158892 0.437736
0.295521 0.128115 0.452659
0.412634 0.0487831 0.398779
0.397635 0.0453803 0.356313
0.374685 0.0436561 0.324834
0.38497 0.0444343 0.33875
0.0632486 0.455497 0.654521
0.0635996 0.456489 0.655116
0.0619059 0.440375 0.64416
0.0609445 0.423163 0.642512
0.287709 0.532464 0.681147
0.659739 0.527001 0.684825
0.669291 0.460563 0.664256
0.64036 0.389563 0.638712
0.650187 0.415274 0.647776
0.240101 0.715389 0.770794
0.241337 0.716197 0.771008
0.22681 0.705699 0.768017
0.20209 0.68687 0.762982
0.443549 0.751751 0.785763
0.791684 0.785 0.804608
0.8589 0.798154 0.806729
0.855039 0.792996 0.803464
0.85594 0.794095 0.804135
0.288396 0.747677 0.779507
0.288396 0.747677 0.779507
0.288396 0.747677 0.779507
0.28809 0.747463 0.779446
0.40795 0.777691 0.793729
0.719661 0.82739 0.826062
0.865553 0.832715 0.830014
0.882322 0.828229 0.825147
0.882322 0.828305 0.825269
0.288396 0.747677 0.779507
0.288396 0.747677 0.779507
0.288396 0.747677 0.779507
0.288396 0.747677 0.779507
0.329702 0.758144 0.783963
0.678508 0.828489 0.825132
0.813184 0.845304 0.836286
0.899901 0.855451 0.845457
0.900008 0.855482 0.845319
0.288396 0.747677 0.779507
0.288396 0.747677 0.779507
0.288396 0.747677 0.779507
0.288396 0.747677 0.779507
0.340032 0.760876 0.785153
0.682216 0.829023 0.825483
0.809125 0.844816 0.836011
0.899672 0.855421 0.845045
0.90016 0.855512 0.844388
0.0296635 0.0296941 0.0921645
0.0296635 0.0296941 0.092256
0.0327153 0.0308995 0.123842
0.0829938 0.0338598 0.174807
0.136507 0.0333104 0.193271
0.24448 0.0382086 0.20557
0.24448 0.0382086 0.20557
0.24448 0.0382086 0.20557
0.24448 0.0382086 0.20557
0.0296635 0.0296941 0.0921645
0.0296635 0.0296941 0.092195
0.031693 0.0306249 0.115663
0.0765698 0.0337682 0.17171
0.130846 0.0335241 0.191302
0.24448 0.0382086 0.20557
0.24448 0.0382086 0.20557
0.24448 0.0382086 0.20557
0.24448 0.0382086 0.20557
0.0315404 0.0316167 0.128847
0.0316014 0.0320439 0.12987
0.0319829 0.0322423 0.138033
0.0736095 0.0358434 0.211124
0.135531 0.0346838 0.205341
0.250645 0.0383612 0.212894
0.2486 0.0383612 0.208316
0.245945 0.0382696 0.206546
0.247028 0.0383154 0.207263
0.0460517 0.187152 0.431174
0.0460059 0.186908 0.430335
0.0448768 0.164202 0.404593
0.0489967 0.164034 0.44303
0.298558 0.133837 0.458015
0.417853 0.0492714 0.405097
0.402213 0.0456703 0.362585
0.379614 0.043946 0.331136
0.391379 0.0449378 0.347524
0.0637827 0.459388 0.657084
0.0641337 0.459602 0.657145
0.0622721 0.443915 0.646586
0.0613565 0.426947 0.645228
0.291066 0.537972 0.683894
0.664714 0.536004 0.688258
0.674784 0.473823 0.669017
0.646143 0.40473 0.644068
0.657526 0.434684 0.654688
0.243 0.717418 0.771374
0.244846 0.718807 0.771771
0.228214 0.706584 0.768215
0.205249 0.689219 0.763668
0.442832 0.751766 0.785733
0.790906 0.785626 0.80499
0.857786 0.79704 0.806134
0.855528 0.793591 0.80383
0.856764 0.795087 0.804746
0.288396 0.747677 0.779507
0.288396 0.747677 0.779507
0.288396 0.747677 0.779507
0.288106 0.747463 0.779446
0.407355 0.777523 0.793652
0.719417 0.827482 0.826062
0.864561 0.83299 0.830137
0.882734 0.82884 0.825589
0.882628 0.828748 0.825559
0.288396 0.747677 0.779507
0.288396 0.747677 0.779507
0.288396 0.747677 0.779507
0.288396 0.747677 0.779507
0.328298 0.757778 0.783795
0.676844 0.82826 0.824994
0.81178 0.845151 0.836194
0.899825 0.855436 0.845518
0.899962 0.855467 0.845548
0.288396 0.747677 0.779507
0.288396 0.747677 0.779507
0.288396 0.747677 0.779507
0.288396 0.747677 0.779507
0.338689 0.76051 0.784985
0.680293 0.828794 0.82536
0.806287 0.844495 0.835828
0.899229 0.855344 0.845396
0.899962 0.855467 0.845548
