LUT预设1/富士LUT改款/709机型使用/富士ASTIA-709.cube
TITLE "Generated by Resolve"
LUT_3D_SIZE 5
0 0.0534829 0.0487068
0.172137 0.0597086 0.0130922
0.555871 0.095964 0.014786
0.918044 0.0923934 0.275502
1 0.107576 0.521126
0 0.38822 0.0338293
0.290745 0.314946 0
0.686732 0.290578 0.0466163
0.910185 0.281544 0.181186
1 0.275181 0.402487
0.000350958 0.718196 0.106249
0.161135 0.642359 0.0576333
0.569192 0.590768 0
0.889693 0.568566 0.0722057
1 0.543832 0.330312
0.0690166 0.955047 0.169787
0.127764 0.927947 0.15259
0.481407 0.879042 0.0710918
0.85539 0.850187 0.0421454
1 0.820432 0.103517
0.123705 1 0.197101
0.144015 1 0.192691
0.417533 1 0.132998
0.83978 1 0.0605936
1 0.979339 0.0777752
0 0.0272068 0.174792
0.289693 0.0168917 0.201892
0.84445 0.0715343 0.355169
1 0.104891 0.547127
1 0.114961 0.596857
0 0.42742 0.449287
0.2448 0.295964 0.30869
0.57882 0.287892 0.234379
0.799786 0.272465 0.233341
0.96733 0.241413 0.363256
0.000946059 0.76762 0.346075
0.090547 0.665278 0.285557
0.540459 0.586694 0.204761
0.865919 0.560327 0.308293
1 0.548196 0.479774
0.0921492 0.989197 0.209155
0.0924392 0.953872 0.240223
0.41973 0.889158 0.167071
0.832593 0.857969 0.14612
1 0.822873 0.324346
0.125322 1 0.198245
0.125078 1 0.198047
0.262928 1 0.17084
0.755673 1 0.0667887
1 1 0.0901503
0 0.000808728 0.346044
0.395987 0.0150454 0.374105
1 0.0945754 0.615213
1 0.11931 0.817685
1 0.17467 0.815183
0 0.321096 0.823819
0.185916 0.215427 0.622934
0.701503 0.171283 0.604395
0.965988 0.181918 0.668986
1 0.185138 0.799039
0 0.780804 0.848219
0 0.693172 0.751553
0.48188 0.559884 0.594797
0.78526 0.572473 0.512581
0.95964 0.544549 0.542275
0.0775616 0.974121 0.715496
0.0689097 0.952239 0.684764
0.300816 0.871305 0.62295
0.797192 0.836561 0.552804
1 0.815167 0.642542
0.123339 1 0.301411
0.122347 1 0.363622
0.182773 1 0.449027
0.654292 1 0.382193
0.987243 1 0.395972
0.00209049 0.0643931 0.706706
0.127443 0.0579538 0.742107
0.958068 0.0852064 0.761547
1 0.128588 0.93547
1 0.2645 0.800534
0.00762951 0.0974289 0.86894
0.165408 0.0794537 0.818097
0.852689 0.0805371 0.845136
1 0.117586 0.955047
1 0.172305 0.95317
0 0.6766 1
0 0.589029 0.99646
0.403754 0.475608 0.855131
0.858549 0.420478 0.83772
1 0.417807 0.872404
0.0434577 0.992493 1
0.0298619 0.955856 1
0.140581 0.886946 0.968948
0.732341 0.810895 0.84831
0.984207 0.812268 0.816159
0.0941176 1 0.900587
0.0940261 1 0.904921
0.0947433 1 0.897963
0.482658 1 0.822583
0.940322 0.987106 0.77174
0.016968 0.112596 0.971008
0.0184176 0.113146 0.974365
0.197574 0.0854353 0.920851
1 0.12134 1
1 0.253162 0.882475
0.0167544 0.112474 0.969848
0.0169833 0.112566 0.970611
0.564172 0.0723278 0.915938
1 0.125002 1
1 0.26041 0.884978
0 0.162249 0.957824
0 0.211307 0.966461
0.336446 0.205982 0.96495
0.961669 0.192782 1
1 0.195819 1
0.00427253 0.87126 1
0.0053254 0.876005 1
0 0.818799 1
0.662104 0.7346 1
1 0.694652 1
0.0879835 1 1
0.0868391 1 1
0.0775006 1 1
0.17525 1 1
0.870436 0.946715 0.980117
