LUT预设1/富士LUT改款/709机型使用/富士CN-709.cube
TITLE "Generated by Resolve"
LUT_3D_SIZE 33
0 0 0
0 0 0
0 0.00300603 0
0.0209812 0.0105898 0
0.0474403 0.0159304 0
0.0675364 0.020325 0
0.085771 0.0242771 0
0.107973 0.0286107 0
0.13225 0.0330663 0
0.158465 0.0378271 0
0.190433 0.0435035 0
0.225772 0.0499886 0
0.267582 0.0580911 0
0.316808 0.0682689 0
0.366201 0.078706 0
0.429145 0.0938125 0
0.487663 0.107683 0
0.547448 0.122332 0
0.600702 0.135775 0
0.646754 0.148608 0
0.688609 0.160067 0.000610361
0.723125 0.170535 0.0207065
0.754101 0.179294 0.0463722
0.781308 0.186725 0.0874189
0.806989 0.195575 0.115389
0.832059 0.204273 0.137316
0.854948 0.213123 0.155261
0.873884 0.222736 0.170352
0.892424 0.231891 0.18436
0.910643 0.240696 0.197742
0.923522 0.250187 0.208347
0.935882 0.259571 0.218448
0.947997 0.268696 0.228244
0 0.0264897 0.0171206
0 0.0296178 0.0171054
0 0.0312505 0.0155184
0.0250553 0.0298772 0.0100862
0.0490578 0.032639 0.00675975
0.0707256 0.0363775 0
0.094316 0.0403601 0
0.120302 0.0446632 0
0.146929 0.05066 0
0.177859 0.0576181 0
0.211231 0.0648203 0
0.249973 0.0726329 0
0.294499 0.08159 0
0.340246 0.0906996 0
0.39794 0.102129 0
0.45185 0.112566 0
0.513893 0.125582 0
0.570489 0.137301 0
0.62092 0.149111 0
0.666926 0.160021 0
0.70547 0.170169 0.00251774
0.7393 0.179294 0.0154421
0.771298 0.18761 0.0293126
0.797436 0.1944 0.0786145
0.823346 0.202365 0.106615
0.84889 0.210346 0.128115
0.869139 0.218585 0.147158
0.887816 0.22681 0.164614
0.906294 0.234806 0.180743
0.922072 0.243076 0.194507
0.933745 0.252094 0.205493
0.945312 0.260807 0.216022
0.957229 0.269566 0.226505
0 0.0477302 0.0353857
0 0.0496986 0.0345159
0 0.0513161 0.0324102
0.0331579 0.0495308 0.0252232
0.0569467 0.0525368 0.022797
0.0798657 0.0568704 0.0211948
0.105287 0.0618296 0.0182498
0.131136 0.067216 0.0127718
0.162387 0.0739605 0
0.193866 0.0802167 0
0.230381 0.086305 0
0.268681 0.0936599 0
0.311009 0.102449 0
0.360113 0.111986 0
0.411826 0.121843 0
0.46952 0.132876 0
0.52697 0.144015 0
0.581369 0.154879 0
0.632136 0.165362 0
0.677607 0.174762 0
0.715068 0.18323 0.000808728
0.75079 0.191135 0.00984207
0.783215 0.198627 0.0236515
0.809567 0.204639 0.0696727
0.836286 0.211597 0.098024
0.861036 0.218601 0.119051
0.880018 0.225528 0.1411
0.898833 0.232395 0.160372
0.917433 0.239139 0.177874
0.930434 0.246921 0.190921
0.941695 0.254795 0.202304
0.952987 0.262516 0.213291
0.963073 0.270069 0.223209
0 0.0757153 0.0545052
0 0.0779126 0.0538186
0.00894179 0.0759747 0.0480049
0.0396887 0.0754864 0.0431373
0.064622 0.0774853 0.0398108
0.0931258 0.0806439 0.0354009
0.119661 0.0851911 0.0314031
0.149386 0.0914626 0.029099
0.178103 0.0977798 0.0257115
0.210895 0.104143 0.0220951
0.243778 0.110704 0.0148013
0.284352 0.1187 0
0.32604 0.125917 0
0.375845 0.134112 0
0.425589 0.142199 0
0.484428 0.151904 0
0.536965 0.161135 0
0.591104 0.171145 0
0.63975 0.180163 0
0.682979 0.188388 0
0.72108 0.196017 0
0.757412 0.203113 0.00331121
0.789273 0.210269 0.0190127
0.816892 0.216159 0.0564126
0.84361 0.221897 0.0876326
0.866743 0.227909 0.111238
0.88632 0.233799 0.135317
0.905791 0.239765 0.154955
0.924392 0.245853 0.172824
0.93576 0.252735 0.185641
0.947219 0.259632 0.197726
0.958846 0.266468 0.209598
0.96698 0.273716 0.219471
0 0.105516 0.0750744
0 0.108324 0.0740368
0.0184787 0.105257 0.0668956
0.0452125 0.105531 0.0630503
0.075288 0.107988 0.0591592
0.101366 0.111223 0.0556191
0.13228 0.115236 0.0512398
0.161074 0.119341 0.0463417
0.193088 0.123964 0.042237
0.222583 0.129061 0.0379492
0.259754 0.135149 0.0333715
0.29369 0.140749 0.0259556
0.341207 0.148775 0.0102693
0.383841 0.155749 0
0.438148 0.164202 0
0.489876 0.172091 0
0.54165 0.180423 0
0.592523 0.188952 0
0.640406 0.197116 0
0.682551 0.204608 0
0.72221 0.211856 0
0.760372 0.218906 0
0.79144 0.225223 0.0175021
0.820218 0.230747 0.0442054
0.846891 0.235233 0.0784466
0.869398 0.24007 0.105028
0.890135 0.245167 0.129122
0.910414 0.250217 0.148516
0.927275 0.255497 0.165316
0.939025 0.261067 0.179217
0.951003 0.266712 0.192523
0.962753 0.272465 0.205219
0.969329 0.279454 0.215671
0 0.141192 0.0991226
0 0.142565 0.0975509
0.0160525 0.139513 0.0915389
0.0536202 0.138323 0.0849165
0.0796979 0.140032 0.0810712
0.109087 0.142351 0.076051
0.137392 0.144884 0.0716869
0.167742 0.148028 0.0667124
0.197009 0.151278 0.0610819
0.231678 0.154894 0.0553292
0.265278 0.158511 0.0488899
0.306188 0.163439 0.0413519
0.347967 0.168917 0.0307927
0.394232 0.175814 0.0107729
0.444846 0.183246 0
0.490181 0.189761 0
0.541848 0.197589 0
0.591363 0.205356 0
0.637812 0.21294 0
0.680125 0.22005 0
0.720607 0.226993 0
0.758022 0.233478 0.00030518
0.788952 0.239185 0.0167391
0.818723 0.244205 0.0387884
0.846815 0.248432 0.0707561
0.86865 0.252506 0.0996109
0.890196 0.257053 0.122011
0.911818 0.261631 0.14139
0.927321 0.2663 0.1579
0.93991 0.271107 0.172915
0.952605 0.275914 0.187121
0.963149 0.281361 0.200092
0.970108 0.287892 0.211429
0 0.177615 0.125032
0 0.17818 0.122774
0.0205997 0.172992 0.11397
0.0520485 0.170657 0.107607
0.0801251 0.170489 0.102342
0.110063 0.171283 0.09691
0.138338 0.172534 0.0915847
0.16791 0.174533 0.0860151
0.19791 0.17644 0.079942
0.231373 0.178561 0.0730907
0.264515 0.180819 0.0658274
0.305699 0.184543 0.0574807
0.342855 0.188174 0.0489815
0.390707 0.193576 0.0419165
0.436225 0.199039 0.0326543
0.482322 0.205982 0.0142061
0.534279 0.213642 0.0043946
0.582376 0.220874 0
0.627756 0.227832 0
0.670573 0.234714 0
0.712077 0.241428 0
0.74902 0.247501 0.00495918
0.781262 0.252918 0.0196689
0.812406 0.257694 0.041886
0.841062 0.261891 0.0699321
0.8645 0.26627 0.0954604
0.88809 0.270878 0.116045
0.911543 0.2757 0.133944
0.925917 0.279866 0.151034
0.939895 0.28423 0.167224
0.953902 0.288609 0.182452
0.963302 0.29369 0.195209
0.970977 0.29926 0.206928
0 0.210925 0.148562
0 0.210254 0.145037
0.0128328 0.205814 0.137057
0.0452888 0.201007 0.129
0.0783246 0.198871 0.122118
0.104768 0.197955 0.116487
0.135363 0.197986 0.110384
0.164218 0.198398 0.104326
0.195056 0.198932 0.0976577
0.225345 0.199802 0.0909743
0.258915 0.201068 0.0834058
0.295827 0.203204 0.0752728
0.33193 0.205417 0.0667887
0.379629 0.209766 0.0589609
0.423301 0.214328 0.0503395
0.472114 0.220142 0.0422522
0.523232 0.227054 0.0327764
0.571847 0.234852 0.011017
0.618418 0.241657 0.00637827
0.662104 0.248386 0.0053254
0.704448 0.254948 0.00425727
0.741543 0.260838 0.0113985
0.775219 0.266117 0.0250248
0.80708 0.270481 0.0489357
0.836072 0.275166 0.0704356
0.861555 0.279698 0.0928206
0.886625 0.284398 0.111162
0.910002 0.289281 0.128359
0.925017 0.293095 0.146532
0.940124 0.297261 0.163302
0.95523 0.301335 0.179019
0.963378 0.306111 0.19118
0.971664 0.311025 0.202869
0 0.240101 0.168856
0 0.238834 0.164431
0 0.236271 0.15903
0.0416266 0.228428 0.148074
0.0717021 0.22533 0.141161
0.0977646 0.223316 0.135256
0.129015 0.222034 0.128618
0.156619 0.22118 0.122499
0.187167 0.220661 0.115801
0.215839 0.220279 0.109194
0.248905 0.220691 0.101732
0.282963 0.221653 0.0937209
0.318532 0.223331 0.0856184
0.363516 0.226429 0.0773175
0.404852 0.229801 0.0689555
0.454292 0.235004 0.0614023
0.504997 0.240986 0.0536049
0.55227 0.246967 0.0435492
0.599939 0.253697 0.0386969
0.645762 0.260716 0.0306859
0.689891 0.268101 0.0167544
0.726955 0.273625 0.0271916
0.762081 0.278508 0.0456703
0.796307 0.283848 0.0560311
0.825742 0.288823 0.0743114
0.853376 0.293858 0.093019
0.880766 0.298985 0.109331
0.903487 0.303655 0.126574
0.921141 0.307668 0.144778
0.938766 0.311849 0.161501
0.953399 0.316045 0.176272
0.962768 0.320409 0.188632
0.972168 0.324727 0.200488
0 0.26894 0.187152
0 0.266392 0.182498
0 0.263432 0.177996
0.0334936 0.25449 0.166934
0.0617227 0.249607 0.159655
0.0894942 0.245945 0.152712
0.119753 0.243366 0.145586
0.147585 0.241306 0.138888
0.177493 0.24004 0.13225
0.205249 0.238941 0.125673
0.237064 0.238743 0.118456
0.268818 0.239002 0.110918
0.302892 0.239994 0.103227
0.345022 0.242023 0.0944686
0.384176 0.244419 0.0858473
0.433722 0.248829 0.0777447
0.483711 0.254078 0.0695506
0.530785 0.259541 0.0606699
0.58175 0.266148 0.0558328
0.62948 0.272908 0.0499886
0.674907 0.279744 0.0429847
0.714214 0.285664 0.0492103
0.751873 0.291478 0.0549935
0.788754 0.297414 0.0603799
0.819409 0.302663 0.078172
0.849241 0.308125 0.0940414
0.878859 0.313695 0.1084
0.900572 0.317983 0.126879
0.920043 0.322072 0.1449
0.939773 0.326436 0.161852
0.952773 0.330465 0.175616
0.962936 0.334325 0.187793
0.973297 0.338201 0.199695
0 0.293324 0.203021
0 0.290547 0.19884
0 0.287938 0.195071
0.0234836 0.279805 0.184909
0.0528115 0.273579 0.176791
0.0816358 0.269215 0.169421
0.109575 0.265904 0.162417
0.136294 0.26305 0.155596
0.166522 0.261112 0.148653
0.19443 0.259358 0.141802
0.225467 0.258564 0.134859
0.256016 0.257923 0.127672
0.288838 0.258061 0.120165
0.327993 0.259342 0.111864
0.365255 0.260853 0.103441
0.412604 0.264454 0.0953231
0.460975 0.268788 0.0871595
0.507942 0.273564 0.0787823
0.559823 0.27985 0.0730755
0.609216 0.28629 0.0669261
0.655344 0.292851 0.0616922
0.696696 0.299062 0.0641947
0.736996 0.305425 0.0665141
0.774731 0.311559 0.0711223
0.807233 0.317449 0.0853285
0.838666 0.323415 0.0979477
0.868757 0.329198 0.110872
0.891035 0.333776 0.128832
0.913329 0.338552 0.145663
0.935058 0.343297 0.161227
0.947356 0.34699 0.174655
0.959762 0.35082 0.187594
0.971862 0.354635 0.200046
0 0.319127 0.218845
0 0.315526 0.214618
0 0.312154 0.210513
0.00944533 0.306615 0.203693
0.0442359 0.297551 0.193332
0.0732433 0.291951 0.185504
0.0979477 0.287739 0.178775
0.124285 0.284108 0.171801
0.154986 0.2813 0.164263
0.1832 0.27895 0.157076
0.214008 0.277272 0.150103
0.243198 0.276081 0.143328
0.274815 0.275578 0.136187
0.311498 0.276234 0.12813
0.346197 0.277241 0.12018
0.391485 0.280003 0.112169
0.438224 0.283497 0.103883
0.483726 0.287663 0.0959335
0.536522 0.293538 0.0895552
0.58703 0.299855 0.0820478
0.634424 0.306279 0.0767529
0.67892 0.312978 0.0766308
0.721386 0.319753 0.0766155
0.760479 0.326329 0.0813764
0.795575 0.332586 0.0917372
0.829587 0.338872 0.101167
0.859648 0.344701 0.114595
0.885466 0.349981 0.131167
0.910704 0.3552 0.146532
0.931182 0.359792 0.161135
0.94551 0.363348 0.175219
0.959777 0.366873 0.188632
0.97116 0.370459 0.201419
0 0.342367 0.233738
0 0.338125 0.229343
0 0.334188 0.224964
0.00213626 0.329976 0.219608
0.0339361 0.320912 0.209567
0.0644846 0.314458 0.201099
0.087129 0.30988 0.194583
0.113756 0.305791 0.187488
0.144228 0.302403 0.179614
0.171389 0.299794 0.17258
0.202182 0.297475 0.165377
0.230762 0.29572 0.158816
0.261509 0.29482 0.151843
0.296117 0.294957 0.144121
0.329137 0.29546 0.136522
0.372747 0.297444 0.12871
0.417227 0.30045 0.121111
0.461662 0.303883 0.113313
0.515312 0.309606 0.105623
0.566094 0.315587 0.0979171
0.615137 0.321996 0.092958
0.66157 0.328695 0.0908827
0.706401 0.335592 0.0892195
0.746578 0.342473 0.0932479
0.784192 0.349248 0.100984
0.820371 0.355825 0.107622
0.850568 0.361883 0.120851
0.878401 0.367849 0.135546
0.905592 0.373709 0.14905
0.923858 0.377935 0.163607
0.940337 0.382025 0.177935
0.956817 0.386084 0.191592
0.966873 0.389578 0.203906
0 0.368109 0.24892
0 0.364233 0.244862
0 0.360327 0.240452
0.000595102 0.355764 0.235264
0.0279545 0.347036 0.225956
0.0590829 0.339635 0.216999
0.0799878 0.334371 0.210391
0.105806 0.329824 0.203204
0.133608 0.32575 0.19559
0.158679 0.322316 0.188403
0.189899 0.319524 0.18117
0.218906 0.31725 0.17435
0.249409 0.315923 0.167376
0.282795 0.315496 0.160067
0.31458 0.31545 0.152926
0.357 0.316915 0.145418
0.4 0.319356 0.138399
0.443717 0.322499 0.13109
0.496422 0.327703 0.123186
0.547753 0.333364 0.114916
0.596948 0.339513 0.109453
0.645258 0.346151 0.106249
0.691905 0.353063 0.103243
0.732967 0.359976 0.106203
0.772351 0.366903 0.110491
0.809873 0.373754 0.114839
0.840497 0.38024 0.127993
0.870481 0.386633 0.140108
0.898161 0.392554 0.152285
0.917586 0.397009 0.167361
0.936782 0.401373 0.181582
0.953262 0.405478 0.194781
0.964401 0.408682 0.206744
0 0.393896 0.264195
0 0.389456 0.259922
0 0.385412 0.255619
0 0.380377 0.250553
0.0153811 0.373968 0.243778
0.0523995 0.363958 0.232853
0.0717479 0.358053 0.2262
0.0969558 0.353033 0.218738
0.122393 0.348501 0.211261
0.146227 0.34461 0.204257
0.178241 0.341238 0.196765
0.207675 0.33846 0.18967
0.238376 0.336797 0.18291
0.270527 0.335927 0.175998
0.300649 0.335836 0.169604
0.342565 0.337194 0.162554
0.383566 0.339162 0.155718
0.427329 0.342061 0.14847
0.479652 0.346944 0.140352
0.529946 0.352224 0.131945
0.580255 0.358282 0.126146
0.630137 0.364904 0.121798
0.678233 0.371893 0.117708
0.720409 0.378927 0.119478
0.760952 0.386221 0.121431
0.798886 0.39321 0.12578
0.831907 0.400168 0.136248
0.864149 0.406973 0.145998
0.890654 0.412879 0.15848
0.912612 0.417884 0.172976
0.934051 0.42298 0.186404
0.949004 0.426719 0.199008
0.961807 0.429953 0.210925
0 0.418753 0.279057
0 0.414771 0.275044
0 0.411185 0.270985
0 0.406851 0.266423
0.0121157 0.401495 0.260395
0.0473487 0.391608 0.249744
0.0654917 0.386053 0.243351
0.0911421 0.380743 0.235798
0.113848 0.37615 0.228763
0.137087 0.372168 0.222065
0.1682 0.368826 0.21474
0.196368 0.36585 0.207767
0.227253 0.363943 0.201038
0.2589 0.362829 0.194369
0.289189 0.361807 0.187808
0.330602 0.362615 0.18056
0.370108 0.364096 0.173739
0.414282 0.366491 0.166232
0.466056 0.370672 0.158129
0.515724 0.37525 0.150057
0.567086 0.381064 0.144411
0.617914 0.387442 0.139406
0.666468 0.394278 0.135149
0.70959 0.401114 0.134997
0.751781 0.408148 0.134997
0.78996 0.415167 0.139025
0.82414 0.422263 0.146609
0.858 0.429084 0.15375
0.883711 0.434852 0.166491
0.908064 0.440574 0.179522
0.930526 0.445792 0.191745
0.945022 0.449165 0.203845
0.959594 0.452262 0.215457
0 0.449226 0.295811
0 0.444846 0.29163
0 0.441184 0.287739
0 0.436927 0.283574
0.0118868 0.431479 0.27776
0.0432746 0.421912 0.267765
0.0598917 0.416114 0.261692
0.0847639 0.410376 0.2542
0.104631 0.405524 0.247807
0.128069 0.401022 0.241032
0.1579 0.397192 0.233524
0.185046 0.393744 0.226459
0.216587 0.391287 0.219409
0.247852 0.389441 0.212512
0.279423 0.38793 0.205615
0.319203 0.388327 0.198337
0.357 0.388907 0.19118
0.402228 0.390951 0.183597
0.452796 0.394446 0.175784
0.501671 0.398367 0.167865
0.553964 0.404196 0.162417
0.605707 0.410315 0.156695
0.654505 0.416861 0.152239
0.699351 0.423774 0.150515
0.743221 0.430945 0.148745
0.781491 0.438254 0.152407
0.817273 0.445441 0.157595
0.851377 0.452399 0.163729
0.878431 0.458747 0.17586
0.904936 0.464942 0.18706
0.92607 0.469627 0.198535
0.942336 0.473213 0.210391
0.95845 0.476738 0.221973
0 0.479561 0.312749
0 0.475364 0.30901
0 0.470954 0.304906
0 0.466636 0.300786
0.0105592 0.461372 0.295766
0.0357824 0.452842 0.287312
0.0555581 0.446662 0.280537
0.0778821 0.441291 0.273686
0.0959029 0.436469 0.26746
0.120577 0.432029 0.260456
0.148516 0.42826 0.253254
0.173114 0.424796 0.246464
0.205951 0.422156 0.239124
0.236973 0.420111 0.232181
0.270069 0.41857 0.22504
0.308415 0.418585 0.217548
0.34522 0.418753 0.210208
0.392065 0.420737 0.202396
0.441474 0.423835 0.194553
0.48983 0.427573 0.187091
0.543893 0.433082 0.180957
0.596139 0.438895 0.17467
0.64535 0.445441 0.170596
0.692103 0.452049 0.168093
0.737896 0.458717 0.165286
0.776196 0.465705 0.168887
0.813397 0.472526 0.172244
0.846738 0.478859 0.178271
0.875166 0.485313 0.18764
0.903197 0.491432 0.196506
0.922606 0.495537 0.208011
0.940307 0.499214 0.219089
0.956176 0.502785 0.230716
0 0.512001 0.330831
0 0.508446 0.327184
0 0.504997 0.323888
0.00180056 0.50135 0.320455
0.0135958 0.496864 0.315816
0.0348058 0.489555 0.308202
0.0564736 0.482582 0.300633
0.076051 0.476951 0.29398
0.0917525 0.47245 0.288304
0.115694 0.46743 0.281209
0.138842 0.463371 0.274632
0.161471 0.459525 0.268223
0.195254 0.456245 0.260319
0.226307 0.453635 0.253101
0.261067 0.451637 0.245319
0.298314 0.450629 0.23743
0.333654 0.450248 0.229725
0.382757 0.451972 0.221576
0.43032 0.454383 0.213733
0.479622 0.457771 0.206226
0.534813 0.462715 0.199344
0.587976 0.467994 0.192477
0.637797 0.47396 0.188479
0.686412 0.480262 0.185199
0.732128 0.486595 0.183062
0.771389 0.493202 0.185
0.809857 0.499672 0.18706
0.842573 0.506371 0.193027
0.872877 0.512688 0.200259
0.900557 0.518608 0.208118
0.920348 0.522942 0.219043
0.939956 0.527199 0.229679
0.954528 0.530495 0.241337
0 0.547723 0.350561
0.000274662 0.544305 0.347478
0.00244144 0.54078 0.344381
0.00669871 0.537331 0.340871
0.0158694 0.532723 0.336339
0.0279393 0.527367 0.330861
0.0555886 0.518486 0.321614
0.0728313 0.5131 0.315282
0.0864271 0.508217 0.309514
0.108217 0.50309 0.302953
0.126406 0.49868 0.297017
0.150958 0.494713 0.290211
0.184726 0.491249 0.282124
0.214527 0.488518 0.274784
0.250584 0.486427 0.266575
0.287343 0.48513 0.258595
0.324681 0.484565 0.250629
0.372885 0.486046 0.242283
0.418769 0.488029 0.23418
0.470069 0.491432 0.226581
0.52575 0.49604 0.218952
0.578714 0.501045 0.211734
0.630274 0.506966 0.207843
0.680552 0.513054 0.204028
0.726299 0.519173 0.202457
0.767468 0.525246 0.20351
0.808362 0.531304 0.204227
0.840284 0.537499 0.209751
0.871962 0.543359 0.215045
0.898192 0.548562 0.222736
0.919783 0.553017 0.232593
0.94081 0.557351 0.242191
0.953933 0.559808 0.25304
0.00415045 0.583261 0.371069
0.00567636 0.580301 0.368292
0.00689708 0.576959 0.365286
0.0116579 0.573617 0.3617
0.0189212 0.569619 0.357641
0.0275273 0.565103 0.35285
0.0566415 0.556786 0.343496
0.0717174 0.551873 0.337835
0.086656 0.547082 0.332082
0.106279 0.542443 0.325826
0.12282 0.538369 0.319966
0.147478 0.534386 0.3131
0.174289 0.530846 0.305867
0.198215 0.527489 0.299001
0.237995 0.524956 0.290181
0.27512 0.52311 0.281849
0.31577 0.522316 0.273274
0.362081 0.522911 0.264378
0.405631 0.524025 0.256123
0.461204 0.526848 0.247761
0.516884 0.5308 0.239689
0.57084 0.535378 0.232685
0.62443 0.540429 0.227726
0.676875 0.545937 0.222736
0.722148 0.551492 0.2215
0.765423 0.557092 0.221393
0.805707 0.562768 0.222446
0.839109 0.568597 0.226444
0.872267 0.574319 0.230137
0.897185 0.579461 0.238193
0.920577 0.584161 0.246784
0.940307 0.588144 0.255802
0.954665 0.590723 0.265492
0.0119936 0.619699 0.392325
0.0127413 0.61677 0.38938
0.0132448 0.614145 0.386526
0.0181277 0.611337 0.383337
0.0231785 0.607675 0.379446
0.0325628 0.603525 0.374716
0.0577096 0.595911 0.3664
0.070222 0.59115 0.361105
0.0859541 0.586435 0.355184
0.103441 0.582025 0.349142
0.11751 0.578195 0.343633
0.139422 0.573953 0.336965
0.159167 0.570108 0.330526
0.184619 0.566812 0.323522
0.22565 0.563485 0.314031
0.262242 0.561425 0.305776
0.305425 0.560586 0.296941
0.349325 0.5608 0.288334
0.394217 0.561349 0.279423
0.451225 0.564309 0.270771
0.506355 0.567514 0.26183
0.56112 0.571893 0.254887
0.616693 0.576608 0.248447
0.670329 0.581872 0.24239
0.716899 0.586999 0.241077
0.762539 0.592477 0.239765
0.802243 0.59794 0.241093
0.838209 0.603342 0.24416
0.872206 0.60856 0.247944
0.897658 0.613153 0.255177
0.923064 0.617655 0.262058
0.941253 0.620554 0.270283
0.956939 0.623117 0.278813
0.0200504 0.655573 0.413321
0.0199741 0.653437 0.410773
0.0205692 0.651118 0.407843
0.0236515 0.64863 0.404974
0.0269932 0.645624 0.401633
0.0414893 0.64033 0.395666
0.0595407 0.634318 0.38912
0.069688 0.630304 0.384176
0.0864271 0.625849 0.378225
0.101488 0.621988 0.372686
0.116167 0.618112 0.366995
0.13611 0.614328 0.360723
0.154009 0.611002 0.355047
0.182025 0.607645 0.347616
0.215045 0.604547 0.339605
0.243961 0.602426 0.332296
0.291386 0.600855 0.322408
0.335363 0.600473 0.313359
0.38471 0.600885 0.303929
0.440528 0.602792 0.294255
0.493645 0.605264 0.284764
0.552102 0.609232 0.276829
0.609979 0.613428 0.268788
0.663783 0.617914 0.262837
0.713054 0.622904 0.260502
0.762493 0.627741 0.257649
0.80116 0.632761 0.25977
0.839521 0.637629 0.261769
0.872053 0.642466 0.26569
0.899306 0.647013 0.271504
0.925765 0.651301 0.27718
0.942824 0.653834 0.284855
0.960021 0.656336 0.292256
0.0305486 0.690044 0.433738
0.0301671 0.688167 0.430976
0.031754 0.686259 0.428351
0.0344701 0.68394 0.425422
0.0370794 0.681254 0.42211
0.0548714 0.675761 0.415702
0.0641031 0.672282 0.411215
0.0728771 0.668681 0.406531
0.0873884 0.664714 0.401099
0.0994583 0.66157 0.396521
0.115267 0.657664 0.390921
0.132128 0.654444 0.385428
0.147585 0.651591 0.380331
0.174075 0.648157 0.373068
0.198337 0.64535 0.36611
0.230259 0.642969 0.358282
0.27808 0.640833 0.348165
0.320729 0.639673 0.338872
0.37351 0.639872 0.328664
0.427405 0.641184 0.318639
0.480858 0.643275 0.308904
0.541909 0.646586 0.299519
0.600275 0.650477 0.290227
0.654414 0.654826 0.284703
0.707591 0.659495 0.280217
0.756878 0.664271 0.277134
0.798413 0.668742 0.277806
0.839933 0.673533 0.278523
0.871717 0.677684 0.282643
0.901747 0.681987 0.287175
0.926635 0.685206 0.292576
0.945647 0.68777 0.299565
0.963867 0.690166 0.306798
0.0501259 0.721477 0.451606
0.0482795 0.720394 0.449271
0.0505684 0.718547 0.446662
0.0518654 0.717128 0.444358
0.0542611 0.715129 0.441337
0.0620737 0.711818 0.436988
0.0679942 0.709285 0.433524
0.0772106 0.706111 0.429343
0.088777 0.702892 0.425055
0.0984665 0.699687 0.420447
0.115526 0.6963 0.415061
0.130526 0.693263 0.409949
0.147189 0.690211 0.404211
0.171084 0.687221 0.397696
0.192798 0.684642 0.391272
0.227909 0.681971 0.382788
0.267079 0.680003 0.373922
0.304234 0.678737 0.365301
0.359335 0.678447 0.354406
0.410376 0.679316 0.344259
0.468116 0.681208 0.333608
0.530098 0.683925 0.32282
0.589487 0.687587 0.312398
0.646952 0.691737 0.305928
0.703532 0.6963 0.299367
0.753277 0.700374 0.296376
0.798215 0.704479 0.295735
0.839918 0.708629 0.295903
0.872618 0.712535 0.299641
0.905333 0.716701 0.303151
0.927886 0.719387 0.309209
0.948852 0.721874 0.315557
0.965438 0.723522 0.322683
0.0662547 0.753185 0.470695
0.0659648 0.751873 0.468147
0.0666056 0.750729 0.465965
0.0669566 0.749218 0.46363
0.0695201 0.747677 0.461189
0.0730144 0.745846 0.458518
0.0757916 0.744183 0.455863
0.0839857 0.741558 0.452201
0.0917372 0.739391 0.448478
0.100237 0.736919 0.444358
0.116136 0.733822 0.439139
0.128832 0.73135 0.434394
0.146288 0.728405 0.428733
0.166033 0.725887 0.422721
0.183749 0.723781 0.417227
0.219211 0.720806 0.408484
0.251621 0.718547 0.400351
0.292409 0.717113 0.391165
0.344381 0.716335 0.38027
0.391531 0.716686 0.370352
0.454536 0.718029 0.358587
0.515343 0.720348 0.347082
0.574884 0.723705 0.337316
0.636133 0.727504 0.328557
0.695476 0.731868 0.320226
0.745739 0.73579 0.317678
0.794934 0.739956 0.315038
0.836576 0.743679 0.315145
0.87277 0.747463 0.317464
0.905852 0.750713 0.320195
0.929137 0.753277 0.325856
0.952682 0.755627 0.331243
0.967346 0.75642 0.338262
0.0792248 0.78468 0.490501
0.079118 0.783795 0.48864
0.0791791 0.783032 0.487007
0.0790112 0.782086 0.485115
0.0803998 0.78114 0.48333
0.0814374 0.779904 0.481025
0.0838788 0.778317 0.478218
0.090074 0.77641 0.474968
0.0953994 0.774655 0.471504
0.105486 0.772381 0.467414
0.118608 0.769909 0.462684
0.129 0.767681 0.458183
0.147539 0.764858 0.452369
0.164843 0.762463 0.44683
0.185992 0.760296 0.440726
0.215122 0.757717 0.433036
0.240818 0.755795 0.4262
0.284367 0.754009 0.416388
0.327855 0.75317 0.407019
0.375326 0.753079 0.396918
0.437659 0.754208 0.384665
0.495491 0.756298 0.373266
0.561028 0.75938 0.362554
0.625971 0.763287 0.351995
0.686381 0.767315 0.343587
0.740551 0.770748 0.338888
0.794202 0.774365 0.333516
0.83331 0.777615 0.334524
0.872923 0.780972 0.335088
0.904051 0.783444 0.337911
0.929793 0.785702 0.342245
0.952697 0.787305 0.347036
0.967605 0.787961 0.353185
0.0919966 0.815641 0.511421
0.0921492 0.814786 0.509819
0.0921645 0.813977 0.507851
0.0923934 0.813123 0.505898
0.0932174 0.812329 0.504036
0.0938277 0.811521 0.501778
0.0963607 0.810559 0.49926
0.0998245 0.809277 0.496483
0.102754 0.808392 0.493797
