LUT预设1/富士LUT改款/709机型使用/富士CN-709.cube
TITLE "Generated by Resolve"
LUT_3D_SIZE 9
0 0 0
0.0474403 0.0159304 0
0.13225 0.0330663 0
0.267582 0.0580911 0
0.487663 0.107683 0
0.688609 0.160067 0.000610361
0.806989 0.195575 0.115389
0.892424 0.231891 0.18436
0.947997 0.268696 0.228244
0 0.105516 0.0750744
0.075288 0.107988 0.0591592
0.193088 0.123964 0.042237
0.341207 0.148775 0.0102693
0.54165 0.180423 0
0.72221 0.211856 0
0.846891 0.235233 0.0784466
0.927275 0.255497 0.165316
0.969329 0.279454 0.215671
0 0.240101 0.168856
0.0717021 0.22533 0.141161
0.187167 0.220661 0.115801
0.318532 0.223331 0.0856184
0.504997 0.240986 0.0536049
0.689891 0.268101 0.0167544
0.825742 0.288823 0.0743114
0.921141 0.307668 0.144778
0.972168 0.324727 0.200488
0 0.342367 0.233738
0.0339361 0.320912 0.209567
0.144228 0.302403 0.179614
0.261509 0.29482 0.151843
0.417227 0.30045 0.121111
0.615137 0.321996 0.092958
0.784192 0.349248 0.100984
0.905592 0.373709 0.14905
0.966873 0.389578 0.203906
0 0.449226 0.295811
0.0118868 0.431479 0.27776
0.104631 0.405524 0.247807
0.216587 0.391287 0.219409
0.357 0.388907 0.19118
0.553964 0.404196 0.162417
0.743221 0.430945 0.148745
0.878431 0.458747 0.17586
0.95845 0.476738 0.221973
0.00415045 0.583261 0.371069
0.0189212 0.569619 0.357641
0.086656 0.547082 0.332082
0.174289 0.530846 0.305867
0.31577 0.522316 0.273274
0.516884 0.5308 0.239689
0.722148 0.551492 0.2215
0.872267 0.574319 0.230137
0.954665 0.590723 0.265492
0.0501259 0.721477 0.451606
0.0542611 0.715129 0.441337
0.088777 0.702892 0.425055
0.147189 0.690211 0.404211
0.267079 0.680003 0.373922
0.468116 0.681208 0.333608
0.703532 0.6963 0.299367
0.872618 0.712535 0.299641
0.965438 0.723522 0.322683
0.105043 0.845197 0.532113
0.104982 0.843671 0.525383
0.111894 0.840238 0.515312
0.149126 0.833509 0.499626
0.229923 0.825422 0.476646
0.394278 0.821408 0.439338
0.655238 0.830655 0.392432
0.864088 0.842313 0.371069
0.967025 0.846204 0.380758
0.141543 0.939223 0.604761
0.141329 0.939635 0.597665
0.141405 0.938186 0.590494
0.153384 0.93547 0.582284
0.198306 0.930144 0.564553
0.307195 0.922621 0.533715
0.535912 0.921462 0.485939
0.803555 0.932586 0.441199
0.94641 0.93608 0.434073
0 0.0175174 0.0466011
0.0566415 0.0265354 0.038941
0.140383 0.0416114 0.0341344
0.276646 0.0675822 0.0260319
0.500587 0.117571 0.00360113
0.697444 0.165209 0.00862135
0.81767 0.198489 0.116472
0.903105 0.233234 0.184894
0.955962 0.269856 0.228717
0 0.123171 0.127657
0.0905318 0.125536 0.115419
0.196399 0.141665 0.112154
0.33843 0.161105 0.100435
0.533471 0.188495 0.0754406
0.706889 0.216831 0.055848
0.831022 0.239139 0.0996414
0.913848 0.258427 0.16791
0.960937 0.280842 0.215808
0 0.260349 0.240894
0.0850843 0.241352 0.207752
0.199725 0.234699 0.180423
0.332464 0.23566 0.153613
0.500771 0.249531 0.129412
0.675792 0.271717 0.107973
0.812375 0.292821 0.117556
0.908003 0.311482 0.166171
0.961913 0.328496 0.215366
0 0.362158 0.303593
0.0495766 0.33724 0.271901
0.157351 0.318563 0.240162
0.27599 0.309789 0.210727
0.436942 0.313146 0.180392
0.633692 0.332265 0.155932
0.793179 0.356588 0.155322
0.907179 0.378363 0.182895
0.965652 0.393286 0.227909
0 0.471412 0.364721
0.0343175 0.448325 0.338659
0.114504 0.424445 0.308858
0.230335 0.409094 0.277882
0.372778 0.404959 0.247745
0.575723 0.419699 0.218631
0.765774 0.444495 0.206226
0.893629 0.467918 0.226963
0.964904 0.482216 0.263401
0.0145571 0.604486 0.443366
0.0398718 0.587762 0.422568
0.0991226 0.567376 0.396612
0.184741 0.550607 0.369329
0.334035 0.541772 0.335378
0.5355 0.548882 0.301488
0.738186 0.567437 0.282704
0.885283 0.587411 0.28719
0.962356 0.599924 0.315511
0.0695811 0.735241 0.526207
0.0727855 0.728939 0.515007
0.100984 0.717937 0.498161
0.160388 0.705806 0.475013
0.280812 0.695552 0.442756
0.48658 0.696254 0.400778
0.720745 0.710567 0.366583
0.883207 0.724804 0.364279
0.970336 0.732906 0.380682
0.116213 0.855848 0.617517
0.11577 0.853803 0.608164
0.123064 0.84947 0.596246
0.157443 0.843 0.580194
0.24239 0.834363 0.554513
0.403906 0.830137 0.516152
0.668605 0.838651 0.467033
0.870863 0.849226 0.442588
0.972015 0.852461 0.446113
0.146593 0.943832 0.691295
0.145892 0.943099 0.683742
0.145724 0.941421 0.675532
0.158495 0.93814 0.664485
0.202319 0.933089 0.646265
0.31603 0.923903 0.614679
0.547494 0.923278 0.565194
0.812589 0.93518 0.518395
0.950408 0.938796 0.506584
0 0.0371099 0.0902724
0.0664073 0.0393835 0.0788586
0.16199 0.055314 0.0841077
0.306172 0.0829023 0.0944686
0.520195 0.128099 0.0903639
0.703243 0.170611 0.0924086
0.824826 0.203281 0.139635
0.909453 0.23473 0.192355
0.960952 0.269261 0.230243
0 0.143053 0.187762
0.107378 0.145495 0.177584
0.215793 0.159396 0.175021
0.352987 0.176623 0.167361
0.53547 0.200702 0.149691
0.704036 0.226368 0.138064
0.828321 0.247929 0.15111
0.912383 0.265934 0.194751
0.961013 0.286839 0.233951
0 0.281224 0.321767
0.0991684 0.259342 0.281285
0.212543 0.250935 0.249027
0.329183 0.251179 0.224247
0.492592 0.261631 0.19791
0.666712 0.281071 0.175677
0.802701 0.301381 0.175021
0.899031 0.320104 0.20383
0.955657 0.337697 0.241825
0 0.386206 0.389471
0.0604562 0.357885 0.347509
0.171313 0.336248 0.307485
0.291188 0.325978 0.273777
0.451469 0.327459 0.242847
0.633066 0.344656 0.222782
0.788144 0.366903 0.217899
0.90222 0.387671 0.233005
0.959823 0.402564 0.268772
0 0.497444 0.450462
0.0467231 0.470619 0.414633
0.12491 0.44538 0.378225
0.24625 0.429206 0.344472
0.391821 0.424231 0.312917
0.602075 0.437568 0.282673
0.784543 0.459236 0.271565
0.901137 0.478889 0.286717
0.966628 0.49131 0.313848
0.0314336 0.626169 0.529458
0.0572976 0.608667 0.503548
0.111345 0.589258 0.475944
0.198199 0.572305 0.444953
0.35346 0.56347 0.408988
0.556527 0.568627 0.372229
0.758038 0.584283 0.35082
0.899214 0.600153 0.351583
0.970382 0.608667 0.374228
0.085359 0.751232 0.618692
0.0884871 0.745113 0.603037
0.11339 0.734447 0.583322
0.174899 0.722164 0.557565
0.296239 0.712047 0.524865
0.507118 0.712825 0.482338
0.736278 0.725475 0.446387
0.894896 0.737453 0.437385
0.975952 0.742702 0.445792
0.127489 0.866865 0.711391
0.126268 0.864759 0.700084
0.132815 0.860227 0.687343
0.166033 0.85301 0.669535
0.25449 0.843641 0.641794
0.421134 0.838697 0.602045
0.682887 0.846983 0.553216
0.878187 0.857084 0.525795
0.975296 0.858839 0.520272
0.152132 0.948501 0.781842
0.151125 0.947433 0.772503
0.150851 0.945693 0.763561
0.163348 0.942275 0.753033
0.208682 0.936339 0.734554
0.324468 0.925994 0.700923
0.559716 0.925521 0.650614
0.819272 0.937789 0.603861
0.955001 0.942 0.58645
0 0.0520638 0.129976
0.0832074 0.0559091 0.125154
0.186496 0.0745098 0.143343
0.340505 0.103456 0.164996
0.550881 0.144869 0.169177
0.71368 0.181735 0.173236
0.82974 0.211521 0.192813
0.911147 0.240116 0.224094
0.960815 0.272251 0.247547
0.00975052 0.164584 0.2551
0.130068 0.169131 0.249271
0.235233 0.181933 0.250751
0.378836 0.196155 0.243091
0.555261 0.217151 0.225681
0.707454 0.239658 0.214313
0.825025 0.259434 0.219059
0.910445 0.277348 0.244205
0.961486 0.298863 0.271046
0 0.30222 0.413901
0.119661 0.279423 0.3691
0.227558 0.270695 0.331411
0.35227 0.268482 0.298726
0.50428 0.277119 0.270314
0.666484 0.294484 0.249943
0.799268 0.313664 0.247654
0.897948 0.331807 0.266346
0.956909 0.350881 0.293202
0 0.413108 0.494423
0.0800488 0.380865 0.443381
0.187793 0.358434 0.395102
0.306828 0.346105 0.353674
0.450233 0.347768 0.324269
0.628122 0.361639 0.299931
0.784405 0.381872 0.290913
0.897978 0.400992 0.299474
0.956207 0.416541 0.325109
0.0107576 0.527184 0.556695
0.059205 0.499397 0.516762
0.135836 0.472816 0.473762
0.265721 0.453376 0.429984
0.416571 0.447791 0.392981
0.619471 0.459174 0.363485
0.789685 0.478187 0.352682
0.90164 0.495232 0.358801
0.965408 0.506218 0.376669
0.0610819 0.649805 0.634226
0.0700236 0.635706 0.607553
0.122042 0.615702 0.573144
0.216052 0.596674 0.53489
0.376974 0.586954 0.496086
0.580987 0.590753 0.458442
0.779782 0.60354 0.432776
0.912047 0.615076 0.428779
0.975769 0.620432 0.442771
0.101274 0.770657 0.722606
0.101869 0.764279 0.703197
0.124193 0.754223 0.680613
0.190753 0.740581 0.651286
0.31606 0.729534 0.616495
0.530205 0.730495 0.573541
0.752453 0.741726 0.535775
0.907515 0.751461 0.520241
0.982513 0.752605 0.521172
0.13727 0.878737 0.809918
0.13547 0.876326 0.796094
0.142092 0.871962 0.780423
0.172549 0.864576 0.762219
0.26659 0.8542 0.733593
0.443366 0.847715 0.692485
0.699489 0.856016 0.644251
0.886244 0.865644 0.61416
0.978317 0.866499 0.600977
0.158816 0.952239 0.871122
0.157824 0.95198 0.860349
0.157427 0.950988 0.849882
0.168017 0.947723 0.839429
0.216968 0.93991 0.820798
0.334066 0.929122 0.787411
0.573053 0.928588 0.737713
0.825162 0.940276 0.692485
0.959609 0.945541 0.670344
0.0276188 0.0655833 0.175799
0.110216 0.0785229 0.187076
0.216144 0.0986038 0.214755
0.376257 0.127138 0.240223
0.585016 0.164706 0.250462
0.734813 0.198306 0.256001
0.841382 0.225132 0.26804
0.912886 0.250751 0.283207
0.958343 0.281804 0.292317
0.0631876 0.188312 0.340841
0.155871 0.199054 0.346487
0.259953 0.208759 0.345968
0.404669 0.218097 0.33492
0.584009 0.235767 0.315022
0.726665 0.255909 0.30042
0.829877 0.273396 0.298009
0.908171 0.290425 0.309361
0.959319 0.314168 0.325078
0.0505074 0.315755 0.506462
0.143999 0.304646 0.472221
0.246433 0.295415 0.430549
0.370672 0.290425 0.391562
0.534722 0.296361 0.360357
0.686137 0.311299 0.336904
0.805615 0.328603 0.3299
0.900221 0.345098 0.340246
0.958892 0.365316 0.358801
0.0105287 0.439017 0.605997
0.105425 0.405692 0.55079
0.209766 0.38436 0.498009
0.326329 0.370886 0.450172
0.480186 0.369467 0.412207
0.645457 0.382376 0.38677
0.788403 0.40029 0.376867
0.89897 0.417853 0.38027
0.957382 0.433875 0.398352
0.0418097 0.556069 0.673777
0.0855879 0.5299 0.632471
0.166552 0.50396 0.585306
0.2878 0.483986 0.535744
0.441505 0.475364 0.490959
0.622507 0.485878 0.464332
0.787762 0.502388 0.44715
0.901488 0.516258 0.443976
0.966217 0.525536 0.452781
0.0794995 0.679072 0.749218
0.0881819 0.665644 0.722988
0.140673 0.646494 0.686809
0.239597 0.626322 0.642649
0.402716 0.613962 0.597177
0.606607 0.616022 0.557122
0.795621 0.626657 0.530678
0.916197 0.63682 0.523934
0.97705 0.640711 0.527123
0.115953 0.79585 0.830732
0.11664 0.788632 0.811627
0.134508 0.778256 0.78732
0.204929 0.762188 0.7523
0.340276 0.749279 0.712337
0.555657 0.749569 0.670237
0.770214 0.759228 0.63331
0.921141 0.766094 0.609934
0.988052 0.764202 0.60412
0.146593 0.891752 0.9028
0.145174 0.888777 0.889342
0.151492 0.884352 0.872328
0.180774 0.877241 0.851987
0.277775 0.865766 0.820874
0.466987 0.858335 0.779782
0.716533 0.866072 0.734462
0.89514 0.874708 0.703365
0.981491 0.874479 0.684947
0.166079 0.957259 0.950622
0.165087 0.95668 0.940902
0.164874 0.955428 0.930144
0.171038 0.953796 0.918883
0.223285 0.944656 0.8981
0.343297 0.933745 0.866423
0.587427 0.93254 0.819532
0.832593 0.943893 0.777951
0.9635 0.949065 0.752743
0.0607614 0.0917372 0.247333
0.143511 0.110369 0.273762
0.25095 0.131884 0.310765
0.416419 0.156069 0.338552
0.615045 0.185657 0.347738
0.758068 0.215534 0.348791
0.857374 0.241627 0.35317
0.918593 0.266316 0.355215
0.958556 0.296818 0.35584
0.113313 0.223957 0.464302
0.187381 0.23682 0.473579
0.28864 0.242054 0.466773
0.430091 0.245258 0.445243
0.607111 0.256962 0.420279
0.746777 0.273411 0.39823
0.845365 0.289647 0.390982
0.914946 0.305272 0.391333
0.960327 0.329427 0.393973
0.120409 0.34023 0.609537
0.180026 0.338781 0.589471
0.272312 0.328969 0.546349
0.393759 0.31928 0.500832
0.557153 0.320607 0.465446
0.710613 0.331868 0.439078
0.823987 0.347066 0.425635
0.908095 0.361135 0.427405
0.960037 0.381262 0.433143
0.0915541 0.450614 0.692653
0.14435 0.433524 0.656733
0.2374 0.415396 0.606989
0.352056 0.403037 0.558129
0.505684 0.398749 0.519326
0.677363 0.407645 0.492729
0.80975 0.422705 0.476799
0.90454 0.437568 0.474861
0.960937 0.452934 0.483543
0.0738842 0.585031 0.782727
0.11284 0.559808 0.742687
0.202853 0.533684 0.694133
0.318685 0.516381 0.645884
0.471855 0.509667 0.602029
0.656336 0.514366 0.569024
0.801495 0.52752 0.548516
0.906538 0.539925 0.542062
0.968109 0.549157 0.545159
0.0974136 0.710475 0.858457
0.109865 0.69662 0.833326
0.168994 0.67744 0.798291
0.277333 0.657908 0.754864
0.431998 0.645792 0.708614
0.632197 0.644755 0.663554
0.79733 0.655543 0.640345
0.915099 0.663905 0.625772
0.978347 0.665751 0.618418
0.128267 0.819898 0.925765
0.129961 0.813382 0.910735
0.15079 0.803418 0.888441
0.221637 0.788022 0.854353
0.366232 0.77351 0.810315
0.583413 0.770977 0.765286
0.788663 0.778759 0.7299
0.928267 0.784314 0.706905
0.989868 0.781384 0.696742
0.155596 0.906935 0.981964
0.155047 0.903929 0.971328
0.160418 0.899245 0.957244
0.18967 0.891569 0.936751
0.285695 0.878355 0.90219
0.490257 0.870222 0.858152
0.734493 0.877226 0.816693
0.903349 0.884398 0.787243
0.985275 0.881987 0.76466
0.172702 0.96408 1
0.17203 0.962921 1
0.17171 0.961547 0.998734
0.176959 0.959075 0.98735
0.227665 0.950256 0.965682
0.354299 0.939025 0.933333
0.602548 0.937881 0.88896
0.841062 0.948684 0.851011
0.965057 0.952575 0.826108
0.106706 0.1337 0.366033
0.182986 0.155062 0.406531
0.291569 0.176593 0.445792
0.453544 0.194903 0.467033
0.640314 0.212207 0.464607
0.780255 0.235813 0.454459
0.875502 0.259556 0.448218
0.930907 0.282551 0.442618
0.964523 0.313756 0.432944
0.172076 0.269413 0.608896
0.229694 0.283696 0.617548
0.323751 0.285496 0.601221
0.457893 0.282475 0.569345
0.628779 0.285481 0.537133
0.767956 0.295949 0.509651
0.863645 0.308965 0.49427
0.928359 0.322347 0.486915
0.967453 0.345556 0.477974
0.187243 0.377035 0.715846
0.224994 0.382284 0.708141
0.308202 0.370993 0.666194
0.424506 0.357687 0.618555
0.581445 0.351934 0.580133
0.733135 0.357122 0.551629
0.846372 0.36936 0.535286
0.924392 0.381399 0.530816
0.966491 0.399863 0.524681
0.167941 0.474342 0.775418
0.194995 0.467735 0.756741
0.27422 0.454627 0.715862
0.387442 0.442878 0.670817
0.536416 0.43563 0.632349
0.702266 0.43888 0.606699
0.834531 0.449378 0.589319
0.919478 0.460624 0.581796
0.968597 0.474434 0.578225
0.137102 0.601907 0.856779
0.157626 0.583597 0.828687
0.239567 0.564569 0.790249
0.355856 0.553567 0.748669
0.508659 0.548852 0.709834
0.681651 0.550195 0.680308
0.826719 0.556878 0.659144
0.922484 0.566171 0.646036
0.973785 0.574639 0.642664
0.116823 0.737072 0.942123
0.131319 0.722011 0.919341
0.201175 0.701991 0.88484
0.315618 0.683299 0.843885
0.472084 0.675456 0.803159
0.65977 0.677958 0.765972
0.822141 0.682948 0.7393
0.923873 0.689281 0.722515
0.981247 0.692149 0.714107
0.13959 0.841917 0.997497
0.143236 0.835142 0.985275
0.175433 0.824063 0.966262
0.261585 0.809583 0.936416
0.41146 0.79765 0.897688
0.610651 0.795254 0.854948
0.805646 0.80087 0.819516
0.928069 0.806638 0.799207
0.987839 0.803616 0.783383
0.162722 0.917861 1
0.163256 0.915694 1
0.171267 0.911131 1
0.206607 0.903212 1
0.305501 0.891005 0.972427
0.508263 0.883116 0.929503
0.750484 0.888731 0.888121
0.912077 0.894835 0.860136
0.987732 0.89099 0.838987
0.178729 0.969741 1
0.178424 0.969162 1
0.177905 0.968246 1
0.182406 0.96492 1
0.23032 0.956451 1
0.368444 0.944579 0.986709
0.619852 0.943709 0.944686
0.848356 0.95375 0.91194
0.967102 0.956191 0.887678
0.168276 0.193957 0.536645
0.231907 0.217212 0.575051
0.337896 0.236088 0.600778
0.492912 0.246815 0.605585
0.665293 0.250538 0.590036
0.80032 0.260685 0.569268
0.892424 0.279652 0.554147
0.943603 0.29984 0.540719
0.9729 0.330495 0.524071
0.247196 0.32401 0.744595
0.286763 0.340978 0.750622
0.369467 0.33846 0.727153
0.494667 0.329 0.691829
0.652811 0.323888 0.656809
0.788937 0.325048 0.62417
0.882277 0.33228 0.602167
0.943099 0.342885 0.591089
0.976318 0.363943 0.575799
0.257237 0.423667 0.811826
0.281712 0.433631 0.813062
0.354025 0.420218 0.775876
0.464775 0.403723 0.730877
0.611093 0.393637 0.693751
0.756863 0.391669 0.665293
0.867979 0.397467 0.645197
0.940017 0.406012 0.636698
0.97615 0.421775 0.625467
0.239994 0.508553 0.847517
0.256916 0.511208 0.842618
0.322255 0.502083 0.813443
0.433371 0.490181 0.775113
0.574456 0.481453 0.740353
0.728664 0.47863 0.716243
0.857191 0.482475 0.697581
0.936614 0.489158 0.688457
0.97911 0.499916 0.679423
0.220661 0.621393 0.909224
0.225986 0.613245 0.895598
0.287785 0.601785 0.869535
0.402304 0.595911 0.838346
0.551858 0.593042 0.806394
0.70927 0.591516 0.781033
0.845975 0.592889 0.761395
0.940047 0.596475 0.74786
0.981826 0.601846 0.739574
0.186358 0.745022 0.97908
0.184314 0.733913 0.965866
0.24181 0.719142 0.941878
0.355413 0.707729 0.912016
0.515572 0.707607 0.879744
0.689799 0.712764 0.850675
0.839124 0.715526 0.828351
0.93785 0.716045 0.812482
0.987167 0.716579 0.800961
0.163256 0.856992 1
0.160922 0.849729 1
0.198566 0.837934 1
0.299489 0.823331 0.986221
0.454047 0.812787 0.953719
0.6477 0.815915 0.921294
0.822858 0.823667 0.894392
0.935897 0.825193 0.873259
0.989731 0.822736 0.858152
0.172045 0.926345 1
0.17145 0.923995 1
0.182116 0.919661 1
0.236927 0.910307 1
0.356756 0.898558 1
0.552636 0.893828 0.979171
0.767712 0.900862 0.947707
0.920195 0.906493 0.92253
0.985122 0.904143 0.905821
0.182788 0.97174 1
0.182589 0.971725 1
0.18262 0.971069 1
0.191821 0.967697 1
0.247501 0.959716 1
0.394705 0.948882 1
0.633906 0.949081 0.989136
0.854475 0.958373 0.959808
0.968658 0.960174 0.938399
0.248798 0.267262 0.707256
0.297734 0.292103 0.734707
0.394644 0.308003 0.742824
0.533532 0.310094 0.730968
0.691554 0.302937 0.709819
0.819242 0.29659 0.682841
0.907805 0.30428 0.660212
0.956359 0.319738 0.642542
0.982055 0.348623 0.620172
0.332525 0.389395 0.845075
0.355825 0.404349 0.84828
0.424918 0.399039 0.827558
0.538613 0.384955 0.795316
0.678737 0.371466 0.763058
0.807172 0.363149 0.731762
0.899672 0.363653 0.706401
0.956985 0.368734 0.691661
0.985458 0.385916 0.672297
0.340932 0.477714 0.885908
0.352682 0.490089 0.888792
0.410941 0.474952 0.860166
0.511437 0.456001 0.824414
0.644068 0.442267 0.793393
0.779278 0.434653 0.769131
0.886961 0.43328 0.747311
0.954101 0.436713 0.73463
0.985992 0.448142 0.720211
0.31754 0.550546 0.908965
0.327794 0.560433 0.911131
0.380148 0.553628 0.89073
0.484321 0.541741 0.860563
0.614786 0.531304 0.831754
0.754665 0.524804 0.811215
0.875685 0.522576 0.792996
0.950576 0.523232 0.781353
0.98793 0.529641 0.769848
0.304234 0.649104 0.951965
0.302159 0.648325 0.948226
0.349447 0.643763 0.93193
0.456107 0.641932 0.909148
0.59617 0.639506 0.883421
0.737057 0.636194 0.862623
0.86273 0.632807 0.845167
0.950713 0.630762 0.83122
0.989639 0.631754 0.821347
0.283879 0.753429 0.997131
0.276539 0.747784 0.991577
0.308415 0.741924 0.981003
0.407355 0.738216 0.961868
0.562921 0.743496 0.938598
0.721492 0.748959 0.917556
0.855512 0.748882 0.900404
0.946548 0.745937 0.885054
0.992081 0.741543 0.872831
0.24477 0.853071 1
0.233295 0.847333 1
0.253651 0.839597 1
0.339452 0.830137 1
0.492622 0.82739 0.990204
0.679164 0.836439 0.96733
0.840284 0.845624 0.948272
0.94136 0.845594 0.932006
0.994736 0.83978 0.919326
0.202197 0.929015 1
0.197681 0.926085 1
0.200549 0.922881 1
0.2654 0.912688 1
0.393133 0.901854 1
0.587915 0.900725 1
0.786786 0.910521 0.988403
0.926726 0.91783 0.968917
0.989868 0.913741 0.953811
0.187778 0.970184 1
0.185946 0.970687 1
0.185687 0.970001 1
0.202884 0.966217 1
0.278767 0.957382 1
0.44126 0.949081 1
0.666789 0.95285 1
0.86067 0.961898 0.997559
0.968673 0.963409 0.978424
