LUT预设1/富士LUT改款/709机型使用/富士CN-709.cube
TITLE "Generated by Resolve"
LUT_3D_SIZE 5
0 0 0
0.13225 0.0330663 0
0.487663 0.107683 0
0.806989 0.195575 0.115389
0.947997 0.268696 0.228244
0 0.240101 0.168856
0.187167 0.220661 0.115801
0.504997 0.240986 0.0536049
0.825742 0.288823 0.0743114
0.972168 0.324727 0.200488
0 0.449226 0.295811
0.104631 0.405524 0.247807
0.357 0.388907 0.19118
0.743221 0.430945 0.148745
0.95845 0.476738 0.221973
0.0501259 0.721477 0.451606
0.088777 0.702892 0.425055
0.267079 0.680003 0.373922
0.703532 0.6963 0.299367
0.965438 0.723522 0.322683
0.141543 0.939223 0.604761
0.141405 0.938186 0.590494
0.198306 0.930144 0.564553
0.535912 0.921462 0.485939
0.94641 0.93608 0.434073
0 0.0371099 0.0902724
0.16199 0.055314 0.0841077
0.520195 0.128099 0.0903639
0.824826 0.203281 0.139635
0.960952 0.269261 0.230243
0 0.281224 0.321767
0.212543 0.250935 0.249027
0.492592 0.261631 0.19791
0.802701 0.301381 0.175021
0.955657 0.337697 0.241825
0 0.497444 0.450462
0.12491 0.44538 0.378225
0.391821 0.424231 0.312917
0.784543 0.459236 0.271565
0.966628 0.49131 0.313848
0.085359 0.751232 0.618692
0.11339 0.734447 0.583322
0.296239 0.712047 0.524865
0.736278 0.725475 0.446387
0.975952 0.742702 0.445792
0.152132 0.948501 0.781842
0.150851 0.945693 0.763561
0.208682 0.936339 0.734554
0.559716 0.925521 0.650614
0.955001 0.942 0.58645
0.0276188 0.0655833 0.175799
0.216144 0.0986038 0.214755
0.585016 0.164706 0.250462
0.841382 0.225132 0.26804
0.958343 0.281804 0.292317
0.0505074 0.315755 0.506462
0.246433 0.295415 0.430549
0.534722 0.296361 0.360357
0.805615 0.328603 0.3299
0.958892 0.365316 0.358801
0.0418097 0.556069 0.673777
0.166552 0.50396 0.585306
0.441505 0.475364 0.490959
0.787762 0.502388 0.44715
0.966217 0.525536 0.452781
0.115953 0.79585 0.830732
0.134508 0.778256 0.78732
0.340276 0.749279 0.712337
0.770214 0.759228 0.63331
0.988052 0.764202 0.60412
0.166079 0.957259 0.950622
0.164874 0.955428 0.930144
0.223285 0.944656 0.8981
0.587427 0.93254 0.819532
0.9635 0.949065 0.752743
0.106706 0.1337 0.366033
0.291569 0.176593 0.445792
0.640314 0.212207 0.464607
0.875502 0.259556 0.448218
0.964523 0.313756 0.432944
0.187243 0.377035 0.715846
0.308202 0.370993 0.666194
0.581445 0.351934 0.580133
0.846372 0.36936 0.535286
0.966491 0.399863 0.524681
0.137102 0.601907 0.856779
0.239567 0.564569 0.790249
0.508659 0.548852 0.709834
0.826719 0.556878 0.659144
0.973785 0.574639 0.642664
0.13959 0.841917 0.997497
0.175433 0.824063 0.966262
0.41146 0.79765 0.897688
0.805646 0.80087 0.819516
0.987839 0.803616 0.783383
0.178729 0.969741 1
0.177905 0.968246 1
0.23032 0.956451 1
0.619852 0.943709 0.944686
0.967102 0.956191 0.887678
0.248798 0.267262 0.707256
0.394644 0.308003 0.742824
0.691554 0.302937 0.709819
0.907805 0.30428 0.660212
0.982055 0.348623 0.620172
0.340932 0.477714 0.885908
0.410941 0.474952 0.860166
0.644068 0.442267 0.793393
0.886961 0.43328 0.747311
0.985992 0.448142 0.720211
0.304234 0.649104 0.951965
0.349447 0.643763 0.93193
0.59617 0.639506 0.883421
0.86273 0.632807 0.845167
0.989639 0.631754 0.821347
0.24477 0.853071 1
0.253651 0.839597 1
0.492622 0.82739 0.990204
0.840284 0.845624 0.948272
0.994736 0.83978 0.919326
0.187778 0.970184 1
0.185687 0.970001 1
0.278767 0.957382 1
0.666789 0.95285 1
0.968673 0.963409 0.978424
