LUT预设1/富士LUT改款/709机型使用/富士ASTIA-709.cube
TITLE "Generated by Resolve"
LUT_3D_SIZE 33
0 0.0534829 0.0487068
0.0289921 0.0500954 0.0396735
0.0473793 0.0501564 0.0336767
0.0649729 0.0496376 0.0288396
0.0844282 0.0508888 0.0268559
0.102876 0.0521248 0.0243229
0.121019 0.0535134 0.0215305
0.144625 0.0560464 0.0184329
0.172137 0.0597086 0.0130922
0.201617 0.0648356 0
0.24361 0.0703136 0
0.285267 0.0764324 0
0.333501 0.0819715 0
0.383444 0.086656 0
0.437079 0.0905928 0
0.497978 0.0937209 0.00354009
0.555871 0.095964 0.014786
0.613474 0.0974136 0.0337835
0.667262 0.0977646 0.0553292
0.718517 0.0950027 0.106767
0.773404 0.0912184 0.146548
0.814969 0.0905776 0.183062
0.851713 0.0905318 0.213794
0.887251 0.0908827 0.242084
0.918044 0.0923934 0.275502
0.947051 0.0940719 0.305837
0.974365 0.0957198 0.333715
0.997681 0.098024 0.365499
1 0.10042 0.396582
1 0.102693 0.425101
1 0.104707 0.457145
1 0.106096 0.488533
1 0.107576 0.521126
0 0.0752575 0.0551919
0.0306401 0.0675517 0.0469825
0.050782 0.0638743 0.0424506
0.0710765 0.0629129 0.04094
0.0893416 0.0651102 0.0356451
0.107881 0.0677501 0.0290837
0.129793 0.0708934 0.0231479
0.155261 0.0762798 0.0148013
0.183459 0.0825666 0
0.2271 0.0891585 0
0.272221 0.0948653 0
0.335637 0.100511 0
0.400931 0.105928 0
0.472831 0.110292 0.000427253
0.543359 0.113695 0.00936904
0.611994 0.115801 0.0222171
0.67689 0.116793 0.0435187
0.727291 0.117479 0.0777142
0.774212 0.117357 0.116808
0.817884 0.117067 0.152346
0.860334 0.11603 0.1823
0.899168 0.113802 0.223087
0.938796 0.110674 0.261982
0.97174 0.109667 0.292668
0.999237 0.109865 0.330663
1 0.110048 0.364569
1 0.110369 0.393545
1 0.11162 0.428855
1 0.112902 0.462654
1 0.114092 0.495445
1 0.114733 0.528206
1 0.114855 0.561547
1 0.115053 0.594202
0 0.0944839 0.0637675
0.027451 0.085771 0.0546731
0.0503243 0.0824292 0.0490425
0.0744182 0.0833143 0.0441444
0.0962539 0.0849622 0.039353
0.118837 0.0879988 0.0350805
0.144503 0.0924697 0.0299229
0.173846 0.0970932 0.0228885
0.219699 0.102022 0.0191196
0.268513 0.106447 0.0175174
0.335897 0.112856 0.00950637
0.39176 0.121126 0.000976577
0.455024 0.127855 0
0.513222 0.133867 0
0.570443 0.138537 0.00520333
0.624155 0.142916 0.0114137
0.675013 0.145571 0.0271458
0.722301 0.147707 0.0432441
0.763577 0.146517 0.0881971
0.803357 0.145998 0.116747
0.840589 0.145251 0.14139
0.873564 0.14342 0.175555
0.906447 0.141466 0.205661
0.938933 0.139193 0.23566
0.968978 0.136706 0.278477
0.999557 0.133684 0.318227
1 0.128023 0.361807
1 0.1243 0.41416
1 0.122576 0.4607
1 0.121309 0.503594
1 0.120256 0.544549
1 0.119387 0.585138
1 0.11873 0.624567
0 0.123934 0.0673686
0.0193942 0.114595 0.0570687
0.0518349 0.11133 0.0501106
0.0783246 0.110323 0.0450752
0.106966 0.109926 0.0409247
0.143038 0.110643 0.0388037
0.179385 0.112825 0.0365759
0.221622 0.118364 0.0343938
0.261326 0.124422 0.0302281
0.313207 0.131136 0.0255894
0.365011 0.138018 0.0129854
0.42443 0.144533 0.00546273
0.480323 0.150652 0.00192264
0.536065 0.155901 0.00418097
0.58703 0.161563 0.00590524
0.634882 0.165835 0.0130007
0.67985 0.168963 0.0223392
0.721996 0.171054 0.0358129
0.758572 0.170077 0.0722667
0.793957 0.170184 0.0933394
0.827527 0.169558 0.117662
0.858778 0.168124 0.147082
0.889448 0.166979 0.171496
0.918624 0.165408 0.199939
0.944961 0.163912 0.236805
0.972076 0.161547 0.271366
0.998672 0.159625 0.303136
1 0.157214 0.351034
1 0.155093 0.395941
1 0.152789 0.438712
1 0.14931 0.484016
1 0.144717 0.532647
1 0.136721 0.588617
0 0.158694 0.068986
0.0175479 0.151003 0.0571908
0.0551614 0.146532 0.0485237
0.0826581 0.144717 0.0419928
0.118395 0.144869 0.0364385
0.151125 0.145571 0.0309911
0.196612 0.147951 0.0277104
0.240406 0.150149 0.0268101
0.298085 0.152956 0.0323339
0.349645 0.157595 0.0351873
0.407736 0.162295 0.0377356
0.461769 0.166506 0.0389105
0.514427 0.170794 0.039765
0.562554 0.175784 0.0348516
0.606729 0.181216 0.0278935
0.647364 0.185657 0.0284123
0.685924 0.189364 0.0300298
0.720623 0.190555 0.0507515
0.754467 0.191455 0.067689
0.788312 0.192218 0.0813764
0.819059 0.191516 0.10547
0.84921 0.190646 0.127962
0.878248 0.18999 0.147478
0.90576 0.188327 0.176562
0.931228 0.18645 0.208301
0.956924 0.184466 0.238041
0.982025 0.182483 0.269383
1 0.179431 0.315831
1 0.176287 0.358907
1 0.173495 0.399466
1 0.168063 0.448539
1 0.161791 0.499809
1 0.154925 0.550866
0 0.204746 0.0613718
0.00111391 0.199557 0.0568856
0.0439918 0.190326 0.0471504
0.0862135 0.187793 0.0399176
0.119982 0.18645 0.0344244
0.162432 0.186831 0.0307774
0.203098 0.187686 0.0272068
0.255772 0.189288 0.0230716
0.308217 0.19115 0.0175937
0.36788 0.193194 0.0130007
0.424994 0.195407 0.00798047
0.480354 0.197208 0.0108339
0.532616 0.198688 0.0161135
0.579904 0.200198 0.0300755
0.623026 0.201999 0.0440681
0.662303 0.204578 0.0514229
0.696391 0.206806 0.0619821
0.728267 0.209384 0.0699168
0.758663 0.212116 0.0762798
0.787717 0.213703 0.0877089
0.815122 0.214588 0.102525
0.842985 0.214786 0.117296
0.869871 0.215076 0.130877
0.89424 0.213886 0.158801
0.918425 0.21265 0.184176
0.942885 0.211444 0.208316
0.965805 0.209491 0.241428
0.986938 0.206851 0.28191
1 0.204288 0.320104
1 0.201816 0.356237
1 0.197024 0.404883
1 0.192203 0.451499
1 0.187182 0.497307
0 0.265034 0.0609751
0 0.256931 0.0570535
0.0437629 0.242725 0.0445411
0.0826886 0.235477 0.0376593
0.121019 0.2318 0.0310826
0.161669 0.231037 0.0233158
0.205676 0.230671 0.0134127
0.258885 0.231266 0
0.31136 0.231266 0
0.370413 0.231708 0
0.426108 0.231968 0
0.482444 0.2327 0
0.534539 0.233326 0
0.580606 0.232792 0.0114595
0.622538 0.231357 0.0379644
0.662486 0.230411 0.0559701
0.698573 0.230045 0.0711528
0.73283 0.230335 0.0816815
0.763531 0.231525 0.0900435
0.791348 0.232853 0.0994278
0.817243 0.234913 0.105776
0.842664 0.236683 0.112856
0.865644 0.237461 0.12932
0.888472 0.237659 0.148333
0.911177 0.237598 0.16701
0.934478 0.237263 0.185687
0.954971 0.235157 0.221286
0.975555 0.233005 0.256077
0.996475 0.2309 0.289113
1 0.228016 0.32639
1 0.223026 0.372198
1 0.218204 0.416251
1 0.213336 0.45893
0 0.327504 0.0572213
0 0.31696 0.053193
0.0378424 0.303059 0.0383612
0.073106 0.293416 0.0267948
0.117479 0.28748 0.00672923
0.153155 0.282155 0
0.202853 0.277485 0
0.24976 0.273503 0
0.305821 0.270283 0
0.362692 0.268147 0
0.419165 0.266117 0
0.475181 0.265248 0
0.527535 0.263874 0
0.574395 0.262638 0.00117494
0.618494 0.261433 0.0159609
0.657893 0.25919 0.043473
0.69543 0.257893 0.0611429
0.731182 0.256611 0.076051
0.762997 0.255283 0.0936446
0.792233 0.254932 0.108278
0.820172 0.25507 0.119814
0.844709 0.256168 0.131075
0.86688 0.257206 0.144778
0.888457 0.258976 0.155657
0.909957 0.260884 0.165576
0.930053 0.261631 0.184619
0.949157 0.261631 0.210254
0.969207 0.260807 0.237613
0.989715 0.259968 0.264271
1 0.256672 0.304204
1 0.252995 0.345174
1 0.249424 0.384375
1 0.245426 0.425589
0 0.38822 0.0338293
0 0.376455 0.0281071
0.0124819 0.366125 0.0188296
0.068864 0.350057 0.00334173
0.1084 0.341238 0
0.145022 0.333303 0
0.192142 0.326467 0
0.233326 0.319997 0
0.290745 0.314946 0
0.343191 0.310399 0
0.399924 0.306676 0
0.456565 0.303685 0
0.509819 0.300969 0
0.560021 0.298665 0
0.607416 0.296361 0.00549325
0.648524 0.293172 0.0284428
0.686732 0.290578 0.0466163
0.723491 0.288518 0.0602731
0.755795 0.286183 0.0796826
0.786694 0.284413 0.0964828
0.816632 0.283055 0.112215
0.842115 0.281453 0.133089
0.866041 0.280873 0.150546
0.889082 0.28101 0.16466
0.910185 0.281544 0.181186
0.929885 0.282002 0.202228
0.949279 0.282979 0.220676
0.968551 0.284352 0.237461
0.985855 0.283909 0.263706
1 0.282643 0.295903
1 0.281102 0.327642
1 0.279393 0.359762
1 0.275181 0.402487
0 0.44567 0.0362097
0 0.432944 0.0285649
0.00236515 0.422354 0.0213779
0.0595254 0.404257 0.00802625
0.0951553 0.391745 0.00419623
0.133394 0.380728 0.000686656
0.176135 0.370977 0
0.217563 0.362219 0
0.272374 0.3552 0
0.322118 0.349386 0
0.38085 0.344076 0
0.437919 0.339635 0
0.492851 0.335592 0
0.544793 0.332296 0
0.594858 0.328847 0
0.637873 0.325719 0.000610361
0.677943 0.322576 0.0141909
0.715328 0.319173 0.0378424
0.748104 0.316518 0.058854
0.77969 0.314229 0.0760204
0.809842 0.312337 0.0928359
0.836316 0.310277 0.117082
0.862135 0.308492 0.138476
0.88719 0.307576 0.157061
0.909148 0.306355 0.185672
0.930617 0.305867 0.210285
0.951614 0.306188 0.230945
0.97055 0.306493 0.254826
0.987015 0.306584 0.282078
1 0.306813 0.30753
1 0.307057 0.332052
1 0.305104 0.365164
1 0.302937 0.400031
0 0.492653 0.0356603
0 0.480949 0.0336309
0 0.469932 0.0346075
0.0431525 0.453269 0.0276646
0.0807507 0.438407 0.0226444
0.121508 0.42649 0.0152438
0.1608 0.41651 0.00715648
0.201968 0.407111 0
0.253712 0.399344 0
0.300649 0.391974 0
0.358877 0.385916 0
0.414725 0.380255 0
0.468772 0.375433 0
0.522728 0.370962 0
0.574548 0.36672 0
0.620752 0.36289 0
0.66363 0.35935 0.00164797
0.704234 0.35581 0.0157015
0.737819 0.352071 0.0441596
0.771069 0.349737 0.0603799
0.802228 0.347189 0.0778821
0.829358 0.345068 0.100587
0.856352 0.343496 0.120836
0.882109 0.342061 0.143374
0.905638 0.33994 0.174304
0.928664 0.338293 0.201938
0.951064 0.337118 0.227359
0.96965 0.335714 0.259556
0.988251 0.334859 0.287907
1 0.335012 0.312291
1 0.333577 0.342061
1 0.332036 0.372213
1 0.330999 0.40087
0 0.536843 0.0556497
0 0.52491 0.0577707
0 0.514122 0.0575418
0.0209201 0.501869 0.0526589
0.064332 0.484428 0.0423743
0.10898 0.470954 0.0300298
0.145327 0.460487 0.0150301
0.185855 0.450523 0.00447089
0.234806 0.441367 0
0.278202 0.433112 0
0.336446 0.425666 0
0.391363 0.419059 0
0.445792 0.413306 0
0.501625 0.408362 0
0.555444 0.403662 0
0.603525 0.399588 0
0.649302 0.395514 0
0.692638 0.391791 0
0.728557 0.388846 0.0156863
0.762936 0.385016 0.0405585
0.795224 0.382696 0.0589303
0.823697 0.380713 0.0801404
0.851682 0.378958 0.0991836
0.877714 0.376944 0.125124
0.901976 0.374472 0.155322
0.926177 0.372534 0.1823
0.948226 0.370169 0.214771
0.968566 0.367315 0.250965
0.988556 0.365652 0.281956
1 0.363653 0.314183
1 0.361028 0.348562
1 0.35967 0.378622
1 0.359304 0.405417
0 0.577569 0.0681468
0 0.565438 0.066743
0 0.555444 0.0644846
0.0109255 0.544778 0.0603952
0.0345159 0.531685 0.0538491
0.0969253 0.51339 0.0355535
0.130419 0.502724 0.0203861
0.170916 0.492149 0.00865187
0.216999 0.482246 0
0.258137 0.473091 0
0.315908 0.465309 0
0.369177 0.458289 0
0.423331 0.452186 0
0.48014 0.446586 0
0.534737 0.441306 0
0.584878 0.437049 0
0.632944 0.432822 0
0.678492 0.429374 0
0.717403 0.426322 0.000885023
0.754376 0.423499 0.0159457
0.787503 0.420172 0.0437018
0.817411 0.417777 0.0661784
0.847166 0.416022 0.0851606
0.873625 0.413962 0.111803
0.898817 0.411902 0.138247
0.923888 0.409934 0.162829
0.945708 0.407294 0.198322
0.966766 0.405051 0.232715
0.988251 0.402609 0.265415
1 0.399023 0.305348
1 0.395987 0.341894
1 0.393744 0.374594
1 0.391928 0.407172
0 0.614633 0.0792401
0 0.603464 0.0779431
0 0.594461 0.0753338
0.00910964 0.58468 0.0710613
0.0286107 0.573129 0.0646372
0.0882277 0.554955 0.0475013
0.118227 0.543862 0.0364385
0.158801 0.533547 0.0181735
0.201785 0.523125 0.00610361
0.240879 0.513878 0
0.296757 0.505379 0
0.347784 0.498085 0
0.401465 0.491356 0
0.45861 0.485603 0
0.5131 0.480598 0
0.565225 0.476143 0
0.615839 0.472114 0
0.663615 0.468147 0
0.704799 0.465248 0
0.744091 0.461799 0.02121
0.779248 0.458854 0.0431067
0.811353 0.456657 0.0598611
0.842802 0.455024 0.0742962
0.869947 0.452613 0.0991531
0.896437 0.45069 0.121263
0.921889 0.448447 0.143648
0.943984 0.445991 0.17818
0.965866 0.443763 0.209842
0.985931 0.441154 0.243244
1 0.437507 0.284153
1 0.434195 0.321965
1 0.431052 0.359747
1 0.427878 0.398276
0 0.650645 0.0887007
0 0.640177 0.0863508
0 0.631998 0.0827955
0.00675975 0.623255 0.0785992
0.0233616 0.613245 0.072221
0.0767834 0.595804 0.0562295
0.104356 0.584344 0.0461891
0.145708 0.573236 0.027924
0.184924 0.563378 0.0145266
0.223026 0.553994 0.00410468
0.277668 0.545144 0
0.327047 0.537514 0
0.38114 0.530892 0
0.438697 0.524849 0
0.493278 0.51957 0
0.547738 0.514748 0
0.600992 0.510414 0
0.649958 0.506813 0
0.693736 0.503853 0
0.735927 0.500816 0.0126955
0.771847 0.497719 0.0351568
0.805829 0.495598 0.0483864
0.838773 0.493965 0.060853
0.86656 0.491661 0.0831159
0.893919 0.489586 0.10309
0.919539 0.487282 0.126558
0.942763 0.484871 0.158129
0.965789 0.482719 0.186908
0.984848 0.479805 0.223499
1 0.476448 0.26244
1 0.473686 0.298421
1 0.469902 0.340032
1 0.466041 0.380774
0 0.685084 0.0956893
0 0.675441 0.0932631
0.000427253 0.668208 0.0903029
0.00619516 0.660395 0.0871138
0.0214237 0.651698 0.0819409
0.0673686 0.635584 0.0687419
0.0935531 0.624598 0.0605478
0.136477 0.612604 0.0491951
0.172732 0.602396 0.0385595
0.211612 0.593759 0.0203403
0.263951 0.585245 0.00480659
0.310353 0.577371 0
0.365026 0.57052 0
0.421576 0.564416 0
0.474922 0.559548 0
0.530785 0.554788 0
0.584451 0.550652 0
0.634424 0.547097 0
0.680171 0.543984 0
0.725322 0.540841 0.00602731
0.762356 0.537438 0.0306554
0.798703 0.535409 0.0448157
0.833127 0.533196 0.0583505
0.862242 0.530861 0.0754864
0.891035 0.528984 0.0908827
0.917449 0.52668 0.114122
0.942306 0.524208 0.14052
0.966506 0.522316 0.164477
0.985031 0.518791 0.202716
1 0.515785 0.238758
1 0.512642 0.275029
1 0.508553 0.317586
1 0.505119 0.35697
0.000350958 0.718196 0.106249
0.000564584 0.71043 0.103914
0.00474556 0.703883 0.10132
0.00817884 0.697215 0.0986801
0.0230411 0.689006 0.0937057
0.0579385 0.675868 0.0835279
0.0860609 0.664073 0.0749523
0.129488 0.651926 0.0644388
0.161135 0.642359 0.0576333
0.200595 0.632746 0.0478676
0.249485 0.623621 0.0326543
0.293599 0.616785 0.0107118
0.349981 0.610132 0
0.40531 0.604181 0
0.458518 0.599374 0
0.515068 0.59472 0
0.569192 0.590768 0
0.620264 0.587167 0
0.669169 0.583749 0
0.717281 0.580804 0
0.755535 0.577905 0.0144045
0.793347 0.574762 0.0356451
0.828519 0.572442 0.0484016
0.859403 0.570275 0.0608225
0.889693 0.568566 0.0722057
0.916091 0.566217 0.0959793
0.942184 0.564019 0.118074
0.966461 0.561517 0.143282
0.986053 0.558145 0.180102
1 0.555154 0.212833
1 0.551324 0.251896
1 0.547509 0.292348
1 0.543832 0.330312
0.00604257 0.751797 0.115877
0.00653086 0.745342 0.113588
0.0083772 0.739483 0.11133
0.00946059 0.733989 0.109194
0.0226444 0.726558 0.104753
0.0394751 0.718105 0.0996872
0.0811017 0.703471 0.088838
0.121538 0.691539 0.0796368
0.149432 0.68217 0.0730755
0.191455 0.67219 0.0627146
0.236606 0.662989 0.0508125
0.277119 0.655039 0.0385138
0.336721 0.64921 0.0110323
0.390387 0.643793 0
0.444053 0.638956 0
0.500664 0.634562 0
0.555154 0.630808 0
0.607004 0.627192 0
0.657816 0.623758 0
0.705745 0.620737 0
0.746609 0.617899 0.0043183
0.786282 0.614633 0.0285039
0.821393 0.61207 0.0434577
0.854246 0.609751 0.0563058
0.88629 0.607569 0.0683452
0.91368 0.605386 0.0882887
0.940993 0.603021 0.10631
0.965331 0.600259 0.130419
0.986313 0.596979 0.159701
1 0.594232 0.186145
1 0.589883 0.226688
1 0.585748 0.264271
1 0.582254 0.300511
0.0121004 0.784421 0.125017
0.0125582 0.779156 0.123262
0.0131991 0.774075 0.121553
0.0150759 0.768795 0.120012
0.026688 0.762173 0.116869
0.0395514 0.754971 0.113085
0.083772 0.740291 0.101411
0.118181 0.729427 0.0930343
0.142733 0.720882 0.0869154
0.186099 0.711055 0.0765393
0.226673 0.702235 0.0665599
0.267796 0.694743 0.0560616
0.324254 0.687526 0.0391089
0.376364 0.682841 0.0114443
0.431266 0.678004 0
0.487831 0.674342 0
0.541085 0.671031 0
0.594766 0.667308 0
0.646662 0.664057 0
0.695079 0.661036 0
0.738705 0.65803 0
0.781247 0.654795 0.013611
0.816205 0.651469 0.0364996
0.850843 0.649012 0.0492256
0.883665 0.646738 0.0609751
0.91252 0.644572 0.0730755
0.941161 0.64271 0.0848402
0.964904 0.639155 0.110552
0.987503 0.635874 0.13576
1 0.632273 0.164019
1 0.627634 0.20209
1 0.623743 0.235538
1 0.619715 0.273136
0.0189364 0.816297 0.134325
0.019089 0.812039 0.133227
0.0188449 0.807736 0.132189
0.0221408 0.803235 0.130526
0.0304265 0.797482 0.127687
0.0387579 0.791562 0.12462
0.0843061 0.777371 0.112566
0.112749 0.768032 0.105287
0.135851 0.760113 0.0993057
0.178882 0.750393 0.0891737
0.214725 0.742 0.0806744
0.258946 0.733867 0.0697795
0.311971 0.726757 0.0554971
0.360723 0.720577 0.0399634
0.419196 0.716625 0.0127871
0.475181 0.713054 0
0.529381 0.709621 0
0.584497 0.706035 0
0.637003 0.703075 0
0.6851 0.700084 0
0.730282 0.697093 0
0.774029 0.694087 0.00816358
0.80943 0.69041 0.032639
0.845365 0.687556 0.0459297
0.878111 0.684916 0.0585946
0.908171 0.682429 0.0710002
0.938033 0.679911 0.0834821
0.962539 0.676463 0.105348
0.987472 0.673548 0.123186
1 0.669505 0.149447
1 0.66537 0.178698
1 0.661372 0.206729
1 0.65684 0.243824
0.0264134 0.848875 0.143694
0.025742 0.844846 0.142596
0.0249485 0.84065 0.141466
0.0289464 0.836301 0.139635
0.0344396 0.831403 0.137362
0.0395666 0.826444 0.135073
0.0857557 0.812253 0.122957
0.109224 0.804044 0.116823
0.137133 0.795819 0.110033
0.174807 0.786664 0.101396
0.206409 0.779049 0.0943008
0.252811 0.771176 0.0834974
0.301885 0.763912 0.0716106
0.347555 0.757763 0.060029
0.40737 0.752956 0.0435187
0.464103 0.750195 0.0146029
0.519341 0.747173 0.000259403
0.574197 0.744335 0
0.627497 0.742016 0
0.676143 0.738659 0
0.723125 0.735683 0
0.766186 0.732708 0.00633249
0.803372 0.728374 0.0299077
0.84123 0.725261 0.0426032
0.874052 0.72256 0.0536049
0.905821 0.720027 0.0632486
0.935531 0.717342 0.0738842
0.962036 0.714061 0.0877394
0.988861 0.710811 0.101305
1 0.706416 0.126543
1 0.702403 0.150423
1 0.697948 0.179767
1 0.692744 0.214511
0.0345617 0.876814 0.15201
0.0336919 0.873518 0.151141
0.0329137 0.870542 0.150332
0.0365301 0.866926 0.148699
0.0395056 0.86334 0.147097
0.0488746 0.858183 0.143526
0.0863966 0.846586 0.133501
0.104524 0.840055 0.128573
0.136522 0.831418 0.121019
0.168139 0.823667 0.113985
0.195178 0.816678 0.108034
0.244678 0.808698 0.0970626
0.288838 0.801801 0.0872358
0.336812 0.795682 0.0760357
0.396063 0.790387 0.0603342
0.451347 0.786007 0.0426032
0.508232 0.782925 0.0258335
0.564858 0.780865 0.00544747
0.618585 0.778149 0
0.668009 0.774975 0
0.716335 0.772 0.000289921
0.758618 0.768505 0.00852979
0.797742 0.764294 0.0286564
0.835798 0.760723 0.0393835
0.868482 0.757458 0.0497292
0.901305 0.754253 0.0587778
0.93109 0.750835 0.0699779
0.959777 0.747753 0.0813001
0.986542 0.744549 0.0949569
1 0.740826 0.114031
1 0.737331 0.130541
1 0.733028 0.156985
1 0.728496 0.182803
0.0436561 0.905104 0.159335
0.0426795 0.903075 0.158831
0.0425116 0.900801 0.158099
0.0437324 0.898238 0.157076
0.0446021 0.895109 0.155978
0.0575875 0.889281 0.152056
0.0868086 0.879683 0.144091
0.100313 0.87396 0.140169
0.135683 0.86482 0.132189
0.161791 0.85771 0.12639
0.191531 0.850706 0.119509
0.237232 0.842542 0.109804
0.276463 0.83592 0.101747
0.329168 0.829404 0.0896162
0.386816 0.823529 0.0750744
0.44036 0.819104 0.0605631
0.499168 0.815656 0.0469825
0.555718 0.813626 0.0283665
0.609186 0.811963 0.00967422
0.66006 0.809354 0.00735485
0.710079 0.807218 0.00459297
0.751659 0.803494 0.012604
0.792126 0.79968 0.0269169
0.829587 0.795972 0.0359045
0.863737 0.792096 0.0445411
0.897536 0.788693 0.0515755
0.928298 0.78558 0.0597086
0.95903 0.782193 0.0678569
0.985306 0.778408 0.0794995
1 0.774823 0.092607
1 0.771069 0.107347
1 0.766552 0.129229
1 0.76231 0.148959
0.0540475 0.93106 0.165545
0.0530709 0.929198 0.165194
0.0533455 0.927138 0.164569
0.0537881 0.924865 0.163851
0.0538033 0.922469 0.163134
0.0758068 0.914916 0.157015
0.0888991 0.909667 0.153231
0.103777 0.904433 0.149294
0.13254 0.896834 0.142885
0.152499 0.891188 0.138521
0.186465 0.88394 0.131426
0.225956 0.876631 0.123537
0.260487 0.870176 0.116854
0.32079 0.862898 0.102373
0.376074 0.857404 0.0890822
0.431662 0.852522 0.0753643
0.490211 0.848997 0.0602274
0.546349 0.846433 0.0420233
0.600427 0.843702 0.0322576
0.652995 0.841733 0.0192569
0.702632 0.839216 0.0121767
0.745037 0.834791 0.0217288
0.787823 0.830732 0.0283055
0.82417 0.826001 0.036286
0.859495 0.821637 0.0432441
0.893339 0.817441 0.0501106
0.924636 0.813703 0.0577096
0.955962 0.81004 0.0646525
0.981765 0.806668 0.0745556
1 0.803723 0.0832074
1 0.800626 0.095079
1 0.79733 0.107088
1 0.794125 0.11812
0.0690166 0.955047 0.169787
0.0678416 0.953872 0.169787
0.0676127 0.952407 0.169436
0.0667277 0.950988 0.169223
0.0708324 0.948318 0.167712
0.0829938 0.943404 0.16405
0.0885023 0.93991 0.16202
0.106645 0.93402 0.157427
0.127764 0.927947 0.15259
0.14432 0.922911 0.148867
0.184054 0.914473 0.141009
0.21912 0.9075 0.134096
0.259205 0.900618 0.125811
0.315602 0.893324 0.113024
0.365209 0.887587 0.101152
0.422583 0.88275 0.087129
0.481407 0.879042 0.0710918
0.537423 0.876112 0.0546578
0.592538 0.873014 0.0449683
0.64625 0.870893 0.0322423
0.694697 0.867491 0.0270085
0.739406 0.863615 0.0292515
0.782528 0.8598 0.0316625
0.818998 0.85481 0.0374609
0.85539 0.850187 0.0421454
0.888914 0.846113 0.0481727
0.921141 0.841993 0.0543221
0.951858 0.838041 0.0600748
0.979324 0.834669 0.0657054
1 0.831144 0.0717632
1 0.827771 0.0805676
1 0.824445 0.0901045
1 0.820432 0.103517
0.0868544 0.976745 0.172885
0.0861982 0.975448 0.172747
0.0856336 0.974166 0.172488
0.0850996 0.972915 0.172259
0.0876631 0.970733 0.171176
0.0908827 0.968475 0.169894
0.0931106 0.966384 0.168856
0.111528 0.961135 0.164492
0.125811 0.956756 0.161166
0.145998 0.951476 0.156756
0.18172 0.944167 0.149477
0.211292 0.938308 0.143755
0.256016 0.931228 0.134752
0.304799 0.924392 0.124254
0.349035 0.918929 0.114733
0.412253 0.913375 0.0978256
0.471427 0.908751 0.0809796
0.528161 0.904967 0.066743
0.584863 0.901335 0.0540932
0.640146 0.898421 0.0378119
0.687556 0.893919 0.0366979
0.734585 0.889586 0.03505
0.776669 0.884764 0.0363012
0.81471 0.879637 0.0400092
0.852399 0.87451 0.0435187
0.885634 0.869841 0.0488594
0.918914 0.865064 0.0536202
0.949035 0.861112 0.0589914
0.978225 0.857237 0.0646525
1 0.85359 0.0707561
1 0.850843 0.0777752
1 0.848035 0.084184
1 0.844999 0.0914321
0.0958419 0.999054 0.177523
0.0957198 0.998337 0.177462
0.0956283 0.99762 0.177356
0.095491 0.996643 0.177172
0.0966201 0.995468 0.176562
0.0971389 0.99443 0.176104
0.101656 0.991958 0.174609
0.113832 0.988067 0.171618
0.123323 0.984771 0.169284
0.15024 0.978256 0.163394
0.179217 0.972015 0.157397
0.20296 0.966857 0.152651
0.252949 0.958724 0.141924
0.295567 0.952331 0.133059
0.344762 0.946334 0.122423
0.405402 0.940322 0.106523
0.460731 0.935454 0.0913558
0.519661 0.930663 0.0773022
0.577005 0.926375 0.0617227
0.631083 0.922332 0.0484932
0.681163 0.917708 0.0441138
0.730465 0.913527 0.0389868
0.771542 0.908339 0.0404822
0.811856 0.903227 0.0425269
0.849012 0.898268 0.0453803
0.883284 0.893202 0.0490425
0.916976 0.888273 0.0525978
0.947402 0.883925 0.0575723
0.97792 0.879667 0.062211
1 0.876234 0.0671244
1 0.872953 0.0721752
1 0.869902 0.0770581
1 0.86688 0.0818799
0.102998 1 0.182086
0.102876 1 0.181964
0.102754 1 0.181842
0.102831 1 0.181552
0.103258 1 0.181094
0.103609 1 0.180713
0.110292 1 0.178943
0.118318 1 0.17702
0.124743 1 0.175433
