LUT预设1/富士LUT改款/709机型使用/富士ASTIA-709.cube
TITLE "Generated by Resolve"
LUT_3D_SIZE 9
0 0.0534829 0.0487068
0.0844282 0.0508888 0.0268559
0.172137 0.0597086 0.0130922
0.333501 0.0819715 0
0.555871 0.095964 0.014786
0.773404 0.0912184 0.146548
0.918044 0.0923934 0.275502
1 0.10042 0.396582
1 0.107576 0.521126
0 0.158694 0.068986
0.118395 0.144869 0.0364385
0.298085 0.152956 0.0323339
0.514427 0.170794 0.039765
0.685924 0.189364 0.0300298
0.819059 0.191516 0.10547
0.931228 0.18645 0.208301
1 0.176287 0.358907
1 0.154925 0.550866
0 0.38822 0.0338293
0.1084 0.341238 0
0.290745 0.314946 0
0.509819 0.300969 0
0.686732 0.290578 0.0466163
0.816632 0.283055 0.112215
0.910185 0.281544 0.181186
0.985855 0.283909 0.263706
1 0.275181 0.402487
0 0.577569 0.0681468
0.0345159 0.531685 0.0538491
0.216999 0.482246 0
0.423331 0.452186 0
0.632944 0.432822 0
0.787503 0.420172 0.0437018
0.898817 0.411902 0.138247
0.988251 0.402609 0.265415
1 0.391928 0.407172
0.000350958 0.718196 0.106249
0.0230411 0.689006 0.0937057
0.161135 0.642359 0.0576333
0.349981 0.610132 0
0.569192 0.590768 0
0.755535 0.577905 0.0144045
0.889693 0.568566 0.0722057
0.986053 0.558145 0.180102
1 0.543832 0.330312
0.0264134 0.848875 0.143694
0.0344396 0.831403 0.137362
0.137133 0.795819 0.110033
0.301885 0.763912 0.0716106
0.519341 0.747173 0.000259403
0.723125 0.735683 0
0.874052 0.72256 0.0536049
0.988861 0.710811 0.101305
1 0.692744 0.214511
0.0690166 0.955047 0.169787
0.0708324 0.948318 0.167712
0.127764 0.927947 0.15259
0.259205 0.900618 0.125811
0.481407 0.879042 0.0710918
0.694697 0.867491 0.0270085
0.85539 0.850187 0.0421454
0.979324 0.834669 0.0657054
1 0.820432 0.103517
0.108675 1 0.186236
0.109529 1 0.185702
0.133532 1 0.179629
0.241398 1 0.157412
0.442313 0.983505 0.111177
0.673869 0.961608 0.0532235
0.844877 0.941756 0.0489662
0.975296 0.921309 0.0608988
1 0.905852 0.0736706
0.123705 1 0.197101
0.125826 1 0.196796
0.144015 1 0.192691
0.22977 1 0.175479
0.417533 1 0.132998
0.661021 1 0.0727092
0.83978 1 0.0605936
0.970962 1 0.0697032
1 0.979339 0.0777752
0 0.0420996 0.111864
0.103975 0.0317388 0.0964523
0.214755 0.0409247 0.101884
0.488212 0.0461433 0.165927
0.694713 0.079118 0.193072
0.801999 0.109468 0.193545
0.837659 0.117739 0.194034
0.875685 0.117159 0.21326
0.937881 0.110353 0.262333
0 0.1617 0.165805
0.103212 0.138506 0.141909
0.236835 0.157351 0.12076
0.433219 0.172061 0.118074
0.599313 0.180438 0.110887
0.725338 0.179385 0.123949
0.833722 0.170825 0.180575
0.932113 0.159686 0.270405
1 0.150072 0.397498
0 0.421607 0.216297
0.0679942 0.350378 0.174136
0.270848 0.308339 0.143023
0.486305 0.291386 0.137301
0.64831 0.283803 0.155871
0.767452 0.288182 0.158221
0.870527 0.28838 0.201282
0.962966 0.283757 0.291798
1 0.269657 0.428321
0 0.611734 0.173022
0.00665293 0.550011 0.161089
0.194858 0.48481 0.121294
0.406027 0.449042 0.0915389
0.618051 0.426932 0.104036
0.770275 0.414786 0.156802
0.879286 0.406943 0.238956
0.965103 0.406531 0.318303
1 0.411688 0.395819
0.00323491 0.7476 0.155596
0.0112001 0.709361 0.157305
0.136278 0.653529 0.123995
0.331991 0.615091 0.0733959
0.556802 0.593805 0.0320134
0.748257 0.578256 0.0695354
0.880262 0.567666 0.146273
0.974472 0.55613 0.278721
1 0.544335 0.417853
0.0328222 0.873747 0.159792
0.031632 0.851209 0.155123
0.120668 0.81239 0.126894
0.281483 0.776593 0.0889754
0.503929 0.753964 0.040589
0.712947 0.740734 0.031754
0.866712 0.725032 0.0914626
0.979461 0.710033 0.176226
1 0.694331 0.316548
0.0858473 0.974014 0.172839
0.0824598 0.963943 0.171817
0.112398 0.945052 0.163394
0.234409 0.915846 0.13547
0.453651 0.890929 0.0809491
0.677836 0.878416 0.031281
0.845899 0.86183 0.0480201
0.970291 0.843275 0.0932174
1 0.825803 0.186587
0.113756 1 0.18967
0.112886 1 0.188952
0.124788 1 0.185306
0.201144 1 0.169711
0.394186 1 0.126741
0.636484 0.97702 0.0602121
0.82211 0.958129 0.0495613
0.957336 0.93991 0.0601663
1 0.924376 0.0911879
0.124697 1 0.197848
0.125017 1 0.197772
0.129656 1 0.196674
0.188952 1 0.184771
0.329381 1 0.156847
0.58999 1 0.0902876
0.80206 1 0.062501
0.94844 1 0.0693675
1 0.992813 0.0780957
0 0.0272068 0.174792
0.117372 0.0118105 0.169894
0.289693 0.0168917 0.201892
0.585916 0.0367895 0.270954
0.84445 0.0715343 0.355169
1 0.0925612 0.4636
1 0.104891 0.547127
1 0.111849 0.585641
1 0.114961 0.596857
0 0.152529 0.283864
0.0912337 0.12578 0.256016
0.303929 0.124346 0.264973
0.53875 0.134463 0.289784
0.716976 0.145388 0.316533
0.800534 0.165942 0.288304
0.837263 0.180758 0.248676
0.868879 0.187793 0.213977
0.907423 0.18819 0.213214
0 0.42742 0.449287
0 0.364813 0.378866
0.2448 0.295964 0.30869
0.434226 0.28542 0.267124
0.57882 0.287892 0.234379
0.700648 0.282322 0.222553
0.799786 0.272465 0.233341
0.887846 0.257923 0.286259
0.96733 0.241413 0.363256
0 0.630579 0.421485
0 0.572625 0.370413
0.155444 0.488655 0.303868
0.386938 0.439124 0.261311
0.59826 0.416571 0.261784
0.742061 0.406653 0.287968
0.842908 0.414435 0.293233
0.933852 0.416968 0.345953
1 0.411749 0.437308
0.000946059 0.76762 0.346075
0 0.72929 0.320577
0.090547 0.665278 0.285557
0.310262 0.611719 0.23714
0.540459 0.586694 0.204761
0.736049 0.570306 0.234012
0.865919 0.560327 0.308293
0.959411 0.551522 0.401389
1 0.548196 0.479774
0.0363622 0.890471 0.255192
0.0286412 0.866194 0.259525
0.090547 0.822461 0.261982
0.249821 0.775876 0.233494
0.480751 0.749325 0.187701
0.699153 0.734615 0.172946
0.855817 0.718914 0.223987
0.967956 0.704295 0.316548
1 0.692576 0.441947
0.0921492 0.989197 0.209155
0.0854505 0.974456 0.22295
0.0924392 0.953872 0.240223
0.202121 0.919905 0.218784
0.41973 0.889158 0.167071
0.655909 0.873686 0.134539
0.832593 0.857969 0.14612
0.959396 0.840284 0.208042
1 0.822873 0.324346
0.118288 1 0.196429
0.115923 1 0.200244
0.117357 1 0.210849
0.167086 1 0.205478
0.353384 1 0.157229
0.60029 0.988693 0.0831159
0.803555 0.971893 0.0740063
0.942809 0.953002 0.115724
1 0.935119 0.184329
0.125322 1 0.198245
0.125139 1 0.198123
0.125078 1 0.198047
0.154101 1 0.193256
0.262928 1 0.17084
0.516457 1 0.109361
0.755673 1 0.0667887
0.917128 1 0.0705577
1 1 0.0901503
0 0.00943008 0.25507
0.12488 0 0.246052
0.336248 0.00872816 0.292134
0.676234 0.0450752 0.369085
0.938064 0.0811627 0.48455
1 0.101411 0.607843
1 0.11191 0.705119
1 0.118196 0.781994
1 0.131792 0.821134
0 0.128267 0.445686
0.0735332 0.0967269 0.401755
0.30753 0.0877546 0.410224
0.607156 0.0874037 0.456336
0.824247 0.0942092 0.518578
0.967788 0.102495 0.582361
1 0.112795 0.656062
1 0.124437 0.708019
1 0.136263 0.710689
0 0.394598 0.656886
0 0.327474 0.562753
0.213504 0.263767 0.478737
0.469688 0.235248 0.44976
0.660853 0.229786 0.445777
0.802304 0.22884 0.468803
0.882048 0.243687 0.455833
0.912947 0.267689 0.393027
0.931258 0.282353 0.3252
0 0.637095 0.68719
0 0.57084 0.611048
0.0936751 0.487053 0.52282
0.35285 0.422263 0.449012
0.542702 0.416968 0.393011
0.676951 0.420691 0.359823
0.785946 0.412909 0.358221
0.877699 0.399374 0.379904
0.95111 0.379309 0.42388
0 0.773297 0.620752
0 0.739254 0.577111
0 0.696086 0.533227
0.26154 0.612207 0.456336
0.519905 0.575311 0.41265
0.717525 0.560418 0.422202
0.841917 0.552514 0.45449
0.929015 0.559197 0.462272
1 0.561181 0.508568
0.0354162 0.887297 0.534218
0.0276341 0.868986 0.514931
0.0350042 0.838499 0.498848
0.19295 0.777142 0.45658
0.451362 0.739681 0.407919
0.684642 0.725017 0.378119
0.844068 0.71043 0.411566
0.954253 0.698604 0.479622
1 0.689174 0.565789
0.0939193 0.985519 0.413413
0.0886397 0.973709 0.414679
0.0818341 0.954757 0.429007
0.162295 0.916899 0.429984
0.375662 0.876463 0.392645
0.627619 0.860182 0.346624
0.815305 0.847288 0.34255
0.94754 0.832105 0.392782
1 0.81857 0.491066
0.119356 1 0.256168
0.115679 1 0.295689
0.112474 1 0.325307
0.129259 1 0.346105
0.301915 1 0.315236
0.557702 0.97911 0.269184
0.779324 0.967193 0.251453
0.925872 0.951705 0.284337
1 0.932464 0.358495
0.12546 1 0.198611
0.124971 1 0.206653
0.124254 1 0.226291
0.134554 1 0.240192
0.22031 1 0.231983
0.451072 1 0.171084
0.709575 1 0.143343
0.888273 1 0.155032
1 1 0.181384
0 0.000808728 0.346044
0.12256 0 0.337881
0.395987 0.0150454 0.374105
0.777478 0.057847 0.463188
1 0.0945754 0.615213
1 0.111177 0.745205
1 0.11931 0.817685
1 0.136004 0.842008
1 0.17467 0.815183
0 0.088838 0.627909
0.0761578 0.0613413 0.563867
0.360204 0.0429236 0.568872
0.684688 0.0522469 0.613092
0.900008 0.0778058 0.664424
1 0.0961929 0.724636
1 0.108965 0.787457
1 0.118059 0.848615
1 0.13022 0.892363
0 0.321096 0.823819
0 0.267124 0.712108
0.185916 0.215427 0.622934
0.458335 0.183261 0.600366
0.701503 0.171283 0.604395
0.856321 0.176669 0.624903
0.965988 0.181918 0.668986
1 0.182269 0.737026
1 0.185138 0.799039
0 0.61062 0.869337
0 0.526223 0.778317
0.0181888 0.456413 0.694621
0.315694 0.39057 0.611032
0.57673 0.357946 0.582681
0.738506 0.355245 0.570291
0.853864 0.354894 0.58114
0.944457 0.359304 0.602609
0.980621 0.387945 0.563363
0 0.780804 0.848219
0 0.738293 0.799847
0 0.693172 0.751553
0.19057 0.610574 0.663539
0.48188 0.559884 0.594797
0.674006 0.560479 0.549447
0.78526 0.572473 0.512581
0.881697 0.562066 0.517952
0.95964 0.544549 0.542275
0.0214389 0.889082 0.799466
0.0166323 0.86923 0.773388
0.0127108 0.844877 0.742123
0.105211 0.795682 0.685374
0.388128 0.737087 0.613291
0.660975 0.711757 0.573983
0.825391 0.699519 0.585107
0.93106 0.689769 0.616403
1 0.696056 0.626368
0.0775616 0.974121 0.715496
0.0754559 0.965621 0.69752
0.0689097 0.952239 0.684764
0.114107 0.921355 0.66508
0.300816 0.871305 0.62295
0.594217 0.846036 0.572244
0.797192 0.836561 0.552804
0.935775 0.825071 0.579599
1 0.815167 0.642542
0.117098 1 0.552132
0.116396 1 0.560952
0.113329 1 0.564385
0.117525 1 0.588937
0.238956 0.997497 0.588571
0.505699 0.962371 0.543938
0.750088 0.953796 0.503594
0.907317 0.941161 0.514275
1 0.923095 0.56112
0.123339 1 0.301411
0.122927 1 0.340291
0.122347 1 0.363622
0.124041 1 0.400565
0.182773 1 0.449027
0.378576 1 0.435187
0.654292 1 0.382193
0.854444 1 0.366949
0.987243 1 0.395972
0 0.0203861 0.474464
0.0900282 0.0101778 0.453788
0.368811 0.0208286 0.481712
0.760372 0.0554513 0.57174
1 0.0961776 0.698726
1 0.115633 0.82707
1 0.132219 0.884611
1 0.195575 0.821042
1 0.231754 0.797543
0.00364691 0.0737469 0.749203
0.051194 0.0608988 0.704234
0.369207 0.0366979 0.634363
0.751492 0.0564889 0.669306
0.979278 0.0878004 0.743816
1 0.107561 0.823819
1 0.120928 0.88191
1 0.139071 0.908202
1 0.174914 0.885801
0 0.172595 0.889189
0 0.183795 0.845899
0.173236 0.141909 0.735302
0.469215 0.119417 0.717601
0.752148 0.11313 0.747585
0.953979 0.113893 0.804654
1 0.125841 0.852186
1 0.135775 0.902708
1 0.156374 0.922148
0 0.527779 0.986938
0 0.459373 0.917922
0 0.3935 0.820951
0.283375 0.334569 0.740826
0.564279 0.301472 0.71931
0.774319 0.282307 0.721752
0.909361 0.282521 0.740063
1 0.283909 0.779278
1 0.283299 0.828763
0 0.7785 1
0 0.714519 0.94966
0 0.65008 0.889372
0.142718 0.570077 0.804517
0.445212 0.530465 0.740032
0.691829 0.504326 0.718944
0.836439 0.499687 0.710353
0.934142 0.49897 0.717235
1 0.498329 0.744289
0.0154269 0.902068 0.983505
0.00833143 0.872038 0.95137
0.00233463 0.840101 0.916747
0.0337224 0.802136 0.875975
0.307576 0.73106 0.791165
0.616358 0.695338 0.735958
0.789593 0.69485 0.70486
0.892515 0.70164 0.683009
0.971633 0.694057 0.683925
0.0433356 0.985168 0.935851
0.0395514 0.973388 0.920272
0.0343786 0.958984 0.9028
0.0456397 0.937255 0.877287
0.20499 0.886336 0.818051
0.521737 0.840833 0.74818
0.773617 0.824414 0.722377
0.920272 0.815061 0.729961
1 0.80972 0.752422
0.0898909 1 0.84152
0.0928969 1 0.83328
0.0909133 1 0.828
0.0881056 1 0.825544
0.149584 1 0.805768
0.419516 0.956252 0.752056
0.714916 0.938491 0.709224
0.888991 0.929656 0.698299
1 0.914382 0.715145
0.11667 1 0.641505
0.11902 1 0.651164
0.119051 1 0.661265
0.117189 1 0.679957
0.140673 1 0.697841
0.290471 1 0.690425
0.591684 1 0.647059
0.815641 1 0.617838
0.963623 0.999985 0.61529
0.00209049 0.0643931 0.706706
0.0100099 0.0741741 0.761242
0.127443 0.0579538 0.742107
0.533776 0.0482185 0.703426
0.958068 0.0852064 0.761547
1 0.114122 0.866484
1 0.128588 0.93547
1 0.211093 0.845411
1 0.2645 0.800534
0.00724804 0.0939651 0.854475
0.00769055 0.0957351 0.864485
0.183841 0.0603189 0.774792
0.671183 0.0530404 0.725322
0.999817 0.0916915 0.791165
1 0.115953 0.886595
1 0.13579 0.933074
1 0.203189 0.870512
1 0.250767 0.840345
0.00762951 0.0974289 0.86894
0 0.122667 0.915816
0.165408 0.0794537 0.818097
0.543023 0.0618448 0.806058
0.852689 0.0805371 0.845136
1 0.102037 0.898817
1 0.117586 0.955047
1 0.136095 0.985077
1 0.172305 0.95317
0 0.284749 0.97467
0 0.31667 0.982452
0 0.296269 0.921965
0.254994 0.241886 0.840909
0.56376 0.215305 0.832563
0.805737 0.201419 0.849882
0.965805 0.200946 0.879072
1 0.203906 0.916991
1 0.211963 0.943038
0 0.6766 1
0 0.660304 1
0 0.589029 0.99646
0.0941329 0.514122 0.914763
0.403754 0.475608 0.855131
0.677058 0.443198 0.838956
0.858549 0.420478 0.83772
0.972732 0.414969 0.85005
1 0.417807 0.872404
0.0114748 0.899016 1
0.00393683 0.871199 1
0 0.818204 1
0 0.768551 0.987884
0.250507 0.693736 0.905913
0.577371 0.666941 0.852644
0.798962 0.647654 0.835706
0.92491 0.641108 0.829969
1 0.635676 0.844907
0.0434577 0.992493 1
0.0368658 0.975814 1
0.0298619 0.955856 1
0.0251164 0.934615 1
0.140581 0.886946 0.968948
0.429435 0.832654 0.894072
0.732341 0.810895 0.84831
0.893919 0.808667 0.828717
0.984207 0.812268 0.816159
0.0787976 1 1
0.0775311 1 1
0.0740673 1 0.9991
0.0690318 1 0.990494
0.0867781 1 0.972335
0.296315 0.963134 0.913497
0.629313 0.929397 0.850034
0.867521 0.916548 0.828458
0.990143 0.901656 0.828641
0.0941176 1 0.900587
0.0949111 1 0.900679
0.0940261 1 0.904921
0.0915847 1 0.904814
0.0947433 1 0.897963
0.185 1 0.876493
0.482658 1 0.822583
0.775921 0.997497 0.788479
0.940322 0.987106 0.77174
0.0100404 0.101671 0.901152
0.0122072 0.107362 0.935653
0.0131991 0.108721 0.944549
0.170138 0.0797742 0.87715
0.732479 0.0682383 0.83592
1 0.106447 0.901793
1 0.123888 0.984283
1 0.190173 0.903441
1 0.271931 0.83592
0.0140078 0.109972 0.952651
0.014435 0.110689 0.957229
0.0162814 0.109041 0.947341
0.256443 0.0699626 0.855543
0.819821 0.0774548 0.85211
1 0.112062 0.922805
1 0.128649 0.986542
1 0.213886 0.891768
1 0.284138 0.836362
0.0124056 0.107271 0.93547
0.0133059 0.108782 0.945037
0.0341955 0.103273 0.918898
0.391928 0.0628824 0.832837
0.864744 0.0805219 0.861311
1 0.110216 0.935332
1 0.126497 1
1 0.190738 0.934844
1 0.238453 0.892989
0.0033875 0.12015 0.927886
0 0.152956 0.948592
0 0.174487 0.955001
0.24622 0.136217 0.893187
0.625605 0.124636 0.91043
0.904936 0.12932 0.961486
1 0.132677 1
1 0.150149 1
1 0.16733 1
0 0.416663 1
0 0.454398 1
0 0.472709 1
0.00683604 0.419364 0.991043
0.361639 0.361654 0.937591
0.679698 0.332876 0.932891
0.882811 0.311666 0.94229
1 0.298756 0.962051
1 0.30251 0.976349
0 0.795254 1
0 0.798901 1
0 0.778058 1
0 0.717205 1
0.186252 0.642451 0.991638
0.537041 0.615442 0.947295
0.789273 0.588602 0.932845
0.941939 0.564553 0.930526
1 0.561334 0.936095
0.03299 0.966567 1
0.0309606 0.960845 1
0.0243839 0.942351 1
0.0140993 0.908949 1
0.0534524 0.863554 1
0.34612 0.801572 0.989349
0.697978 0.784985 0.948516
0.896635 0.7738 0.934188
1 0.76408 0.928069
0.0753033 1 1
0.0715801 1 1
0.0616617 1 1
0.0543832 1 1
0.0489815 1 1
0.202655 0.954009 1
0.524468 0.912718 0.969711
0.833951 0.898039 0.93315
0.964767 0.890547 0.909285
0.091371 1 1
0.0914015 1 1
0.0912642 1 1
0.0891127 1 1
0.0876478 1 1
0.115068 1 1
0.307729 1 0.970855
0.685359 0.983581 0.908415
0.916152 0.969848 0.884642
0.016968 0.112596 0.971008
0.0179446 0.112993 0.973571
0.0184176 0.113146 0.974365
0.0177005 0.11281 0.972305
0.197574 0.0854353 0.920851
0.883436 0.0904097 0.945174
1 0.12134 1
1 0.16051 0.978897
1 0.253162 0.882475
0.0188144 0.113252 0.974884
0.0188449 0.113268 0.974945
0.0184024 0.113115 0.973999
0.018204 0.112016 0.967498
0.400122 0.0742962 0.924514
0.972992 0.0979019 0.961135
1 0.123125 1
1 0.183322 0.959625
1 0.262943 0.880201
0.0167544 0.112474 0.969848
0.0171206 0.112642 0.970916
0.0169833 0.112566 0.970611
0.0574655 0.105211 0.94818
0.564172 0.0723278 0.915938
1 0.103532 0.969375
1 0.125002 1
1 0.192493 0.9561
1 0.26041 0.884978
0.0142977 0.110384 0.955337
0.0145113 0.112566 0.96286
0.0151827 0.11371 0.966567
0.159152 0.092195 0.923629
0.625498 0.0770275 0.948043
1 0.104463 1
1 0.125383 1
1 0.18175 1
1 0.216785 0.95407
0 0.162249 0.957824
0 0.170138 0.960342
0 0.211307 0.966461
0 0.260807 0.975006
0.336446 0.205982 0.96495
0.737331 0.195422 1
0.961669 0.192782 1
1 0.193362 1
1 0.195819 1
0 0.542321 1
0 0.575936 1
0 0.617929 1
0 0.607355 1
0.103044 0.537224 1
0.489586 0.492195 0.997543
0.791135 0.466011 1
0.957977 0.437324 1
1 0.426535 1
0.00427253 0.87126 1
0.00469978 0.87126 1
0.0053254 0.876005 1
0.00205997 0.866926 1
0 0.818799 1
0.247517 0.753277 1
0.662104 0.7346 1
0.886351 0.717403 1
1 0.694652 1
0.0461891 0.998978 1
0.0469825 1 1
0.0458991 0.998383 1
0.0394141 0.98291 1
0.0315709 0.961563 1
0.0948348 0.927047 1
0.424613 0.877272 1
0.802625 0.869032 1
0.963165 0.847776 0.996109
0.0879835 1 1
0.0885023 1 1
0.0868391 1 1
0.0821393 1 1
0.0775006 1 1
0.0809949 1 1
0.17525 1 1
0.574899 0.960098 1
0.870436 0.946715 0.980117
