LUT预设1/LUT全系打包/6.FAKE5207&淡雅系列/FAKE5207/FAKE5207-REC709/FAKE5207-709WARM暖.cube
TITLE "Generated by Resolve"
LUT_3D_SIZE 33
0.0151675 0.0167697 0.0151217
0.0398871 0.0150759 0.010132
0.0704204 0.0136721 0.00608835
0.103563 0.0138552 0.00376898
0.138293 0.0140383 0.00268559
0.171984 0.0141299 0.00178531
0.205402 0.0138094 0.00117494
0.23888 0.0132448 0.000885023
0.271214 0.0125429 0.000503548
0.305501 0.0119173 0.000396735
0.337819 0.0108797 0.000167849
0.37203 0.00999466 0.000137331
0.405035 0.00865187 7.62951e-05
0.440284 0.00761425 6.10361e-05
0.47512 0.00758373 4.57771e-05
0.511559 0.0075227 3.0518e-05
0.548684 0.00729381 1.5259e-05
0.585946 0.00682078 0
0.625269 0.00654612 0
0.665034 0.00576791 0
0.707088 0.00482185 0
0.749874 0.00352483 0
0.792264 0.00231937 0
0.835126 0.00148013 0
0.877455 0.0010071 0
0.914702 0.0015259 0
0.95111 0.00175479 0
0.971923 0.00192264 0
0.990555 0.00189212 0
0.995926 0.00177005 0
0.999344 0.00155642 0
0.999893 0.00132753 0
1 0.00111391 0
0.0129702 0.0416876 0.0196994
0.0385748 0.0399786 0.0153811
0.0713664 0.0383307 0.0115663
0.105959 0.0365606 0.0080415
0.141299 0.0348974 0.00555428
0.175067 0.0339513 0.00402838
0.207919 0.0330816 0.00268559
0.241077 0.0320287 0.00205997
0.272923 0.030808 0.00125124
0.305425 0.0294041 0.000885023
0.337148 0.0281224 0.000457771
0.369619 0.0269017 0.000335698
0.401175 0.0254215 0.000183108
0.43505 0.0241855 0.000228885
0.468132 0.0224155 0.000137331
0.503639 0.0207523 9.15541e-05
0.540368 0.0200809 4.57771e-05
0.577142 0.0194095 0
0.615625 0.0187991 0
0.654871 0.0176852 0
0.695659 0.0165713 0
0.737057 0.0150912 0
0.778149 0.0137331 0
0.82002 0.012665 0
0.862089 0.011429 0
0.900084 0.0106203 0
0.938125 0.00944533 0
0.962219 0.00852979 0
0.985122 0.00740063 0
0.993255 0.00640879 0
0.998978 0.00541695 0
0.999771 0.00453193 0
1 0.00383001 0
0.0126192 0.0725414 0.0270848
0.0324712 0.0712291 0.0215
0.0673533 0.0689097 0.0158083
0.103471 0.0665751 0.01149
0.140291 0.064271 0.00805676
0.175998 0.0615396 0.00637827
0.210224 0.0592203 0.0047303
0.243107 0.0565805 0.00332647
0.274891 0.0546731 0.00213626
0.306416 0.0528267 0.00138857
0.337575 0.0510567 0.000808728
0.368978 0.0492561 0.000564584
0.400916 0.0477607 0.000503548
0.434104 0.0463264 0.00047303
0.466331 0.0444343 0.000244144
0.500832 0.0429389 0.000167849
0.5355 0.0412299 7.62951e-05
0.570993 0.0393988 0
0.608194 0.0373999 0
0.645563 0.0353094 0
0.685313 0.0338445 0
0.72546 0.0321202 0
0.766171 0.0306859 0
0.807401 0.0296483 0
0.848508 0.0280308 0
0.886992 0.0267643 0
0.926146 0.0250706 0
0.953246 0.0235752 0
0.980117 0.0218204 0
0.9906 0.0201572 0
0.998596 0.0182956 0
0.999619 0.0165255 0
1 0.0149233 0
0.0104829 0.105241 0.0342107
0.0282597 0.104417 0.0274815
0.0599222 0.102068 0.0199893
0.097673 0.0992447 0.0148928
0.136141 0.0962844 0.0107118
0.17435 0.09337 0.00814832
0.210132 0.0902419 0.0059968
0.244419 0.0869306 0.00407416
0.277607 0.083711 0.00283818
0.309071 0.0806592 0.00180056
0.340825 0.0778058 0.00140383
0.371878 0.0755627 0.00122072
0.403479 0.0733654 0.000961318
0.435843 0.0715801 0.000762951
0.467964 0.0694743 0.000366217
0.502159 0.0678721 0.000274662
0.535882 0.0661326 0.000122072
0.570916 0.0641489 1.5259e-05
0.606714 0.0622416 1.5259e-05
0.642863 0.0600443 0
0.68069 0.0579385 0
0.719203 0.0556649 0
0.757992 0.0535592 0
0.797726 0.051194 0
0.837781 0.0486763 0
0.876432 0.0464179 0
0.916396 0.0438544 0
0.94583 0.0417334 0
0.975753 0.039292 0
0.988266 0.0368658 0
0.99823 0.0342107 0
0.999451 0.0315557 0
0.999985 0.028748 0
0.00674449 0.138689 0.0418097
0.0235599 0.138308 0.033463
0.0500038 0.136812 0.0243381
0.0893111 0.133593 0.0178683
0.129107 0.130404 0.0127871
0.169528 0.126833 0.00903334
0.20763 0.123232 0.00656138
0.243931 0.119982 0.00428778
0.27837 0.116075 0.0031281
0.311864 0.112902 0.00259403
0.344854 0.109483 0.00238041
0.376669 0.106142 0.00187686
0.409079 0.102831 0.00148013
0.440879 0.0995651 0.00105287
0.472419 0.0966354 0.000579843
0.505867 0.0944839 0.000411994
0.538338 0.0923629 0.00015259
0.572824 0.0904097 6.10361e-05
0.608026 0.0882429 3.0518e-05
0.643427 0.0860304 0
0.680613 0.0837415 0
0.718486 0.0814832 0
0.756298 0.0793622 0
0.794919 0.0768444 0
0.833997 0.0743267 0
0.872343 0.0720989 0
0.912062 0.0693523 0
0.942229 0.0666667 0
0.972854 0.0635386 0
0.98645 0.0608682 0
0.997818 0.0578775 0
0.999268 0.0549172 0
0.999954 0.0519722 0
0.00325017 0.172641 0.0509651
0.0173342 0.172686 0.0400397
0.04094 0.171862 0.0291905
0.0771649 0.1691 0.0200198
0.119677 0.165209 0.0139773
0.162142 0.161517 0.00901808
0.203235 0.157504 0.00694286
0.242222 0.153857 0.00543221
0.27895 0.149935 0.00471504
0.313878 0.146349 0.00383001
0.34789 0.142306 0.00323491
0.380606 0.13872 0.00244144
0.413657 0.135149 0.00195315
0.446204 0.131716 0.00132753
0.478477 0.128405 0.000854505
0.511604 0.124941 0.000564584
0.544152 0.12163 0.000183108
0.578576 0.118853 0.000122072
0.612848 0.115709 7.62951e-05
0.647608 0.112856 1.5259e-05
0.683772 0.110109 1.5259e-05
0.719875 0.107378 0
0.756909 0.105074 0
0.795041 0.102556 0
0.833494 0.0997482 0
0.871641 0.0972457 0
0.910185 0.0944533 0
0.940673 0.0916304 0
0.971405 0.0881361 0
0.985611 0.0853437 0
0.997559 0.0821698 0
0.999161 0.0790875 0
0.999939 0.0755474 0
0.00157168 0.206989 0.0606241
0.0115358 0.208133 0.0469825
0.0331426 0.207599 0.0344854
0.0624552 0.205997 0.0231022
0.106218 0.202106 0.016556
0.14931 0.198444 0.0115053
0.194095 0.194247 0.00889601
0.236576 0.190051 0.00701915
0.276814 0.185428 0.00582895
0.314733 0.18114 0.00482185
0.350622 0.176257 0.00395209
0.385107 0.17174 0.0030518
0.419028 0.167514 0.00238041
0.451469 0.163775 0.00157168
0.484535 0.15996 0.00108339
0.517494 0.156161 0.000701915
0.55021 0.152453 0.000274662
0.584573 0.149218 0.000198367
0.619333 0.145937 0.000106813
0.654582 0.14255 3.0518e-05
0.690349 0.139193 1.5259e-05
0.726925 0.135622 0
0.763684 0.132677 0
0.801129 0.129351 0
0.838895 0.126482 0
0.875624 0.123537 0
0.912551 0.120378 0
0.942306 0.11754 0
0.971786 0.114275 0
0.985946 0.111482 0
0.997482 0.108202 0
0.999115 0.105058 0
0.999924 0.101869 0
0.00151064 0.241123 0.069337
0.00587472 0.242939 0.0555581
0.0251621 0.242863 0.0415045
0.052079 0.241703 0.0292821
0.092256 0.238773 0.0203555
0.136584 0.235325 0.0146487
0.182712 0.23154 0.0106355
0.227481 0.22678 0.00834669
0.270756 0.222202 0.00660716
0.310765 0.217639 0.00534066
0.349248 0.212924 0.00430304
0.386099 0.208804 0.00335698
0.421317 0.203861 0.00257877
0.455436 0.199161 0.00170901
0.48983 0.194293 0.00128176
0.523644 0.18941 0.000808728
0.557671 0.184894 0.000411994
0.592096 0.180209 0.000289921
0.626917 0.17528 0.000122072
0.662058 0.171069 4.57771e-05
0.698192 0.167193 3.0518e-05
0.734768 0.16318 0
0.771069 0.160174 1.5259e-05
0.808377 0.15668 0
0.84509 0.153231 0
0.881148 0.149905 0
0.916732 0.14641 0
0.945418 0.143404 0
0.973297 0.140124 0
0.986908 0.137148 0
0.997543 0.13373 0
0.999161 0.130571 0
0.999908 0.127398 0
0.000854505 0.275212 0.0779889
0.00340276 0.277043 0.0643168
0.0170596 0.277928 0.0486763
0.0422217 0.277378 0.0355383
0.0756695 0.276219 0.0242161
0.122438 0.272236 0.0175479
0.168917 0.26836 0.0117037
0.218128 0.263416 0.00927749
0.26511 0.25864 0.00682078
0.307973 0.253605 0.00563058
0.348806 0.249058 0.00445563
0.386862 0.244251 0.00352483
0.423606 0.239353 0.00267033
0.458961 0.234684 0.00187686
0.493645 0.229465 0.00137331
0.528435 0.224826 0.000839246
0.562997 0.220142 0.000503548
0.598184 0.215045 0.000320439
0.633204 0.209934 0.000106813
0.668589 0.205249 7.62951e-05
0.705211 0.200061 6.10361e-05
0.742519 0.195117 3.0518e-05
0.77882 0.190646 1.5259e-05
0.816434 0.185885 1.5259e-05
0.852628 0.181552 0
0.888441 0.177249 0
0.922499 0.173037 0
0.95053 0.169635 0
0.975845 0.165728 0
0.988418 0.162387 0
0.997772 0.158938 0
0.999268 0.155749 0
0.999924 0.152773 0
0.000411994 0.309895 0.0871748
0.00329595 0.311681 0.0728466
0.0108492 0.313451 0.0563516
0.033875 0.313863 0.0420081
0.0620432 0.313298 0.0292058
0.10695 0.309758 0.0207065
0.152117 0.306188 0.0138705
0.202869 0.301381 0.0101625
0.25156 0.296742 0.00703441
0.298253 0.291554 0.0055848
0.343297 0.287053 0.0040589
0.383627 0.281697 0.00328069
0.423178 0.276555 0.00250248
0.461006 0.271672 0.00184634
0.497322 0.266316 0.00135805
0.532799 0.260914 0.000823987
0.568597 0.255085 0.000549325
0.604212 0.249424 0.000366217
0.640223 0.243244 0.000183108
0.676463 0.237308 0.000167849
0.713359 0.231525 0.000122072
0.750134 0.225742 4.57771e-05
0.786542 0.22089 4.57771e-05
0.824323 0.215427 1.5259e-05
0.859724 0.210605 0
0.895796 0.205631 0
0.928191 0.200809 0
0.955459 0.196689 0
0.978363 0.192142 0
0.990173 0.188083 0
0.998047 0.184131 0
0.999405 0.180926 0
0.999924 0.177401 0
7.62951e-05 0.343435 0.0966659
0.00157168 0.345907 0.0813306
0.00509651 0.348379 0.0644236
0.0229648 0.349508 0.0480964
0.0497292 0.349096 0.0342107
0.0893568 0.346761 0.0231632
0.136751 0.342962 0.0155642
0.189517 0.338415 0.0103914
0.240177 0.33344 0.00704967
0.290242 0.328496 0.00527962
0.337087 0.323644 0.00376898
0.380087 0.318425 0.00303655
0.422354 0.313771 0.00225834
0.461753 0.30837 0.00169375
0.499046 0.303456 0.0011902
0.535943 0.298329 0.000808728
0.572122 0.292454 0.000717174
0.60798 0.286671 0.000534066
0.6439 0.281254 0.000335698
0.68072 0.274952 0.000274662
0.718135 0.268482 0.000167849
0.755123 0.262242 9.15541e-05
0.792218 0.255726 6.10361e-05
0.830671 0.248875 1.5259e-05
0.866072 0.243214 1.5259e-05
0.902602 0.236835 0
0.933715 0.231235 0
0.960266 0.225711 0
0.981079 0.220493 0
0.992111 0.215793 0
0.998535 0.211353 0
0.999619 0.20708 0
0.999954 0.203235 0
6.10361e-05 0.37879 0.106188
0.00103761 0.381338 0.0894026
0.0053254 0.383551 0.0718547
0.0163577 0.385443 0.0538949
0.0410315 0.385351 0.0388952
0.0719158 0.384558 0.0257725
0.119493 0.38114 0.0177768
0.168322 0.377295 0.0109865
0.222202 0.371862 0.00758373
0.275273 0.366567 0.00508125
0.325109 0.361288 0.0034638
0.372961 0.356298 0.00262455
0.419364 0.351583 0.00181582
0.460151 0.345907 0.00164797
0.499428 0.341253 0.00140383
0.538033 0.335973 0.00114443
0.575265 0.330159 0.000976577
0.612207 0.324422 0.000732433
0.648798 0.317815 0.000534066
0.68574 0.311101 0.000411994
0.723613 0.303761 0.000228885
0.760845 0.29659 0.00015259
0.799313 0.288869 9.15541e-05
0.837858 0.281407 1.5259e-05
0.872801 0.274632 1.5259e-05
0.90959 0.267475 0
0.93875 0.260761 0
0.96527 0.254231 0
0.983642 0.24831 0
0.994141 0.242664 0
0.999008 0.23743 0
0.999802 0.23238 0
0.999969 0.228367 0
0 0.413153 0.115084
9.15541e-05 0.415381 0.0975052
0.00260929 0.418173 0.0785077
0.00735485 0.420768 0.059556
0.0288701 0.42153 0.0430762
0.0534066 0.42153 0.0282444
0.101228 0.418128 0.0193484
0.147189 0.415061 0.0111238
0.206088 0.409033 0.00787366
0.261494 0.4038 0.00485237
0.314565 0.398611 0.00373846
0.365713 0.39353 0.00289921
0.413931 0.388418 0.00222782
0.45687 0.383307 0.00195315
0.498894 0.378775 0.00161746
0.538308 0.373358 0.00134279
0.576196 0.368277 0.00111391
0.614099 0.362646 0.000823987
0.650935 0.356497 0.000640879
0.688426 0.349981 0.000457771
0.726513 0.343038 0.000244144
0.763684 0.336248 0.000167849
0.801999 0.32874 9.15541e-05
0.839841 0.32076 3.0518e-05
0.875578 0.313161 1.5259e-05
0.912825 0.30486 0
0.94078 0.297475 0
0.968093 0.290089 0
0.984543 0.282994 0
0.995438 0.275517 0
0.999252 0.269154 0
0.999908 0.262776 0
0.999985 0.257145 0
1.5259e-05 0.449119 0.123049
9.15541e-05 0.451133 0.105974
0.00204471 0.45362 0.0864271
0.00624094 0.456428 0.0674296
0.0220645 0.457664 0.0496834
0.0452583 0.457908 0.0349279
0.0838636 0.45565 0.0240635
0.127474 0.452781 0.0155337
0.184237 0.447562 0.0108034
0.23917 0.443107 0.00637827
0.296635 0.437079 0.00495918
0.351995 0.431724 0.00340276
0.402625 0.426505 0.0024567
0.44979 0.421195 0.00204471
0.495842 0.416495 0.00158694
0.536995 0.411307 0.00135805
0.576211 0.406363 0.00114443
0.615686 0.401495 0.000885023
0.653071 0.395529 0.000701915
0.691035 0.389136 0.000488289
0.729946 0.382406 0.000274662
0.767163 0.375067 0.000183108
0.80528 0.367117 9.15541e-05
0.842756 0.358877 3.0518e-05
0.879286 0.350408 1.5259e-05
0.917082 0.340871 0
0.943725 0.333043 0
0.971588 0.323842 0
0.985794 0.31603 0
0.997086 0.307424 0
0.999512 0.300313 0
0.999985 0.292653 0
0.999985 0.286488 0
0 0.483406 0.131121
0 0.485496 0.114717
0.000503548 0.488396 0.0946822
0.00390631 0.490898 0.0754406
0.0123598 0.493034 0.0567788
0.0332494 0.493462 0.0415351
0.0630655 0.492515 0.0287938
0.107698 0.489891 0.0196384
0.163149 0.485405 0.0130922
0.219348 0.480583 0.00798047
0.281346 0.474601 0.00564584
0.341283 0.46894 0.00321965
0.394491 0.463355 0.00242618
0.445182 0.458717 0.0019379
0.493553 0.453635 0.00144961
0.534417 0.449226 0.00128176
0.575586 0.444495 0.00109865
0.616297 0.439445 0.000885023
0.654047 0.433738 0.000671397
0.692821 0.428321 0.000427253
0.731701 0.42179 0.000244144
0.769055 0.414618 0.000167849
0.808133 0.407095 7.62951e-05
0.8448 0.399466 3.0518e-05
0.881895 0.390723 1.5259e-05
0.917922 0.381979 0
0.945327 0.373358 0
0.974289 0.363455 0
0.986618 0.354437 0
0.998871 0.344732 0
0.99968 0.335805 0
1 0.326741 0
1 0.31809 0
0 0.520058 0.139605
3.0518e-05 0.521935 0.12282
0.000228885 0.524285 0.102892
0.00311284 0.526635 0.0832074
0.0081178 0.529091 0.0640879
0.0271 0.529778 0.0479896
0.0490425 0.530373 0.0336461
0.0936141 0.527794 0.0238804
0.141283 0.524498 0.0155032
0.196979 0.519844 0.010193
0.258274 0.514183 0.00683604
0.317113 0.508721 0.00369268
0.374258 0.503182 0.0028687
0.429358 0.497658 0.00196841
0.480339 0.492302 0.00131228
0.525795 0.487465 0.00109865
0.570825 0.482765 0.000869764
0.61323 0.477516 0.000656138
0.653101 0.472877 0.00047303
0.693446 0.467536 0.000289921
0.732387 0.461769 0.000183108
0.770565 0.455421 0.000106813
0.810147 0.448432 4.57771e-05
0.846983 0.44155 1.5259e-05
0.884276 0.433265 1.5259e-05
0.918395 0.424659 0
0.946914 0.415824 0
0.974609 0.40589 0
0.987472 0.396063 0
0.999435 0.385657 0
0.999756 0.376226 0
1 0.365911 0
1 0.356085 0
0 0.555627 0.14815
3.0518e-05 0.557443 0.130648
0.000106813 0.55964 0.11104
0.00202945 0.562081 0.0908217
0.00460822 0.565118 0.0713664
0.0200656 0.56669 0.0542306
0.0356146 0.568231 0.0385595
0.0766613 0.565667 0.0278172
0.11545 0.563882 0.0178073
0.173983 0.558679 0.0122377
0.234363 0.553643 0.00770581
0.293965 0.548119 0.00437934
0.356481 0.541573 0.00302129
0.416526 0.53576 0.00163272
0.469184 0.530388 0.0010071
0.5187 0.525216 0.00077821
0.568582 0.520424 0.000518807
0.611582 0.51606 0.000366217
0.653025 0.511482 0.000259403
0.695171 0.506874 0.000137331
0.733379 0.501793 9.15541e-05
0.772229 0.496132 6.10361e-05
0.812268 0.49012 1.5259e-05
0.848508 0.482933 1.5259e-05
0.886381 0.474998 0
0.919402 0.466636 0
0.949065 0.457771 0
0.974731 0.447822 0
0.988891 0.437568 0
0.999542 0.426596 0
0.999832 0.415442 0
1 0.404456 0
1 0.393362 0
0 0.592142 0.157107
1.5259e-05 0.593622 0.139071
3.0518e-05 0.595499 0.119509
0.00109865 0.598169 0.0983749
0.00395209 0.6009 0.0788586
0.0141146 0.603143 0.0601816
0.0293278 0.604486 0.0441444
0.0620127 0.603433 0.0315862
0.093904 0.602884 0.0203098
0.153841 0.597787 0.0143282
0.210864 0.593393 0.00851453
0.271885 0.587747 0.00515755
0.335882 0.581033 0.00328069
0.396735 0.575128 0.00140383
0.451362 0.569604 0.000976577
0.504463 0.564614 0.000686656
0.557519 0.559258 0.000381476
0.60148 0.555016 0.000289921
0.645624 0.550393 0.000183108
0.690455 0.545586 9.15541e-05
0.730251 0.540505 6.10361e-05
0.771466 0.535622 3.0518e-05
0.811734 0.529763 1.5259e-05
0.849424 0.52311 0
0.888365 0.516274 0
0.919951 0.508614 0
0.951156 0.500099 0
0.974838 0.491096 0
0.990265 0.48069 0
0.999451 0.470085 0
0.999817 0.458885 0
0.999985 0.4477 0
1 0.436332 0
0 0.628138 0.166003
0 0.629831 0.147463
9.15541e-05 0.631876 0.12784
0.000747692 0.634791 0.106432
0.00387579 0.637491 0.085771
0.0110628 0.639994 0.0661631
0.0263371 0.641199 0.0493172
0.0516976 0.641474 0.0354772
0.0836805 0.641108 0.0237278
0.136049 0.637034 0.0164187
0.18555 0.633967 0.0093843
0.247486 0.627741 0.00616464
0.311086 0.621363 0.00367742
0.371725 0.615961 0.00148013
0.430686 0.609934 0.00108339
0.488197 0.60412 0.000656138
0.543435 0.59855 0.00030518
0.591028 0.593759 0.000213626
0.639673 0.588846 0.000122072
0.686091 0.584512 6.10361e-05
0.72842 0.579843 3.0518e-05
0.77145 0.575128 1.5259e-05
0.811734 0.57023 0
0.850507 0.564263 0
0.890623 0.557687 0
0.921614 0.551217 0
0.953826 0.543206 0
0.975464 0.534142 0
0.992386 0.524285 0
0.99939 0.514092 0
0.999832 0.503151 0
0.999969 0.492226 0
1 0.480201 0
0 0.664134 0.175265
0 0.66601 0.156405
7.62951e-05 0.667842 0.136172
0.000335698 0.670634 0.114305
0.0027924 0.673594 0.0926833
0.00714122 0.676326 0.0720836
0.0202792 0.678386 0.0544289
0.0387427 0.679988 0.0389563
0.0692912 0.679606 0.0267948
0.114488 0.676814 0.0182803
0.15761 0.67451 0.0101778
0.223285 0.667765 0.00703441
0.285954 0.66215 0.00393683
0.347936 0.656214 0.00175479
0.410681 0.649454 0.00120546
0.471824 0.64332 0.00062562
0.528176 0.63769 0.000274662
0.57911 0.633021 0.000183108
0.631891 0.628077 9.15541e-05
0.679271 0.623468 3.0518e-05
0.723522 0.618875 1.5259e-05
0.769619 0.614023 0
0.809796 0.609323 0
0.849561 0.60412 0
0.889693 0.598154 0
0.921645 0.591745 0
0.955596 0.584161 0
0.975341 0.576074 0
0.993851 0.566751 0
0.998779 0.557366 0
0.999786 0.547021 0
0.999939 0.536324 0
1 0.524437 0
0 0.700481 0.185138
0 0.701946 0.165576
6.10361e-05 0.704067 0.145022
0.000213626 0.707179 0.12311
0.00231937 0.709926 0.101061
0.00537118 0.713283 0.0796826
0.0171206 0.715526 0.0611124
0.03122 0.717418 0.0442359
0.0605478 0.716838 0.0315251
0.098436 0.715328 0.0214237
0.140337 0.713146 0.0128176
0.20177 0.707637 0.00877394
0.260365 0.70251 0.00474556
0.322591 0.696529 0.00250248
0.386694 0.69012 0.00164797
0.450278 0.683818 0.000732433
0.50811 0.678035 0.000366217
0.564095 0.672755 0.000228885
0.620737 0.667414 7.62951e-05
0.669337 0.662715 4.57771e-05
0.717159 0.658076 3.0518e-05
0.765988 0.652918 3.0518e-05
0.80647 0.648844 3.0518e-05
0.848951 0.643778 3.0518e-05
0.88777 0.638346 1.5259e-05
0.921508 0.632425 1.5259e-05
0.956039 0.625818 0
0.975189 0.618219 0
0.995605 0.610147 0
0.998032 0.601267 0
0.999756 0.591226 0
0.999908 0.580789 0
1 0.569482 0
0 0.736294 0.193988
0 0.737896 0.174578
3.0518e-05 0.740368 0.15375
9.15541e-05 0.74342 0.132174
0.00148013 0.746761 0.109285
0.00326543 0.749966 0.0872969
0.0125429 0.752514 0.0676432
0.0224308 0.754971 0.049546
0.0490272 0.754818 0.0360876
0.0795758 0.754513 0.0244297
0.119921 0.752865 0.0155032
0.177661 0.747829 0.0103914
0.232364 0.743511 0.00538643
0.296742 0.737224 0.00320439
0.36257 0.73077 0.00201419
0.427497 0.724834 0.000732433
0.488533 0.719036 0.000457771
0.54934 0.712871 0.000289921
0.610346 0.707057 0.000106813
0.659312 0.702586 0.000106813
0.710704 0.697383 7.62951e-05
0.760647 0.692363 4.57771e-05
0.802838 0.688365 4.57771e-05
0.847364 0.68336 3.0518e-05
0.885832 0.678538 1.5259e-05
0.921157 0.672969 1.5259e-05
0.954238 0.667124 0
0.975189 0.66038 0
0.994492 0.652964 0
0.997391 0.644862 0
0.999664 0.635401 0
0.999893 0.625788 0
1 0.615595 0
0 0.771954 0.203998
0 0.773816 0.184817
1.5259e-05 0.776425 0.163485
3.0518e-05 0.779843 0.142
0.000900282 0.782986 0.117952
0.0018616 0.786343 0.0956741
0.00888075 0.789181 0.074815
0.015671 0.79173 0.0555123
0.0387732 0.792447 0.0411078
0.0630198 0.793484 0.027924
0.102724 0.791531 0.0184482
0.154788 0.787793 0.0123751
0.20528 0.784268 0.00619516
0.271824 0.777691 0.00415045
0.337957 0.771801 0.00250248
0.403113 0.766003 0.000991836
0.466102 0.759686 0.00077821
0.529458 0.753307 0.000503548
0.59147 0.747051 0.000213626
0.644724 0.741833 0.000167849
0.699763 0.736339 0.000106813
0.751156 0.731411 6.10361e-05
0.796246 0.726787 4.57771e-05
0.843534 0.721843 3.0518e-05
0.882078 0.717525 1.5259e-05
0.920104 0.712398 0
0.951736 0.707256 0
0.974624 0.701015 0
0.992432 0.694102 0
0.996826 0.686793 0
0.999588 0.678492 0
0.999908 0.669276 0
1 0.659205 0
0 0.808301 0.213931
0 0.810437 0.195087
0 0.813046 0.173602
1.5259e-05 0.815976 0.151949
0.000534066 0.819165 0.127153
0.00144961 0.822431 0.104692
0.00631724 0.82562 0.0825666
0.0109712 0.829175 0.0623178
0.0302739 0.830411 0.0466621
0.0486763 0.831922 0.0318761
0.0862745 0.830259 0.0217899
0.132921 0.827497 0.0144198
0.178378 0.825162 0.00735485
0.24622 0.818998 0.00546273
0.311284 0.813581 0.00337224
0.376562 0.807477 0.0015259
0.442893 0.800885 0.00114443
0.509163 0.793973 0.000671397
0.572763 0.787686 0.000289921
0.630274 0.782101 0.000213626
0.689128 0.776318 9.15541e-05
0.741451 0.771313 3.0518e-05
0.789746 0.766674 3.0518e-05
0.840406 0.761715 1.5259e-05
0.878813 0.757671 0
0.918776 0.753323 0
0.949477 0.748486 0
0.974502 0.742977 0
0.990677 0.736934 0
0.996765 0.730053 0
0.999557 0.722881 0
0.999954 0.714488 0
1 0.705089 0
0 0.843565 0.224308
0 0.845701 0.205417
0 0.848356 0.183658
0 0.851347 0.161898
0.000183108 0.854765 0.136797
0.000762951 0.858579 0.113664
0.00357061 0.862104 0.0906539
0.00697337 0.865476 0.0697337
0.0208133 0.867735 0.0524453
0.0339666 0.869886 0.0360113
0.0687266 0.868727 0.0255131
0.109682 0.866667 0.0171664
0.154147 0.8645 0.00973526
0.219654 0.85861 0.00720226
0.28368 0.8533 0.00427253
0.348318 0.847639 0.00218204
0.417105 0.840314 0.0016022
0.487037 0.833585 0.000869764
0.550362 0.827649 0.000411994
0.611368 0.821576 0.000274662
0.674327 0.81529 9.15541e-05
0.727733 0.810422 3.0518e-05
0.779583 0.805463 1.5259e-05
0.832029 0.800702 0
0.872679 0.79646 0
0.915984 0.791836 0
0.945953 0.787472 0
0.973816 0.7823 0
0.988922 0.777142 0
0.997269 0.771221 0
0.999557 0.764157 0
1 0.75642 0
1 0.747753 0
0 0.87837 0.234684
0 0.880003 0.215808
0 0.881605 0.193851
0 0.88426 0.171923
9.15541e-05 0.887358 0.147372
0.000549325 0.890715 0.123781
0.0024567 0.893904 0.0999924
0.00521859 0.897246 0.078172
0.0153201 0.899367 0.0596017
0.0247807 0.90193 0.0421302
0.0561837 0.901747 0.0307012
0.0914321 0.900526 0.0208743
0.132433 0.898894 0.0126955
0.194369 0.894316 0.00915541
0.254322 0.890043 0.00541695
0.319112 0.884916 0.00299077
0.389776 0.879118 0.002121
0.460105 0.873243 0.00106813
0.525948 0.867185 0.000549325
0.590753 0.861646 0.000335698
0.658137 0.855222 7.62951e-05
0.713161 0.850507 3.0518e-05
0.769482 0.845579 1.5259e-05
0.822599 0.840452 0
0.866697 0.836561 0
0.912932 0.832059 0
0.942992 0.828138 0
0.973785 0.82356 0
0.987716 0.818784 0
0.998352 0.813642 0
0.999588 0.807553 0
1 0.800519 0
1 0.792554 0
0 0.911284 0.244923
0 0.9131 0.225879
0 0.915206 0.204044
0 0.917922 0.18233
0 0.920928 0.157351
0.000213626 0.923766 0.133669
0.00117494 0.926604 0.1093
0.00283818 0.929931 0.0869154
0.00898756 0.932509 0.0670329
0.014725 0.935531 0.0481575
0.0412604 0.935637 0.0358587
0.0704051 0.935576 0.0245365
0.108385 0.933989 0.0154879
0.166461 0.929641 0.0112764
0.22295 0.925811 0.0065919
0.28864 0.920836 0.00392157
0.360342 0.914824 0.00273136
0.43151 0.909377 0.00128176
0.49897 0.903716 0.000732433
0.566644 0.898024 0.000427253
0.637064 0.892515 6.10361e-05
0.69456 0.887572 4.57771e-05
0.754574 0.882429 1.5259e-05
0.809064 0.878035 0
0.856916 0.874205 0
0.905577 0.869932 0
0.938491 0.866621 0
0.973404 0.862211 0
0.986465 0.858122 0
0.999054 0.853468 0
0.999619 0.847837 0
0.999985 0.841657 0
1 0.834928 0
0 0.938659 0.255146
0 0.939361 0.236042
0 0.940795 0.214527
0 0.942412 0.192813
0 0.944747 0.167987
0.000106813 0.947127 0.14403
0.000671397 0.949722 0.119295
0.00169375 0.95256 0.096788
0.00581369 0.954787 0.0755474
