LUT预设1/LUT全系打包/6.FAKE5207&淡雅系列/FAKE5207/FAKE5207-REC709/FAKE5207-709STD标准.cube
TITLE "Generated by Resolve"
LUT_3D_SIZE 5
0.0120851 0.0174411 0.0216831
0.254978 0.0142061 0.00114443
0.525063 0.00810254 6.10361e-05
0.853971 0.00128176 0
1 0.0011902 0
0.000808728 0.27393 0.0960098
0.231495 0.264454 0.0136568
0.526741 0.229618 0.00141909
0.814404 0.18941 3.0518e-05
0.999496 0.157107 0
0 0.553887 0.175509
0.0761425 0.568566 0.0394141
0.514275 0.533562 0.00177005
0.845792 0.488228 3.0518e-05
1 0.401984 0
0 0.84123 0.258045
0.00984207 0.865888 0.0957656
0.321752 0.857099 0.00588998
0.816587 0.809461 6.10361e-05
1 0.757183 0
0 0.999908 0.339025
1.5259e-05 1 0.183398
0.0699474 1 0.0310674
0.639399 1 0.000244144
0.999664 1 6.10361e-05
0.000671397 0.0472114 0.277104
0.200748 0.0314641 0.145541
0.388464 0.0511025 0.0298772
0.725536 0.0245365 0.00257877
0.992767 0.00326543 1.5259e-05
0.00230411 0.277134 0.321553
0.198978 0.257496 0.288975
0.457618 0.234058 0.182376
0.745159 0.186831 0.0727703
0.996292 0.144823 0.0116274
1.5259e-05 0.535561 0.352239
0.132052 0.513924 0.361776
0.465141 0.512963 0.270909
0.765438 0.438575 0.167041
0.993469 0.377142 0.0243839
0 0.807645 0.471122
0.0408637 0.797024 0.460761
0.30132 0.820432 0.331868
0.77229 0.797833 0.221653
0.999451 0.715785 0.145357
0 0.999146 0.588724
0.00138857 0.999329 0.550057
0.109087 0.999695 0.429404
0.560678 1 0.226444
0.997177 0.999771 0.196078
0 0.0913558 0.518975
0.141238 0.0396735 0.527489
0.431464 0.046891 0.236255
0.580713 0.0867781 0.0690166
0.870527 0.0698253 0.00248722
1.5259e-05 0.305165 0.65745
0.0938277 0.297505 0.585794
0.416541 0.269245 0.451957
0.636347 0.276936 0.248371
0.954025 0.211185 0.12137
1.5259e-05 0.553277 0.616159
0.150622 0.53814 0.629221
0.431861 0.512566 0.593744
0.695949 0.461784 0.423224
0.982391 0.372595 0.27155
0 0.821286 0.613428
0.0780957 0.788312 0.625864
0.379538 0.773602 0.640223
0.71873 0.760876 0.566461
0.981689 0.65153 0.403281
0 0.99942 0.683757
0.0193179 0.998749 0.729366
0.260365 0.997223 0.747295
0.570352 0.999466 0.656184
0.995331 0.998459 0.572549
0 0.142016 0.812497
0.0321202 0.0852064 0.908522
0.436698 0.0264744 0.698466
0.672251 0.0649119 0.284138
0.799588 0.116197 0.084123
0 0.335805 0.944915
0.0129244 0.343618 0.868223
0.297261 0.288792 0.849409
0.678721 0.283192 0.49868
0.847303 0.319326 0.262898
0 0.592081 0.958907
0.125597 0.583963 0.958602
0.283619 0.560189 0.87834
0.690745 0.512566 0.703868
0.913756 0.508583 0.455924
0 0.839323 0.880293
0.0738689 0.818006 0.883146
0.403769 0.813687 0.889677
0.700252 0.773861 0.842283
0.957122 0.688975 0.633951
0 0.99971 0.841245
0.0223087 0.999268 0.851041
0.316213 0.999725 0.87834
0.650675 0.99559 0.898528
0.984573 0.989975 0.831235
0 0.199481 1
0.00123598 0.147311 1
0.238697 0.0564736 0.994018
0.759869 0.0261082 0.718196
0.910185 0.0888685 0.293462
0 0.384421 1
0.000335698 0.398169 1
0.0953384 0.348211 0.999893
0.66157 0.262074 0.922713
0.937575 0.306615 0.496651
0 0.609018 1
0.0130922 0.610971 1
0.0772259 0.609094 0.999969
0.558648 0.533455 0.994583
0.976135 0.53051 0.69752
0 0.879988 1
0.0861982 0.877729 1
0.378531 0.879515 1
0.580362 0.829984 0.999771
0.983291 0.76733 0.901823
0 0.999939 1
0.0114748 0.999908 0.999802
0.302373 1 1
0.701091 0.999924 0.999985
0.974105 0.995239 0.999069
