LUT预设1/LUT全系打包/6.FAKE5207&淡雅系列/FAKE5207/FAKE5207-REC709/FAKE5207-709COLD冷.cube
TITLE "Generated by Resolve"
LUT_3D_SIZE 33
0.00840772 0.0185092 0.0359045
0.0253452 0.0171664 0.0283207
0.0486915 0.016083 0.0209201
0.0762493 0.0164645 0.0154879
0.10779 0.016907 0.0116732
0.138674 0.0173953 0.00866712
0.169635 0.0175937 0.00622568
0.200977 0.0173648 0.00492866
0.231205 0.0170291 0.00340276
0.263752 0.0163424 0.00271611
0.294606 0.015198 0.00149538
0.327352 0.0138399 0.0012665
0.359228 0.011902 0.000808728
0.392599 0.0104982 0.00062562
0.423957 0.0105287 0.000564584
0.457389 0.0104067 0.000442512
0.492027 0.00999466 0.000381476
0.527092 0.00924697 0.000198367
0.564691 0.00888075 0.000167849
0.603067 0.0078584 7.62951e-05
0.644221 0.00671397 4.57771e-05
0.686305 0.00517281 3.0518e-05
0.729015 0.00366217 1.5259e-05
0.773358 0.00247196 0
0.817655 0.00169375 0
0.859602 0.00215152 0
0.901823 0.00224308 0
0.934661 0.00233463 0
0.965743 0.0021973 0
0.983108 0.00201419 0
0.995087 0.00172427 0
0.999176 0.00144961 0
1 0.00120546 0
0.007187 0.0435645 0.0410315
0.023621 0.0424506 0.0366522
0.0487984 0.0414893 0.0313268
0.0776379 0.0404212 0.0256046
0.109743 0.0394598 0.0202335
0.141192 0.0392004 0.0161593
0.172 0.0390631 0.0123751
0.203296 0.0384985 0.0101472
0.233433 0.0376745 0.00755322
0.264134 0.036286 0.00569161
0.294072 0.0350195 0.0037232
0.324712 0.033463 0.00302129
0.354437 0.0317388 0.00210575
0.385336 0.030457 0.00213626
0.415793 0.0284123 0.0016022
0.448997 0.0264591 0.00129702
0.483268 0.0254063 0.000976577
0.517815 0.0243839 0.000549325
0.554513 0.0235752 0.000427253
0.592111 0.0221561 0.000198367
0.6318 0.0208438 0.000137331
0.672282 0.0191348 7.62951e-05
0.713436 0.0174716 3.0518e-05
0.756374 0.0159457 3.0518e-05
0.800092 0.0142519 1.5259e-05
0.84213 0.013077 1.5259e-05
0.885145 0.0114595 0
0.920073 0.0101472 0
0.954559 0.00859083 0
0.975448 0.00729381 0
0.991684 0.00602731 0
0.998169 0.00495918 0
1 0.00415045 0
0.00706493 0.0740673 0.0502174
0.0186465 0.0731975 0.0466926
0.0440833 0.0721141 0.0399634
0.0736248 0.0708934 0.0338293
0.105989 0.0695811 0.027863
0.140169 0.0677501 0.0236515
0.1729 0.066331 0.0197452
0.204364 0.0645457 0.0159609
0.234363 0.0632181 0.012253
0.263813 0.0617533 0.00894179
0.292866 0.0601816 0.00639353
0.321996 0.0583505 0.00509651
0.351095 0.057023 0.00454719
0.381445 0.0552529 0.00408942
0.411032 0.0529641 0.00296025
0.443091 0.0512551 0.00250248
0.47538 0.0492561 0.00175479
0.508827 0.0471504 0.00106813
0.544396 0.0449378 0.000793469
0.580087 0.0424964 0.000350958
0.618769 0.0407874 0.000259403
0.657923 0.0388342 0.00015259
0.698482 0.0370184 7.62951e-05
0.740368 0.0354467 4.57771e-05
0.782681 0.0333104 1.5259e-05
0.824704 0.0315709 1.5259e-05
0.867979 0.0293278 0
0.904875 0.0272679 0
0.942397 0.0248875 0
0.966659 0.0227512 0
0.987167 0.0204166 0
0.996475 0.0182345 0
0.999908 0.0163882 0
0.00569161 0.106188 0.0594339
0.0162966 0.105592 0.0557412
0.0369116 0.104723 0.0490272
0.0668498 0.103365 0.0420844
0.0992599 0.101793 0.0354314
0.134859 0.100038 0.0298772
0.168994 0.0979629 0.0248264
0.202548 0.0955978 0.0198215
0.234134 0.0932174 0.0157778
0.263722 0.0909895 0.011902
0.293019 0.0887312 0.00991836
0.32137 0.0869154 0.00868238
0.350317 0.0847944 0.0074464
0.379873 0.0827039 0.00636301
0.409277 0.0803235 0.00463874
0.440742 0.0785229 0.00387579
0.471687 0.0764935 0.00265507
0.504509 0.0742351 0.00178531
0.53846 0.0720684 0.00128176
0.572808 0.0695659 0.000579843
0.609659 0.0673075 0.000442512
0.647181 0.0648661 0.000244144
0.685802 0.0624247 0.000106813
0.726055 0.059556 6.10361e-05
0.767163 0.0565499 3.0518e-05
0.809155 0.053727 1.5259e-05
0.852857 0.0505226 0
0.891173 0.0476692 0
0.930983 0.0444343 0
0.958465 0.0413519 0
0.982635 0.038056 0
0.994537 0.0348058 0
0.999741 0.0316014 0
0.00366217 0.138766 0.0693065
0.0133211 0.138506 0.065095
0.0290227 0.138186 0.058732
0.0577096 0.137072 0.0502632
0.0899367 0.135698 0.0422675
0.125444 0.133745 0.0344854
0.161837 0.131334 0.0281376
0.197009 0.129213 0.0218204
0.230167 0.126406 0.0176852
0.262455 0.124453 0.0152438
0.293019 0.121721 0.0139773
0.322499 0.119036 0.0122225
0.352224 0.115892 0.010605
0.38117 0.112581 0.0087129
0.409873 0.10959 0.00663767
0.440284 0.107195 0.00540169
0.469841 0.104799 0.00358587
0.502174 0.102647 0.00257877
0.535409 0.100267 0.00180056
0.568872 0.0978103 0.000915541
0.604929 0.0953384 0.000671397
0.641581 0.0928664 0.000350958
0.67921 0.0903792 0.000167849
0.718395 0.0874342 9.15541e-05
0.758587 0.0844282 4.57771e-05
0.799558 0.0815747 3.0518e-05
0.842451 0.0781262 0
0.881331 0.0747387 0
0.921492 0.0708629 0
0.951095 0.0673991 0
0.978302 0.0636301 0
0.992493 0.059968 0
0.999359 0.0564736 0
0.00198367 0.171618 0.0814984
0.00943008 0.171572 0.0760662
0.0228885 0.171817 0.0685588
0.0449989 0.17174 0.0584115
0.0779278 0.170092 0.047837
0.112688 0.168444 0.0374304
0.151965 0.16582 0.030518
0.189014 0.163607 0.0251316
0.225193 0.161074 0.022385
0.259327 0.158724 0.0195773
0.291447 0.15552 0.0175479
0.322606 0.152789 0.0153658
0.352987 0.149493 0.0133059
0.382879 0.146365 0.0109255
0.412406 0.143175 0.00877394
0.442527 0.139574 0.00691234
0.472023 0.136126 0.00454719
0.504036 0.133196 0.00352483
0.535897 0.12987 0.00236515
0.568429 0.126802 0.00129702
0.60322 0.123766 0.000915541
0.637934 0.12076 0.000442512
0.675044 0.11812 0.000228885
0.713817 0.115206 0.000167849
0.753429 0.111879 7.62951e-05
0.793866 0.108629 4.57771e-05
0.835401 0.105104 1.5259e-05
0.874571 0.101564 0
0.914992 0.0972915 0
0.946105 0.0936599 0
0.97499 0.0896162 0
0.990967 0.0857557 0
0.998978 0.0815595 0
0.00112917 0.205051 0.0951858
0.00627146 0.205661 0.0885634
0.017792 0.206302 0.0790112
0.0337224 0.206989 0.0677806
0.064683 0.205951 0.0549935
0.097673 0.204807 0.0443427
0.136812 0.202701 0.0360876
0.176196 0.20029 0.0301976
0.216327 0.197055 0.0261997
0.253803 0.194003 0.0231479
0.289204 0.190204 0.0207675
0.323018 0.186694 0.0184176
0.35436 0.183093 0.0158236
0.384497 0.179995 0.0129702
0.414801 0.176379 0.010605
0.444846 0.172641 0.00825513
0.474815 0.169039 0.00569161
0.50663 0.165728 0.00447089
0.538735 0.162402 0.00300603
0.571832 0.158831 0.0018616
0.606043 0.155169 0.00128176
0.640925 0.151263 0.000595102
0.677577 0.147814 0.000427253
0.715221 0.143908 0.000289921
0.754025 0.140383 0.000137331
0.793301 0.136629 7.62951e-05
0.833768 0.132601 1.5259e-05
0.87245 0.129 0
0.912108 0.12491 0
0.943954 0.121263 0
0.973007 0.117082 0
0.989853 0.113115 0
0.998535 0.109163 0
0.000991836 0.239002 0.106661
0.00341802 0.239582 0.100465
0.012665 0.240574 0.0896925
0.0271305 0.241337 0.0777295
0.0516518 0.241428 0.0640116
0.0840314 0.240833 0.0527199
0.120058 0.239826 0.0426184
0.161013 0.237079 0.0356756
0.202075 0.234287 0.0297704
0.241642 0.231098 0.0257877
0.280812 0.227543 0.0226902
0.317327 0.224491 0.0197604
0.351217 0.220462 0.0171206
0.384268 0.216724 0.014313
0.416205 0.212253 0.0119783
0.447623 0.207797 0.00936904
0.479194 0.203571 0.00703441
0.510964 0.198932 0.00544747
0.543069 0.194049 0.00358587
0.575998 0.189639 0.00241093
0.610224 0.185397 0.0016022
0.644892 0.181018 0.000854505
0.681086 0.177371 0.000747692
0.718334 0.17322 0.000457771
0.756405 0.168994 0.000228885
0.795285 0.164767 0.000137331
0.835172 0.160357 3.0518e-05
0.873213 0.156451 1.5259e-05
0.91223 0.152239 0
0.944045 0.148379 0
0.972488 0.144015 0
0.989609 0.139879 0
0.998245 0.135836 0
0.000656138 0.272786 0.118166
0.00221256 0.273136 0.112123
0.00831617 0.274372 0.100999
0.0208133 0.275593 0.0882887
0.0377661 0.277195 0.0745708
0.0690929 0.276677 0.0613718
0.100786 0.276219 0.0491035
0.144839 0.273701 0.040528
0.186435 0.271321 0.0320897
0.230915 0.267628 0.0279698
0.273228 0.264378 0.0239109
0.311192 0.260807 0.0208286
0.347601 0.257084 0.0181125
0.382452 0.253422 0.0153811
0.415366 0.248844 0.0127871
0.448569 0.244892 0.0100099
0.481132 0.240635 0.0078584
0.513863 0.235828 0.00604257
0.546517 0.231067 0.00402838
0.579858 0.226246 0.00317388
0.614435 0.220752 0.00247196
0.649912 0.215457 0.00155642
0.686015 0.210239 0.00123598
0.723415 0.204715 0.000732433
0.761349 0.199466 0.000411994
0.800168 0.194125 0.000228885
0.839414 0.18883 6.10361e-05
0.877623 0.184329 3.0518e-05
0.915221 0.179339 0
0.946273 0.175143 0
0.973571 0.170672 0
0.990372 0.166171 0
0.998199 0.162203 0
0.000427253 0.307179 0.13019
0.0019379 0.307622 0.123308
0.00538643 0.308766 0.112917
0.0157321 0.310719 0.0996109
0.0292515 0.312367 0.085832
0.0556191 0.312749 0.0707408
0.0850843 0.31281 0.0574655
0.124697 0.311467 0.0460517
0.164904 0.30985 0.0363622
0.212055 0.306325 0.0302434
0.257145 0.303487 0.0237888
0.298726 0.299321 0.0209049
0.339727 0.295338 0.0180056
0.378027 0.291493 0.0153048
0.413962 0.287037 0.0129549
0.449393 0.282536 0.0104219
0.483467 0.277348 0.00848402
0.51696 0.272312 0.00677501
0.550881 0.266743 0.0053254
0.584939 0.260609 0.00463874
0.619638 0.254627 0.00349432
0.654932 0.248447 0.00238041
0.691035 0.242802 0.00181582
0.728511 0.236515 0.00103761
0.766186 0.230686 0.000656138
0.805478 0.224613 0.000350958
0.844205 0.21857 0.000122072
0.882414 0.213138 6.10361e-05
0.918791 0.207309 1.5259e-05
0.949584 0.202274 0
0.974975 0.197147 0
0.991394 0.192447 0
0.998184 0.187823 0
0.000122072 0.340444 0.142626
0.000961318 0.341405 0.135195
0.00262455 0.342687 0.125139
0.00920119 0.344793 0.111025
0.0208438 0.346563 0.0962539
0.0396887 0.348135 0.0799115
0.0683909 0.348592 0.0649119
0.103944 0.348562 0.0508125
0.146242 0.346761 0.0399329
0.194919 0.343969 0.0314488
0.240818 0.341054 0.0244297
0.286122 0.337118 0.0211795
0.330465 0.333776 0.0176394
0.370825 0.329473 0.0149996
0.408957 0.325521 0.0125582
0.446784 0.321324 0.010605
0.481605 0.316152 0.00953689
0.516396 0.311101 0.00820935
0.551217 0.306249 0.0068513
0.586328 0.300038 0.00585946
0.622095 0.293736 0.00447089
0.658122 0.287236 0.00337224
0.694865 0.280079 0.00250248
0.732952 0.272602 0.00141909
0.771221 0.265843 0.000991836
0.811093 0.258259 0.000518807
0.849943 0.251255 0.000228885
0.88809 0.244099 0.000106813
0.923796 0.237369 1.5259e-05
0.954101 0.231373 0
0.977707 0.225544 0
0.99324 0.21976 0
0.998566 0.214771 0
9.15541e-05 0.375494 0.155398
0.000686656 0.376471 0.146944
0.00241093 0.377646 0.136294
0.00633249 0.379583 0.122408
0.0161746 0.381674 0.10634
0.0287327 0.384039 0.0897688
0.0548409 0.385428 0.0731975
0.0821393 0.386542 0.0571908
0.125673 0.384787 0.0449378
0.170977 0.382803 0.0337835
0.218189 0.379843 0.0261845
0.267979 0.376364 0.0213626
0.316136 0.373159 0.0166171
0.359533 0.368338 0.015198
0.401343 0.364553 0.013611
0.441855 0.360143 0.0121004
0.479286 0.3552 0.0110628
0.516716 0.350362 0.00979629
0.553017 0.344381 0.00856031
0.588754 0.338109 0.00726329
0.625422 0.331228 0.00570687
0.662013 0.323842 0.00450141
0.700069 0.315663 0.00325017
0.738567 0.307622 0.00192264
0.776745 0.299611 0.00135805
0.816968 0.291188 0.000686656
0.855344 0.282826 0.000350958
0.894194 0.274434 0.00015259
0.928786 0.266773 4.57771e-05
0.958999 0.259525 1.5259e-05
0.980301 0.252735 0
0.995209 0.246143 0
0.998901 0.240925 0
0 0.409598 0.167315
0.000122072 0.410086 0.15877
0.000915541 0.411673 0.147143
0.00234989 0.413565 0.133883
0.0087129 0.416464 0.116701
0.0166018 0.419104 0.0996567
0.0379187 0.42121 0.0807813
0.0590982 0.423331 0.0632792
0.104417 0.421866 0.0491798
0.146487 0.420996 0.0360723
0.198215 0.418006 0.0293126
0.250263 0.41471 0.0235599
0.299763 0.411139 0.019089
0.346334 0.406912 0.0171511
0.391775 0.403311 0.0149386
0.433509 0.398733 0.0133822
0.473106 0.394415 0.0121157
0.513237 0.389502 0.0106661
0.550317 0.383917 0.00935378
0.587549 0.377935 0.00794995
0.625589 0.371557 0.00631724
0.662821 0.364614 0.00505074
0.701259 0.356939 0.00369268
0.740154 0.348547 0.00239567
0.779187 0.339925 0.00167849
0.819852 0.330526 0.000885023
0.858457 0.321508 0.000518807
0.898344 0.312322 0.000228885
0.931792 0.30338 9.15541e-05
0.962448 0.294041 1.5259e-05
0.982193 0.285924 0
0.997147 0.277867 0
0.999222 0.270954 0
3.0518e-05 0.445457 0.177646
0.000106813 0.445731 0.169314
0.00077821 0.447013 0.157275
0.00204471 0.449165 0.144244
0.00636301 0.45182 0.126955
0.0140688 0.454612 0.109789
0.028687 0.457115 0.0910353
0.0500038 0.459022 0.0740063
0.0861982 0.459007 0.0585336
0.121981 0.459434 0.0443427
0.175113 0.456199 0.0361791
0.225574 0.453666 0.027863
0.276249 0.450248 0.0223697
0.327382 0.445945 0.0190738
0.377096 0.442267 0.0156405
0.422095 0.437659 0.0140688
0.465354 0.433204 0.0126192
0.509163 0.428824 0.0109255
0.547448 0.42356 0.00976577
0.586587 0.417884 0.00842298
0.62678 0.411826 0.00697337
0.664607 0.404654 0.00564584
0.70341 0.396887 0.0041352
0.742824 0.388327 0.00289921
0.782666 0.378988 0.00202945
0.824079 0.368475 0.00109865
0.862852 0.35903 0.000717174
0.90341 0.348089 0.00030518
0.9355 0.338231 0.000137331
0.966735 0.327413 1.5259e-05
0.984451 0.318425 0
0.999008 0.308919 0
0.999573 0.301518 0
0 0.479545 0.188235
1.5259e-05 0.479835 0.180346
0.000213626 0.481544 0.168048
0.000991836 0.483497 0.154269
0.00277714 0.486152 0.137667
0.00834669 0.489097 0.120043
0.0167086 0.492103 0.101823
0.0367437 0.494484 0.0842298
0.065156 0.495705 0.0673991
0.100542 0.495857 0.0527352
0.152163 0.493828 0.0415961
0.201495 0.492088 0.030457
0.256703 0.488029 0.0249027
0.311391 0.48452 0.020325
0.36347 0.480537 0.0159915
0.409705 0.476509 0.0144503
0.456352 0.47216 0.0127718
0.501656 0.467628 0.0109712
0.541726 0.462623 0.00975052
0.583169 0.457862 0.00834669
0.624445 0.451789 0.00691234
0.663188 0.444816 0.0055848
0.703868 0.437507 0.00410468
0.743465 0.42945 0.0030518
0.784253 0.419974 0.00216678
0.825635 0.410346 0.00131228
0.864851 0.40032 0.000854505
0.906325 0.388922 0.000350958
0.937606 0.37789 0.000167849
0.970108 0.366033 0
0.98613 0.355215 0
0.99942 0.344289 0
0.999786 0.334325 0
0 0.515999 0.199313
1.5259e-05 0.516258 0.190784
0.000106813 0.517342 0.178653
0.000656138 0.519127 0.164294
0.00157168 0.521538 0.148562
0.00590524 0.524559 0.130404
0.0109865 0.528008 0.112734
0.0300755 0.530526 0.0942855
0.0514534 0.532631 0.0763409
0.0865797 0.532998 0.0614786
0.130602 0.532174 0.0483253
0.173968 0.531197 0.0360113
0.230533 0.527764 0.0296025
0.284382 0.524437 0.0228733
0.336675 0.520623 0.0176699
0.388006 0.516213 0.0150607
0.438773 0.511971 0.0121462
0.486458 0.507103 0.0100557
0.531182 0.502708 0.00874342
0.576974 0.497551 0.00727855
0.619608 0.491936 0.00605783
0.660548 0.485725 0.00495918
0.703166 0.478904 0.00378424
0.743969 0.471611 0.00300603
0.785519 0.462882 0.0021973
0.826581 0.453513 0.00148013
0.866438 0.443442 0.000946059
0.906996 0.432151 0.000427253
0.939147 0.420539 0.000198367
0.971008 0.40824 0
0.987366 0.396933 0
0.999405 0.384802 0
0.999817 0.373602 0
0 0.551293 0.210544
1.5259e-05 0.551598 0.201083
4.57771e-05 0.55256 0.189258
0.000396735 0.554345 0.174548
0.000839246 0.556985 0.159472
0.00366217 0.560372 0.140948
0.00674449 0.563775 0.123629
0.0221714 0.566384 0.103868
0.0367437 0.569451 0.0856184
0.0703288 0.56994 0.0695354
0.106081 0.570596 0.0546426
0.148196 0.569741 0.042298
0.204578 0.566522 0.033051
0.257984 0.563989 0.0240482
0.312383 0.560067 0.0185397
0.368093 0.555383 0.014725
0.424002 0.551125 0.0106813
0.47393 0.546777 0.00869764
0.522957 0.541985 0.00735485
0.573129 0.537148 0.00588998
0.615381 0.532189 0.00509651
0.658228 0.526635 0.00434882
0.702708 0.520668 0.00355535
0.743572 0.513222 0.00291447
0.786358 0.505028 0.00222782
0.827695 0.495918 0.0016022
0.86836 0.485924 0.0010071
0.907805 0.474708 0.000503548
0.941527 0.462959 0.000213626
0.971572 0.45034 0
0.98909 0.437293 0
0.99942 0.424567 0
0.999863 0.412024 0
0 0.587472 0.221897
0 0.587579 0.211917
1.5259e-05 0.588174 0.200214
0.000167849 0.590112 0.185
0.000534066 0.592508 0.169894
0.00178531 0.595789 0.151354
0.00509651 0.598917 0.133654
0.015198 0.602319 0.113436
0.0255283 0.605966 0.0951705
0.0560464 0.607156 0.0777905
0.0849165 0.608728 0.0612039
0.128298 0.60795 0.0481727
0.180682 0.605554 0.0369573
0.229831 0.603876 0.0260319
0.287068 0.59968 0.0206302
0.343648 0.595789 0.0157015
0.399908 0.591608 0.0104829
0.451835 0.58703 0.00891127
0.504112 0.582071 0.00714122
0.557 0.576944 0.00535592
0.602655 0.571603 0.004654
0.650095 0.566415 0.00390631
0.696712 0.560204 0.00318914
0.740353 0.553185 0.00262455
0.785534 0.545953 0.00199893
0.826719 0.537606 0.00144961
0.869032 0.528283 0.000900282
0.907805 0.518334 0.00047303
0.942855 0.506828 0.000183108
0.971511 0.494759 1.5259e-05
0.990311 0.481636 0
0.998886 0.468894 0
0.999832 0.456153 0
0 0.623209 0.233234
0 0.62359 0.222675
1.5259e-05 0.624369 0.210803
9.15541e-05 0.626383 0.196017
0.000427253 0.628748 0.179919
0.00115969 0.63183 0.161944
0.00462348 0.634897 0.143206
0.0115358 0.638621 0.123308
0.0225834 0.642252 0.104463
0.0457618 0.644175 0.085832
0.0674601 0.646754 0.0681926
0.109865 0.645945 0.0545052
0.155459 0.644953 0.0414435
0.200656 0.644373 0.0295567
0.259495 0.640253 0.0232547
0.31635 0.636423 0.0167697
0.373159 0.632258 0.0112154
0.429374 0.627008 0.00906386
0.48687 0.621637 0.00665293
0.541695 0.616815 0.00476081
0.592157 0.611475 0.00408942
0.643641 0.606043 0.00335698
0.691661 0.600549 0.00274662
0.737743 0.594049 0.00227359
0.785504 0.586938 0.00177005
0.827024 0.580056 0.00128176
0.870314 0.571633 0.000793469
0.908507 0.56199 0.000427253
0.945312 0.551461 0.000137331
0.971847 0.539834 1.5259e-05
0.992035 0.52694 0
0.998398 0.514717 0
0.999817 0.501427 0
0 0.658946 0.244923
0 0.659525 0.234043
0 0.660121 0.221408
1.5259e-05 0.66183 0.206683
0.000137331 0.664424 0.18996
0.000335698 0.667338 0.172366
0.00276188 0.671016 0.152911
0.00654612 0.67512 0.132815
0.0160067 0.678676 0.113008
0.0322118 0.681498 0.0937819
0.0480201 0.684504 0.0755016
0.0893111 0.684337 0.0603037
0.128313 0.684993 0.0457618
0.174151 0.683955 0.0337377
0.232776 0.679973 0.0258793
0.289235 0.676646 0.0179294
0.347326 0.672282 0.0124208
0.406455 0.667292 0.00959792
0.467262 0.66215 0.00640879
0.523293 0.656947 0.00460822
0.577157 0.651408 0.00378424
0.633341 0.645548 0.0028687
0.682292 0.639994 0.00233463
0.730953 0.633906 0.00187686
0.780987 0.62707 0.00149538
0.824125 0.620249 0.00115969
0.870024 0.612222 0.000717174
0.90779 0.603723 0.000396735
0.946334 0.594018 7.62951e-05
0.971542 0.583352 1.5259e-05
0.993545 0.571405 0
0.997681 0.559686 0
0.999695 0.546563 0
0 0.694926 0.257191
0 0.695232 0.245487
0 0.696101 0.232563
1.5259e-05 0.697963 0.217945
0.000106813 0.700282 0.201129
0.000244144 0.703609 0.183703
0.00228885 0.707393 0.163638
0.00489815 0.711238 0.143587
0.0136416 0.714504 0.123445
0.0259098 0.717906 0.103532
0.0424353 0.720882 0.0849165
0.0762036 0.722072 0.0684215
0.107973 0.7234 0.0522927
0.15314 0.722377 0.0399329
0.207385 0.719814 0.0304723
0.260487 0.717479 0.0206149
0.319448 0.713008 0.0150149
0.380819 0.708049 0.0109865
0.44242 0.703166 0.00662242
0.500481 0.697612 0.00483711
0.559274 0.691768 0.00387579
0.619501 0.685359 0.0028687
0.670451 0.679988 0.00259403
0.724269 0.673487 0.00224308
0.774762 0.666957 0.00181582
0.820783 0.66041 0.00144961
0.868528 0.653193 0.0010071
0.906691 0.645335 0.000732433
0.947433 0.637003 0.000396735
0.970687 0.627176 0.000259403
0.992889 0.616053 0.000137331
0.996887 0.604456 4.57771e-05
0.999481 0.59176 0
0 0.730449 0.267979
0 0.731029 0.256611
0 0.732174 0.243488
0 0.733761 0.229206
4.57771e-05 0.736584 0.212039
0.000106813 0.739574 0.194858
0.00143435 0.74345 0.174136
0.00288396 0.747372 0.154376
0.00984207 0.750896 0.133669
0.0181277 0.754788 0.113481
0.0333104 0.758251 0.0946822
0.0598917 0.760113 0.0763867
0.0846418 0.762387 0.058854
0.129793 0.761501 0.0459449
0.17995 0.760021 0.0346685
0.228611 0.759197 0.0230411
0.2907 0.75465 0.0173953
0.353948 0.749416 0.0124361
0.416907 0.744656 0.00727855
0.477791 0.73875 0.00613413
0.541558 0.732174 0.004654
0.603815 0.725765 0.00325017
0.658396 0.720043 0.00282292
0.716289 0.713161 0.00227359
0.767849 0.707088 0.00184634
0.816648 0.700633 0.00157168
0.865019 0.694011 0.00123598
0.905394 0.687007 0.0010071
0.945388 0.679271 0.000717174
0.970077 0.670527 0.000549325
0.990799 0.660304 0.000381476
0.996384 0.649516 0.000228885
0.999298 0.638025 0.000122072
0 0.76582 0.279637
0 0.766659 0.268284
0 0.767971 0.254856
0 0.76997 0.240925
1.5259e-05 0.77258 0.223011
3.0518e-05 0.77554 0.206134
0.000793469 0.779461 0.185031
0.0015259 0.783047 0.165438
0.00672923 0.787121 0.144274
0.0122835 0.791592 0.124102
0.0260471 0.794903 0.10425
0.0463722 0.797833 0.0852979
0.0658427 0.800824 0.0664683
0.110704 0.800031 0.052842
0.15613 0.799725 0.0399023
0.202197 0.799069 0.0280919
0.264103 0.794491 0.0222782
0.325673 0.790036 0.016022
0.387976 0.785306 0.0101472
0.45243 0.77908 0.00827039
0.518837 0.772671 0.00584421
0.582513 0.76643 0.00395209
0.641718 0.759731 0.00320439
0.703883 0.752621 0.00231937
0.756954 0.746746 0.00190738
0.810376 0.740108 0.00164797
0.859358 0.733837 0.00138857
0.902495 0.727016 0.00117494
0.941939 0.719478 0.000961318
0.96878 0.711528 0.00077821
0.988312 0.702495 0.000595102
0.996078 0.692424 0.000396735
0.999069 0.681361 0.000244144
0 0.801892 0.291249
0 0.80296 0.279973
0 0.804379 0.266285
0 0.806088 0.252171
1.5259e-05 0.808698 0.234104
4.57771e-05 0.811582 0.217258
0.00047303 0.815473 0.196277
0.000885023 0.819669 0.177295
0.00477607 0.823789 0.15555
0.00849927 0.828016 0.135119
0.0200198 0.831601 0.114458
0.0351415 0.835294 0.0943618
0.0504311 0.839109 0.075227
0.0921035 0.839048 0.0611124
0.131319 0.839582 0.0472725
0.175692 0.838651 0.0348211
0.236118 0.834958 0.0273899
0.295766 0.831113 0.0194705
0.358618 0.826688 0.0129549
0.426413 0.820539 0.0100862
0.495537 0.814298 0.0065156
0.560952 0.807797 0.00433356
0.624979 0.800809 0.00326543
0.692271 0.793362 0.00199893
0.746807 0.78735 0.00177005
0.803754 0.780926 0.00155642
0.853697 0.774731 0.00138857
0.899977 0.768322 0.0012665
0.938552 0.761501 0.00112917
0.968261 0.754009 0.000946059
0.986526 0.746258 0.000762951
0.996475 0.737316 0.000549325
0.998962 0.727108 0.000350958
0 0.837552 0.303044
0 0.838666 0.291508
0 0.840177 0.277516
0 0.842023 0.263233
0 0.844678 0.245106
1.5259e-05 0.847974 0.227939
0.000137331 0.851789 0.207553
0.000381476 0.855558 0.188632
0.00259403 0.859998 0.166751
0.00469978 0.864195 0.14612
0.0132753 0.868177 0.125185
0.0236667 0.872068 0.104738
0.0381476 0.875715 0.0857862
0.0735332 0.87602 0.0704967
0.107591 0.876829 0.0546273
0.150332 0.876112 0.0419318
0.208408 0.872389 0.0329442
0.266438 0.869413 0.0231174
0.328527 0.865187 0.0164187
0.397757 0.859174 0.0122988
0.46862 0.853178 0.00747692
0.535576 0.847013 0.00520333
0.603647 0.840223 0.00367742
0.67303 0.833585 0.002121
0.731258 0.827054 0.00184634
0.793378 0.820005 0.00148013
0.84419 0.814023 0.00135805
0.894728 0.807401 0.0012665
0.933669 0.80116 0.00114443
0.967102 0.794324 0.000991836
0.984436 0.78674 0.000793469
0.99678 0.778561 0.000595102
0.998886 0.769207 0.000411994
0 0.873106 0.314611
0 0.874144 0.302907
0 0.874876 0.288701
0 0.876631 0.274327
0 0.878904 0.256809
1.5259e-05 0.881682 0.239322
7.62951e-05 0.884993 0.219287
0.00030518 0.888655 0.200198
0.00178531 0.892256 0.178607
0.00318914 0.896223 0.158541
0.00965896 0.900404 0.137163
0.0169528 0.904021 0.116335
0.0296635 0.907271 0.0971542
0.0590372 0.908553 0.0799115
0.0869306 0.909911 0.0631418
0.127672 0.90959 0.0494698
0.181521 0.907927 0.0387732
0.234119 0.906294 0.0272221
0.297444 0.902312 0.0200198
0.367193 0.897887 0.0146334
0.4392 0.892836 0.00831617
0.508843 0.887236 0.00605783
0.581659 0.881193 0.00395209
0.652277 0.874571 0.00215152
0.715709 0.86804 0.00175479
0.782422 0.860761 0.0012665
0.835203 0.854902 0.00120546
0.890135 0.84828 0.00115969
0.929213 0.842145 0.00106813
0.96614 0.835752 0.000946059
0.983017 0.829328 0.00077821
0.996246 0.821988 0.000610361
0.998978 0.813489 0.000442512
0 0.906889 0.325917
0 0.908492 0.313832
0 0.910018 0.299733
0 0.912062 0.285588
0 0.914199 0.267659
0 0.916381 0.250217
1.5259e-05 0.919203 0.230686
0.000122072 0.922667 0.212039
0.000839246 0.92604 0.190631
0.00149538 0.929808 0.170687
0.00526436 0.933303 0.149203
0.00927749 0.936934 0.127779
0.0195926 0.939529 0.107912
0.0431067 0.940536 0.0899672
0.065568 0.941787 0.0717784
