LUT预设1/LUT全系打包/6.FAKE5207&淡雅系列/FAKE5207/FAKE5207-REC709/FAKE5207莫兰迪绿709.cube
TITLE "Generated by Resolve"
LUT_3D_SIZE 9
0.0120851 0.0174411 0.0216831
0.125628 0.0151522 0.00508125
0.255161 0.0142824 0.0012665
0.387213 0.00970474 0.000244144
0.526375 0.0080415 7.62951e-05
0.682521 0.00523384 0
0.856382 0.00128176 0
0.980896 0.00198367 0
1 0.00114443 0
0.00556954 0.138399 0.0529488
0.106661 0.131868 0.0276188
0.258381 0.120043 0.00708019
0.385382 0.107546 0.0037995
0.509483 0.0965438 0.000610361
0.649973 0.0873579 7.62951e-05
0.80618 0.0768902 0
0.95375 0.0646067 0
0.999756 0.0521553 0
0.000869764 0.273838 0.0956283
0.0498512 0.279576 0.0493935
0.213001 0.25684 0.0183719
0.392782 0.246571 0.00662242
0.528359 0.227878 0.00184634
0.667582 0.206912 0.000350958
0.816114 0.187442 4.57771e-05
0.952667 0.170108 0
0.999359 0.155505 0
0 0.411307 0.137713
0.016083 0.420508 0.0810559
0.137728 0.413764 0.0446937
0.327306 0.379171 0.00646983
0.535988 0.379004 0.00340276
0.686198 0.353384 0.00108339
0.839231 0.321752 0.000183108
0.965682 0.288838 0
0.999802 0.261723 0
0 0.553552 0.174441
0.00263981 0.561975 0.114641
0.059617 0.57232 0.0541848
0.246403 0.502464 0.0883345
0.451164 0.501915 0.00355535
0.68838 0.513954 0.000579843
0.849119 0.485328 0.000198367
0.972274 0.44448 1.5259e-05
1 0.399008 0
0 0.697993 0.214908
0.00108339 0.705928 0.14844
0.0255283 0.719615 0.0829175
0.136339 0.725963 0.0277256
0.339162 0.603082 0.0912795
0.583307 0.63064 0.000335698
0.845609 0.649149 0.000183108
0.977066 0.618433 0
1 0.576379 0
0 0.840833 0.256321
7.62951e-05 0.850477 0.186786
0.00686656 0.865248 0.117327
0.0573587 0.878553 0.0510109
0.252201 0.858244 0.0305638
0.444007 0.719997 0.0837262
0.723842 0.760754 0.00030518
0.968887 0.785702 3.0518e-05
1 0.75494 1.5259e-05
0 0.964584 0.298436
0 0.96788 0.22768
0.000762951 0.974594 0.157656
0.0138094 0.982162 0.0859846
0.111101 0.983139 0.027451
0.404196 0.9402 0.0715801
0.563516 0.841001 0.0703899
0.868589 0.888411 0
1 0.922408 1.5259e-05
0 0.999847 0.33669
0 1 0.268498
1.5259e-05 1 0.200259
0.000854505 1 0.126177
0.0265812 1 0.0532082
0.219211 0.999939 0.0178378
0.526055 0.987778 0.107683
0.6878 0.949752 0.0538796
0.972778 0.988418 0
0.00294499 0.0275578 0.151781
0.0940871 0.0238956 0.0925917
0.203372 0.0286564 0.0337682
0.324285 0.0271 0.0124361
0.470771 0.0201572 0.00450141
0.640803 0.0101778 0.000823987
0.827192 0.00335698 0.000122072
0.969711 0.00167849 1.5259e-05
0.999649 0.000717174 0
0.0047303 0.140124 0.168795
0.0948806 0.133593 0.14876
0.229709 0.127901 0.102449
0.354528 0.116732 0.0640574
0.483467 0.100328 0.0334478
0.631937 0.0855268 0.0142367
0.799176 0.0706951 0.00360113
0.952911 0.0552834 0.000503548
0.999588 0.042359 4.57771e-05
0.00276188 0.267399 0.188128
0.0711986 0.260136 0.181735
0.209247 0.251774 0.147967
0.362509 0.239628 0.102647
0.490562 0.219913 0.0649729
0.622629 0.198779 0.0292668
0.772045 0.182147 0.00877394
0.925933 0.166445 0.00134279
0.997192 0.150072 0.000198367
0.000167849 0.399023 0.231876
0.0361486 0.392874 0.221302
0.150134 0.396307 0.180224
0.317891 0.37435 0.125124
0.504494 0.364996 0.0885786
0.643641 0.334981 0.0511482
0.78732 0.305684 0.019501
0.929168 0.281498 0.00308232
0.99675 0.262745 0.000366217
3.0518e-05 0.534768 0.284245
0.0101167 0.530083 0.269932
0.0837568 0.538476 0.21973
0.248371 0.536248 0.17438
0.436744 0.498878 0.0876326
0.665202 0.503136 0.0730602
0.817411 0.464103 0.0430915
0.951919 0.419043 0.0144656
0.9991 0.381811 0.00120546
0 0.675181 0.337713
0.00341802 0.672541 0.312947
0.0403449 0.681758 0.260761
0.147845 0.696468 0.187106
0.361975 0.621347 0.228595
0.567788 0.625681 0.0587015
0.824094 0.638392 0.0508736
0.962646 0.599374 0.0296635
0.999908 0.551522 0.00946059
0 0.816403 0.390036
0.000564584 0.816403 0.357671
0.0137789 0.827008 0.303532
0.0726635 0.844038 0.234836
0.231128 0.856153 0.141146
0.453407 0.719387 0.229358
0.708659 0.755535 0.0369116
0.960449 0.776287 0.0330663
0.999985 0.738033 0.0176394
0 0.948806 0.437583
3.0518e-05 0.950408 0.400183
0.00225834 0.957351 0.346166
0.0230869 0.967788 0.281636
0.12549 0.974868 0.191043
0.372992 0.964279 0.146441
0.561517 0.836072 0.222538
0.857237 0.883848 0.022797
1 0.915724 0.0296025
0 0.999405 0.477684
0 0.99971 0.437476
4.57771e-05 0.999908 0.385016
0.00231937 0.999954 0.325811
0.0442206 0.999969 0.242664
0.211093 0.999924 0.133303
0.521279 0.997391 0.227283
0.6804 0.946303 0.209415
0.967575 0.986358 0.0159762
0.000671397 0.0479438 0.27628
0.0694896 0.0327611 0.258167
0.19884 0.0315557 0.151537
0.288945 0.0442664 0.0731823
0.386664 0.0519265 0.0335088
0.533989 0.0429236 0.0125887
0.717113 0.0273747 0.00309758
0.900374 0.0137331 0.000442512
0.989883 0.00460822 1.5259e-05
0.00102235 0.154101 0.316381
0.0567636 0.149111 0.293614
0.195651 0.140185 0.238972
0.316365 0.14139 0.162676
0.42742 0.137316 0.109071
0.574044 0.118761 0.0694743
0.748745 0.0949874 0.0355535
0.923858 0.0692302 0.0129091
0.996567 0.0465095 0.00326543
0.00230411 0.277638 0.317113
0.0666209 0.266316 0.312871
0.198978 0.257496 0.288975
0.333959 0.249378 0.238575
0.457771 0.233951 0.183246
0.588754 0.209522 0.12639
0.746059 0.186633 0.0744488
0.913802 0.165408 0.0350042
0.996262 0.143923 0.0124208
0.000228885 0.404074 0.318929
0.0497444 0.389548 0.326543
0.183139 0.381537 0.32079
0.319326 0.372045 0.291981
0.472145 0.357351 0.238651
0.601938 0.325216 0.176303
0.740444 0.296178 0.107515
0.895323 0.274998 0.0510262
0.992767 0.257084 0.0206912
1.5259e-05 0.535821 0.349294
0.0209506 0.519585 0.365118
0.132753 0.514 0.360098
0.268208 0.519417 0.327306
0.433173 0.494057 0.269947
0.630213 0.482246 0.232013
0.766705 0.436194 0.167468
0.905653 0.398795 0.0905013
0.993088 0.37554 0.0272984
0 0.671382 0.406836
0.0104524 0.656443 0.418708
0.081529 0.654521 0.407858
0.199924 0.663111 0.372122
0.369253 0.663111 0.334081
0.554574 0.619226 0.232639
0.792248 0.621073 0.210712
0.934356 0.573541 0.15462
0.997208 0.526436 0.0863661
0 0.807599 0.467765
0.00331121 0.796674 0.474769
0.0412757 0.797208 0.457252
0.132433 0.806668 0.421317
0.270512 0.823377 0.35523
0.481559 0.740734 0.384161
0.68896 0.746319 0.194507
0.947478 0.761501 0.196094
0.99939 0.713314 0.147982
0 0.939467 0.528832
0.000503548 0.934051 0.527367
0.0129854 0.936751 0.504005
0.0678569 0.945403 0.465858
0.183383 0.956008 0.404746
0.359533 0.963943 0.311269
0.571908 0.836118 0.382803
0.84181 0.877714 0.167483
0.999985 0.905074 0.189471
0 0.99913 0.581613
1.5259e-05 0.999115 0.57171
0.00143435 0.999252 0.544076
0.0174563 0.999466 0.505989
0.0998398 0.999634 0.449836
0.245899 0.999817 0.364797
0.494942 0.999893 0.330449
0.68162 0.944274 0.377615
0.960876 0.983474 0.146548
3.0518e-05 0.0698711 0.395346
0.0327459 0.0506752 0.418997
0.183642 0.0316777 0.336202
0.307347 0.039704 0.208713
0.386694 0.0590372 0.114214
0.475151 0.0713359 0.0558328
0.610788 0.0672923 0.0224155
0.784466 0.0513313 0.00485237
0.945907 0.0283207 0.000366217
3.0518e-05 0.172534 0.455482
0.0203555 0.170855 0.430533
0.147082 0.153216 0.402884
0.301885 0.148287 0.310536
0.407172 0.15996 0.207218
0.507439 0.164096 0.139864
0.65536 0.148745 0.0881971
0.838254 0.119615 0.0446479
0.973846 0.0837262 0.0166781
0.00114443 0.292256 0.486381
0.0439002 0.286839 0.467521
0.151034 0.27599 0.438849
0.298833 0.264317 0.384894
0.427832 0.261631 0.301259
0.54377 0.250217 0.229572
0.690898 0.226856 0.170611
0.86978 0.195682 0.115648
0.986618 0.162814 0.0647746
0.000320439 0.416281 0.465126
0.0471351 0.404669 0.467658
0.176791 0.393744 0.461067
0.309331 0.382544 0.436149
0.44567 0.369863 0.379812
0.569787 0.347616 0.304601
0.707713 0.314382 0.232258
0.873625 0.283665 0.165866
0.989471 0.257511 0.104341
1.5259e-05 0.544121 0.452445
0.0201267 0.527535 0.460731
0.148684 0.515816 0.469947
0.297185 0.508446 0.46363
0.440284 0.496193 0.436545
0.596567 0.471611 0.379782
0.721111 0.426917 0.29546
0.864256 0.390265 0.208621
0.985367 0.369192 0.132128
0 0.67895 0.475303
0.0136263 0.659632 0.48835
0.108965 0.646799 0.49987
0.25333 0.64184 0.501518
0.38999 0.646387 0.480461
0.551888 0.614649 0.416281
0.752911 0.600259 0.365652
0.89131 0.547219 0.286717
0.987076 0.505547 0.198398
0 0.813489 0.521416
0.00640879 0.794736 0.538293
0.0739147 0.783856 0.553521
0.201831 0.781415 0.554803
0.332158 0.790311 0.52665
0.505425 0.789746 0.492622
0.678904 0.738628 0.382422
0.92108 0.739559 0.362387
0.994827 0.682261 0.292195
0 0.940688 0.577798
0.00169375 0.929595 0.599573
0.0345617 0.923506 0.610803
0.136843 0.923766 0.604685
0.26273 0.930343 0.576257
0.402884 0.942748 0.521309
0.609598 0.861921 0.533471
0.822995 0.868055 0.354635
0.999863 0.889784 0.375463
0 0.999191 0.64007
0.000106813 0.998993 0.657237
0.00793469 0.998718 0.661479
0.0628214 0.998657 0.650507
0.18378 0.99855 0.620478
0.316793 0.999664 0.571496
0.496086 1 0.492103
0.696284 0.944457 0.52958
0.953826 0.979568 0.345663
0 0.0928817 0.516884
0.00955215 0.0728771 0.561425
0.130907 0.0424964 0.535668
0.309529 0.0336919 0.405158
0.429953 0.0461128 0.250614
0.498283 0.0693828 0.145586
0.578256 0.0874342 0.0750439
0.696025 0.0902419 0.0269932
0.860243 0.0747845 0.00363165
0 0.192065 0.582132
0.00442512 0.194568 0.559075
0.084535 0.173236 0.56585
0.271504 0.151247 0.497124
0.428138 0.153994 0.360052
0.510933 0.175235 0.242329
0.601572 0.186465 0.161151
0.738735 0.17763 0.0953994
0.912077 0.145434 0.0415351
4.57771e-05 0.306737 0.651133
0.0207065 0.307424 0.614572
0.0920272 0.298939 0.585519
0.243336 0.278645 0.55314
0.413947 0.269444 0.458564
0.52932 0.277836 0.337789
0.63331 0.279042 0.252842
0.784131 0.257008 0.184115
0.949233 0.21593 0.124422
0.00030518 0.432212 0.647486
0.040116 0.426978 0.648432
0.147616 0.419471 0.626612
0.262562 0.4047 0.592248
0.413855 0.387533 0.531624
0.550546 0.382223 0.426856
0.664332 0.368353 0.340825
0.821607 0.333288 0.268833
0.972473 0.291279 0.209186
1.5259e-05 0.554376 0.605951
0.0204471 0.543297 0.613886
0.148486 0.538109 0.623499
0.300618 0.529702 0.621042
0.431861 0.512566 0.593744
0.5682 0.495094 0.511604
0.696254 0.461875 0.42388
0.844236 0.411536 0.34226
0.981842 0.373465 0.273732
0 0.687572 0.593622
0.0114443 0.669596 0.595697
0.108385 0.656886 0.603174
0.267185 0.647791 0.612131
0.418036 0.639689 0.608621
0.56022 0.623423 0.572045
0.723552 0.599863 0.504967
0.854612 0.54052 0.412345
0.971145 0.494148 0.320333
0 0.822171 0.605051
0.00595102 0.803113 0.609857
0.0788128 0.788373 0.621469
0.228626 0.778286 0.63566
0.380438 0.773495 0.639109
0.525139 0.775525 0.622492
0.682673 0.736965 0.555291
0.885161 0.715618 0.498955
0.981216 0.649805 0.404425
0 0.947448 0.633265
0.00216678 0.935454 0.648295
0.0474708 0.924865 0.667857
0.181353 0.917006 0.684428
0.329641 0.912093 0.68983
0.467369 0.916426 0.675746
0.64271 0.917876 0.640452
0.811582 0.859297 0.528313
0.99707 0.864073 0.516777
0 0.99939 0.678904
0.000442512 0.99913 0.703639
0.0195926 0.998734 0.726787
0.114946 0.997589 0.741695
0.261433 0.997192 0.744427
0.397101 0.999832 0.72256
0.545495 0.999405 0.672374
0.74609 0.97081 0.66743
0.945602 0.973877 0.515557
0 0.117418 0.651362
0.00192264 0.098436 0.707317
0.0690166 0.0636149 0.729854
0.262104 0.0377508 0.639704
0.452277 0.0319982 0.466209
0.553002 0.0522469 0.285298
0.61384 0.0812085 0.165576
0.686748 0.101732 0.0871901
0.798611 0.10721 0.0293126
0 0.214343 0.711696
0.000274662 0.219089 0.692332
0.0350652 0.198886 0.723613
0.200061 0.165652 0.701122
0.415167 0.147478 0.57818
0.551492 0.161669 0.393896
0.622614 0.189014 0.259831
0.702403 0.205859 0.173327
0.835279 0.199573 0.0979629
0 0.321111 0.806729
0.00624094 0.326116 0.752743
0.0409247 0.321706 0.724636
0.157366 0.300237 0.721935
0.370626 0.274937 0.656977
0.548516 0.273625 0.495476
0.638712 0.294484 0.355795
0.731029 0.304128 0.264622
0.878859 0.282902 0.186206
7.62951e-05 0.447776 0.834958
0.0228122 0.444175 0.821302
0.0957198 0.44094 0.780667
0.186877 0.428077 0.743328
0.351675 0.40235 0.7084
0.548638 0.388479 0.588357
0.659693 0.398932 0.453483
0.76669 0.395956 0.356588
0.919341 0.362615 0.278538
0 0.574304 0.794491
0.0211032 0.569085 0.806867
0.147738 0.568048 0.813062
0.278904 0.560494 0.7944
0.36875 0.538735 0.746685
0.541909 0.512764 0.67042
0.683742 0.504402 0.548028
0.803677 0.482704 0.447288
0.951659 0.436866 0.371283
0 0.699229 0.748684
0.0116884 0.685588 0.753643
0.108858 0.679133 0.763455
0.270665 0.677012 0.771756
0.414267 0.664622 0.759655
0.55877 0.643748 0.717739
0.705074 0.62179 0.63711
0.831281 0.580209 0.534218
0.955871 0.521187 0.438025
0 0.830076 0.724559
0.00463874 0.812772 0.72462
0.0712291 0.799741 0.730129
0.227817 0.790845 0.740108
0.394751 0.781903 0.747585
0.551476 0.770825 0.743282
0.696269 0.750408 0.702083
0.861372 0.718593 0.624552
0.965988 0.645762 0.514076
0 0.953292 0.72047
0.00167849 0.942489 0.724865
0.0455482 0.930922 0.734371
0.188785 0.920729 0.74818
0.356954 0.910414 0.765026
0.513191 0.905241 0.770932
0.664805 0.907774 0.753872
0.823484 0.862745 0.683223
0.989364 0.835142 0.625772
0 0.999588 0.737896
0.000595102 0.999344 0.752514
0.0251316 0.998932 0.772717
0.139925 0.997589 0.79527
0.305333 0.998077 0.817243
0.458076 0.998138 0.820676
0.605035 0.996933 0.804944
0.786175 0.997314 0.770474
0.942977 0.968627 0.663844
0 0.14432 0.807675
9.15541e-05 0.126925 0.866041
0.0268559 0.0913252 0.907897
0.177356 0.0541085 0.86537
0.419257 0.0290379 0.721645
0.592187 0.0356451 0.49041
0.673579 0.0627451 0.30312
0.728725 0.0931563 0.178546
0.798703 0.11574 0.0948348
0 0.240757 0.852399
1.5259e-05 0.245258 0.837827
0.0122072 0.227115 0.877775
0.117021 0.190753 0.892485
0.345968 0.155138 0.813718
0.564477 0.147295 0.61091
0.674205 0.171374 0.408499
0.736996 0.202197 0.271885
0.816464 0.220157 0.18085
0 0.337636 0.940398
0.000900282 0.347402 0.888808
0.0117952 0.345937 0.865568
0.0775464 0.326726 0.880125
0.282582 0.292515 0.855863
0.533959 0.268345 0.712947
0.677577 0.282078 0.513359
0.754025 0.309087 0.365713
0.844709 0.320607 0.271611
0 0.459251 0.965682
0.00784314 0.458015 0.952102
0.0440681 0.458549 0.910262
0.103563 0.450889 0.878538
0.254093 0.426276 0.871489
0.499962 0.394308 0.794385
0.681605 0.394903 0.614694
0.7785 0.414969 0.462669
0.878965 0.416999 0.365011
0 0.593545 0.949615
0.0172885 0.588037 0.958236
0.12256 0.585611 0.955016
0.21622 0.578912 0.924865
0.283818 0.561913 0.878981
0.477501 0.529519 0.843412
0.68719 0.513085 0.71107
0.80293 0.521675 0.56083
0.912016 0.511193 0.461067
0 0.715511 0.904082
0.0130465 0.708522 0.914794
0.111711 0.706493 0.923278
0.265766 0.707805 0.92697
0.391379 0.698466 0.909834
0.52015 0.670039 0.875257
0.682597 0.641779 0.791241
0.82652 0.626261 0.660349
0.935912 0.593835 0.55172
0 0.840711 0.867384
0.00445563 0.826673 0.86894
0.0702831 0.81828 0.873762
0.230472 0.816129 0.880751
0.401328 0.813321 0.885481
0.550713 0.798474 0.878553
0.700252 0.773861 0.842283
0.847654 0.745434 0.754406
0.957015 0.689479 0.635187
0 0.958068 0.839963
0.00122072 0.948196 0.838941
0.0392615 0.938369 0.841871
0.178683 0.930358 0.848615
0.357534 0.922148 0.858869
0.52903 0.913344 0.866865
0.696529 0.902968 0.864546
0.84506 0.878477 0.826398
0.982986 0.833844 0.738766
0 0.99971 0.829068
0.00047303 0.999512 0.833295
0.0224002 0.999252 0.843519
0.138781 0.998306 0.85864
0.316747 0.999649 0.875227
0.488945 0.996979 0.891997
0.651682 0.99556 0.897551
0.808759 0.998337 0.880827
0.955047 0.972015 0.809522
0 0.173266 0.957519
0 0.156634 0.983352
0.0071107 0.122362 0.994369
0.0947585 0.0794842 0.981674
0.325826 0.0406043 0.924544
0.587701 0.0265049 0.744396
0.726757 0.0419623 0.501808
0.794079 0.073579 0.310857
0.842588 0.106615 0.187884
0 0.269368 0.971023
0 0.27335 0.966339
0.00320439 0.256367 0.981216
0.0525978 0.221744 0.988266
0.235264 0.178485 0.966049
0.521462 0.144442 0.849363
0.711589 0.149767 0.623255
0.799558 0.182162 0.413809
0.852705 0.216266 0.280903
0 0.359548 0.994858
4.57771e-05 0.371862 0.981064
0.00216678 0.372702 0.973953
0.0291752 0.356161 0.981216
0.175219 0.320836 0.982055
0.456214 0.277363 0.920806
0.692851 0.266896 0.731762
0.811231 0.29192 0.516045
0.870893 0.324331 0.374456
0 0.469734 0.999222
0.00103761 0.473991 0.997147
0.00929274 0.479088 0.98677
0.0361639 0.475547 0.977737
0.148272 0.455192 0.980285
0.399847 0.414908 0.957977
0.670359 0.388769 0.823499
0.825879 0.402747 0.618296
0.895766 0.432486 0.470039
0 0.605951 0.997513
0.00918593 0.599451 0.998993
0.0699016 0.597513 0.997681
0.125963 0.595117 0.9888
0.184314 0.585519 0.976699
0.375372 0.554467 0.970733
0.645426 0.51725 0.898741
0.836698 0.518334 0.72015
0.920439 0.543099 0.568002
0 0.736919 0.990143
0.0108797 0.731411 0.991531
0.101244 0.730632 0.993423
0.236622 0.731533 0.993652
0.336065 0.723629 0.989853
0.44094 0.697566 0.982361
0.622705 0.658915 0.942382
0.834516 0.639994 0.81677
0.939651 0.650752 0.667613
0 0.856962 0.976928
0.00488289 0.849271 0.979141
0.0766766 0.847379 0.981292
0.238727 0.850385 0.982925
0.403174 0.853025 0.984436
0.536202 0.840711 0.981872
0.663554 0.804746 0.964996
0.830686 0.768597 0.89572
0.96202 0.757 0.765133
0 0.964187 0.959838
0.00103761 0.956832 0.959686
0.0352789 0.950805 0.960433
0.173663 0.949126 0.962264
0.361852 0.949325 0.964675
0.545052 0.949218 0.967514
0.711421 0.936507 0.970199
0.850492 0.903136 0.950683
0.980438 0.871763 0.865385
0 0.999802 0.943542
0.000198367 0.999664 0.944717
0.0150759 0.999512 0.947356
0.121965 0.9991 0.950347
0.304433 0.999893 0.955154
0.488319 0.998138 0.964614
0.668116 0.997711 0.970855
0.841413 0.997497 0.974182
0.972625 0.982406 0.94641
0 0.202411 0.99971
0 0.187304 0.999954
0.000961318 0.155306 1
0.0350347 0.111131 0.999847
0.207294 0.0635386 0.99559
0.52134 0.0298161 0.950393
0.746029 0.0267796 0.741558
0.857343 0.0504311 0.489204
0.907423 0.0875715 0.304936
0 0.299779 1
0 0.302083 0.999878
0.000366217 0.286778 0.999939
0.0162203 0.25568 0.999985
0.126589 0.210864 0.999283
0.414801 0.160082 0.985168
0.698543 0.137362 0.858503
0.856428 0.156695 0.61326
0.917739 0.196033 0.40589
0 0.385733 1
0 0.399451 0.999908
0.000228885 0.401205 0.999878
0.00668345 0.386862 0.999954
0.0814679 0.35462 0.999924
0.329717 0.304265 0.997009
0.644282 0.264973 0.932998
0.856092 0.268284 0.727077
0.935241 0.305455 0.506127
0 0.484611 1
4.57771e-05 0.494331 1
0.000808728 0.503578 0.999939
0.00662242 0.503319 0.999939
0.0629587 0.486671 0.999985
0.270573 0.446815 0.99939
0.591623 0.397879 0.972778
0.854109 0.384085 0.827344
0.955779 0.415625 0.605737
0 0.613138 1
0.00131228 0.609461 1
0.0152438 0.613001 1
0.0360571 0.615488 1
0.0792706 0.611231 0.999954
0.252872 0.58526 0.999969
0.542611 0.537789 0.995087
0.839628 0.507546 0.908354
0.973892 0.52987 0.705394
0 0.755169 1
0.00534066 0.749035 1
0.0706798 0.746914 1
0.175326 0.746883 1
0.247578 0.740581 0.999969
0.33547 0.720531 0.999969
0.515831 0.683284 0.997467
0.799573 0.641962 0.959625
0.977798 0.647181 0.810575
0 0.880919 0.999924
0.00433356 0.877775 0.999893
0.0786755 0.87837 0.999908
0.235798 0.881712 0.999939
0.376928 0.881376 0.999985
0.480674 0.868315 1
0.579156 0.832624 0.999741
0.768521 0.783703 0.989487
0.980758 0.767559 0.904204
0 0.976043 0.999832
0.00122072 0.97435 0.999619
0.040116 0.974899 0.999725
0.188678 0.978485 0.999908
0.385214 0.983703 0.999771
0.570947 0.984375 0.999847
0.712184 0.970504 0.999908
0.800259 0.928069 0.998535
0.967529 0.894728 0.97348
0 0.999924 0.998947
6.10361e-05 0.999893 0.998917
0.0106966 0.999878 0.999237
0.109285 0.999893 0.999084
0.297169 1 0.999359
0.4981 0.999969 0.999695
0.696818 0.999924 0.999969
0.868254 0.999649 1
0.974105 0.995239 0.999069
