LUT预设1/LUT全系打包/6.FAKE5207&淡雅系列/FAKE5207/FAKE5207-REC709/FAKE5207-709COLD冷.cube
TITLE "Generated by Resolve"
LUT_3D_SIZE 5
0.00840772 0.0185092 0.0359045
0.231205 0.0170291 0.00340276
0.492027 0.00999466 0.000381476
0.817655 0.00169375 0
1 0.00120546 0
0.000656138 0.272786 0.118166
0.186435 0.271321 0.0320897
0.481132 0.240635 0.0078584
0.761349 0.199466 0.000411994
0.998199 0.162203 0
0 0.551293 0.210544
0.0367437 0.569451 0.0856184
0.424002 0.551125 0.0106813
0.786358 0.505028 0.00222782
0.999863 0.412024 0
0 0.837552 0.303044
0.00259403 0.859998 0.166751
0.208408 0.872389 0.0329442
0.731258 0.827054 0.00184634
0.998886 0.769207 0.000411994
0 0.999802 0.387076
0 1 0.26128
0.0258335 1 0.0995041
0.491371 1 0.00321965
0.990997 1 0.000610361
0.000137331 0.0539712 0.318654
0.183124 0.0292363 0.235172
0.34992 0.0609751 0.0691234
0.623026 0.0497292 0.0110628
0.971771 0.0101625 7.62951e-05
0.000991836 0.283803 0.39205
0.149966 0.268589 0.36527
0.403998 0.255894 0.262715
0.674479 0.211078 0.140505
0.989303 0.152972 0.035172
0 0.542885 0.390509
0.10515 0.516396 0.414115
0.387243 0.514076 0.377676
0.693538 0.451392 0.264134
0.975265 0.380377 0.0751965
0 0.813642 0.492515
0.0325017 0.792966 0.522057
0.252186 0.805814 0.474281
0.666316 0.808301 0.344427
0.993362 0.718532 0.248875
0 0.999237 0.618219
0.00105287 0.999115 0.629145
0.0959945 0.99939 0.577859
0.424231 1 0.420905
0.97557 0.999802 0.319539
0 0.103136 0.591959
0.0674907 0.0557107 0.66865
0.424842 0.0321813 0.426963
0.582544 0.0789502 0.153628
0.785687 0.0979477 0.0179446
0 0.310826 0.767636
0.0332647 0.317769 0.685863
0.323568 0.280034 0.630945
0.606439 0.28983 0.357641
0.871458 0.266361 0.174548
0 0.567407 0.754604
0.106722 0.562127 0.770581
0.351751 0.547494 0.737835
0.639048 0.507454 0.55726
0.93286 0.424033 0.358404
0 0.829297 0.70338
0.0376898 0.802289 0.705211
0.318791 0.788663 0.726406
0.642252 0.767773 0.701595
0.943526 0.661265 0.520638
0 0.999603 0.723812
0.00851453 0.999191 0.759487
0.220432 0.997848 0.806241
0.53109 0.997803 0.807401
0.955001 0.998184 0.694469
0 0.156222 0.901137
0.00686656 0.110918 0.975113
0.3178 0.0390021 0.886885
0.68838 0.0451514 0.455772
0.806195 0.108202 0.15108
0 0.345296 0.98854
0.00146487 0.364385 0.945891
0.157076 0.322744 0.95552
0.64445 0.271702 0.705501
0.834241 0.323461 0.342168
0 0.601053 0.992889
0.066453 0.595117 0.994507
0.19556 0.58793 0.963256
0.584665 0.525154 0.892348
0.884978 0.537896 0.544961
0 0.851682 0.959655
0.0421607 0.840528 0.963668
0.336355 0.847883 0.967285
0.62504 0.816449 0.954742
0.930709 0.750393 0.756237
0 0.999802 0.920241
0.00540169 0.999588 0.924392
0.221607 0.999893 0.938079
0.587198 0.997559 0.956451
0.943816 0.992309 0.939483
0 0.212543 1
6.10361e-05 0.171801 1
0.126085 0.0861219 0.999939
0.694545 0.0243687 0.893706
0.941039 0.0693828 0.403159
0 0.395865 1
0 0.417746 1
0.032517 0.383749 1
0.508705 0.287022 0.990219
0.960739 0.285054 0.632395
0 0.616327 1
0.00260929 0.623819 1
0.0302586 0.633814 1
0.373922 0.577111 0.999924
0.978546 0.510781 0.854948
0 0.894621 1
0.0452583 0.894484 1
0.302663 0.897337 1
0.483558 0.865202 1
0.917739 0.767452 0.986847
0 1 1
0.00355535 1 1
0.224857 1 1
0.650935 1 1
0.924987 0.998856 1
