LUT预设1/LUT全系打包/6.FAKE5207&淡雅系列/FAKE5207/FAKE5207-REC709/FAKE5207-709WARM暖.cube
TITLE "Generated by Resolve"
LUT_3D_SIZE 9
0.0151675 0.0167697 0.0151217
0.138293 0.0140383 0.00268559
0.271214 0.0125429 0.000503548
0.405035 0.00865187 7.62951e-05
0.548684 0.00729381 1.5259e-05
0.707088 0.00482185 0
0.877455 0.0010071 0
0.990555 0.00189212 0
1 0.00111391 0
0.00674449 0.138689 0.0418097
0.129107 0.130404 0.0127871
0.27837 0.116075 0.0031281
0.409079 0.102831 0.00148013
0.538338 0.0923629 0.00015259
0.680613 0.0837415 0
0.833997 0.0743267 0
0.972854 0.0635386 0
0.999954 0.0519722 0
0.000854505 0.275212 0.0779889
0.0756695 0.276219 0.0242161
0.26511 0.25864 0.00682078
0.423606 0.239353 0.00267033
0.562997 0.220142 0.000503548
0.705211 0.200061 6.10361e-05
0.852628 0.181552 0
0.975845 0.165728 0
0.999924 0.152773 0
0 0.413153 0.115084
0.0288701 0.42153 0.0430762
0.206088 0.409033 0.00787366
0.413931 0.388418 0.00222782
0.576196 0.368277 0.00111391
0.726513 0.343038 0.000244144
0.875578 0.313161 1.5259e-05
0.984543 0.282994 0
0.999985 0.257145 0
0 0.555627 0.14815
0.00460822 0.565118 0.0713664
0.11545 0.563882 0.0178073
0.356481 0.541573 0.00302129
0.568582 0.520424 0.000518807
0.733379 0.501793 9.15541e-05
0.886381 0.474998 0
0.988891 0.437568 0
1 0.393362 0
0 0.700481 0.185138
0.00231937 0.709926 0.101061
0.0605478 0.716838 0.0315251
0.260365 0.70251 0.00474556
0.50811 0.678035 0.000366217
0.717159 0.658076 3.0518e-05
0.88777 0.638346 1.5259e-05
0.995605 0.610147 0
1 0.569482 0
0 0.843565 0.224308
0.000183108 0.854765 0.136797
0.0208133 0.867735 0.0524453
0.154147 0.8645 0.00973526
0.417105 0.840314 0.0016022
0.674327 0.81529 9.15541e-05
0.872679 0.79646 0
0.988922 0.777142 0
1 0.747753 0
0 0.965515 0.265446
0 0.968917 0.178332
0.00282292 0.976471 0.0841993
0.0660563 0.979812 0.0228275
0.292744 0.970077 0.00445563
0.581888 0.956237 0.00015259
0.832349 0.943969 0
0.983932 0.9337 0
1 0.916396 0
0 0.999969 0.304067
0 1 0.221805
6.10361e-05 1 0.125994
0.00537118 1 0.0417792
0.151492 0.999954 0.0107576
0.431556 0.999802 0.000732433
0.740108 1 0
0.963897 1 0
0.999954 1 0
0.00482185 0.0245365 0.130831
0.106294 0.0225681 0.0616617
0.224338 0.0245365 0.0181582
0.362585 0.0181582 0.00543221
0.521431 0.0110781 0.0016022
0.692439 0.00451667 0.000213626
0.872572 0.000976577 0
0.990906 0.000991836 0
1 0.000640879 0
0.00695811 0.136995 0.147143
0.113878 0.130159 0.119249
0.253758 0.121752 0.0739147
0.384848 0.106371 0.0402533
0.518654 0.0906844 0.01561
0.668879 0.0786908 0.00491341
0.832349 0.0664225 0.000320439
0.973205 0.0535134 1.5259e-05
0.999863 0.0428626 0
0.00366217 0.264256 0.173404
0.0830091 0.25948 0.153323
0.245777 0.249683 0.103105
0.394629 0.231281 0.0651408
0.525887 0.211261 0.0328374
0.660838 0.19321 0.0102083
0.808103 0.178561 0.000991836
0.952071 0.165331 1.5259e-05
0.999344 0.150805 0
0.000122072 0.396384 0.22118
0.0417792 0.393896 0.191775
0.195483 0.393347 0.122728
0.390448 0.379446 0.0769665
0.54818 0.354818 0.0488899
0.688945 0.326619 0.0208133
0.831891 0.299336 0.00466926
0.961288 0.277256 3.0518e-05
0.999527 0.259968 0
1.5259e-05 0.532921 0.272496
0.0101625 0.532845 0.236103
0.114412 0.541924 0.148486
0.333898 0.534997 0.0749065
0.549004 0.515694 0.0474708
0.71368 0.491905 0.0339513
0.862043 0.455955 0.0142977
0.979599 0.413901 0.00224308
0.999939 0.377707 3.0518e-05
0 0.674754 0.321523
0.00386053 0.676097 0.274144
0.0588998 0.687892 0.186191
0.240406 0.690608 0.0937667
0.484749 0.674968 0.0457923
0.697704 0.653315 0.0298772
0.870954 0.628183 0.0179446
0.987732 0.592721 0.00769055
1 0.548058 0.00129702
0 0.817029 0.370062
0.000503548 0.820401 0.315404
0.0215 0.834745 0.227573
0.138369 0.846693 0.124483
0.388006 0.835142 0.0522316
0.650721 0.813321 0.0211948
0.858381 0.792767 0.0144808
0.984802 0.76875 0.00881971
1 0.732662 0.00257877
0 0.949828 0.414908
1.5259e-05 0.952865 0.356558
0.00340276 0.960891 0.27155
0.0592966 0.970611 0.166796
0.265064 0.967758 0.0711528
0.548745 0.956374 0.0162509
0.812711 0.942809 0.0100557
0.979416 0.930236 0.0109255
1 0.910094 0.00907912
0 0.999603 0.454017
0 0.999908 0.394141
7.62951e-05 0.999985 0.313802
0.00677501 1 0.215122
0.135866 0.999954 0.106432
0.394461 0.999832 0.0300145
0.709117 1 0.00865187
0.954894 1 0.00781262
0.999863 1 0.00839246
0.00128176 0.0426032 0.248768
0.0951095 0.0272679 0.202014
0.209201 0.0334783 0.0903334
0.304204 0.0423743 0.0367437
0.432868 0.0390478 0.0128634
0.606729 0.0244755 0.00366217
0.798215 0.0110781 0.000488289
0.959152 0.00399786 4.57771e-05
0.998901 0.00105287 0
0.0019379 0.148898 0.279149
0.083238 0.14136 0.250462
0.226368 0.135531 0.17966
0.345541 0.132006 0.114717
0.478584 0.11606 0.0726482
0.636606 0.0954757 0.0397192
0.810147 0.0746929 0.0155795
0.965393 0.0548104 0.00349432
0.99971 0.0394598 0.000686656
0.00358587 0.271885 0.276738
0.0882734 0.259052 0.271626
0.233234 0.250401 0.237629
0.371237 0.237217 0.183902
0.49926 0.215824 0.129702
0.6365 0.193179 0.0773785
0.791989 0.175082 0.0350042
0.946654 0.15877 0.0111086
0.999207 0.140978 0.00302129
0.000366217 0.398566 0.290013
0.0645457 0.384146 0.295354
0.210147 0.378058 0.272084
0.371038 0.368078 0.225849
0.515908 0.343557 0.172824
0.647181 0.313008 0.112474
0.785809 0.289128 0.054139
0.930358 0.272419 0.0165255
0.998474 0.257404 0.00486763
3.0518e-05 0.530312 0.332448
0.0281682 0.515846 0.34374
0.150301 0.516045 0.311894
0.329 0.517266 0.247395
0.525353 0.50399 0.201419
0.682338 0.471855 0.163348
0.819272 0.429786 0.106554
0.948425 0.39527 0.0446174
0.99884 0.373404 0.00636301
0 0.667292 0.393362
0.0131533 0.65536 0.394507
0.0933394 0.659083 0.354849
0.249531 0.66807 0.277333
0.465522 0.663767 0.209781
0.674907 0.643687 0.173327
0.845518 0.613123 0.141466
0.970687 0.570214 0.0931716
0.999695 0.526131 0.0408637
0 0.804898 0.453849
0.00378424 0.79762 0.445441
0.0465705 0.803403 0.39913
0.162432 0.817197 0.318639
0.377554 0.821347 0.227268
0.628244 0.8094 0.167666
0.841535 0.786633 0.146868
0.978363 0.755489 0.123232
0.999954 0.711666 0.0825513
0 0.938354 0.5122
0.00047303 0.93576 0.493309
0.0144503 0.941848 0.442237
0.0872511 0.953536 0.363867
0.266056 0.959197 0.258717
0.519661 0.954009 0.164401
0.791562 0.941253 0.132067
0.97406 0.926085 0.132097
1 0.900542 0.116243
0 0.999161 0.560906
0 0.999359 0.534127
0.00128176 0.999557 0.480186
0.0258946 0.99971 0.406256
0.151965 0.999817 0.303868
0.376898 0.999847 0.193591
0.676204 1 0.119799
0.942519 1 0.111452
0.99968 0.999756 0.119707
0.000106813 0.0623484 0.358709
0.0598154 0.0394293 0.362554
0.218784 0.0296788 0.235935
0.3122 0.045655 0.12372
0.397772 0.0595865 0.0600748
0.520714 0.0588235 0.0234379
0.689372 0.0446326 0.00674449
0.872862 0.0268406 0.000854505
0.983322 0.0111849 6.10361e-05
0.000167849 0.166308 0.408347
0.0421302 0.15964 0.381445
0.198901 0.144076 0.321218
0.329412 0.147173 0.219944
0.432975 0.151736 0.142672
0.566613 0.13994 0.0926833
0.737484 0.115969 0.052491
0.916228 0.086717 0.0227665
0.994736 0.0579995 0.0071107
0.00233463 0.285725 0.428931
0.0669261 0.276661 0.407782
0.198871 0.263539 0.371237
0.344701 0.254658 0.300999
0.468086 0.243885 0.228687
0.600229 0.221561 0.169375
0.758679 0.196841 0.11664
0.927886 0.171649 0.0698253
0.997803 0.14612 0.0303502
0.000503548 0.408972 0.408286
0.0669413 0.39408 0.408286
0.212268 0.381552 0.397772
0.355871 0.370428 0.360769
0.492348 0.350591 0.298802
0.617868 0.321431 0.228122
0.759121 0.293156 0.160266
0.916381 0.271626 0.100954
0.997452 0.25214 0.0535592
1.5259e-05 0.53724 0.410529
0.0324407 0.519371 0.421286
0.178698 0.508598 0.422553
0.337377 0.503563 0.392905
0.50544 0.490349 0.350668
0.647272 0.454871 0.293996
0.771664 0.413031 0.214923
0.909743 0.385962 0.13402
0.995941 0.369482 0.066331
0 0.671992 0.448188
0.0214084 0.652857 0.462654
0.133059 0.64361 0.462867
0.281163 0.645411 0.432242
0.460044 0.645396 0.379583
0.65037 0.628763 0.330175
0.81062 0.592798 0.27982
0.940093 0.546548 0.210956
0.99762 0.508721 0.131212
0 0.807065 0.504143
0.009308 0.789807 0.519081
0.0878462 0.783658 0.51667
0.21619 0.788922 0.481514
0.389227 0.799069 0.411475
0.60882 0.797269 0.347784
0.818647 0.775311 0.314321
0.963088 0.736599 0.27808
0.999222 0.685267 0.214511
0 0.93666 0.565469
0.00215152 0.927153 0.578805
0.0416876 0.92462 0.567452
0.146426 0.930663 0.525795
0.298543 0.940475 0.452537
0.507897 0.945388 0.370047
0.770031 0.939223 0.31693
0.968185 0.920821 0.30927
0.999985 0.887327 0.282506
0 0.9991 0.626856
0.000122072 0.998932 0.630426
0.00909438 0.998886 0.611261
0.0712902 0.998993 0.56672
0.202716 0.999222 0.496559
0.38764 0.999908 0.407935
0.647379 1 0.321157
0.925017 0.999985 0.296391
0.999466 0.998642 0.307759
0 0.0834058 0.471061
0.0271916 0.0576181 0.505592
0.191791 0.0325475 0.420233
0.336355 0.0380713 0.27068
0.421042 0.0576486 0.147173
0.503853 0.0731823 0.0790265
0.617609 0.0775006 0.0331273
0.77203 0.0664683 0.00750744
0.935454 0.0431983 0.000564584
4.57771e-05 0.184619 0.526741
0.015198 0.181689 0.504433
0.148547 0.156649 0.481727
0.325841 0.148089 0.366827
0.437186 0.160998 0.245411
0.531075 0.170535 0.165469
0.657908 0.164691 0.104692
0.827649 0.140597 0.0554665
0.967926 0.104463 0.0228275
0.000579843 0.299992 0.581872
0.0401617 0.297124 0.543511
0.147997 0.282246 0.510124
0.31577 0.266011 0.443412
0.452262 0.263935 0.342596
0.563241 0.261662 0.255406
0.698116 0.245411 0.191135
0.869673 0.21471 0.136004
0.98584 0.17908 0.0860761
0.00062562 0.423423 0.571038
0.0624857 0.414847 0.568078
0.189868 0.402289 0.542733
0.325307 0.385748 0.498573
0.468452 0.371817 0.422751
0.59234 0.355505 0.336706
0.726024 0.326833 0.266331
0.890791 0.294545 0.205692
0.993912 0.265248 0.148425
1.5259e-05 0.546136 0.533562
0.0332036 0.531426 0.539422
0.186191 0.521141 0.543618
0.342229 0.508797 0.529595
0.489158 0.492805 0.488853
0.619196 0.464286 0.414832
0.743206 0.425223 0.330632
0.889601 0.388861 0.254246
0.994614 0.365805 0.184253
0 0.680156 0.541466
0.0217136 0.660487 0.545007
0.14931 0.64567 0.552789
0.306554 0.637354 0.550942
0.464714 0.632776 0.521324
0.630488 0.61825 0.47245
0.777539 0.58143 0.408148
0.902022 0.528008 0.32195
0.991379 0.494789 0.239002
0 0.814572 0.567529
0.0113222 0.794553 0.578134
0.111147 0.78027 0.589288
0.262043 0.774212 0.588754
0.417472 0.776928 0.559899
0.596826 0.778256 0.510948
0.790799 0.758541 0.463798
0.93695 0.713314 0.408957
0.996231 0.656794 0.327047
0 0.941573 0.610513
0.00389105 0.928817 0.62916
0.0694743 0.919188 0.642618
0.205676 0.915145 0.638727
0.348669 0.91899 0.607996
0.517952 0.928801 0.551888
0.749645 0.931426 0.490486
0.96173 0.912856 0.470558
0.999756 0.865263 0.427268
0 0.999268 0.667109
0.000610361 0.998947 0.688487
0.0272526 0.99852 0.69749
0.132067 0.997528 0.687373
0.270207 0.997971 0.654643
0.424674 0.999969 0.593698
0.63743 0.999924 0.51812
0.906126 0.999832 0.473426
0.999405 0.998383 0.478599
0 0.106157 0.596582
0.00947585 0.0799115 0.650278
0.136645 0.045182 0.61976
0.333822 0.0329595 0.470985
0.464347 0.0430457 0.301823
0.535912 0.0680247 0.171923
0.605585 0.0904555 0.0908064
0.710918 0.097673 0.0375067
0.861082 0.0870985 0.00747692
0 0.205097 0.64921
0.00184634 0.205035 0.632334
0.0860761 0.176608 0.647868
0.293462 0.150332 0.559136
0.456443 0.152667 0.407813
0.546899 0.174624 0.269444
0.625437 0.192752 0.178637
0.744366 0.191012 0.109819
0.909056 0.164996 0.0523079
0 0.314199 0.733684
0.0176089 0.316289 0.678035
0.0876326 0.303761 0.651576
0.2589 0.278355 0.616648
0.442573 0.268727 0.500221
0.562051 0.279759 0.363607
0.654017 0.28925 0.269764
0.789166 0.274876 0.199893
0.94789 0.23714 0.138567
0.00030518 0.439307 0.751461
0.0471046 0.434501 0.736721
0.145205 0.425788 0.694499
0.269764 0.405554 0.650965
0.440909 0.387106 0.571374
0.581521 0.385138 0.454994
0.688655 0.37966 0.360891
0.832395 0.352377 0.289601
0.974929 0.310704 0.230747
0 0.562051 0.707805
0.0357519 0.553384 0.714672
0.18941 0.549569 0.717067
0.329137 0.534813 0.692149
0.455314 0.512322 0.636927
0.599771 0.494026 0.544976
0.721416 0.472831 0.446723
0.860014 0.43267 0.368582
0.988052 0.391897 0.306676
0 0.68983 0.675486
0.0208591 0.672908 0.676707
0.150698 0.662577 0.682139
0.316609 0.653437 0.682216
0.465675 0.639414 0.65893
0.615488 0.623835 0.606989
0.752483 0.593606 0.534264
0.873869 0.535073 0.440665
0.982757 0.493614 0.356634
0 0.821973 0.665171
0.00999466 0.802625 0.665553
0.113024 0.786816 0.670863
0.281514 0.77499 0.677974
0.443168 0.766674 0.676646
0.600702 0.761501 0.65716
0.766781 0.745525 0.603387
0.905989 0.6963 0.527855
0.988342 0.63209 0.427924
0 0.947677 0.677256
0.00407416 0.934401 0.685542
0.0816358 0.921096 0.698558
0.24239 0.909804 0.713405
0.398917 0.903395 0.720409
0.550072 0.906691 0.696818
0.735103 0.91223 0.649516
0.944686 0.896361 0.611261
0.997772 0.830915 0.541894
0 0.999481 0.711803
0.00125124 0.999146 0.73109
0.0455634 0.998428 0.752377
0.183307 0.996231 0.77055
0.336126 0.997696 0.772335
0.480308 0.998947 0.74519
0.649409 0.999084 0.693401
0.887999 0.9991 0.634394
0.999237 0.998886 0.626719
0 0.131655 0.747005
0.000869764 0.106508 0.811276
0.0702831 0.0669413 0.825193
0.28191 0.0368353 0.718013
0.485496 0.028397 0.523049
0.59321 0.0499428 0.321874
0.652628 0.0796216 0.189532
0.715145 0.104143 0.104891
0.813382 0.114763 0.0428016
0 0.229847 0.787274
7.62951e-05 0.230533 0.776623
0.0362249 0.203494 0.815656
0.219791 0.163668 0.77998
0.446372 0.144671 0.630457
0.588846 0.158938 0.431632
0.660563 0.187823 0.285054
0.729656 0.209812 0.193927
0.845487 0.211002 0.118181
0 0.329397 0.884428
0.00349432 0.336828 0.81799
0.0339971 0.327535 0.799924
0.168887 0.299245 0.802594
0.403586 0.272038 0.706981
0.586679 0.271122 0.533623
0.676387 0.294545 0.381506
0.755169 0.311437 0.285573
0.885115 0.300755 0.207538
3.0518e-05 0.451759 0.920851
0.0209659 0.449134 0.894438
0.0790875 0.444999 0.838544
0.181888 0.427512 0.805753
0.378317 0.399542 0.758587
0.582727 0.386145 0.629602
0.697658 0.400824 0.478218
0.787976 0.409186 0.379232
0.924727 0.384848 0.301198
0 0.583474 0.906203
0.0354314 0.578088 0.911635
0.174731 0.573922 0.900282
0.274495 0.559442 0.852308
0.386664 0.532357 0.797116
0.575799 0.510506 0.709209
0.721279 0.510536 0.571786
0.819333 0.50457 0.472236
0.957702 0.465522 0.396765
0 0.703792 0.84567
0.0238956 0.693751 0.857252
0.155734 0.689586 0.863172
0.31574 0.685634 0.856733
0.450401 0.66656 0.823529
0.595346 0.641108 0.76553
0.737514 0.622873 0.669627
0.852186 0.59324 0.56286
0.969757 0.539178 0.47509
0 0.830701 0.806851
0.00892653 0.813275 0.804318
0.110124 0.801633 0.806516
0.286595 0.794415 0.810987
0.452613 0.78436 0.810315
0.603433 0.76936 0.793484
0.754025 0.751415 0.742626
0.884901 0.713298 0.655039
0.980072 0.639933 0.542397
0 0.952468 0.786709
0.00311284 0.940154 0.783719
0.0768292 0.927474 0.786206
0.244526 0.915236 0.794583
0.419608 0.904814 0.806149
0.580179 0.897795 0.808576
0.742168 0.89427 0.789014
0.916396 0.877958 0.739086
0.994369 0.807385 0.644755
0 0.999634 0.787701
0.00131228 0.999359 0.793271
0.0500191 0.998764 0.807416
0.202823 0.996872 0.826703
0.37641 0.998932 0.844862
0.532403 0.99588 0.851728
0.684703 0.995819 0.830747
0.876646 0.999298 0.782574
0.997436 0.98967 0.754452
0 0.160571 0.919692
1.5259e-05 0.136416 0.967193
0.0222934 0.0957504 0.979843
0.187427 0.053254 0.93254
0.444678 0.0269169 0.787228
0.63621 0.0305486 0.549813
0.720226 0.0574655 0.342702
0.769436 0.0905623 0.207996
0.827695 0.117494 0.120378
0 0.258579 0.935607
0 0.25861 0.931884
0.0111543 0.232898 0.961715
0.125719 0.190082 0.959564
0.370794 0.152102 0.870542
0.60444 0.140734 0.670817
0.721309 0.164965 0.452674
0.777768 0.200046 0.302739
0.841825 0.22501 0.211048
0 0.35021 0.98436
0.000167849 0.360967 0.950805
0.00862135 0.354452 0.943664
0.0802319 0.328161 0.95671
0.311208 0.28838 0.917113
0.571847 0.262181 0.772671
0.726162 0.2757 0.55938
0.794614 0.308263 0.39762
0.865629 0.329686 0.303792
0 0.461357 0.997818
0.0037995 0.464637 0.988952
0.0219883 0.46511 0.959808
0.088014 0.452705 0.946181
0.276417 0.422187 0.935302
0.536065 0.389364 0.848936
0.730602 0.3888 0.662058
0.818112 0.416449 0.495521
0.897032 0.432425 0.398947
0 0.59736 0.993225
0.0234531 0.590082 0.996536
0.11603 0.586069 0.98938
0.177844 0.576883 0.961044
0.281254 0.556939 0.940291
0.506859 0.524102 0.896406
0.734401 0.506813 0.760876
0.841794 0.526879 0.594308
0.927993 0.53373 0.495842
0 0.724163 0.977386
0.0236057 0.718044 0.978469
0.149615 0.716503 0.980377
0.287175 0.713695 0.975631
0.397757 0.697063 0.960281
0.533822 0.666056 0.930236
0.716503 0.637934 0.842054
0.862287 0.636988 0.694591
0.950607 0.624964 0.589761
0 0.844358 0.951232
0.0102998 0.833539 0.953994
0.117968 0.829526 0.955566
0.29575 0.829618 0.956054
0.453956 0.824399 0.952331
0.589761 0.804395 0.938216
0.731044 0.772931 0.895445
0.878965 0.751095 0.794049
0.974777 0.714549 0.678203
0 0.957549 0.926024
0.00248722 0.946838 0.922774
0.0687724 0.937713 0.920546
0.239551 0.931701 0.920623
0.425223 0.927138 0.922621
0.595666 0.919615 0.924559
0.752575 0.904219 0.919615
0.898329 0.881285 0.87744
0.992615 0.829511 0.773739
0 0.999741 0.90724
0.000717174 0.999527 0.905898
0.0390784 0.999207 0.906859
0.194018 0.998001 0.910582
0.378302 0.999039 0.918105
0.554421 0.995315 0.930037
0.717449 0.995789 0.93608
0.880827 0.996155 0.921843
0.995117 0.978164 0.875883
0 0.189792 0.998184
0 0.167407 0.999649
0.00430304 0.128466 0.999939
0.0923018 0.0797131 0.997314
0.344015 0.0399329 0.958297
0.623087 0.0218814 0.82031
0.777386 0.0338598 0.570855
0.845731 0.0657054 0.36141
0.888701 0.101625 0.227405
0 0.288823 0.998886
0 0.287388 0.998459
0.00195315 0.263798 0.999527
0.0500954 0.223407 0.999588
0.256275 0.175631 0.984283
0.548638 0.138598 0.905043
0.758419 0.139879 0.699962
0.853407 0.172946 0.46949
0.899718 0.210925 0.323827
0 0.376272 0.999985
0 0.388312 0.99913
0.00134279 0.382986 0.998611
0.0259403 0.359869 0.999176
0.196155 0.317845 0.994339
0.481071 0.272709 0.956176
0.736843 0.257191 0.805402
0.867002 0.281971 0.575067
0.918822 0.32018 0.41944
0 0.475395 1
0.000183108 0.484993 0.999832
0.00231937 0.489815 0.998718
0.0272679 0.481239 0.998291
0.161654 0.453025 0.997986
0.424994 0.409522 0.982727
0.713024 0.3794 0.887404
0.882704 0.393179 0.680858
0.942123 0.429694 0.515694
0 0.603311 1
0.00514229 0.599207 1
0.0357519 0.60061 0.999863
0.0683146 0.597192 0.999176
0.161135 0.584558 0.999069
0.389929 0.549523 0.994293
0.684489 0.508995 0.951537
0.893309 0.509178 0.781262
0.963195 0.543725 0.613214
0 0.743664 1
0.0147402 0.736828 1
0.115358 0.734035 1
0.219059 0.730632 0.999908
0.30428 0.71722 0.999237
0.426459 0.689952 0.996933
0.639353 0.652247 0.975341
0.885954 0.631891 0.873915
0.976226 0.657389 0.715541
0 0.867765 0.999252
0.0107118 0.862928 0.999405
0.126467 0.86302 0.99939
0.294133 0.864561 0.999329
0.428489 0.859831 0.999268
0.536934 0.840681 0.998611
0.660075 0.799451 0.993225
0.865858 0.763012 0.944045
0.988296 0.774227 0.814206
0 0.968612 0.997406
0.00289921 0.964279 0.99704
0.0744945 0.962753 0.996841
0.254688 0.965637 0.996857
0.449958 0.97116 0.997665
0.623621 0.968978 0.997971
0.751278 0.946578 0.996811
0.863218 0.901015 0.984451
0.993439 0.890181 0.912184
0 0.999878 0.994369
0.000213626 0.999786 0.993927
0.0274052 0.999695 0.993454
0.177401 0.999466 0.99324
0.367468 0.999817 0.994919
0.559289 0.999222 0.995102
0.736934 0.999512 0.998215
0.898497 0.997909 0.999634
0.994125 0.989776 0.983734
