LUT预设1/LUT全系打包/6.FAKE5207&淡雅系列/FAKE5207/FAKE5207-REC709/FAKE5207-709STD标准.cube
TITLE "Generated by Resolve"
LUT_3D_SIZE 9
0.0120851 0.0174411 0.0216831
0.125643 0.0150912 0.00486763
0.254978 0.0142061 0.00114443
0.386816 0.00967422 0.000167849
0.525063 0.00810254 6.10361e-05
0.680613 0.00540169 0
0.853971 0.00128176 0
0.979873 0.00204471 0
1 0.0011902 0
0.00534066 0.138537 0.0530861
0.111864 0.132982 0.0226139
0.25742 0.120638 0.00642405
0.384344 0.108446 0.00341802
0.507912 0.0976272 0.000396735
0.647486 0.0887922 1.5259e-05
0.802319 0.0787518 0
0.951293 0.0668956 0
0.999786 0.0542763 0
0.000808728 0.27393 0.0960098
0.0575723 0.27744 0.0423133
0.231495 0.264454 0.0136568
0.391302 0.247593 0.00619516
0.526741 0.229618 0.00141909
0.665949 0.208927 0.000213626
0.814404 0.18941 3.0518e-05
0.951888 0.171878 0
0.999496 0.157107 0
0 0.41149 0.138506
0.018967 0.420249 0.0719463
0.160723 0.415915 0.0191348
0.366842 0.398947 0.00531014
0.533684 0.380392 0.00315862
0.683528 0.355734 0.000946059
0.836072 0.324895 0.000122072
0.964309 0.292226 0
0.999847 0.263508 0
0 0.553887 0.175509
0.00283818 0.562234 0.106966
0.0761425 0.568566 0.0394141
0.288182 0.554376 0.00898756
0.514275 0.533562 0.00177005
0.685603 0.515557 0.000350958
0.845792 0.488228 3.0518e-05
0.970336 0.448783 0
1 0.401984 0
0 0.698482 0.216434
0.0011902 0.706264 0.142351
0.0350805 0.717952 0.0637064
0.180972 0.715999 0.014435
0.432059 0.693706 0.00135805
0.655924 0.672236 0.000213626
0.842374 0.651026 0.000137331
0.975967 0.621683 0
1 0.579492 0
0 0.84123 0.258045
7.62951e-05 0.850843 0.1823
0.00984207 0.865888 0.0957656
0.0828717 0.874128 0.0283665
0.321752 0.857099 0.00588998
0.593561 0.831601 0.000793469
0.816587 0.809461 6.10361e-05
0.967056 0.78764 0
1 0.757183 0
0 0.96495 0.300557
0 0.967941 0.225116
0.00108339 0.975265 0.137072
0.0243992 0.9823 0.0561227
0.191318 0.977783 0.0144656
0.479362 0.966155 0.00178531
0.756664 0.953017 7.62951e-05
0.952911 0.941573 0
1 0.924376 0
0 0.999908 0.339025
0 1 0.26772
1.5259e-05 1 0.183398
0.00112917 1 0.0922713
0.0699474 1 0.0310674
0.31667 0.999893 0.00552377
0.639399 1 0.000244144
0.910307 1 0
0.999664 1 6.10361e-05
0.00288396 0.0271611 0.152331
0.0953078 0.0237583 0.0901198
0.204044 0.0284123 0.0315099
0.326741 0.0259556 0.0112459
0.474998 0.0184176 0.00367742
0.644312 0.00892653 0.000671397
0.82977 0.00259403 7.62951e-05
0.97229 0.00135805 0
0.999908 0.000656138 0
0.00469978 0.139879 0.170871
0.0948806 0.133593 0.14876
0.229664 0.127947 0.1019
0.354452 0.116808 0.0633402
0.48336 0.100313 0.0324254
0.6309 0.0859846 0.0135805
0.797421 0.0714885 0.00321965
0.951751 0.0563211 0.000381476
0.999588 0.043473 1.5259e-05
0.00274662 0.267201 0.190249
0.0707256 0.260197 0.182681
0.215686 0.254002 0.142428
0.361547 0.240284 0.1019
0.489494 0.221042 0.0636912
0.621027 0.200183 0.0280613
0.769589 0.183719 0.00770581
0.923522 0.168551 0.000854505
0.997223 0.152239 7.62951e-05
0.000106813 0.398947 0.234257
0.0357366 0.392782 0.22295
0.162722 0.393851 0.171801
0.340566 0.387045 0.120317
0.503014 0.366186 0.0876478
0.642161 0.337072 0.0498665
0.785595 0.308095 0.0184787
0.927886 0.283803 0.00239567
0.996994 0.264393 0.000122072
1.5259e-05 0.53463 0.288182
0.00958267 0.529793 0.273136
0.0886397 0.538186 0.210391
0.269093 0.540902 0.132128
0.489937 0.527901 0.0902266
0.663096 0.504891 0.0721447
0.815091 0.467048 0.0420233
0.950378 0.422644 0.0137636
0.999252 0.383856 0.000900282
0 0.674815 0.343191
0.00328069 0.672267 0.31722
0.0422675 0.682017 0.252689
0.172396 0.693553 0.164645
0.40322 0.687404 0.0933242
0.632181 0.66688 0.0677501
0.821454 0.640314 0.0498665
0.961349 0.602762 0.0286717
0.999924 0.554574 0.00869764
0 0.815641 0.39765
0.000534066 0.815976 0.363317
0.0143893 0.82742 0.297398
0.0837415 0.844068 0.210849
0.293919 0.845792 0.114626
0.562905 0.827848 0.0599527
0.796216 0.805234 0.0429999
0.958526 0.778439 0.0318914
0.999985 0.740414 0.0158083
0 0.948089 0.447333
3.0518e-05 0.950088 0.407034
0.00230411 0.957565 0.342092
0.0273747 0.968658 0.258701
0.173754 0.972564 0.150958
0.439979 0.965469 0.060914
0.726909 0.951766 0.0345464
0.942458 0.938109 0.0324559
1 0.917067 0.0286564
0 0.999466 0.489189
0 0.999771 0.44564
4.57771e-05 0.999908 0.382818
0.00239567 0.999969 0.307652
0.0683146 0.999985 0.20177
0.283909 0.999908 0.0934462
0.597208 1 0.0378882
0.890349 1 0.0245212
0.998764 1 0.0259403
0.000671397 0.0472114 0.277104
0.0728618 0.0316472 0.255375
0.200748 0.0314641 0.145541
0.289769 0.0441901 0.0690929
0.388464 0.0511025 0.0298772
0.540291 0.0402686 0.0108949
0.725536 0.0245365 0.00257877
0.908431 0.0113527 0.00030518
0.992767 0.00326543 1.5259e-05
0.000976577 0.15349 0.319234
0.0580911 0.148486 0.293782
0.197284 0.13991 0.236561
0.317082 0.141253 0.15935
0.428992 0.136431 0.10631
0.577035 0.116884 0.066804
0.751095 0.093492 0.0335241
0.925948 0.0683604 0.0116732
0.997208 0.0463569 0.0027924
0.00230411 0.277134 0.321553
0.0670176 0.266056 0.31487
0.198978 0.257496 0.288975
0.333898 0.249424 0.237949
0.457618 0.234058 0.182376
0.588464 0.209644 0.124987
0.745159 0.186831 0.0727703
0.912779 0.166064 0.0335393
0.996292 0.144823 0.0116274
0.000228885 0.4038 0.323644
0.0496529 0.389471 0.329442
0.18262 0.381674 0.321706
0.327123 0.375616 0.288396
0.471183 0.358068 0.238025
0.600885 0.326253 0.175097
0.738735 0.297475 0.105669
0.892989 0.276493 0.0482643
0.992874 0.258701 0.0183413
1.5259e-05 0.535561 0.352239
0.0203403 0.519448 0.367773
0.132052 0.513924 0.361776
0.280552 0.517296 0.319615
0.465141 0.512963 0.270909
0.628992 0.483833 0.231495
0.765438 0.438575 0.167041
0.904219 0.401068 0.0899825
0.993469 0.377142 0.0243839
0 0.671641 0.41001
0.0101015 0.656428 0.422339
0.0806897 0.654383 0.410544
0.206363 0.662638 0.363821
0.389654 0.668269 0.294347
0.60592 0.654047 0.247837
0.790143 0.623072 0.210101
0.93312 0.57673 0.153979
0.997391 0.528954 0.0839094
0 0.807645 0.471122
0.00321965 0.79649 0.479301
0.0408637 0.797024 0.460761
0.134997 0.80679 0.414542
0.30132 0.820432 0.331868
0.537591 0.818509 0.256001
0.77229 0.797833 0.221653
0.945647 0.76376 0.194995
0.999451 0.715785 0.145357
0 0.939361 0.533639
0.00047303 0.933806 0.533822
0.0128634 0.936553 0.508782
0.0688182 0.945754 0.46067
0.202121 0.956069 0.380041
0.417426 0.959014 0.279088
0.696757 0.949294 0.216876
0.929839 0.933471 0.203449
0.999985 0.9066 0.187579
0 0.999146 0.588724
1.5259e-05 0.999207 0.580301
0.00138857 0.999329 0.550057
0.0174563 0.999481 0.502647
0.109087 0.999695 0.429404
0.288121 0.999863 0.328206
0.560678 1 0.226444
0.86508 1 0.186587
0.997177 0.999771 0.196078
3.0518e-05 0.0687266 0.396658
0.035935 0.0483253 0.418875
0.189685 0.0304723 0.328008
0.309087 0.0400702 0.199466
0.38677 0.0595254 0.107851
0.476005 0.0710765 0.0502327
0.61709 0.0645762 0.0194095
0.795651 0.047013 0.0040589
0.952621 0.0243381 0.000289921
1.5259e-05 0.171588 0.45803
0.0216983 0.169482 0.431266
0.151507 0.151949 0.400214
0.304219 0.148089 0.304662
0.407782 0.160006 0.201678
0.508827 0.163302 0.135042
0.661204 0.145815 0.0845502
0.84651 0.115419 0.0423438
0.978469 0.0790723 0.0150912
0.00109865 0.29131 0.492943
0.0446632 0.286213 0.469993
0.152392 0.275319 0.438972
0.300618 0.263996 0.382559
0.428321 0.261555 0.297444
0.544869 0.249042 0.22623
0.693523 0.224537 0.167483
0.872786 0.193439 0.112184
0.988663 0.160464 0.0594339
0.000320439 0.41561 0.472892
0.0484627 0.404211 0.472404
0.177462 0.393591 0.463218
0.309331 0.382544 0.436149
0.445594 0.369879 0.379202
0.569558 0.347631 0.303777
0.707301 0.314366 0.230777
0.872526 0.283848 0.163622
0.989593 0.257786 0.100862
1.5259e-05 0.543328 0.459586
0.0202792 0.527276 0.465919
0.148486 0.515953 0.473136
0.296651 0.508614 0.4645
0.450767 0.501274 0.435157
0.595865 0.472465 0.379446
0.719951 0.427985 0.294728
0.862211 0.391577 0.206912
0.985504 0.370596 0.127581
0 0.678447 0.479912
0.0135348 0.659525 0.491615
0.108202 0.646723 0.502571
0.252598 0.641794 0.502968
0.402121 0.643931 0.473716
0.583093 0.635523 0.422904
0.751553 0.601938 0.365423
0.890288 0.549874 0.286687
0.987625 0.507515 0.195926
0 0.813428 0.525841
0.00628672 0.794659 0.541222
0.0733501 0.783703 0.557092
0.201038 0.781262 0.557275
0.339452 0.789853 0.518746
0.526329 0.796521 0.456031
0.742947 0.781399 0.407645
0.919371 0.741848 0.362264
0.995026 0.684611 0.290684
0 0.940871 0.581125
0.0016022 0.929671 0.60322
0.0341802 0.923323 0.615488
0.135882 0.923766 0.607904
0.266209 0.930404 0.570108
0.43093 0.940734 0.501274
0.671733 0.943771 0.429435
0.916213 0.927596 0.400488
0.999878 0.891478 0.374289
0 0.999207 0.643992
0.000106813 0.998993 0.662409
0.00773632 0.99881 0.667933
0.0616617 0.998718 0.654963
0.185245 0.998596 0.616129
0.334401 0.999847 0.551553
0.545464 1 0.464958
0.835691 0.999985 0.402457
0.99556 0.998825 0.402441
0 0.0913558 0.518975
0.0114595 0.069398 0.564248
0.141238 0.0396735 0.527489
0.316075 0.0332036 0.39176
0.431464 0.046891 0.236255
0.497002 0.070573 0.136538
0.580713 0.0867781 0.0690166
0.702586 0.0877394 0.0228428
0.870527 0.0698253 0.00248722
0 0.190829 0.584421
0.00486763 0.192844 0.560678
0.0898451 0.170748 0.565332
0.279255 0.149737 0.489342
0.430976 0.154253 0.349294
0.510369 0.175937 0.234531
0.60444 0.185367 0.155261
0.747204 0.173754 0.0907607
0.920027 0.139635 0.0392767
1.5259e-05 0.305165 0.65745
0.0210422 0.306401 0.6159
0.0938277 0.297505 0.585794
0.247898 0.277333 0.550896
0.416541 0.269245 0.451957
0.529702 0.27776 0.332097
0.636347 0.276936 0.248371
0.790738 0.252934 0.180514
0.954025 0.211185 0.12137
0.00030518 0.431159 0.657954
0.0421607 0.426154 0.654994
0.148836 0.418784 0.629053
0.263859 0.403922 0.592187
0.415641 0.387167 0.529015
0.551019 0.381796 0.423423
0.665171 0.366949 0.337438
0.82356 0.330755 0.265354
0.97438 0.288808 0.203998
1.5259e-05 0.553277 0.616159
0.0214542 0.542794 0.62237
0.150622 0.53814 0.629221
0.301518 0.529747 0.623667
0.431861 0.512566 0.593744
0.568078 0.49514 0.510964
0.695949 0.461784 0.423224
0.844068 0.410819 0.341131
0.982391 0.372595 0.27155
0 0.686687 0.604273
0.0117952 0.668925 0.603098
0.109102 0.656764 0.608179
0.267185 0.64799 0.615427
0.417456 0.639933 0.609583
0.572091 0.629938 0.570993
0.722683 0.600732 0.504707
0.853468 0.541848 0.411795
0.971466 0.495155 0.317449
0 0.821286 0.613428
0.0059205 0.802701 0.616373
0.0780957 0.788312 0.625864
0.227237 0.778424 0.638376
0.379538 0.773602 0.640223
0.536858 0.773205 0.616709
0.71873 0.760876 0.566461
0.883894 0.717433 0.499214
0.981689 0.65153 0.403281
0 0.947372 0.639704
0.00207523 0.935576 0.652689
0.0466926 0.924941 0.670588
0.179767 0.91725 0.686824
0.328664 0.912139 0.691661
0.475166 0.915587 0.669902
0.662943 0.924315 0.609674
0.897642 0.914488 0.563363
0.997192 0.865751 0.516335
0 0.99942 0.683757
0.000442512 0.999146 0.706935
0.0193179 0.998749 0.729366
0.11339 0.99765 0.744976
0.260365 0.997223 0.747295
0.400549 0.999847 0.717494
0.570352 0.999466 0.656184
0.814755 0.999496 0.588159
0.995331 0.998459 0.572549
0 0.11548 0.654505
0.00267033 0.093843 0.713237
0.0789044 0.0590372 0.726177
0.277256 0.0352483 0.624002
0.459907 0.0315862 0.446006
0.552941 0.0538491 0.267979
0.611872 0.0829633 0.153872
0.686687 0.102464 0.0784161
0.803525 0.105516 0.0228733
0 0.21297 0.714076
0.000259403 0.217212 0.695125
0.0384985 0.195483 0.726314
0.212039 0.162173 0.695033
0.423972 0.146395 0.563561
0.55288 0.162707 0.37908
0.62153 0.190311 0.249622
0.702831 0.205921 0.165164
0.841764 0.196689 0.0905318
0 0.319203 0.812207
0.00636301 0.325002 0.752743
0.0426947 0.319707 0.725567
0.163226 0.297841 0.721447
0.378973 0.273304 0.64831
0.55169 0.273838 0.483894
0.6383 0.295171 0.347265
0.732097 0.30341 0.258061
0.884794 0.278813 0.180346
6.10361e-05 0.44596 0.846174
0.0238346 0.442557 0.826596
0.0957656 0.439567 0.781826
0.188678 0.426444 0.743343
0.357183 0.400732 0.70602
0.552499 0.387991 0.581109
0.659678 0.39913 0.447059
0.767559 0.394598 0.351553
0.922972 0.358984 0.273854
0 0.573465 0.807874
0.022858 0.568566 0.818006
0.151659 0.567712 0.820264
0.280293 0.559808 0.797009
0.369116 0.537835 0.74638
0.54377 0.512413 0.66746
0.683757 0.504112 0.544381
0.804211 0.480781 0.443732
0.954559 0.432883 0.36733
0 0.698192 0.762188
0.0128786 0.685039 0.76527
0.112169 0.679072 0.772198
0.272923 0.677195 0.777401
0.414893 0.664668 0.762081
0.55877 0.643748 0.717739
0.704921 0.621836 0.636561
0.8309 0.58024 0.533608
0.956207 0.520562 0.436179
0 0.828656 0.7364
0.00486763 0.811612 0.734218
0.072343 0.79913 0.73753
0.228733 0.79089 0.745327
0.394751 0.782071 0.750637
0.550912 0.771008 0.744167
0.70985 0.757931 0.702434
0.860395 0.719615 0.624643
0.966308 0.646204 0.512444
0 0.952605 0.730007
0.00169375 0.941939 0.732265
0.0455329 0.930526 0.739391
0.188342 0.920562 0.751431
0.35613 0.91043 0.767544
0.512169 0.905364 0.772
0.677317 0.905669 0.748196
0.875639 0.896086 0.700175
0.989548 0.836301 0.625299
0 0.999603 0.745815
0.000595102 0.999359 0.758144
0.0249638 0.998962 0.77641
0.139162 0.997635 0.797955
0.303868 0.998123 0.819867
0.456748 0.99823 0.822202
0.612238 0.997024 0.799741
0.808942 0.998245 0.74284
0.993027 0.997864 0.708721
0 0.142016 0.812497
0.000137331 0.121508 0.875074
0.0321202 0.0852064 0.908522
0.195575 0.0492103 0.85478
0.436698 0.0264744 0.698466
0.598932 0.036286 0.462821
0.672251 0.0649119 0.284138
0.726528 0.0950942 0.165194
0.799588 0.116197 0.084123
0 0.239292 0.855436
1.5259e-05 0.243061 0.84184
0.0137636 0.223163 0.882841
0.128038 0.185641 0.890684
0.363149 0.151553 0.798871
0.573938 0.146853 0.588693
0.674098 0.173236 0.391302
0.735256 0.203616 0.259602
0.818601 0.219699 0.170565
0 0.335805 0.944915
0.000869764 0.34641 0.888563
0.0129244 0.343618 0.868223
0.0820783 0.323644 0.881895
0.297261 0.288792 0.849409
0.545129 0.266667 0.697597
0.678721 0.283192 0.49868
0.753017 0.310079 0.355322
0.847303 0.319326 0.262898
0 0.456565 0.969619
0.0081178 0.456138 0.954025
0.0434577 0.456977 0.910048
0.105623 0.448646 0.879179
0.262242 0.423545 0.871092
0.50956 0.392248 0.786419
0.68426 0.395193 0.60325
0.778256 0.415091 0.454475
0.881834 0.414618 0.358099
0 0.592081 0.958907
0.0190585 0.58616 0.964599
0.125597 0.583963 0.958602
0.215763 0.577234 0.925689
0.283619 0.560189 0.87834
0.48336 0.527886 0.839841
0.690745 0.512566 0.703868
0.802747 0.521584 0.55436
0.913756 0.508583 0.455924
0 0.714427 0.916228
0.0150454 0.707897 0.926528
0.117342 0.706188 0.931914
0.269551 0.707561 0.932677
0.392538 0.697643 0.912062
0.521843 0.668986 0.875242
0.684413 0.641306 0.788418
0.826535 0.625681 0.656626
0.936599 0.591073 0.54757
0 0.839323 0.880293
0.00500496 0.825544 0.880446
0.0738689 0.818006 0.883146
0.234607 0.816388 0.887465
0.403769 0.813687 0.889677
0.551476 0.798611 0.880659
0.700252 0.773861 0.842283
0.847486 0.745464 0.753918
0.957122 0.688975 0.633951
0 0.957153 0.853483
0.00129702 0.947143 0.850095
0.0402533 0.937682 0.850858
0.180468 0.930007 0.855497
0.358511 0.92224 0.863462
0.529046 0.913497 0.869459
0.695979 0.903166 0.865324
0.86154 0.887327 0.829038
0.983124 0.834287 0.737972
0 0.99971 0.841245
0.00047303 0.999527 0.842924
0.0223087 0.999268 0.851041
0.138506 0.998352 0.864149
0.316213 0.999725 0.87834
0.488075 0.996994 0.894286
0.650675 0.99559 0.898528
0.82092 0.998581 0.875853
0.984573 0.989975 0.831235
0 0.170703 0.961791
0 0.150607 0.987518
0.00886549 0.115129 0.994858
0.109331 0.0722515 0.978653
0.353964 0.0357214 0.90956
0.607309 0.0248264 0.713863
0.7299 0.0437171 0.471015
0.791119 0.0764324 0.289006
0.839536 0.108995 0.172168
0 0.267887 0.973907
0 0.270863 0.969268
0.00393683 0.251713 0.983429
0.059556 0.215641 0.988312
0.259022 0.172335 0.959716
0.543374 0.140566 0.829999
0.717235 0.150988 0.596246
0.797772 0.184833 0.392599
0.850141 0.218296 0.266697
0 0.358038 0.995758
4.57771e-05 0.371023 0.98172
0.00263981 0.370062 0.975952
0.0317693 0.352453 0.982513
0.192203 0.31545 0.980591
0.47686 0.272725 0.911696
0.701274 0.266743 0.710353
0.810742 0.293965 0.496635
0.86894 0.325933 0.362173
0 0.466835 0.999786
0.0009308 0.472618 0.997711
0.00848402 0.477501 0.987472
0.0377813 0.473045 0.979004
0.157092 0.451698 0.980957
0.415274 0.410849 0.954101
0.680705 0.387457 0.808927
0.826337 0.404105 0.602777
0.89453 0.433433 0.460121
0 0.602716 0.998367
0.0099794 0.596506 0.999344
0.0698405 0.595224 0.997925
0.122576 0.59295 0.988876
0.183673 0.583368 0.976883
0.385153 0.551339 0.969406
0.656092 0.514885 0.892134
0.839017 0.518883 0.708446
0.919661 0.543236 0.559808
0 0.735592 0.994904
0.0127565 0.729931 0.994293
0.106798 0.729274 0.995193
0.239002 0.730098 0.994949
0.335866 0.721691 0.990799
0.442771 0.695323 0.982788
0.628199 0.657145 0.939803
0.83769 0.639658 0.810132
0.938979 0.650385 0.661677
0 0.85594 0.984314
0.00578317 0.848676 0.986099
0.0829023 0.84773 0.986862
0.245777 0.850874 0.986893
0.406943 0.85301 0.986801
0.537667 0.839994 0.982956
0.665034 0.803571 0.96495
0.832609 0.768124 0.893355
0.961669 0.75613 0.761608
0 0.963424 0.970123
0.0011902 0.956207 0.969329
0.0375982 0.950576 0.968307
0.179477 0.949523 0.967987
0.366751 0.950317 0.968399
0.548363 0.950134 0.970306
0.712718 0.936812 0.971771
0.850492 0.903136 0.950683
0.980453 0.871595 0.864729
0 0.999802 0.956756
0.000183108 0.99968 0.956207
0.0151217 0.999542 0.956344
0.123812 0.999146 0.956619
0.305257 0.999908 0.959945
0.488914 0.998199 0.967727
0.66804 0.997803 0.972396
0.840818 0.997574 0.974685
0.982101 0.987594 0.951064
0 0.199481 1
0 0.18085 1
0.00123598 0.147311 1
0.0423133 0.102342 0.999817
0.238697 0.0564736 0.994018
0.551827 0.0252689 0.943893
0.759869 0.0261082 0.718196
0.862028 0.0515297 0.471138
0.910185 0.0888685 0.293462
0 0.29807 1
0 0.299214 0.999908
0.000503548 0.281498 0.999969
0.0191806 0.248768 0.999985
0.149218 0.20296 0.998993
0.443626 0.153185 0.982956
0.714107 0.135744 0.841337
0.862852 0.157366 0.595529
0.920226 0.19733 0.395758
0 0.384421 1
0 0.398642 1
0.000335698 0.398169 1
0.00738537 0.382696 1
0.0953384 0.348211 0.999893
0.353033 0.297749 0.996597
0.66157 0.262074 0.922713
0.864378 0.268299 0.711727
0.937575 0.306615 0.496651
0 0.482017 1
4.57771e-05 0.493675 1
0.000701915 0.502205 1
0.00737011 0.500603 1
0.0694591 0.482673 0.999985
0.287633 0.441428 0.999222
0.609659 0.394018 0.968673
0.862577 0.383551 0.815717
0.957748 0.416541 0.597406
0 0.609018 1
0.00111391 0.606302 1
0.0130922 0.610971 1
0.0317845 0.613474 1
0.0772259 0.609094 0.999969
0.264683 0.58114 0.999985
0.558648 0.533455 0.994583
0.849744 0.506142 0.901823
0.976135 0.53051 0.69752
0 0.752224 1
0.00624094 0.745785 1
0.074052 0.74432 1
0.174472 0.744518 1
0.245014 0.737881 1
0.336965 0.71754 1
0.524712 0.68011 0.997055
0.809232 0.639857 0.957107
0.979812 0.647471 0.805707
0 0.879988 1
0.00531014 0.876997 1
0.0861982 0.877729 1
0.242588 0.880659 1
0.378531 0.879515 1
0.480156 0.866041 1
0.580362 0.829984 0.999771
0.774304 0.781796 0.98883
0.983291 0.76733 0.901823
0 0.976333 1
0.0015259 0.975052 1
0.0451514 0.975998 1
0.199863 0.979492 0.999939
0.393896 0.984466 0.999908
0.576242 0.984405 1
0.713146 0.969711 0.999985
0.801038 0.926848 0.998505
0.968933 0.894499 0.972976
0 0.999939 1
7.62951e-05 0.999924 0.999985
0.0114748 0.999908 0.999802
0.114473 0.999939 0.999527
0.302373 1 1
0.503471 1 0.999954
0.701091 0.999924 0.999985
0.869657 0.999664 1
0.974105 0.995239 0.999069
