LUT预设1/LUT全系打包/6.FAKE5207&淡雅系列/FAKE5207/FAKE5207-REC709/FAKE5207-709WARM暖.cube
TITLE "Generated by Resolve"
LUT_3D_SIZE 5
0.0151675 0.0167697 0.0151217
0.271214 0.0125429 0.000503548
0.548684 0.00729381 1.5259e-05
0.877455 0.0010071 0
1 0.00111391 0
0.000854505 0.275212 0.0779889
0.26511 0.25864 0.00682078
0.562997 0.220142 0.000503548
0.852628 0.181552 0
0.999924 0.152773 0
0 0.555627 0.14815
0.11545 0.563882 0.0178073
0.568582 0.520424 0.000518807
0.886381 0.474998 0
1 0.393362 0
0 0.843565 0.224308
0.0208133 0.867735 0.0524453
0.417105 0.840314 0.0016022
0.872679 0.79646 0
1 0.747753 0
0 0.999969 0.304067
6.10361e-05 1 0.125994
0.151492 0.999954 0.0107576
0.740108 1 0
0.999954 1 0
0.00128176 0.0426032 0.248768
0.209201 0.0334783 0.0903334
0.432868 0.0390478 0.0128634
0.798215 0.0110781 0.000488289
0.998901 0.00105287 0
0.00358587 0.271885 0.276738
0.233234 0.250401 0.237629
0.49926 0.215824 0.129702
0.791989 0.175082 0.0350042
0.999207 0.140978 0.00302129
3.0518e-05 0.530312 0.332448
0.150301 0.516045 0.311894
0.525353 0.50399 0.201419
0.819272 0.429786 0.106554
0.99884 0.373404 0.00636301
0 0.804898 0.453849
0.0465705 0.803403 0.39913
0.377554 0.821347 0.227268
0.841535 0.786633 0.146868
0.999954 0.711666 0.0825513
0 0.999161 0.560906
0.00128176 0.999557 0.480186
0.151965 0.999817 0.303868
0.676204 1 0.119799
0.99968 0.999756 0.119707
0 0.0834058 0.471061
0.191791 0.0325475 0.420233
0.421042 0.0576486 0.147173
0.617609 0.0775006 0.0331273
0.935454 0.0431983 0.000564584
0.000579843 0.299992 0.581872
0.147997 0.282246 0.510124
0.452262 0.263935 0.342596
0.698116 0.245411 0.191135
0.98584 0.17908 0.0860761
1.5259e-05 0.546136 0.533562
0.186191 0.521141 0.543618
0.489158 0.492805 0.488853
0.743206 0.425223 0.330632
0.994614 0.365805 0.184253
0 0.814572 0.567529
0.111147 0.78027 0.589288
0.417472 0.776928 0.559899
0.790799 0.758541 0.463798
0.996231 0.656794 0.327047
0 0.999268 0.667109
0.0272526 0.99852 0.69749
0.270207 0.997971 0.654643
0.63743 0.999924 0.51812
0.999405 0.998383 0.478599
0 0.131655 0.747005
0.0702831 0.0669413 0.825193
0.485496 0.028397 0.523049
0.652628 0.0796216 0.189532
0.813382 0.114763 0.0428016
0 0.329397 0.884428
0.0339971 0.327535 0.799924
0.403586 0.272038 0.706981
0.676387 0.294545 0.381506
0.885115 0.300755 0.207538
0 0.583474 0.906203
0.174731 0.573922 0.900282
0.386664 0.532357 0.797116
0.721279 0.510536 0.571786
0.957702 0.465522 0.396765
0 0.830701 0.806851
0.110124 0.801633 0.806516
0.452613 0.78436 0.810315
0.754025 0.751415 0.742626
0.980072 0.639933 0.542397
0 0.999634 0.787701
0.0500191 0.998764 0.807416
0.37641 0.998932 0.844862
0.684703 0.995819 0.830747
0.997436 0.98967 0.754452
0 0.189792 0.998184
0.00430304 0.128466 0.999939
0.344015 0.0399329 0.958297
0.777386 0.0338598 0.570855
0.888701 0.101625 0.227405
0 0.376272 0.999985
0.00134279 0.382986 0.998611
0.196155 0.317845 0.994339
0.736843 0.257191 0.805402
0.918822 0.32018 0.41944
0 0.603311 1
0.0357519 0.60061 0.999863
0.161135 0.584558 0.999069
0.684489 0.508995 0.951537
0.963195 0.543725 0.613214
0 0.867765 0.999252
0.126467 0.86302 0.99939
0.428489 0.859831 0.999268
0.660075 0.799451 0.993225
0.988296 0.774227 0.814206
0 0.999878 0.994369
0.0274052 0.999695 0.993454
0.367468 0.999817 0.994919
0.736934 0.999512 0.998215
0.994125 0.989776 0.983734
