LUT预设1/LUT全系打包/6.FAKE5207&淡雅系列/FAKE5207/FAKE5207-REC709/FAKE5207-709COLD冷.cube
TITLE "Generated by Resolve"
LUT_3D_SIZE 9
0.00840772 0.0185092 0.0359045
0.10779 0.016907 0.0116732
0.231205 0.0170291 0.00340276
0.359228 0.011902 0.000808728
0.492027 0.00999466 0.000381476
0.644221 0.00671397 4.57771e-05
0.817655 0.00169375 0
0.965743 0.0021973 0
1 0.00120546 0
0.00366217 0.138766 0.0693065
0.0899367 0.135698 0.0422675
0.230167 0.126406 0.0176852
0.352224 0.115892 0.010605
0.469841 0.104799 0.00358587
0.604929 0.0953384 0.000671397
0.758587 0.0844282 4.57771e-05
0.921492 0.0708629 0
0.999359 0.0564736 0
0.000656138 0.272786 0.118166
0.0377661 0.277195 0.0745708
0.186435 0.271321 0.0320897
0.347601 0.257084 0.0181125
0.481132 0.240635 0.0078584
0.614435 0.220752 0.00247196
0.761349 0.199466 0.000411994
0.915221 0.179339 0
0.998199 0.162203 0
0 0.409598 0.167315
0.0087129 0.416464 0.116701
0.104417 0.421866 0.0491798
0.299763 0.411139 0.019089
0.473106 0.394415 0.0121157
0.625589 0.371557 0.00631724
0.779187 0.339925 0.00167849
0.931792 0.30338 9.15541e-05
0.999222 0.270954 0
0 0.551293 0.210544
0.000839246 0.556985 0.159472
0.0367437 0.569451 0.0856184
0.204578 0.566522 0.033051
0.424002 0.551125 0.0106813
0.615381 0.532189 0.00509651
0.786358 0.505028 0.00222782
0.941527 0.462959 0.000213626
0.999863 0.412024 0
0 0.694926 0.257191
0.000106813 0.700282 0.201129
0.0136416 0.714504 0.123445
0.107973 0.7234 0.0522927
0.319448 0.713008 0.0150149
0.559274 0.691768 0.00387579
0.774762 0.666957 0.00181582
0.947433 0.637003 0.000396735
0.999481 0.59176 0
0 0.837552 0.303044
0 0.844678 0.245106
0.00259403 0.859998 0.166751
0.0381476 0.875715 0.0857862
0.208408 0.872389 0.0329442
0.46862 0.853178 0.00747692
0.731258 0.827054 0.00184634
0.933669 0.80116 0.00114443
0.998886 0.769207 0.000411994
0 0.963256 0.348119
0 0.966537 0.289494
0.000167849 0.973129 0.214572
0.00781262 0.981704 0.132067
0.10161 0.982513 0.0598001
0.333593 0.976776 0.014313
0.642145 0.964187 0.00175479
0.902068 0.951415 0.000549325
0.999069 0.933776 0.000411994
0 0.999802 0.387076
0 0.999985 0.33019
0 1 0.26128
0.000122072 1 0.182864
0.0258335 1 0.0995041
0.176196 0.999969 0.0321965
0.491371 1 0.00321965
0.823468 1 0.000259403
0.990997 1 0.000610361
0.00109865 0.0310369 0.183261
0.0787518 0.0258183 0.136995
0.18323 0.0316167 0.059144
0.282246 0.0365301 0.0245212
0.411414 0.0320897 0.0106813
0.573907 0.0205692 0.00366217
0.761227 0.00830091 0.000503548
0.937636 0.00282292 4.57771e-05
0.999054 0.000823987 0
0.00231937 0.143801 0.208423
0.0690013 0.138613 0.192645
0.197559 0.135012 0.147829
0.313405 0.130999 0.100999
0.435035 0.116777 0.0656596
0.577478 0.0998856 0.0364691
0.744274 0.0812085 0.0132448
0.919112 0.0615396 0.0024567
0.9991 0.0446021 0.000259403
0.00149538 0.271397 0.218326
0.0542611 0.261891 0.221561
0.178973 0.258213 0.200427
0.31696 0.250645 0.159564
0.442267 0.234379 0.11725
0.568765 0.211856 0.0705577
0.71577 0.191058 0.0287938
0.882399 0.172915 0.00587472
0.993484 0.153613 0.00111391
4.57771e-05 0.402686 0.254185
0.0254215 0.392233 0.2607
0.128527 0.392508 0.238682
0.279774 0.392279 0.19144
0.438346 0.377997 0.151812
0.580758 0.35169 0.107988
0.722179 0.318853 0.0548104
0.876936 0.290578 0.0127871
0.990219 0.269062 0.00172427
0 0.537316 0.30782
0.00547799 0.526894 0.316564
0.0667124 0.530785 0.288823
0.204257 0.540261 0.22388
0.396002 0.538506 0.166766
0.586526 0.519463 0.136004
0.749187 0.481392 0.0972457
0.903975 0.431891 0.0444495
0.995224 0.390692 0.00642405
0 0.6757 0.368856
0.00131228 0.667765 0.368963
0.028687 0.673014 0.335805
0.121721 0.687312 0.270817
0.300557 0.693492 0.193286
0.528588 0.682414 0.140764
0.748379 0.656382 0.110719
0.920928 0.615244 0.0770428
0.997452 0.561456 0.0320287
0 0.814252 0.430213
0.000167849 0.810422 0.422141
0.00917067 0.817395 0.384436
0.0563821 0.8327 0.325154
0.201328 0.845762 0.236896
0.432853 0.843763 0.149798
0.700801 0.821775 0.102785
0.91696 0.791135 0.0836194
0.998108 0.749783 0.0528115
0 0.945861 0.487251
0 0.945739 0.471061
0.00143435 0.952087 0.431281
0.0170138 0.963226 0.374105
0.10782 0.970977 0.290364
0.302098 0.972869 0.181674
0.597131 0.96231 0.099321
0.879927 0.947921 0.0825666
0.997421 0.925338 0.0772412
0 0.999329 0.534615
0 0.999557 0.512047
3.0518e-05 0.999741 0.471656
0.00115969 0.999847 0.41976
0.035996 0.999924 0.344884
0.170947 0.999954 0.241245
0.439719 1 0.12723
0.782452 1 0.0726329
0.984939 1 0.0710765
0.000137331 0.0539712 0.318654
0.0422065 0.0393835 0.327398
0.183124 0.0292363 0.235172
0.280354 0.0420996 0.130449
0.34992 0.0609751 0.0691234
0.465675 0.0611429 0.034638
0.623026 0.0497292 0.0110628
0.81767 0.0290227 0.00149538
0.971771 0.0101625 7.62951e-05
0.000183108 0.159243 0.379843
0.0280308 0.158907 0.355016
0.149508 0.147127 0.32398
0.28455 0.147707 0.239429
0.377508 0.157351 0.16556
0.501335 0.147601 0.116274
0.659571 0.126894 0.0698711
0.853834 0.0950637 0.0313573
0.987015 0.0617838 0.00886549
0.000991836 0.283803 0.39205
0.0410773 0.27631 0.384237
0.149966 0.268589 0.36527
0.281788 0.262608 0.322744
0.403998 0.255894 0.262715
0.525093 0.238712 0.200977
0.674479 0.211078 0.140505
0.857176 0.181308 0.0834669
0.989303 0.152972 0.035172
7.62951e-05 0.410666 0.383108
0.028687 0.398047 0.386618
0.145769 0.389792 0.390158
0.276722 0.383856 0.374548
0.410422 0.373816 0.332311
0.540825 0.349859 0.272404
0.675059 0.313741 0.195941
0.838865 0.282658 0.117082
0.981659 0.26009 0.0549935
0 0.542885 0.390509
0.0065919 0.526726 0.401343
0.10515 0.516396 0.414115
0.240436 0.514366 0.408301
0.387243 0.514076 0.377676
0.549355 0.495293 0.333303
0.693538 0.451392 0.264134
0.836713 0.406043 0.170352
0.975265 0.380377 0.0751965
0 0.678569 0.437324
0.00352483 0.661509 0.45272
0.0630198 0.652689 0.465202
0.180941 0.653422 0.457893
0.322271 0.660594 0.420569
0.507118 0.659175 0.368704
0.708888 0.63444 0.317754
0.872023 0.582437 0.251743
0.983307 0.529412 0.16376
0 0.813642 0.492515
0.000915541 0.798901 0.511971
0.0325017 0.792966 0.522057
0.123949 0.795041 0.51429
0.252186 0.805814 0.474281
0.42472 0.816297 0.407614
0.666316 0.808301 0.344427
0.89102 0.773907 0.306935
0.993362 0.718532 0.248875
0 0.942519 0.55555
7.62951e-05 0.933715 0.574441
0.0104677 0.93167 0.579644
0.0661936 0.935866 0.567575
0.176379 0.942962 0.529732
0.325124 0.95314 0.461753
0.561624 0.955596 0.369985
0.851621 0.942489 0.32314
0.994675 0.912749 0.306569
0 0.999237 0.618219
0 0.999146 0.631098
0.00105287 0.999115 0.629145
0.017319 0.999191 0.613474
0.0959945 0.99939 0.577859
0.228763 0.999756 0.517708
0.424231 1 0.420905
0.735546 1 0.331167
0.97557 0.999802 0.319539
0 0.0781262 0.452811
0.011841 0.0618753 0.493523
0.133242 0.0361639 0.462684
0.295827 0.0315251 0.339834
0.39353 0.0486152 0.212253
0.460731 0.0706645 0.120104
0.551537 0.0830854 0.0587625
0.691051 0.0779889 0.0180972
0.875334 0.0542458 0.00154116
0 0.178439 0.531533
0.00437934 0.183108 0.50222
0.0770123 0.167681 0.508232
0.248936 0.150454 0.449546
0.392721 0.155245 0.325994
0.473304 0.175387 0.221164
0.573983 0.181186 0.145663
0.73286 0.162142 0.0814069
0.925887 0.121523 0.0333715
0.000183108 0.29807 0.592752
0.0201419 0.298466 0.565942
0.0856794 0.294362 0.536889
0.222416 0.278523 0.510079
0.378378 0.271427 0.426078
0.489967 0.277012 0.324804
0.607111 0.269093 0.242023
0.773449 0.239094 0.173083
0.956222 0.193881 0.113146
0.000122072 0.424704 0.582071
0.0271153 0.419333 0.585336
0.131441 0.415045 0.577096
0.243717 0.404059 0.550668
0.374273 0.391501 0.501884
0.508965 0.380499 0.42266
0.635157 0.358999 0.333272
0.79498 0.320012 0.253223
0.967071 0.27808 0.185748
0 0.550942 0.556161
0.00590524 0.538933 0.55906
0.104219 0.532921 0.566415
0.248295 0.526848 0.569085
0.384543 0.517845 0.557107
0.520546 0.501396 0.503883
0.655482 0.469001 0.417838
0.802716 0.413443 0.323049
0.96286 0.375921 0.238376
0 0.685939 0.553216
0.00291447 0.669108 0.556176
0.0650187 0.657679 0.564279
0.205722 0.650095 0.573602
0.350912 0.644602 0.573465
0.504509 0.638437 0.551949
0.672908 0.616953 0.496635
0.821408 0.558465 0.405722
0.95169 0.502495 0.298573
0 0.821988 0.576623
0.00102235 0.80502 0.580407
0.0441291 0.792767 0.593774
0.164508 0.784756 0.61146
0.306615 0.781964 0.619669
0.454994 0.783307 0.602075
0.642924 0.780087 0.550103
0.846662 0.746975 0.487388
0.969787 0.679042 0.398611
0 0.947921 0.612314
0.00015259 0.937133 0.627863
0.0209506 0.928786 0.649699
0.114412 0.924407 0.66981
0.24921 0.922347 0.675151
0.390723 0.924498 0.657496
0.562066 0.932296 0.602197
0.820081 0.929595 0.537789
0.99025 0.892866 0.50248
0 0.999405 0.662364
0 0.999222 0.687297
0.00556954 0.998993 0.711589
0.0555581 0.998581 0.729625
0.175799 0.997894 0.731151
0.316152 0.999649 0.713909
0.468742 0.999954 0.664134
0.708278 0.999802 0.573754
0.96524 0.99881 0.534508
0 0.103136 0.591959
0.00183108 0.0867018 0.645792
0.0674907 0.0557107 0.66865
0.24596 0.035172 0.588327
0.424842 0.0321813 0.426963
0.5149 0.052491 0.271809
0.582544 0.0789502 0.153628
0.660304 0.0978256 0.0730755
0.785687 0.0979477 0.0179446
0 0.200275 0.669779
0.000457771 0.208118 0.643091
0.0266575 0.194202 0.670436
0.174762 0.165408 0.661723
0.378515 0.14902 0.551247
0.508598 0.16231 0.389807
0.591028 0.185657 0.254231
0.679622 0.199222 0.160693
0.828916 0.185107 0.0834821
0 0.310826 0.767636
0.00544747 0.316777 0.717876
0.0332647 0.317769 0.685863
0.134005 0.301442 0.684428
0.323568 0.280034 0.630945
0.496727 0.275944 0.500496
0.606439 0.28983 0.357641
0.707637 0.294743 0.2551
0.871458 0.266361 0.174548
4.57771e-05 0.440284 0.78819
0.0161898 0.437812 0.781598
0.0895705 0.437766 0.75288
0.17438 0.429786 0.716594
0.308827 0.410819 0.681895
0.485069 0.393591 0.596887
0.6224 0.394858 0.459373
0.736873 0.387793 0.350408
0.905562 0.346593 0.268803
0 0.567407 0.754604
0.00639353 0.561868 0.762295
0.106722 0.562127 0.770581
0.243107 0.560494 0.765286
0.351751 0.547494 0.737835
0.48748 0.522377 0.668879
0.639048 0.507454 0.55726
0.764004 0.481285 0.445167
0.93286 0.424033 0.358404
0 0.695766 0.717784
0.00282292 0.682277 0.718471
0.0654154 0.675944 0.726238
0.2103 0.675013 0.736385
0.355978 0.668528 0.734554
0.496696 0.653132 0.708858
0.652415 0.630991 0.644785
0.796429 0.589487 0.541558
0.929259 0.520958 0.431205
0 0.829297 0.70338
0.000656138 0.813535 0.701045
0.0376898 0.802289 0.705211
0.16054 0.794705 0.71516
0.318791 0.788663 0.726406
0.477928 0.779706 0.728923
0.642252 0.767773 0.701595
0.816541 0.737972 0.633799
0.943526 0.661265 0.520638
0 0.953826 0.704906
6.10361e-05 0.944686 0.708553
0.0200046 0.935729 0.718715
0.122377 0.928069 0.734401
0.276036 0.919951 0.750805
0.436423 0.912108 0.763043
0.595758 0.910262 0.75317
0.800656 0.909224 0.696803
0.974456 0.866896 0.635904
0 0.999603 0.723812
0 0.99942 0.738308
0.00851453 0.999191 0.759487
0.0768292 0.998505 0.783215
0.220432 0.997848 0.806241
0.376837 0.999496 0.820829
0.53109 0.997803 0.807401
0.716228 0.998016 0.750637
0.955001 0.998184 0.694469
0 0.128985 0.741451
0.000320439 0.113359 0.801846
0.0251316 0.082063 0.852552
0.166644 0.0502174 0.819455
0.390188 0.0303044 0.677989
0.552895 0.0363928 0.468544
0.63888 0.0627146 0.282963
0.69601 0.092607 0.157275
0.772641 0.111955 0.0729686
0 0.225345 0.807309
3.0518e-05 0.233585 0.785489
0.0065919 0.221836 0.823468
0.0978866 0.189746 0.845304
0.310109 0.158877 0.775982
0.517006 0.150622 0.598383
0.638102 0.171038 0.39646
0.702602 0.201236 0.251865
0.790738 0.215305 0.160098
0 0.326467 0.910491
0.00103761 0.336996 0.853376
0.00965896 0.340276 0.8224
0.062089 0.326619 0.833967
0.241993 0.298192 0.819501
0.473869 0.274601 0.706798
0.637247 0.281331 0.510094
0.719707 0.307378 0.350164
0.819501 0.313222 0.253452
0 0.452064 0.945708
0.00541695 0.450889 0.930724
0.0437018 0.454307 0.891783
0.0987869 0.450416 0.853712
0.22031 0.432166 0.839796
0.43093 0.404639 0.783261
0.632059 0.396078 0.619364
0.743069 0.412039 0.452567
0.850675 0.409705 0.350347
0 0.586831 0.925017
0.00505074 0.582956 0.937392
0.0973983 0.583139 0.939437
0.205661 0.58085 0.915251
0.280324 0.569406 0.870756
0.422766 0.542336 0.825299
0.629068 0.516228 0.719005
0.768109 0.516808 0.558877
0.88687 0.498497 0.449424
0 0.710506 0.877546
0.00386053 0.702739 0.882734
0.0720531 0.701396 0.891142
0.214374 0.704738 0.897948
0.348043 0.70132 0.889433
0.474464 0.682521 0.862943
0.628656 0.650431 0.797528
0.789868 0.627436 0.665049
0.907759 0.585824 0.543877
0 0.837903 0.845289
0.00062562 0.824689 0.842847
0.0367285 0.816968 0.846174
0.161913 0.814649 0.854078
0.325612 0.813245 0.861814
0.485924 0.80444 0.860731
0.640787 0.782605 0.836362
0.803098 0.753735 0.761975
0.930556 0.69601 0.64007
0 0.958053 0.820447
1.5259e-05 0.950072 0.818692
0.0170138 0.941711 0.821515
0.115816 0.935164 0.828443
0.275471 0.928328 0.837919
0.446448 0.920211 0.8486
0.62063 0.910109 0.852689
0.799542 0.897765 0.826383
0.959777 0.854734 0.748516
0 0.99971 0.811948
0 0.999573 0.816403
0.0080415 0.999405 0.827344
0.0786145 0.998901 0.842039
0.230274 0.998917 0.861952
0.401266 0.998993 0.88072
0.574273 0.996277 0.893034
0.743313 0.997284 0.875578
0.945342 0.996826 0.822507
0 0.156222 0.901137
0 0.140764 0.948394
0.00686656 0.110918 0.975113
0.0901503 0.073106 0.964446
0.3178 0.0390021 0.886885
0.55288 0.0290684 0.691676
0.68838 0.0451514 0.455772
0.754665 0.0767529 0.26836
0.806195 0.108202 0.15108
0 0.252384 0.936385
0 0.259724 0.922301
0.00134279 0.248814 0.949737
0.0439765 0.217929 0.970916
0.221729 0.178927 0.943084
0.480125 0.150011 0.810452
0.669795 0.15404 0.586084
0.759991 0.185107 0.373709
0.815671 0.216663 0.245731
0 0.345296 0.98854
6.10361e-05 0.359442 0.961181
0.00146487 0.364385 0.945891
0.0202945 0.352895 0.954696
0.157076 0.322744 0.95552
0.406882 0.285573 0.892164
0.64445 0.271702 0.705501
0.771908 0.293675 0.480262
0.834241 0.323461 0.342168
0 0.462196 0.996597
0.000839246 0.46537 0.993378
0.0132448 0.471672 0.975418
0.0404517 0.471717 0.956191
0.134524 0.457191 0.953811
0.345174 0.424674 0.932769
0.614313 0.394736 0.806104
0.785885 0.403449 0.591989
0.859846 0.429404 0.442023
0 0.601053 0.992889
0.00325017 0.595026 0.995041
0.066453 0.595117 0.994507
0.140337 0.594659 0.983169
0.19556 0.58793 0.963256
0.338842 0.563882 0.95053
0.584665 0.525154 0.892348
0.796857 0.518013 0.702403
0.884978 0.537896 0.544961
0 0.729519 0.979736
0.00390631 0.725399 0.984878
0.0726024 0.725673 0.986847
0.206088 0.729717 0.988952
0.320302 0.72781 0.982467
0.425086 0.709987 0.968627
0.57406 0.671458 0.931563
0.78883 0.640269 0.812543
0.907439 0.641779 0.651072
0 0.851682 0.959655
0.000701915 0.842954 0.961349
0.0421607 0.840528 0.963668
0.173114 0.843473 0.965393
0.336355 0.847883 0.967285
0.488533 0.843717 0.966537
0.62504 0.816449 0.954742
0.785702 0.774258 0.894072
0.930709 0.750393 0.756237
0 0.963134 0.938476
3.0518e-05 0.956359 0.936736
0.0152285 0.950408 0.937194
0.111666 0.947799 0.939757
0.275578 0.946639 0.944305
0.454322 0.944305 0.948455
0.638788 0.936858 0.948394
0.801587 0.910719 0.937392
0.951949 0.87538 0.863508
0 0.999802 0.920241
0 0.999695 0.920409
0.00540169 0.999588 0.924392
0.0689708 0.999313 0.931167
0.221607 0.999893 0.938079
0.402136 0.999329 0.946456
0.587198 0.997559 0.956451
0.769329 0.998856 0.960128
0.943816 0.992309 0.939483
0 0.183993 0.992798
0 0.169238 0.998688
0.00106813 0.140627 0.999863
0.0368048 0.10071 0.998566
0.219547 0.0585336 0.984817
0.505348 0.0309453 0.898085
0.714473 0.0306706 0.672618
0.818936 0.0559548 0.425711
0.866331 0.0928969 0.252995
0 0.280903 0.997406
0 0.286885 0.995956
0.000244144 0.275944 0.997726
0.0137484 0.247776 0.999176
0.133135 0.207202 0.996307
0.397696 0.162692 0.961013
0.664637 0.142855 0.802884
0.818952 0.162249 0.549844
0.875151 0.202228 0.354284
0 0.368688 0.999817
0 0.384802 0.998169
6.10361e-05 0.38996 0.996704
0.00555428 0.380484 0.997833
0.0837568 0.352117 0.999008
0.304082 0.308339 0.988464
0.606043 0.270985 0.895079
0.819974 0.273091 0.670436
0.892042 0.310872 0.455375
0 0.474067 1
3.0518e-05 0.482856 0.999954
0.00146487 0.493095 0.999329
0.00889601 0.495476 0.99826
0.0624704 0.483879 0.998276
0.242039 0.451865 0.995621
0.547173 0.405417 0.953765
0.814435 0.388312 0.783352
0.913481 0.420371 0.559335
0 0.608835 0.999954
0.000976577 0.604776 0.999985
0.0239109 0.607019 0.999954
0.0602579 0.610605 0.999451
0.103685 0.608988 0.998352
0.241169 0.588937 0.997391
0.492576 0.546471 0.986618
0.798657 0.510811 0.883299
0.934768 0.533471 0.665354
0 0.748745 0.999985
0.00218204 0.744045 0.999741
0.0576028 0.743847 0.999802
0.171939 0.746792 0.999847
0.262531 0.744396 0.99968
0.345861 0.729061 0.999298
0.485863 0.693065 0.99527
0.752361 0.646876 0.951782
0.944579 0.649134 0.779217
0 0.871885 0.999176
0.000518807 0.868254 0.999451
0.0475319 0.870634 0.999496
0.183276 0.875975 0.99942
0.33637 0.880476 0.999374
0.47039 0.876478 0.999252
0.577508 0.848646 0.998154
0.730678 0.793332 0.983642
0.949401 0.768277 0.883177
0 0.971984 0.997406
3.0518e-05 0.969055 0.997482
0.0167239 0.967865 0.997421
0.120104 0.970764 0.99733
0.292165 0.97615 0.996994
0.484016 0.981689 0.997208
0.674937 0.98024 0.998627
0.788937 0.941955 0.996796
0.939895 0.898466 0.962951
0 0.999893 0.995453
0 0.999847 0.995453
0.00317388 0.999817 0.995468
0.0594644 0.999802 0.994476
0.210376 1 0.994736
0.39733 0.999954 0.997574
0.595148 0.999832 0.997436
0.790692 0.999786 0.998703
0.949569 0.996109 0.99823
0 0.212543 1
0 0.198154 1
6.10361e-05 0.171801 1
0.0091249 0.132876 1
0.126085 0.0861219 0.999939
0.403769 0.044007 0.995422
0.694545 0.0243687 0.893706
0.871397 0.0344854 0.648951
0.941039 0.0693828 0.403159
0 0.310536 1
0 0.314931 1
0 0.30425 1
0.00289921 0.27953 1
0.0607309 0.240284 1
0.277775 0.189487 0.999359
0.600107 0.145953 0.963424
0.851194 0.140124 0.787976
0.948211 0.176379 0.518975
0 0.395865 1
0 0.412345 1
0 0.417746 1
0.00047303 0.409171 1
0.032517 0.383749 1
0.191913 0.340566 0.999954
0.508705 0.287022 0.990219
0.824247 0.257679 0.891722
0.960739 0.285054 0.632395
0 0.491005 1
0 0.505455 1
9.15541e-05 0.518135 1
0.000885023 0.522225 1
0.0214084 0.513313 1
0.14168 0.483879 0.999985
0.432303 0.430762 0.998032
0.785962 0.382986 0.955459
0.971923 0.395621 0.745586
0 0.616327 1
3.0518e-05 0.616175 1
0.00260929 0.623819 1
0.0121004 0.63151 1
0.0302586 0.633814 1
0.139605 0.617731 1
0.373922 0.577111 0.999924
0.732708 0.518685 0.989395
0.978546 0.510781 0.854948
0 0.762234 1
0.000228885 0.755993 1
0.0316167 0.75639 1
0.112886 0.759655 1
0.177127 0.759014 1
0.245411 0.748135 1
0.377829 0.719448 0.999969
0.65687 0.667765 0.997757
0.951995 0.635233 0.936202
0 0.894621 1
9.15541e-05 0.893263 1
0.0452583 0.894484 1
0.172122 0.897215 1
0.302663 0.897337 1
0.406241 0.889906 1
0.483558 0.865202 1
0.629068 0.816953 0.999893
0.917739 0.767452 0.986847
0 0.984054 1
0 0.984665 1
0.0214847 0.986542 1
0.139681 0.98822 1
0.316121 0.989593 1
0.49752 0.990463 1
0.651225 0.985214 1
0.718257 0.957595 1
0.874098 0.912306 0.998962
0 1 1
0 1 1
0.00355535 1 1
0.0625162 1 1
0.224857 1 1
0.430671 1 1
0.650935 1 1
0.844129 1 1
0.924987 0.998856 1
