LUT预设1/LUT全系打包/6.FAKE5207&淡雅系列/FAKE5207/FAKE5207-REC709/FAKE5207莫兰迪绿709.cube
TITLE "Generated by Resolve"
LUT_3D_SIZE 33
0.0120851 0.0174411 0.0216831
0.0333257 0.0159152 0.0156405
0.0609903 0.0146334 0.0102846
0.0920729 0.0148623 0.0069276
0.125628 0.0151522 0.00508125
0.158297 0.0154116 0.00357061
0.19086 0.0153048 0.00248722
0.223438 0.0148775 0.00196841
0.255161 0.0142824 0.0012665
0.288838 0.0135653 0.000991836
0.320912 0.0124361 0.00047303
0.35462 0.0113069 0.000396735
0.387213 0.00970474 0.000244144
0.421698 0.00857557 0.000198367
0.455055 0.00854505 0.00015259
0.490303 0.00839246 9.15541e-05
0.526375 0.0080415 7.62951e-05
0.562615 0.00746166 0
0.601328 0.00717174 0
0.640558 0.00633249 0
0.682521 0.00523384 0
0.725353 0.00376898 0
0.768475 0.00247196 0
0.812848 0.00164797 0
0.856382 0.00128176 0
0.895705 0.00177005 0
0.933715 0.00195315 0
0.958572 0.00205997 0
0.980896 0.00198367 0
0.990967 0.00181582 0
0.997589 0.00158694 0
0.999603 0.00135805 0
1 0.00114443 0
0.0104982 0.0423438 0.0268864
0.0313878 0.041062 0.0237125
0.0618753 0.0395056 0.0178225
0.0941634 0.0379644 0.0134737
0.128374 0.0366064 0.00994888
0.161212 0.0359045 0.00762951
0.19324 0.0353704 0.00560006
0.225696 0.0344091 0.00447089
0.257038 0.0332952 0.00308232
0.288991 0.0318151 0.00225834
0.320256 0.0304723 0.00132753
0.352117 0.0290379 0.00105287
0.3832 0.0274205 0.000686656
0.415808 0.0259709 0.000717174
0.448066 0.024033 0.000457771
0.482765 0.0222324 0.00030518
0.518303 0.0214084 0.000183108
0.554253 0.0205539 3.0518e-05
0.592218 0.0198825 3.0518e-05
0.631022 0.0186313 1.5259e-05
0.671901 0.017319 1.5259e-05
0.713542 0.0155947 0
0.755611 0.0141451 0
0.798733 0.0130159 0
0.841962 0.0117952 0
0.88188 0.0108186 0
0.920943 0.00958267 0
0.948699 0.00846876 0
0.974166 0.00724804 0
0.98703 0.0061799 0
0.996216 0.00517281 0
0.999207 0.00433356 0
1 0.0037232 0
0.0102846 0.0729839 0.0355383
0.0251316 0.0726787 0.0314794
0.0552682 0.0702678 0.0264439
0.0911269 0.0682994 0.0187076
0.126482 0.0661631 0.014313
0.161532 0.0637827 0.0117647
0.195132 0.0618753 0.009308
0.227314 0.059556 0.00715648
0.258412 0.0578927 0.00511177
0.289235 0.0560464 0.0034638
0.319646 0.0543374 0.00227359
0.350256 0.05243 0.00175479
0.381033 0.0509194 0.00155642
0.41297 0.0491646 0.00135805
0.44416 0.0470741 0.000762951
0.477653 0.0453346 0.000579843
0.511315 0.043473 0.00030518
0.54612 0.041474 7.62951e-05
0.582773 0.0394598 6.10361e-05
0.619989 0.0372778 3.0518e-05
0.659968 0.035523 3.0518e-05
0.700603 0.0335088 1.5259e-05
0.742016 0.0319677 1.5259e-05
0.784192 0.0306859 0
0.826337 0.0289921 0
0.866651 0.0274205 0
0.906737 0.0254978 0
0.93727 0.023682 0
0.966339 0.0216983 0
0.982132 0.0198062 0
0.994263 0.0179141 0
0.998505 0.0161288 0
0.999969 0.0147097 0
0.00851453 0.105303 0.0439002
0.0221103 0.105226 0.0393835
0.0469368 0.103517 0.0359808
0.0808576 0.100847 0.0279698
0.120882 0.0984512 0.0188602
0.15819 0.0960098 0.0151064
0.193286 0.0932174 0.0118105
0.227146 0.0902419 0.0087892
0.259586 0.0873426 0.00653086
0.290272 0.0844739 0.00447089
0.320958 0.0818341 0.00361639
0.351034 0.0796216 0.00318914
0.381628 0.0774548 0.00262455
0.412772 0.0753796 0.00207523
0.443763 0.0731365 0.00120546
0.476692 0.0713054 0.000946059
0.50927 0.0693675 0.000457771
0.54345 0.0671855 0.000198367
0.578698 0.0652323 0.000137331
0.614511 0.0628672 6.10361e-05
0.652674 0.0605783 4.57771e-05
0.691402 0.0580301 3.0518e-05
0.731014 0.0557259 1.5259e-05
0.771862 0.0531167 1.5259e-05
0.813001 0.0504158 0
0.853544 0.0477607 0
0.894408 0.0449378 0
0.927275 0.0424201 0
0.959197 0.0396582 0
0.97763 0.0369726 0
0.992309 0.034165 0
0.997711 0.0313878 0
0.999893 0.0289006 0
0.00556954 0.138399 0.0529488
0.0183719 0.138582 0.0471504
0.0372168 0.138781 0.0400854
0.0729381 0.130007 0.0533455
0.106661 0.131868 0.0276188
0.150958 0.129763 0.0170443
0.188556 0.126497 0.0130159
0.224445 0.123659 0.00917067
0.258381 0.120043 0.00708019
0.291554 0.117235 0.00596628
0.323476 0.113985 0.00550851
0.354253 0.11078 0.004654
0.385382 0.107546 0.0037995
0.415869 0.104189 0.00285344
0.446189 0.101244 0.00184634
0.478141 0.0988327 0.00134279
0.509483 0.0965438 0.000610361
0.54316 0.0944076 0.000350958
0.577691 0.092195 0.000244144
0.612634 0.0897688 0.000106813
0.649973 0.0873579 7.62951e-05
0.687999 0.0847639 3.0518e-05
0.726513 0.082414 1.5259e-05
0.766079 0.0796216 1.5259e-05
0.80618 0.0768902 0
0.84625 0.0741283 0
0.886839 0.0710307 0
0.920714 0.0679484 0
0.95375 0.0646067 0
0.973877 0.0614481 0
0.99057 0.0581369 0
0.996918 0.0549325 0
0.999756 0.0521553 0
0.00291447 0.171817 0.0640574
0.0133211 0.172259 0.0559396
0.0300298 0.172992 0.0479591
0.0554665 0.1729 0.0377508
0.0961013 0.158007 0.0629435
0.132616 0.16286 0.0238346
0.181399 0.161059 0.0136568
0.220035 0.157748 0.0108034
0.25684 0.154162 0.00953689
0.291707 0.150988 0.00816358
0.324819 0.147204 0.00717174
0.356847 0.143954 0.00585946
0.388571 0.140368 0.00489815
0.41976 0.136919 0.00366217
0.450721 0.133593 0.00260929
0.482246 0.129946 0.00181582
0.513375 0.126574 0.000823987
0.546853 0.123568 0.000579843
0.580301 0.120378 0.000366217
0.614542 0.117327 0.000137331
0.65066 0.114473 0.000106813
0.687007 0.111543 4.57771e-05
0.724636 0.109087 1.5259e-05
0.763516 0.106279 1.5259e-05
0.802899 0.103258 0
0.842557 0.100267 0
0.882292 0.0971542 0
0.916747 0.0939345 0
0.95024 0.0902113 0
0.971374 0.0868391 0
0.989227 0.0832227 0
0.996338 0.0796826 0
0.999619 0.0764172 0
0.00158694 0.205646 0.076051
0.00883497 0.207004 0.0656748
0.0241398 0.207721 0.0557565
0.0439765 0.208545 0.0446479
0.0800183 0.203784 0.0430152
0.116777 0.187518 0.0673991
0.158328 0.194553 0.0222477
0.211475 0.194217 0.0135042
0.252186 0.189929 0.0115053
0.290242 0.185916 0.0099031
0.325963 0.181369 0.00860609
0.359991 0.17731 0.00723278
0.392447 0.173297 0.00590524
0.423651 0.169833 0.00437934
0.455344 0.165957 0.00326543
0.486671 0.16202 0.00222782
0.517998 0.158328 0.00112917
0.551369 0.154879 0.000854505
0.585107 0.151446 0.00047303
0.619715 0.147845 0.000213626
0.655482 0.14435 0.00015259
0.69189 0.140627 6.10361e-05
0.728923 0.137514 4.57771e-05
0.766766 0.133989 3.0518e-05
0.805173 0.130877 0
0.843656 0.127581 0
0.8822 0.124117 0
0.916152 0.120806 0
0.949004 0.117174 0
0.970581 0.113725 0
0.988418 0.110033 0
0.995941 0.106401 0
0.999466 0.103288 0
0.00137331 0.239765 0.0858473
0.00468452 0.241337 0.0754711
0.0179904 0.242374 0.0643473
0.0360571 0.243244 0.0531472
0.0630503 0.243565 0.0412757
0.107454 0.229038 0.0592966
0.137591 0.21677 0.0684977
0.184573 0.22623 0.0207828
0.242451 0.227054 0.013077
0.282811 0.22298 0.0109865
0.321706 0.218662 0.009308
0.358358 0.214817 0.0077821
0.392767 0.210361 0.00637827
0.426215 0.205966 0.00482185
0.459098 0.201114 0.0037995
0.491371 0.196414 0.00259403
0.52398 0.191775 0.00157168
0.55726 0.186938 0.00112917
0.590936 0.181827 0.000564584
0.625559 0.177386 0.000289921
0.661463 0.173327 0.000198367
0.69778 0.169162 0.000106813
0.734249 0.165911 7.62951e-05
0.771649 0.162112 4.57771e-05
0.809445 0.158495 1.5259e-05
0.847349 0.154833 0
0.884825 0.151064 0
0.918044 0.147509 0
0.949874 0.143786 0
0.971099 0.14023 0
0.988327 0.1364 0
0.995895 0.132662 0
0.999374 0.129503 0
0.000869764 0.273838 0.0956283
0.00291447 0.275334 0.0853895
0.0121157 0.276844 0.0731518
0.0284733 0.278126 0.0617533
0.0498512 0.279576 0.0493935
0.0834363 0.278187 0.0400702
0.131624 0.253574 0.0745708
0.158267 0.24564 0.066743
0.213001 0.25684 0.0183719
0.275944 0.259266 0.0114748
0.318166 0.255467 0.00962844
0.356283 0.251057 0.00808728
0.392782 0.246571 0.00662242
0.427878 0.242145 0.00517281
0.461265 0.237263 0.00402838
0.494896 0.2327 0.00273136
0.528359 0.227878 0.00184634
0.56231 0.222675 0.0012665
0.596231 0.217319 0.000595102
0.631296 0.21239 0.000442512
0.667582 0.206912 0.000350958
0.704509 0.201602 0.000198367
0.741085 0.196979 0.00015259
0.778698 0.191989 9.15541e-05
0.816114 0.187442 4.57771e-05
0.853666 0.182818 1.5259e-05
0.890105 0.178378 0
0.922713 0.174334 0
0.952667 0.170108 0
0.9729 0.166293 0
0.988952 0.162387 0
0.996246 0.158541 0
0.999359 0.155505 0
0.000549325 0.3084 0.105974
0.00270085 0.309972 0.0948348
0.00787366 0.31165 0.0826429
0.0223239 0.31342 0.0706035
0.040116 0.31519 0.0581521
0.0684825 0.315709 0.0455482
0.109102 0.308461 0.0471504
0.153765 0.278172 0.0815137
0.181048 0.274266 0.0628061
0.239506 0.287968 0.0154269
0.307149 0.293416 0.00877394
0.349508 0.289021 0.00758373
0.389838 0.28426 0.00628672
0.427695 0.27985 0.00503548
0.463386 0.274784 0.00390631
0.498222 0.269642 0.00276188
0.533089 0.26389 0.00202945
0.567575 0.258 0.00140383
0.60238 0.251652 0.000823987
0.638346 0.245426 0.000762951
0.674723 0.239216 0.000549325
0.711223 0.23331 0.000320439
0.747906 0.228031 0.000244144
0.785718 0.2224 0.000122072
0.822629 0.217166 6.10361e-05
0.860304 0.211856 1.5259e-05
0.895644 0.206744 0
0.927626 0.201968 0
0.955749 0.197024 0
0.975311 0.192538 0
0.989792 0.188205 0
0.996735 0.184237 0
0.999374 0.180789 0
0.000167849 0.341955 0.116777
0.00132753 0.343893 0.104768
0.00384527 0.346029 0.0924086
0.0145113 0.348119 0.0791333
0.0307774 0.349874 0.0661936
0.0543984 0.351217 0.0525673
0.0869154 0.351324 0.0397803
0.139284 0.332143 0.0607614
0.173632 0.304173 0.0827039
0.201282 0.303868 0.0563211
0.268986 0.318532 0.0118868
0.339635 0.325246 0.00703441
0.385855 0.32221 0.00572213
0.425513 0.317235 0.00456245
0.462974 0.312642 0.00350958
0.500023 0.307866 0.00271611
0.535164 0.3019 0.00242618
0.570275 0.29601 0.00187686
0.605554 0.290471 0.00134279
0.641993 0.283772 0.00114443
0.679133 0.276997 0.000762951
0.716045 0.270466 0.000503548
0.753323 0.263584 0.000335698
0.791775 0.256626 0.00015259
0.829053 0.250446 9.15541e-05
0.867124 0.243854 3.0518e-05
0.901717 0.237705 1.5259e-05
0.933104 0.231571 0
0.959716 0.225864 0
0.978378 0.220584 0
0.991257 0.215641 0
0.997543 0.210864 0
0.999542 0.207141 0
0.000122072 0.377127 0.127626
0.000915541 0.379095 0.114427
0.00381476 0.381064 0.101244
0.0104372 0.383398 0.0874189
0.0247196 0.385382 0.0737774
0.0428473 0.387503 0.0593881
0.0716869 0.388327 0.0456703
0.110231 0.385443 0.0387427
0.166018 0.354314 0.0757916
0.194736 0.329671 0.0815747
0.227329 0.331868 0.0500649
0.297292 0.348867 0.00802625
0.373861 0.358541 0.00462348
0.420401 0.355535 0.00433356
0.461051 0.351125 0.00389105
0.500298 0.346014 0.00340276
0.537011 0.340246 0.00302129
0.573358 0.334646 0.0024567
0.609735 0.327932 0.00196841
0.64651 0.320882 0.00155642
0.684153 0.313375 0.0010071
0.721477 0.305791 0.000686656
0.75996 0.297734 0.000457771
0.798611 0.289998 0.000213626
0.835782 0.282734 0.000137331
0.87425 0.275212 6.10361e-05
0.907561 0.267918 3.0518e-05
0.938842 0.260853 0
0.963561 0.254185 0
0.981567 0.247959 0
0.992645 0.242161 0
0.998383 0.236744 0
0.99968 0.232837 0
0 0.411307 0.137713
0.00015259 0.41297 0.12401
0.00173953 0.415503 0.109483
0.00459297 0.417945 0.0957961
0.016083 0.420508 0.0810559
0.0301823 0.423102 0.0662547
0.0559701 0.424399 0.0517281
0.0877699 0.424994 0.0375219
0.137728 0.413764 0.0446937
0.189944 0.376089 0.0855573
0.21445 0.356741 0.0797589
0.24947 0.361578 0.0430762
0.327306 0.379171 0.00646983
0.406683 0.390173 0.00477607
0.457572 0.389273 0.00436408
0.497856 0.384039 0.00389105
0.535988 0.379004 0.00340276
0.573938 0.37348 0.00280766
0.61088 0.367147 0.00230411
0.648356 0.360525 0.00173953
0.686198 0.353384 0.00108339
0.723857 0.346044 0.000808728
0.762463 0.338247 0.000534066
0.801099 0.329854 0.000274662
0.839231 0.321752 0.000183108
0.877882 0.312963 7.62951e-05
0.910735 0.304784 3.0518e-05
0.942428 0.296742 1.5259e-05
0.965682 0.288838 0
0.983719 0.280964 0
0.99353 0.273884 0
0.999084 0.267048 0
0.999802 0.261723 0
3.0518e-05 0.447333 0.146532
0.00015259 0.448707 0.133303
0.00141909 0.450813 0.11809
0.00395209 0.453422 0.104311
0.0123903 0.456046 0.0891432
0.0252537 0.458656 0.0746014
0.0458686 0.460273 0.0598917
0.0731212 0.461402 0.0457313
0.110506 0.460243 0.0352636
0.16788 0.43859 0.0573892
0.211139 0.398688 0.0882734
0.235157 0.383932 0.0755474
0.275959 0.390295 0.0355993
0.358495 0.409171 0.00569161
0.440742 0.422629 0.00440986
0.493187 0.422293 0.00392157
0.53373 0.41767 0.00352483
0.574258 0.412848 0.0030518
0.611765 0.406836 0.00256352
0.649927 0.400397 0.00189212
0.688914 0.393484 0.00122072
0.726726 0.385916 0.0009308
0.765515 0.377523 0.000610361
0.804318 0.36875 0.000350958
0.843153 0.359701 0.000228885
0.88249 0.349691 9.15541e-05
0.914687 0.340978 6.10361e-05
0.946654 0.331167 1.5259e-05
0.968139 0.322408 0
0.986206 0.31339 0
0.994522 0.305303 0
0.999756 0.297154 0
0.999908 0.29131 0
0 0.481483 0.15555
1.5259e-05 0.483009 0.142947
0.000381476 0.485557 0.127062
0.00234989 0.488029 0.112703
0.00686656 0.490837 0.0974746
0.0176394 0.493446 0.0826429
0.0331426 0.495735 0.0679789
0.057084 0.497459 0.0535134
0.0902419 0.49807 0.0402991
0.135103 0.492729 0.0364996
0.19765 0.459754 0.0721447
0.231189 0.422019 0.0890364
0.258137 0.411124 0.0710765
0.303166 0.420249 0.0278172
0.387884 0.439506 0.00549325
0.475608 0.454292 0.00378424
0.53019 0.456062 0.0034638
0.572808 0.451148 0.00308232
0.610986 0.445716 0.0024567
0.650172 0.440223 0.00175479
0.689586 0.433494 0.00120546
0.727993 0.425864 0.000900282
0.767666 0.417868 0.000564584
0.806348 0.409659 0.000366217
0.845609 0.400351 0.000228885
0.883864 0.390845 0.000122072
0.916854 0.381415 7.62951e-05
0.949554 0.370794 1.5259e-05
0.969726 0.361013 1.5259e-05
0.988403 0.350515 0
0.995178 0.340719 0
0.999924 0.330953 0
0.999969 0.32314 0
0 0.518059 0.16495
3.0518e-05 0.519326 0.151812
0.000183108 0.521477 0.135973
0.00184634 0.523674 0.12108
0.00454719 0.526467 0.106035
0.0138247 0.529107 0.0909895
0.0254826 0.531884 0.0757916
0.0468147 0.533959 0.0611734
0.0754864 0.535302 0.0472267
0.110643 0.535409 0.0349432
0.167452 0.521752 0.0404974
0.227176 0.480186 0.0827955
0.252018 0.446906 0.0865797
0.280079 0.440131 0.0650645
0.33135 0.450507 0.0200809
0.424903 0.46952 0.00440986
0.506462 0.486915 0.00309758
0.565606 0.489189 0.00224308
0.607294 0.485039 0.00181582
0.648844 0.479698 0.00128176
0.68893 0.47361 0.000915541
0.72842 0.466896 0.000686656
0.768933 0.459464 0.000427253
0.808042 0.451896 0.000320439
0.847593 0.44303 0.000213626
0.884718 0.433936 0.000122072
0.918395 0.424033 7.62951e-05
0.950256 0.413413 3.0518e-05
0.970794 0.402747 1.5259e-05
0.989105 0.391546 0
0.995636 0.381262 0
0.999939 0.370199 0
0.999985 0.361166 0
0 0.553552 0.174441
1.5259e-05 0.554818 0.160525
7.62951e-05 0.556741 0.144671
0.0011902 0.558953 0.129366
0.00263981 0.561975 0.114641
0.00996414 0.56495 0.0989395
0.0183261 0.568231 0.0837568
0.0363165 0.570489 0.0689097
0.059617 0.57232 0.0541848
0.0898909 0.57351 0.04065
0.135424 0.570397 0.0332494
0.196551 0.547112 0.0519112
0.246403 0.502464 0.0883345
0.274769 0.473548 0.0821698
0.307713 0.46923 0.0591287
0.364157 0.481056 0.0156252
0.451164 0.501915 0.00355535
0.54287 0.518776 0.00178531
0.603067 0.523049 0.0009308
0.648692 0.519448 0.000686656
0.68838 0.513954 0.000579843
0.728786 0.50779 0.00047303
0.77023 0.501198 0.000335698
0.809079 0.493736 0.000259403
0.849119 0.485328 0.000198367
0.885924 0.476173 0.000137331
0.920211 0.466468 7.62951e-05
0.950805 0.455558 3.0518e-05
0.972274 0.44448 1.5259e-05
0.989364 0.432898 0
0.996262 0.42089 0
0.999954 0.409033 0
1 0.399008 0
0 0.589929 0.184253
1.5259e-05 0.590967 0.169772
3.0518e-05 0.592599 0.153994
0.00062562 0.59498 0.137896
0.002121 0.597665 0.122927
0.00686656 0.600793 0.107027
0.0143587 0.603891 0.0915999
0.028748 0.606592 0.0763256
0.0468147 0.609354 0.0610513
0.0738994 0.610956 0.0469825
0.112886 0.610941 0.0345464
0.161913 0.603571 0.0336461
0.22858 0.569757 0.0636759
0.270756 0.524376 0.0921492
0.296864 0.501488 0.0814527
0.332906 0.500206 0.0547341
0.392569 0.513878 0.0130922
0.486992 0.533227 0.00224308
0.573816 0.551812 0.000915541
0.63801 0.556786 0.000381476
0.682292 0.552926 0.000442512
0.725643 0.547524 0.000350958
0.768109 0.541222 0.000274662
0.808621 0.534127 0.000228885
0.849821 0.526696 0.00015259
0.885969 0.518395 0.000106813
0.921492 0.509041 6.10361e-05
0.950881 0.499138 3.0518e-05
0.973373 0.488243 1.5259e-05
0.989334 0.476768 0
0.996765 0.464576 0
0.999863 0.452567 0
0.999985 0.442054 0
0 0.625879 0.194018
0 0.627176 0.179049
6.10361e-05 0.628992 0.163088
0.000427253 0.631403 0.146838
0.00198367 0.634165 0.131121
0.00534066 0.63714 0.114885
0.0123293 0.640101 0.0990768
0.0238346 0.643061 0.0834516
0.0396124 0.646143 0.0680247
0.063508 0.64831 0.0534066
0.0949874 0.649393 0.039704
0.131609 0.648997 0.0289464
0.195987 0.632807 0.0379034
0.260578 0.591272 0.0764782
0.294484 0.548989 0.0914778
0.321508 0.531289 0.0772717
0.360113 0.532479 0.0470741
0.424186 0.545586 0.0106203
0.518944 0.565744 0.00123598
0.607065 0.584451 0.000427253
0.673548 0.590204 0.000167849
0.72314 0.587396 0.000228885
0.766217 0.581979 0.000183108
0.808331 0.575433 0.000167849
0.850919 0.568338 0.000122072
0.887022 0.56109 9.15541e-05
0.92343 0.552377 4.57771e-05
0.951507 0.542962 3.0518e-05
0.975097 0.532525 1.5259e-05
0.989532 0.521309 0
0.997528 0.509483 0
0.999771 0.497566 0
1 0.48658 0
0 0.661845 0.204181
0 0.663294 0.188861
3.0518e-05 0.664744 0.172259
0.000167849 0.667124 0.15581
0.00129702 0.669947 0.139055
0.00323491 0.672953 0.122713
0.00888075 0.676265 0.106477
0.0172122 0.679957 0.0903792
0.030457 0.683238 0.0747539
0.0510109 0.685649 0.0595865
0.0761578 0.687739 0.045182
0.107546 0.68893 0.0320439
0.161395 0.683635 0.0284886
0.225223 0.659892 0.0447242
0.28307 0.614084 0.0849165
0.315984 0.576013 0.0895705
0.345861 0.562142 0.0735027
0.388113 0.564553 0.0415961
0.457023 0.577691 0.0089723
0.54815 0.598428 0.000717174
0.641932 0.617029 0.000167849
0.712627 0.623545 6.10361e-05
0.76173 0.621256 0.000122072
0.805249 0.615549 0.000122072
0.848783 0.608972 0.000106813
0.886244 0.601923 9.15541e-05
0.924254 0.593729 4.57771e-05
0.951171 0.585046 1.5259e-05
0.976028 0.575204 0
0.989258 0.564996 0
0.998199 0.553674 0
0.999573 0.542138 0
1 0.531411 0
0 0.697993 0.214908
0 0.699031 0.198871
3.0518e-05 0.700832 0.181994
0.000106813 0.703441 0.165286
0.00108339 0.705928 0.14844
0.00244144 0.70927 0.131792
0.00735485 0.712749 0.11519
0.0137942 0.71635 0.0989242
0.0255283 0.719615 0.0829175
0.0430457 0.722377 0.0673381
0.0645457 0.724926 0.0522469
0.0937972 0.726452 0.038468
0.136339 0.725963 0.0277256
0.188998 0.716731 0.0294347
0.259297 0.682872 0.0575723
0.310994 0.635309 0.0942092
0.339162 0.603082 0.0912795
0.371984 0.59266 0.0724804
0.418067 0.596323 0.037232
0.488624 0.610208 0.00680552
0.583307 0.63064 0.000335698
0.676753 0.649699 0.00015259
0.74873 0.657069 0.000183108
0.80209 0.6551 0.000244144
0.845609 0.649149 0.000183108
0.884825 0.642588 0.000122072
0.923766 0.635431 6.10361e-05
0.950622 0.627222 3.0518e-05
0.977066 0.618433 0
0.988663 0.60882 0
0.998138 0.598062 0
0.999359 0.586969 0
1 0.576379 0
0 0.733776 0.224537
0 0.734966 0.208682
1.5259e-05 0.736996 0.191531
4.57771e-05 0.739345 0.174853
0.000671397 0.742382 0.157595
0.00146487 0.745418 0.141009
0.00517281 0.74902 0.12398
0.0096437 0.752911 0.107286
0.0193637 0.756207 0.0910658
0.0334173 0.75938 0.0750134
0.0513008 0.762432 0.0593118
0.0777752 0.764553 0.0449989
0.113375 0.765347 0.032166
0.152728 0.763912 0.0233463
0.223178 0.74548 0.0349737
0.295705 0.704402 0.0713359
0.33872 0.658473 0.0975509
0.36582 0.631052 0.0898299
0.400473 0.623636 0.0684825
0.448829 0.628565 0.0316167
0.519493 0.642359 0.00564584
0.616098 0.663371 0.000198367
0.714763 0.681987 0.000259403
0.788739 0.690227 0.000228885
0.841306 0.689281 0.000167849
0.88278 0.683253 0.000106813
0.92137 0.676616 4.57771e-05
0.949859 0.6692 1.5259e-05
0.97586 0.661311 0
0.988174 0.652598 0
0.997452 0.642573 0
0.999252 0.631983 0
1 0.622324 0
0 0.769223 0.235065
0 0.770718 0.219348
0 0.772946 0.201862
1.5259e-05 0.775708 0.185229
0.000396735 0.778454 0.167163
0.000808728 0.781674 0.150668
0.00349432 0.785245 0.133028
0.00648508 0.78912 0.116106
0.0143435 0.79266 0.0995499
0.0252995 0.796368 0.0829786
0.0403906 0.799771 0.0669108
0.0639658 0.802029 0.0519112
0.0931563 0.804013 0.0377813
0.124453 0.805386 0.024155
0.188586 0.797131 0.0251164
0.260884 0.771756 0.0423438
0.324346 0.727672 0.080354
0.362417 0.683421 0.0983139
0.391974 0.660487 0.0863203
0.428275 0.655406 0.0625772
0.476799 0.660761 0.02916
0.554208 0.674891 0.00428778
0.651896 0.695964 0.000366217
0.749523 0.714885 0.000289921
0.825101 0.722972 0.000137331
0.87866 0.722164 7.62951e-05
0.917617 0.716823 3.0518e-05
0.948104 0.709987 1.5259e-05
0.973678 0.702449 0
0.987533 0.694453 0
0.996658 0.685405 0
0.999268 0.675563 0
1 0.666178 0
0 0.805341 0.245548
0 0.807126 0.230045
0 0.809323 0.21236
1.5259e-05 0.811994 0.1953
0.000228885 0.814771 0.176837
0.000610361 0.817807 0.16022
0.00244144 0.821454 0.14229
0.00444038 0.825513 0.125353
0.0106203 0.829313 0.1084
0.0188602 0.833234 0.0912642
0.0310826 0.836805 0.074815
0.051133 0.839582 0.0589761
0.0746471 0.842084 0.0438239
0.101793 0.844266 0.0296025
0.157595 0.841337 0.0231327
0.220523 0.829679 0.0260471
0.293431 0.796994 0.0508278
0.353628 0.748501 0.0930953
0.385031 0.709453 0.0993515
0.415717 0.69015 0.0854505
0.453834 0.686412 0.0612192
0.508461 0.692638 0.0252842
0.587289 0.707881 0.00299077
0.689708 0.72813 0.000396735
0.788968 0.746563 0.000167849
0.862791 0.756481 4.57771e-05
0.912764 0.757137 1.5259e-05
0.946731 0.752026 1.5259e-05
0.971603 0.745251 1.5259e-05
0.987381 0.737713 1.5259e-05
0.996094 0.729793 0
0.999573 0.720714 0
1 0.711971 0
0 0.840833 0.256321
0 0.842649 0.24062
0 0.844938 0.222782
0 0.847593 0.20531
7.62951e-05 0.850477 0.186786
0.00030518 0.85388 0.169833
0.00129702 0.857527 0.15172
0.00260929 0.861311 0.134707
0.00686656 0.865248 0.117327
0.0124056 0.869307 0.0998856
0.021973 0.872847 0.0828717
0.0382391 0.875822 0.066743
0.0573587 0.878553 0.0510109
0.0831617 0.880552 0.0365454
0.131853 0.879271 0.0271
0.182986 0.875471 0.0214694
0.252201 0.858244 0.0305638
0.331884 0.818067 0.0637064
0.382528 0.770001 0.101701
0.411719 0.735592 0.100282
0.444007 0.719997 0.0837262
0.486839 0.717906 0.054612
0.542702 0.724849 0.0203098
0.622812 0.740093 0.00213626
0.723842 0.760754 0.00030518
0.823133 0.779644 6.10361e-05
0.895674 0.789425 1.5259e-05
0.94255 0.790204 0
0.968887 0.785702 3.0518e-05
0.98732 0.779034 3.0518e-05
0.995544 0.771389 3.0518e-05
0.999985 0.763027 1.5259e-05
1 0.75494 1.5259e-05
0 0.876066 0.266972
0 0.877577 0.251255
0 0.87895 0.233143
0 0.881407 0.215228
4.57771e-05 0.88394 0.197238
0.000213626 0.8869 0.180011
0.000885023 0.890013 0.161944
0.00187686 0.89366 0.144564
0.00495918 0.897322 0.126955
0.00872816 0.901183 0.109392
0.0162051 0.905013 0.0923476
0.0289006 0.908263 0.0757305
0.0439612 0.911101 0.0590982
0.0668345 0.913268 0.0441444
0.108827 0.912963 0.0329137
0.149493 0.912673 0.021973
0.2112 0.905226 0.0209506
0.294286 0.881193 0.0395514
0.36759 0.839109 0.0784314
0.410468 0.79353 0.10486
0.439796 0.762631 0.0990311
0.474113 0.750118 0.0797589
0.516106 0.74902 0.0507362
0.573373 0.756802 0.0181888
0.660212 0.772641 0.0011902
0.76379 0.79263 0.000137331
0.860761 0.811765 1.5259e-05
0.926818 0.823102 0
0.964843 0.825254 0
0.987732 0.821393 3.0518e-05
0.995224 0.814862 3.0518e-05
1 0.807263 3.0518e-05
1 0.799771 1.5259e-05
0 0.909392 0.277363
0 0.911254 0.261494
0 0.913359 0.243519
0 0.915953 0.225696
0 0.918257 0.207263
7.62951e-05 0.92047 0.190112
0.000396735 0.923156 0.171847
0.000961318 0.926253 0.154589
0.00274662 0.929519 0.136889
0.00488289 0.933135 0.119203
0.010132 0.936385 0.101884
0.0191958 0.939269 0.0846418
0.0304875 0.941939 0.0675212
0.0501717 0.943526 0.0518044
0.0858473 0.943297 0.0392462
0.11989 0.943389 0.0260929
0.173465 0.94049 0.0198062
0.250782 0.930114 0.0233005
0.331685 0.903502 0.0478828
0.397482 0.860578 0.0899672
0.436149 0.817975 0.105837
0.466224 0.79147 0.0962387
0.500801 0.780621 0.0781872
0.546349 0.780529 0.048188
0.610513 0.788937 0.0144808
0.695247 0.804944 0.000732433
0.797803 0.825299 6.10361e-05
0.891371 0.845197 0
0.952377 0.855833 0
0.985534 0.858549 0
0.994904 0.8551 3.0518e-05
0.999924 0.848447 3.0518e-05
0.999985 0.842084 3.0518e-05
0 0.937209 0.287877
0 0.938094 0.271885
