LUT预设1/LUT全系打包/6.FAKE5207&淡雅系列/FAKE5207/FAKE5207-REC709/FAKE5207-709STD标准.cube
TITLE "Generated by Resolve"
LUT_3D_SIZE 33
0.0120851 0.0174411 0.0216831
0.0333562 0.0158999 0.0154421
0.0609445 0.0146029 0.0100557
0.0919966 0.0148165 0.00666819
0.125643 0.0150912 0.00486763
0.158282 0.0153506 0.0033875
0.190753 0.0152438 0.00233463
0.223392 0.0148013 0.00181582
0.254978 0.0142061 0.00114443
0.288777 0.013489 0.000885023
0.320729 0.0123445 0.000366217
0.354299 0.0112612 0.00030518
0.386816 0.00967422 0.000167849
0.421103 0.00851453 0.000137331
0.454261 0.00854505 0.000122072
0.489219 0.00843824 7.62951e-05
0.525063 0.00810254 6.10361e-05
0.561212 0.0075227 0
0.599725 0.00727855 0
0.638834 0.00646983 0
0.680613 0.00540169 0
0.723217 0.00393683 0
0.766094 0.00259403 0
0.810285 0.00173953 0
0.853971 0.00128176 0
0.893095 0.00180056 0
0.931746 0.00199893 0
0.956741 0.002121 0
0.979873 0.00204471 0
0.99028 0.00189212 0
0.99736 0.00166323 0
0.999557 0.00141909 0
1 0.0011902 0
0.0104067 0.0423438 0.0269017
0.0320745 0.0409705 0.0222934
0.061677 0.0396124 0.0177157
0.0939193 0.0381323 0.0132296
0.128115 0.0367285 0.0096437
0.160906 0.0360876 0.00732433
0.192905 0.035523 0.00523384
0.225345 0.034638 0.00415045
0.256596 0.0335088 0.00277714
0.288487 0.0320439 0.0019379
0.31957 0.0307164 0.000991836
0.351247 0.0293889 0.000747692
0.382025 0.0278172 0.000427253
0.41445 0.0265507 0.000534066
0.44625 0.0246433 0.000350958
0.480507 0.022858 0.000244144
0.515923 0.022034 0.000137331
0.551598 0.0212253 0
0.589288 0.0206149 0
0.627756 0.0194858 0
0.668223 0.0181888 0
0.709453 0.016495 0
0.750957 0.0150301 0
0.793835 0.0139467 0
0.837034 0.0126802 0
0.876616 0.0117494 0
0.916609 0.0104067 0
0.944549 0.009308 0
0.971695 0.00799573 0
0.985306 0.00688182 0
0.995605 0.00578317 0
0.999039 0.00483711 0
1 0.00407416 0
0.0101625 0.0729992 0.035584
0.0263676 0.0719768 0.0304875
0.0572671 0.0703136 0.0239109
0.0907454 0.0684367 0.018616
0.125887 0.0664225 0.014023
0.160922 0.0641184 0.011429
0.194522 0.0621958 0.00892653
0.226719 0.0599069 0.00671397
0.25774 0.0582132 0.00463874
0.288472 0.0564584 0.00299077
0.318746 0.0547494 0.00175479
0.349157 0.0529488 0.0012665
0.379828 0.0515145 0.00120546
0.411612 0.0499428 0.00111391
0.442512 0.0478676 0.00062562
0.475761 0.0462806 0.00047303
0.509178 0.0444495 0.000213626
0.543618 0.0425422 0
0.57998 0.0405737 0
0.61651 0.0384527 0
0.656184 0.0367285 0
0.6963 0.0347753 0
0.737377 0.0332036 0
0.779355 0.032105 0
0.821347 0.0303807 0
0.86128 0.0289158 0
0.902129 0.0269932 0
0.932799 0.0252689 0
0.963638 0.02327 0
0.980072 0.0214237 0
0.993484 0.0194095 0
0.99823 0.0175174 0
0.999969 0.0157931 0
0.00833143 0.10544 0.044007
0.0229191 0.104845 0.0381781
0.0497444 0.103319 0.0303807
0.0842908 0.101122 0.024155
0.120302 0.0987411 0.0186923
0.157458 0.0963149 0.0148165
0.192493 0.0936446 0.011429
0.226383 0.0907607 0.00825513
0.258839 0.0878309 0.00595102
0.289418 0.0850538 0.00383001
0.320058 0.082414 0.00300603
0.350027 0.0803388 0.00267033
0.380453 0.0781567 0.00222782
0.41149 0.0762493 0.00181582
0.442313 0.0740063 0.0010071
0.475181 0.0723278 0.000762951
0.507515 0.0704509 0.00030518
0.541451 0.0684062 6.10361e-05
0.576379 0.0665141 3.0518e-05
0.611704 0.0643015 0
0.64947 0.0620432 0
0.687938 0.059617 0
0.727031 0.0573892 0
0.767391 0.0548714 0
0.808225 0.0521859 0
0.848356 0.0496376 0
0.889967 0.0467842 0
0.922744 0.0443885 0
0.956451 0.0416724 0
0.975387 0.0389868 0
0.991455 0.0361181 0
0.99736 0.0333257 0
0.999908 0.0303502 0
0.00534066 0.138537 0.0530861
0.0188754 0.138369 0.0460822
0.0404364 0.13756 0.0373999
0.0752575 0.135348 0.0294194
0.111864 0.132982 0.0226139
0.150225 0.130098 0.0168612
0.187625 0.12697 0.0127108
0.223514 0.124147 0.00869764
0.25742 0.120638 0.00642405
0.290501 0.117876 0.0053254
0.322438 0.114763 0.00495918
0.353185 0.111696 0.00415045
0.384344 0.108446 0.00341802
0.414801 0.105165 0.00254826
0.444984 0.102205 0.00154116
0.476921 0.0999161 0.00108339
0.507912 0.0976272 0.000396735
0.54139 0.0956436 0.00015259
0.575738 0.0934615 0.000106813
0.610376 0.0912032 3.0518e-05
0.647486 0.0887922 1.5259e-05
0.685252 0.0863813 0
0.723323 0.0841077 0
0.762493 0.0814527 0
0.802319 0.0787518 0
0.841962 0.0762341 0
0.883192 0.0731823 0
0.916838 0.0702831 0
0.951293 0.0668956 0
0.971679 0.063859 0
0.989761 0.0605478 0
0.996551 0.057435 0
0.999786 0.0542763 0
0.00268559 0.171939 0.0642863
0.0135653 0.172183 0.0551461
0.0324407 0.172061 0.044831
0.0624857 0.170611 0.0338903
0.100862 0.167727 0.0252537
0.140032 0.164935 0.0174868
0.180636 0.16141 0.0134279
0.219089 0.158251 0.0104219
0.255756 0.154833 0.0091249
0.290532 0.151705 0.00766003
0.323674 0.148043 0.00669871
0.355673 0.144823 0.00544747
0.387457 0.141375 0.00448615
0.418708 0.138079 0.00326543
0.449577 0.134798 0.00224308
0.481163 0.131228 0.00149538
0.512093 0.12781 0.000534066
0.54551 0.124956 0.000350958
0.578836 0.121721 0.000198367
0.612833 0.118776 4.57771e-05
0.648798 0.115908 3.0518e-05
0.684718 0.113069 1.5259e-05
0.722042 0.110674 0
0.760632 0.108034 0
0.799786 0.105043 0
0.839185 0.102235 0
0.879271 0.0991531 0
0.913375 0.0961166 0
0.948165 0.0923476 0
0.969497 0.089128 0
0.98854 0.0855421 0
0.996017 0.0822461 0
0.99968 0.0784772 0
0.00140383 0.205753 0.0763714
0.00894179 0.206958 0.0650034
0.0258793 0.207187 0.05243
0.049134 0.20679 0.0394293
0.0872511 0.204273 0.0295109
0.12607 0.201709 0.0216678
0.168933 0.198199 0.0167239
0.210513 0.194629 0.0133211
0.251072 0.190494 0.0112306
0.289006 0.186679 0.00958267
0.324651 0.182284 0.00820935
0.358755 0.178225 0.00680552
0.391302 0.174334 0.00547799
0.422492 0.170932 0.00392157
0.454078 0.167208 0.00283818
0.485405 0.163409 0.0018616
0.516609 0.159716 0.000793469
0.549935 0.15639 0.000579843
0.583612 0.153017 0.000289921
0.618173 0.149508 9.15541e-05
0.653758 0.146029 6.10361e-05
0.69012 0.142306 1.5259e-05
0.727001 0.139223 1.5259e-05
0.76463 0.135744 1.5259e-05
0.803052 0.132677 0
0.84126 0.129442 0
0.880064 0.125948 0
0.91368 0.122805 0
0.94757 0.119173 0
0.969116 0.115938 0
0.987915 0.112215 0
0.995682 0.108766 0
0.999557 0.105287 0
0.00128176 0.239857 0.086183
0.00469978 0.241382 0.0751507
0.0192264 0.242054 0.0610361
0.0403296 0.241978 0.0475319
0.0734112 0.240574 0.0355688
0.112703 0.238361 0.027039
0.154818 0.235676 0.020264
0.198489 0.231632 0.0161898
0.241474 0.227604 0.0129397
0.281483 0.223606 0.0107424
0.320256 0.21944 0.00900282
0.356863 0.215869 0.00737011
0.391302 0.211414 0.00593576
0.424796 0.207202 0.00434882
0.457664 0.202518 0.00332647
0.489937 0.197818 0.00216678
0.522576 0.193378 0.0011902
0.555901 0.18854 0.000823987
0.589548 0.183444 0.000350958
0.624094 0.179065 0.000137331
0.660029 0.175006 7.62951e-05
0.696422 0.170825 4.57771e-05
0.732723 0.167636 4.57771e-05
0.770092 0.163958 3.0518e-05
0.807691 0.16025 1.5259e-05
0.845426 0.156634 0
0.883238 0.152819 0
0.916091 0.149386 0
0.948837 0.145663 0
0.970016 0.142245 0
0.987961 0.138369 0
0.995727 0.134798 0
0.999481 0.131289 0
0.000808728 0.27393 0.0960098
0.00291447 0.275364 0.0852216
0.0127871 0.276677 0.0702068
0.0318914 0.277165 0.0559548
0.0575723 0.27744 0.0423133
0.0976425 0.275074 0.0323186
0.137758 0.272786 0.0232853
0.185779 0.268528 0.0184939
0.231495 0.264454 0.0136568
0.275166 0.260044 0.0115206
0.316777 0.256107 0.0093843
0.354757 0.251896 0.00770581
0.391302 0.247593 0.00619516
0.426322 0.243412 0.00471504
0.459709 0.238514 0.00354009
0.493278 0.234211 0.00225834
0.526741 0.229618 0.00141909
0.560784 0.22443 0.000900282
0.594675 0.219242 0.000320439
0.629633 0.214359 0.000228885
0.665949 0.208927 0.000213626
0.702953 0.203723 0.000122072
0.739345 0.199023 0.000106813
0.777081 0.194034 6.10361e-05
0.814404 0.18941 3.0518e-05
0.851972 0.184802 1.5259e-05
0.888655 0.180209 0
0.921233 0.176287 0
0.951888 0.171878 0
0.972091 0.168139 0
0.988739 0.164248 0
0.996185 0.16051 0
0.999496 0.157107 0
0.000457771 0.308614 0.106508
0.00268559 0.309972 0.0948959
0.00814832 0.311635 0.0800183
0.0250248 0.312993 0.0647746
0.0461891 0.31368 0.0502327
0.0827955 0.312078 0.0380865
0.121263 0.31017 0.027924
0.168246 0.306554 0.0209506
0.214115 0.303014 0.0150454
0.261448 0.298482 0.0120089
0.307027 0.294606 0.00874342
0.347967 0.289845 0.00732433
0.388235 0.285283 0.00588998
0.426032 0.280949 0.00459297
0.461631 0.276112 0.0034638
0.496529 0.271229 0.00225834
0.531304 0.265507 0.00155642
0.565774 0.259861 0.00102235
0.600656 0.253681 0.000534066
0.636469 0.24744 0.000549325
0.672923 0.241367 0.000411994
0.709484 0.235325 0.000244144
0.746044 0.230213 0.000183108
0.783978 0.22446 9.15541e-05
0.820798 0.219348 4.57771e-05
0.858778 0.214069 1.5259e-05
0.89427 0.208804 0
0.926406 0.204089 0
0.955108 0.198978 0
0.974716 0.194491 0
0.989609 0.190036 0
0.996735 0.186221 0
0.999512 0.182162 0
0.000106813 0.342138 0.117403
0.00129702 0.344015 0.104921
0.00390631 0.345998 0.0901503
0.0161288 0.34789 0.0733654
0.0356756 0.348775 0.0577707
0.0656901 0.348501 0.0432288
0.105272 0.346578 0.0317998
0.151461 0.343816 0.0224918
0.199283 0.340032 0.016022
0.249531 0.335851 0.0118563
0.296574 0.331731 0.0083772
0.340795 0.327123 0.00695811
0.384253 0.323079 0.00540169
0.423819 0.318273 0.00418097
0.461112 0.313924 0.00306706
0.4981 0.3093 0.00225834
0.533272 0.303532 0.00199893
0.568215 0.297871 0.00154116
0.603387 0.292515 0.00106813
0.639872 0.28603 0.0009308
0.676921 0.279408 0.00062562
0.713817 0.272953 0.000411994
0.751049 0.266178 0.000289921
0.789654 0.259052 0.000122072
0.826825 0.253056 7.62951e-05
0.86537 0.246296 3.0518e-05
0.900145 0.240208 1.5259e-05
0.931807 0.234043 0
0.958923 0.228199 0
0.977813 0.222889 0
0.991043 0.217838 0
0.997574 0.21297 0
0.999649 0.208545 0
7.62951e-05 0.37731 0.128359
0.000885023 0.379217 0.114641
0.00390631 0.381109 0.0992752
0.0113375 0.383307 0.0818647
0.0289311 0.384573 0.0649882
0.0511482 0.385611 0.0488746
0.0896925 0.384298 0.036347
0.129595 0.382544 0.0248417
0.179644 0.378546 0.0178531
0.23003 0.374502 0.0120241
0.279438 0.370092 0.00830091
0.328954 0.365667 0.00631724
0.376959 0.361517 0.00437934
0.418753 0.356359 0.00402838
0.459083 0.352224 0.00355535
0.498283 0.347372 0.00306706
0.534859 0.341848 0.00270085
0.571221 0.336416 0.00215152
0.607416 0.329915 0.00170901
0.644083 0.32314 0.00137331
0.681636 0.315724 0.000869764
0.718853 0.308354 0.000595102
0.757458 0.300389 0.000396735
0.796338 0.292668 0.000167849
0.83328 0.285496 0.000106813
0.872206 0.277928 4.57771e-05
0.905592 0.270634 1.5259e-05
0.937484 0.263416 0
0.962615 0.256779 0
0.981125 0.25037 0
0.992401 0.244465 0
0.998444 0.238849 0
0.999771 0.23418 0
0 0.41149 0.138506
0.000122072 0.413062 0.124376
0.00177005 0.415503 0.107836
0.00482185 0.418006 0.0904555
0.018967 0.420249 0.0719463
0.035523 0.421912 0.0544747
0.0718853 0.420935 0.0400549
0.107134 0.420142 0.026688
0.160723 0.415915 0.0191348
0.210773 0.412421 0.0121004
0.264317 0.407996 0.00923171
0.317113 0.403494 0.00700389
0.366842 0.398947 0.00531014
0.411719 0.394293 0.00480659
0.455772 0.390173 0.00415045
0.495918 0.385122 0.00364691
0.533684 0.380392 0.00315862
0.571679 0.375113 0.00257877
0.608392 0.36907 0.00210575
0.645655 0.3626 0.00158694
0.683528 0.355734 0.000946059
0.720943 0.348775 0.000686656
0.759548 0.341085 0.000427253
0.798215 0.33286 0.000198367
0.836072 0.324895 0.000122072
0.875502 0.316167 3.0518e-05
0.908171 0.308125 1.5259e-05
0.940902 0.300038 0
0.964309 0.292226 0
0.983139 0.284031 0
0.993118 0.276936 0
0.999161 0.269841 0
0.999847 0.263508 0
3.0518e-05 0.447547 0.147341
0.000122072 0.448798 0.133745
0.00143435 0.450904 0.116716
0.00416571 0.453635 0.099382
0.0144045 0.456016 0.0801404
0.030396 0.457755 0.0627909
0.0582895 0.457725 0.0470741
0.0918593 0.457053 0.0339361
0.139162 0.45417 0.0245823
0.185321 0.451911 0.0159609
0.242527 0.446845 0.0123293
0.297322 0.442481 0.00848402
0.349432 0.437812 0.00622568
0.399802 0.432685 0.00526436
0.449058 0.428138 0.00422675
0.491356 0.423301 0.00376898
0.531472 0.418738 0.00335698
0.572 0.414237 0.00285344
0.609277 0.408515 0.00234989
0.647181 0.402365 0.00170901
0.686122 0.395834 0.00103761
0.723796 0.388388 0.000762951
0.762402 0.380316 0.000457771
0.801175 0.371817 0.000228885
0.839872 0.362951 0.000137331
0.879973 0.352972 3.0518e-05
0.911833 0.344472 1.5259e-05
0.945129 0.334539 0
0.966491 0.326024 0
0.985687 0.316701 0
0.994003 0.308736 0
0.999832 0.300191 0
0.999939 0.29337 0
0 0.481804 0.15642
0 0.48307 0.143465
0.000381476 0.485588 0.12604
0.00251774 0.48809 0.108156
0.0077821 0.490883 0.0889143
0.021561 0.49276 0.0710918
0.0414893 0.493797 0.0543984
0.0742657 0.493645 0.0407111
0.116365 0.491936 0.0293278
0.163104 0.489387 0.0200198
0.222461 0.484855 0.0144503
0.279622 0.480674 0.00872816
0.33608 0.475257 0.00669871
0.390967 0.470573 0.0053254
0.442985 0.465568 0.00396735
0.485405 0.46157 0.00367742
0.528374 0.457191 0.00337224
0.57055 0.452445 0.00289921
0.608438 0.447074 0.00227359
0.647395 0.441978 0.00154116
0.686717 0.435584 0.000976577
0.724743 0.428244 0.000686656
0.764553 0.420569 0.000366217
0.802915 0.412665 0.000198367
0.842222 0.403571 0.000106813
0.881056 0.394415 3.0518e-05
0.913558 0.385199 1.5259e-05
0.947921 0.374655 0
0.967727 0.364965 0
0.987945 0.354574 0
0.994644 0.344778 0
0.999954 0.334829 0
0.999985 0.325521 0
0 0.518425 0.165911
3.0518e-05 0.519554 0.152422
0.000183108 0.521462 0.135256
0.00196841 0.523812 0.116884
0.00503548 0.526574 0.0979477
0.0171664 0.528588 0.0793774
0.0312352 0.530724 0.0619974
0.0630503 0.530755 0.0475776
0.0974441 0.530205 0.0343175
0.143801 0.527855 0.0247654
0.198077 0.524239 0.0174105
0.250874 0.520623 0.0105592
0.311147 0.51545 0.00822461
0.369055 0.510353 0.00567636
0.422827 0.505318 0.00383001
0.471397 0.500496 0.00334173
0.519677 0.495781 0.00277714
0.564126 0.490669 0.00221256
0.604791 0.486336 0.00164797
0.646082 0.4813 0.00105287
0.685985 0.475532 0.000686656
0.725139 0.469001 0.000457771
0.765774 0.46183 0.000213626
0.804669 0.454749 0.000122072
0.844205 0.446281 6.10361e-05
0.88159 0.437339 1.5259e-05
0.915068 0.427924 1.5259e-05
0.948287 0.41738 0
0.968704 0.406958 0
0.988479 0.395911 0
0.995117 0.385748 0
0.999954 0.374655 0
0.999985 0.364141 0
0 0.553887 0.175509
1.5259e-05 0.555032 0.161181
7.62951e-05 0.556786 0.144442
0.0012665 0.559136 0.125628
0.00283818 0.562234 0.106966
0.0123293 0.564935 0.0876173
0.0219577 0.56759 0.0697337
0.049836 0.567773 0.0540017
0.0761425 0.568566 0.0394141
0.122652 0.566049 0.0290532
0.171206 0.563638 0.019913
0.224002 0.560067 0.0128634
0.288182 0.554376 0.00898756
0.349523 0.549462 0.00508125
0.405524 0.544213 0.00326543
0.459648 0.53872 0.00254826
0.514275 0.533562 0.00177005
0.559457 0.529351 0.00128176
0.602441 0.525063 0.000900282
0.646235 0.52076 0.000503548
0.685603 0.515557 0.000350958
0.725673 0.509697 0.000228885
0.767163 0.503502 0.000106813
0.8056 0.496239 6.10361e-05
0.845792 0.488228 3.0518e-05
0.882551 0.479484 1.5259e-05
0.917098 0.470024 0
0.948562 0.459495 0
0.970336 0.448783 0
0.988602 0.437278 0
0.995804 0.425483 0
0.999969 0.413809 0
1 0.401984 0
0 0.590295 0.185412
1.5259e-05 0.591196 0.17055
3.0518e-05 0.592599 0.153994
0.000656138 0.595132 0.134478
0.00233463 0.597925 0.115816
0.00822461 0.600916 0.0956741
0.0175021 0.603372 0.0775006
0.0383917 0.604761 0.0603037
0.0590219 0.6065 0.0448005
0.10396 0.604517 0.0334173
0.146578 0.603082 0.022446
0.201495 0.59942 0.0151369
0.264271 0.594171 0.00994888
0.323507 0.589731 0.00477607
0.382528 0.584024 0.00341802
0.440528 0.578653 0.00241093
0.498421 0.572946 0.00129702
0.544457 0.568795 0.000991836
0.590845 0.564233 0.000671397
0.63798 0.559457 0.000366217
0.679469 0.554223 0.000259403
0.722484 0.549172 0.00015259
0.764858 0.543175 7.62951e-05
0.805066 0.53637 4.57771e-05
0.846616 0.529381 1.5259e-05
0.882445 0.52134 0
0.918608 0.512367 0
0.94847 0.502983 0
0.971527 0.492287 0
0.988449 0.481224 0
0.996414 0.469306 0
0.999863 0.457481 0
0.999985 0.445472 0
0 0.626215 0.19527
0 0.62739 0.179904
6.10361e-05 0.628977 0.163241
0.000442512 0.631647 0.143938
0.0021973 0.634379 0.124193
0.00622568 0.6374 0.103838
0.0154116 0.63975 0.0847181
0.0310369 0.641978 0.0668345
0.051957 0.643824 0.0507668
0.0888228 0.642924 0.0377203
0.123537 0.642863 0.0252689
0.17847 0.638956 0.0178073
0.236454 0.634806 0.0112154
0.292744 0.631296 0.00534066
0.35671 0.624903 0.00387579
0.419074 0.618753 0.00233463
0.47863 0.612894 0.00105287
0.529213 0.60795 0.000762951
0.581003 0.602838 0.000457771
0.630259 0.598321 0.000228885
0.674861 0.593545 0.00015259
0.720256 0.588739 7.62951e-05
0.763134 0.583688 3.0518e-05
0.804746 0.577462 1.5259e-05
0.847807 0.570626 0
0.883513 0.563897 0
0.920699 0.555627 0
0.948974 0.546395 0
0.973571 0.536416 0
0.98854 0.525704 0
0.997314 0.513985 0
0.999756 0.502571 0
1 0.490028 0
0 0.662165 0.205524
0 0.663508 0.189822
3.0518e-05 0.664851 0.172519
0.000167849 0.667292 0.153124
0.00143435 0.670268 0.13257
0.00367742 0.673289 0.11191
0.0111391 0.676402 0.0919814
0.0217594 0.679515 0.0729686
0.0408331 0.681392 0.0561532
0.0700694 0.681804 0.0418402
0.0981918 0.682506 0.0282139
0.15407 0.678782 0.0201114
0.207034 0.676097 0.0122072
0.264698 0.671885 0.00640879
0.332189 0.664851 0.00437934
0.397665 0.658503 0.00225834
0.457908 0.652644 0.000976577
0.512383 0.647623 0.000686656
0.568872 0.642344 0.000350958
0.619348 0.637507 0.000167849
0.666407 0.632776 0.000106813
0.715496 0.627771 4.57771e-05
0.758755 0.622782 1.5259e-05
0.801785 0.617258 1.5259e-05
0.84567 0.610956 1.5259e-05
0.882521 0.604303 3.0518e-05
0.921675 0.59646 1.5259e-05
0.948455 0.58822 0
0.97467 0.57879 0
0.988113 0.568948 0
0.998138 0.557992 0
0.999527 0.547005 0
1 0.534615 0
0 0.698482 0.216434
0 0.699367 0.199954
3.0518e-05 0.700938 0.18233
0.000106813 0.703548 0.163088
0.0011902 0.706264 0.142351
0.00273136 0.709789 0.121492
0.00927749 0.7131 0.100832
0.0171817 0.716289 0.081117
0.0350805 0.717952 0.0637064
0.0585946 0.719219 0.0478676
0.0868086 0.719875 0.0337224
0.13518 0.7178 0.024033
0.180972 0.715999 0.014435
0.239017 0.711635 0.00859083
0.305394 0.705562 0.00569161
0.370932 0.699672 0.00257877
0.432059 0.693706 0.00135805
0.49192 0.687999 0.000900282
0.552453 0.682216 0.000381476
0.604562 0.677195 0.000213626
0.655924 0.672236 0.000213626
0.708492 0.666728 0.000198367
0.752667 0.662287 0.000213626
0.79913 0.656809 0.000198367
0.842374 0.651026 0.000137331
0.881254 0.644785 9.15541e-05
0.921294 0.637858 4.57771e-05
0.947738 0.630014 3.0518e-05
0.975967 0.621683 0
0.987442 0.612573 0
0.998032 0.602258 0
0.999268 0.591424 0
1 0.579492 0
0 0.734249 0.226078
0 0.735286 0.209842
1.5259e-05 0.737087 0.192004
4.57771e-05 0.739483 0.17322
0.000732433 0.742702 0.151949
0.00161746 0.745968 0.131044
0.00653086 0.749569 0.109545
0.0117952 0.75314 0.0893568
0.0271763 0.755138 0.071046
0.0449531 0.757183 0.0539406
0.0714427 0.758389 0.0393683
0.112825 0.757214 0.0277562
0.151659 0.756603 0.0164492
0.211994 0.751949 0.0106813
0.277577 0.746471 0.00677501
0.341909 0.741604 0.00265507
0.406653 0.735409 0.00170901
0.471626 0.72871 0.0011902
0.536767 0.722377 0.000610361
0.589776 0.717464 0.000579843
0.645457 0.711803 0.00047303
0.699718 0.70631 0.000350958
0.746151 0.701869 0.00030518
0.795285 0.696361 0.000213626
0.838727 0.691096 0.00015259
0.879515 0.685115 9.15541e-05
0.918685 0.678859 4.57771e-05
0.947112 0.671824 1.5259e-05
0.974533 0.664134 0
0.987015 0.65594 0
0.997223 0.646296 0
0.999146 0.636225 0
1 0.625422 0
0 0.76965 0.236667
0 0.771008 0.220615
0 0.773007 0.202411
1.5259e-05 0.775814 0.183917
0.000427253 0.77882 0.161776
0.000885023 0.782116 0.141054
0.0043946 0.785885 0.118776
0.00781262 0.789319 0.0981155
0.0204471 0.792004 0.0788281
0.0337377 0.79501 0.0606546
0.0586709 0.796109 0.0450904
0.0928206 0.796277 0.0321355
0.125719 0.796567 0.019089
0.187854 0.791745 0.0133211
0.250645 0.787411 0.00823987
0.312749 0.783047 0.00369268
0.379507 0.776425 0.00297551
0.446571 0.769802 0.00209049
0.512383 0.763302 0.00114443
0.570001 0.75758 0.000961318
0.629587 0.751583 0.000671397
0.685664 0.746059 0.000427253
0.735714 0.740703 0.000320439
0.788235 0.734997 0.000198367
0.83238 0.730068 0.000122072
0.876463 0.72433 7.62951e-05
0.914885 0.718746 3.0518e-05
0.945602 0.71223 1.5259e-05
0.972152 0.705043 0
0.986435 0.697475 0
0.996292 0.688884 0
0.999176 0.679332 0
1 0.668849 0
0 0.805753 0.247196
0 0.807416 0.231388
0 0.809537 0.213031
1.5259e-05 0.812009 0.194415
0.000244144 0.815045 0.171954
0.000686656 0.818265 0.151263
0.00303655 0.82208 0.128481
0.00529488 0.82623 0.107698
0.0153964 0.829236 0.0872206
0.0250248 0.832425 0.0678874
0.0470436 0.833906 0.0513466
0.0747539 0.834974 0.0366674
0.102327 0.836255 0.0226596
0.163378 0.832227 0.0168307
0.221363 0.828992 0.0107729
0.281941 0.824567 0.0055848
0.351461 0.818036 0.00434882
0.420829 0.811215 0.0028687
0.488075 0.804837 0.00158694
0.550271 0.798688 0.00122072
0.613916 0.792325 0.000701915
0.671443 0.786526 0.000396735
0.725353 0.780911 0.000259403
0.781949 0.774914 0.000106813
0.826566 0.770169 6.10361e-05
0.873106 0.765072 3.0518e-05
0.911254 0.759777 1.5259e-05
0.944518 0.753979 0
0.969955 0.747616 0
0.98645 0.740368 0
0.995651 0.732921 0
0.999542 0.724315 0
1 0.714626 0
0 0.84123 0.258045
0 0.842908 0.24213
0 0.845121 0.223529
0 0.847684 0.204791
7.62951e-05 0.850843 0.1823
0.000335698 0.854551 0.161242
0.00158694 0.858396 0.138399
0.00314336 0.86215 0.117327
0.00984207 0.865888 0.0957656
0.0162203 0.869429 0.075349
0.0344549 0.871427 0.0581674
0.0560006 0.872953 0.0424353
0.0828717 0.874128 0.0283665
0.13814 0.870802 0.0211643
0.191623 0.868086 0.0132601
0.250675 0.864088 0.00773632
0.321752 0.857099 0.00588998
0.393683 0.850782 0.00364691
0.460227 0.8448 0.00218204
0.525872 0.838285 0.00157168
0.593561 0.831601 0.000793469
0.65243 0.826001 0.000457771
0.710262 0.820188 0.000274662
0.769024 0.814557 9.15541e-05
0.816587 0.809461 6.10361e-05
0.867292 0.803906 1.5259e-05
0.905303 0.798932 0
0.941863 0.793225 0
0.967056 0.78764 0
0.986526 0.781353 0
0.99498 0.77406 0
1 0.766094 0
1 0.757183 0
0 0.876478 0.268757
0 0.877882 0.252857
0 0.879118 0.234043
0 0.881422 0.215152
4.57771e-05 0.884138 0.193378
0.000244144 0.887266 0.172045
0.00106813 0.890593 0.149065
0.00231937 0.894224 0.127489
0.00704967 0.897505 0.105516
0.01149 0.901167 0.0849622
0.0264134 0.903761 0.0667735
0.0430304 0.905562 0.0496681
0.067216 0.906752 0.0349584
0.115633 0.904891 0.025742
0.161913 0.903288 0.0163119
0.22005 0.899855 0.0101625
0.291142 0.89482 0.00758373
0.361593 0.889799 0.00448615
0.430304 0.883955 0.00285344
0.499443 0.878309 0.00195315
0.571359 0.871839 0.000854505
0.632273 0.866499 0.000549325
0.694942 0.860899 0.000289921
0.75494 0.854978 7.62951e-05
0.806745 0.850034 4.57771e-05
0.861128 0.844404 0
0.899855 0.839719 0
0.939849 0.834363 0
0.964721 0.829114 0
0.987076 0.823545 0
0.994675 0.817258 0
1 0.810056 0
1 0.801892 0
0 0.90985 0.279332
0 0.911635 0.263188
0 0.913512 0.24448
0 0.915938 0.225788
0 0.918456 0.203738
9.15541e-05 0.920928 0.182528
0.00047303 0.923735 0.159579
0.00117494 0.927184 0.137987
0.00383001 0.930617 0.115541
0.00630198 0.934447 0.0944228
0.016907 0.936812 0.0754406
0.0283207 0.939193 0.0568856
0.0493477 0.940078 0.0411536
0.0908522 0.938445 0.0306401
0.130648 0.937224 0.0194247
0.188739 0.933852 0.0129091
0.259174 0.928832 0.00947585
0.328618 0.924407 0.00544747
0.398749 0.918959 0.00370794
0.470329 0.913329 0.00247196
0.544671 0.907912 0.0010071
0.608301 0.902419 0.000717174
0.674632 0.896803 0.000350958
0.736156 0.891737 9.15541e-05
0.792157 0.886915 4.57771e-05
0.8495 0.881697 0
0.891676 0.877684 0
0.936446 0.872557 0
0.961379 0.867979 0
0.986084 0.862867 0
0.9944 0.85716 0
0.999924 0.850904 0
0.999985 0.844083 0
0 0.937667 0.289937
0 0.938399 0.27364
0 0.939681 0.255207
0 0.94107 0.236484
0 0.943008 0.214649
4.57771e-05 0.945052 0.193332
0.000274662 0.94757 0.170428
0.000686656 0.950423 0.149294
0.00239567 0.953216 0.126314
