LUT预设1/LUT全系打包/6.FAKE5207&淡雅系列/FAKE5207/FAKE5207-REC709/FAKE5207莫兰迪绿709.cube
TITLE "Generated by Resolve"
LUT_3D_SIZE 5
0.0120851 0.0174411 0.0216831
0.255161 0.0142824 0.0012665
0.526375 0.0080415 7.62951e-05
0.856382 0.00128176 0
1 0.00114443 0
0.000869764 0.273838 0.0956283
0.213001 0.25684 0.0183719
0.528359 0.227878 0.00184634
0.816114 0.187442 4.57771e-05
0.999359 0.155505 0
0 0.553552 0.174441
0.059617 0.57232 0.0541848
0.451164 0.501915 0.00355535
0.849119 0.485328 0.000198367
1 0.399008 0
0 0.840833 0.256321
0.00686656 0.865248 0.117327
0.252201 0.858244 0.0305638
0.723842 0.760754 0.00030518
1 0.75494 1.5259e-05
0 0.999847 0.33669
1.5259e-05 1 0.200259
0.0265812 1 0.0532082
0.526055 0.987778 0.107683
0.972778 0.988418 0
0.000671397 0.0479438 0.27628
0.19884 0.0315557 0.151537
0.386664 0.0519265 0.0335088
0.717113 0.0273747 0.00309758
0.989883 0.00460822 1.5259e-05
0.00230411 0.277638 0.317113
0.198978 0.257496 0.288975
0.457771 0.233951 0.183246
0.746059 0.186633 0.0744488
0.996262 0.143923 0.0124208
1.5259e-05 0.535821 0.349294
0.132753 0.514 0.360098
0.433173 0.494057 0.269947
0.766705 0.436194 0.167468
0.993088 0.37554 0.0272984
0 0.807599 0.467765
0.0412757 0.797208 0.457252
0.270512 0.823377 0.35523
0.68896 0.746319 0.194507
0.99939 0.713314 0.147982
0 0.99913 0.581613
0.00143435 0.999252 0.544076
0.0998398 0.999634 0.449836
0.494942 0.999893 0.330449
0.960876 0.983474 0.146548
0 0.0928817 0.516884
0.130907 0.0424964 0.535668
0.429953 0.0461128 0.250614
0.578256 0.0874342 0.0750439
0.860243 0.0747845 0.00363165
4.57771e-05 0.306737 0.651133
0.0920272 0.298939 0.585519
0.413947 0.269444 0.458564
0.63331 0.279042 0.252842
0.949233 0.21593 0.124422
1.5259e-05 0.554376 0.605951
0.148486 0.538109 0.623499
0.431861 0.512566 0.593744
0.696254 0.461875 0.42388
0.981842 0.373465 0.273732
0 0.822171 0.605051
0.0788128 0.788373 0.621469
0.380438 0.773495 0.639109
0.682673 0.736965 0.555291
0.981216 0.649805 0.404425
0 0.99939 0.678904
0.0195926 0.998734 0.726787
0.261433 0.997192 0.744427
0.545495 0.999405 0.672374
0.945602 0.973877 0.515557
0 0.14432 0.807675
0.0268559 0.0913252 0.907897
0.419257 0.0290379 0.721645
0.673579 0.0627451 0.30312
0.798703 0.11574 0.0948348
0 0.337636 0.940398
0.0117952 0.345937 0.865568
0.282582 0.292515 0.855863
0.677577 0.282078 0.513359
0.844709 0.320607 0.271611
0 0.593545 0.949615
0.12256 0.585611 0.955016
0.283818 0.561913 0.878981
0.68719 0.513085 0.71107
0.912016 0.511193 0.461067
0 0.840711 0.867384
0.0702831 0.81828 0.873762
0.401328 0.813321 0.885481
0.700252 0.773861 0.842283
0.957015 0.689479 0.635187
0 0.99971 0.829068
0.0224002 0.999252 0.843519
0.316747 0.999649 0.875227
0.651682 0.99556 0.897551
0.955047 0.972015 0.809522
0 0.202411 0.99971
0.000961318 0.155306 1
0.207294 0.0635386 0.99559
0.746029 0.0267796 0.741558
0.907423 0.0875715 0.304936
0 0.385733 1
0.000228885 0.401205 0.999878
0.0814679 0.35462 0.999924
0.644282 0.264973 0.932998
0.935241 0.305455 0.506127
0 0.613138 1
0.0152438 0.613001 1
0.0792706 0.611231 0.999954
0.542611 0.537789 0.995087
0.973892 0.52987 0.705394
0 0.880919 0.999924
0.0786755 0.87837 0.999908
0.376928 0.881376 0.999985
0.579156 0.832624 0.999741
0.980758 0.767559 0.904204
0 0.999924 0.998947
0.0106966 0.999878 0.999237
0.297169 1 0.999359
0.696818 0.999924 0.999969
0.974105 0.995239 0.999069
