LUT预设1/柯达5219&2393/柯达5219系列-709/柯达5219绿调-709.cube
TITLE "Generated by Resolve"
LUT_3D_SIZE 5
0.0448157 0.0517891 0.0790265
0.191592 0.0840467 0.0733043
0.50808 0.110674 0.0383917
0.899168 0.157473 0.0122377
0.914717 0.171908 0.0126802
0.00976577 0.302373 0.240894
0.397894 0.305196 0.119722
0.82443 0.359213 0.0699931
0.995178 0.503075 0.0805524
0.995346 0.5066 0.0821698
0.00106813 0.687266 0.512749
0.142504 0.664454 0.363958
0.803677 0.675868 0.164843
0.983734 0.715251 0.107881
0.984039 0.706508 0.107576
0.000335698 0.861036 0.689128
0.0213931 0.866896 0.623316
0.620493 0.886717 0.548974
0.966171 0.881376 0.349248
0.983856 0.861997 0.283024
0.000366217 0.861341 0.689342
0.00787366 0.867384 0.639078
0.415686 0.876722 0.547021
0.877287 0.899107 0.478935
0.983001 0.897963 0.367666
0.0357061 0.0782177 0.148928
0.193484 0.0917678 0.239918
0.435492 0.162417 0.227787
0.740276 0.155962 0.257038
0.736171 0.18233 0.282734
0.0260777 0.336706 0.360372
0.285939 0.324132 0.364828
0.636088 0.345892 0.278706
0.930953 0.426047 0.207782
0.979171 0.47541 0.184344
0.0177615 0.674937 0.603555
0.107347 0.666575 0.605707
0.701991 0.67805 0.476982
0.976944 0.734752 0.482506
0.978134 0.727489 0.476356
0.0207828 0.848692 0.747723
0.074403 0.861311 0.76083
0.316594 0.867079 0.665232
0.919799 0.869078 0.553033
0.965682 0.854444 0.502464
0.0168154 0.849241 0.741085
0.0503548 0.861326 0.754589
0.15349 0.87042 0.680842
0.787869 0.889494 0.607691
0.968032 0.896345 0.526146
0.0263828 0.15729 0.289097
0.120439 0.173907 0.494591
0.51783 0.138979 0.578271
0.695888 0.287694 0.509697
0.71342 0.299199 0.541695
0.0435645 0.540719 0.660945
0.205463 0.488853 0.636271
0.583047 0.42678 0.644999
0.816052 0.524697 0.585367
0.813413 0.535027 0.599512
0.00988785 0.739452 0.71606
0.153216 0.704738 0.714153
0.649638 0.699016 0.701518
0.887266 0.704112 0.631891
0.941833 0.688151 0.56817
0.0223392 0.866743 0.788846
0.205859 0.866697 0.803784
0.562463 0.865339 0.795834
0.858244 0.861677 0.725322
0.941588 0.852598 0.6963
0.0233768 0.859281 0.777752
0.153826 0.861357 0.795407
0.45594 0.871687 0.793408
0.697292 0.88484 0.741711
0.937972 0.891081 0.683925
0.0203861 0.287358 0.487739
0.101183 0.345708 0.664622
0.503044 0.264286 0.795392
0.77409 0.299535 0.68893
0.779019 0.31014 0.692546
0.140185 0.667704 0.800015
0.293935 0.680934 0.798093
0.522744 0.608896 0.820905
0.832227 0.57322 0.759213
0.832914 0.576577 0.760052
0.0713512 0.777691 0.840803
0.299428 0.817853 0.840574
0.67541 0.796201 0.83357
0.852369 0.766995 0.820935
0.865339 0.760906 0.811551
0.0200504 0.902007 0.86743
0.149279 0.897032 0.865187
0.617868 0.882322 0.851987
0.839338 0.866896 0.842115
0.91104 0.854002 0.808286
0.0211185 0.889967 0.836393
0.131945 0.886809 0.837278
0.548363 0.885512 0.835462
0.745708 0.887098 0.838132
0.918593 0.894697 0.797726
0.0221866 0.318837 0.525841
0.106889 0.370169 0.683574
0.505196 0.273747 0.79884
0.77644 0.304753 0.6907
0.781003 0.314656 0.694072
0.153155 0.669337 0.799908
0.298436 0.685023 0.798901
0.532387 0.616663 0.821012
0.832715 0.576059 0.759991
0.833021 0.577264 0.76025
0.0439155 0.830076 0.85507
0.621683 0.814801 0.835294
0.72697 0.820325 0.841947
0.841657 0.763317 0.823774
0.864332 0.757977 0.811963
0.0363622 0.879377 0.8654
0.34226 0.87332 0.857786
0.688762 0.901076 0.870741
0.850874 0.882185 0.868086
0.895888 0.86038 0.849714
0.0200198 0.902113 0.867735
0.111101 0.902388 0.875212
0.505638 0.903243 0.866911
0.771771 0.898726 0.874388
0.895109 0.901564 0.873198
