LUT预设1/柯达5219&2393/柯达5219系列-709/柯达5219微调709.cube
TITLE "Generated by Resolve"
LUT_3D_SIZE 5
0.0448157 0.0517891 0.0790265
0.109789 0.0687572 0.0769513
0.242054 0.0839246 0.0650034
0.487694 0.0990158 0.0352483
0.834943 0.118669 0.0108644
0.0420844 0.154681 0.154864
0.213611 0.169451 0.116121
0.483345 0.187808 0.0739147
0.800244 0.220737 0.0463874
0.982315 0.334585 0.0235904
0.00766003 0.353811 0.269429
0.0920424 0.367849 0.216129
0.526131 0.375937 0.111711
0.834104 0.422751 0.0738384
0.996429 0.544579 0.101076
0.00187686 0.642725 0.472023
0.0181735 0.653208 0.41973
0.369253 0.659327 0.322362
0.818616 0.666224 0.145617
0.983963 0.711559 0.107469
0.00030518 0.860761 0.688975
0.00263981 0.867277 0.67451
0.0706188 0.864912 0.572305
0.712337 0.894377 0.539574
0.983001 0.897963 0.367666
0.0382239 0.0631266 0.119615
0.104387 0.0719158 0.153002
0.210773 0.0989853 0.139116
0.427787 0.104509 0.126162
0.765286 0.0982528 0.106249
0.0440986 0.172473 0.215
0.165545 0.18262 0.238087
0.379599 0.210986 0.2065
0.681331 0.242359 0.171069
0.945098 0.348974 0.135378
0.0296025 0.357916 0.349447
0.0915999 0.37641 0.373037
0.44889 0.396353 0.296757
0.789548 0.448524 0.269963
0.987106 0.568444 0.286351
0.0154421 0.634165 0.548989
0.0340429 0.65272 0.572045
0.228107 0.664088 0.484886
0.778088 0.675364 0.369421
0.981689 0.728069 0.370596
0.00932326 0.851179 0.727718
0.0214694 0.860182 0.741192
0.0394751 0.869276 0.713512
0.615366 0.88452 0.622507
0.96968 0.896727 0.512673
0.0309758 0.0849165 0.166613
0.0759899 0.0937209 0.243992
0.22388 0.0882582 0.292531
0.378454 0.147356 0.253193
0.659052 0.15816 0.246372
0.0366369 0.226322 0.329397
0.114275 0.232059 0.376822
0.337316 0.21442 0.431312
0.557885 0.271626 0.356512
0.844266 0.298238 0.357061
0.0232853 0.430014 0.474586
0.10396 0.422873 0.488945
0.391821 0.421866 0.499947
0.676402 0.473945 0.460639
0.93164 0.563119 0.452049
0.0158389 0.660212 0.603647
0.0777905 0.662959 0.637247
0.28127 0.669215 0.639582
0.727993 0.687114 0.570184
0.964202 0.747799 0.577844
0.0254978 0.850431 0.763836
0.0926223 0.855467 0.780987
0.244923 0.864439 0.77969
0.501808 0.879423 0.727184
0.943725 0.891524 0.655711
0.0243992 0.123049 0.238376
0.05449 0.150851 0.347051
0.166171 0.128008 0.498421
0.450782 0.112322 0.504845
0.627832 0.244556 0.417044
0.0317082 0.343664 0.508949
0.087602 0.357595 0.557
0.244434 0.317861 0.632425
0.583078 0.280079 0.61651
0.739208 0.397131 0.518669
0.0311284 0.539132 0.649088
0.100603 0.533608 0.648173
0.318074 0.515404 0.657755
0.634058 0.505684 0.672877
0.837079 0.574868 0.612955
0.0114443 0.719066 0.718135
0.0578012 0.716335 0.729061
0.325887 0.705104 0.720821
0.688838 0.710826 0.720699
0.915541 0.755322 0.697658
0.0215305 0.871 0.795911
0.0892805 0.87155 0.812421
0.425345 0.875761 0.815763
0.677348 0.882765 0.822522
0.923186 0.893126 0.777035
0.0172427 0.191287 0.356603
0.0426184 0.258824 0.504753
0.124483 0.282887 0.658381
0.437644 0.211124 0.768933
0.739712 0.242267 0.669352
0.0357977 0.534676 0.721813
0.0841077 0.562249 0.756176
0.189792 0.542824 0.787213
0.543969 0.452796 0.835889
0.808377 0.431159 0.728389
0.0435187 0.689174 0.80911
0.126375 0.687922 0.806699
0.339345 0.673716 0.796017
0.596307 0.637217 0.82797
0.839307 0.617166 0.772122
0.0295567 0.791821 0.84445
0.103502 0.791226 0.843503
0.389349 0.783795 0.825132
0.673472 0.775113 0.829938
0.870527 0.778592 0.81915
0.0199741 0.902113 0.86772
0.0835737 0.90193 0.874769
0.387884 0.903212 0.867445
0.725277 0.90013 0.87219
0.902663 0.902464 0.872221
