LUT预设1/柯达5219&2393/柯达5219系列-709/柯达5219绿调-709.cube
TITLE "Generated by Resolve"
LUT_3D_SIZE 33
0.0448157 0.0517891 0.0790265
0.0515755 0.0540475 0.0800336
0.0661479 0.0585336 0.0806744
0.0832685 0.063508 0.0802625
0.101793 0.0686351 0.0794842
0.122011 0.0730144 0.0783093
0.142947 0.0770581 0.076936
0.166094 0.0807965 0.075288
0.191592 0.0840467 0.0733043
0.219242 0.0873121 0.0706951
0.251484 0.0908827 0.0673991
0.285832 0.0944381 0.0633249
0.32398 0.0978408 0.0584421
0.365423 0.101457 0.0530556
0.410636 0.104784 0.0476539
0.458518 0.107729 0.0426032
0.50808 0.110674 0.0383917
0.560616 0.113146 0.0343023
0.612909 0.116243 0.0299687
0.666056 0.119814 0.0256352
0.719432 0.124147 0.0215915
0.77142 0.129778 0.0179599
0.821149 0.13724 0.015259
0.867567 0.146181 0.0131533
0.899168 0.157473 0.0122377
0.901717 0.159289 0.012314
0.904524 0.161089 0.0123293
0.907057 0.162966 0.0123598
0.909087 0.16495 0.0124056
0.910567 0.166842 0.0124971
0.912047 0.168627 0.0125734
0.91342 0.170336 0.0126345
0.914717 0.171908 0.0126802
0.0543374 0.0736095 0.0979477
0.0647288 0.0752728 0.0970779
0.0853132 0.0802319 0.0958267
0.10753 0.0854353 0.0938125
0.131029 0.0903182 0.0916762
0.152621 0.0941482 0.0896468
0.168963 0.0964828 0.0877241
0.183047 0.0981003 0.0858778
0.199268 0.099855 0.083772
0.218204 0.101762 0.0811475
0.241108 0.104143 0.0781262
0.269352 0.107012 0.0743572
0.300557 0.110246 0.0699931
0.334966 0.113497 0.0649271
0.372 0.116854 0.0596475
0.412146 0.120195 0.0543984
0.454551 0.123293 0.0493324
0.498634 0.126284 0.044892
0.544274 0.128923 0.0409705
0.59086 0.131441 0.0372168
0.63801 0.134615 0.0331579
0.685267 0.138674 0.0290684
0.732754 0.143496 0.0253147
0.778485 0.149477 0.0218509
0.821454 0.157488 0.0194095
0.861585 0.166857 0.0173953
0.896544 0.177127 0.0156558
0.921874 0.190494 0.0144961
0.937575 0.202014 0.0135805
0.938842 0.20383 0.0135805
0.939879 0.205432 0.0136263
0.940932 0.20705 0.0136568
0.941863 0.208499 0.0136873
0.0568093 0.0994736 0.117067
0.0704051 0.100526 0.114519
0.09514 0.105074 0.110475
0.123735 0.109148 0.106249
0.154696 0.113115 0.101747
0.185458 0.117357 0.0981003
0.217762 0.121599 0.0941939
0.254871 0.125795 0.0894026
0.293263 0.129778 0.0840772
0.328984 0.132753 0.0779431
0.357626 0.134295 0.072343
0.380575 0.135027 0.067689
0.403006 0.135927 0.0636606
0.425467 0.13666 0.06009
0.451728 0.137911 0.0565652
0.482002 0.139635 0.0531624
0.5149 0.141558 0.0500801
0.55024 0.143679 0.046891
0.587777 0.145968 0.0435492
0.626581 0.148775 0.0399786
0.66688 0.152468 0.0362554
0.707469 0.156619 0.0326238
0.748302 0.161486 0.029221
0.788235 0.167315 0.0262455
0.826291 0.174624 0.0238804
0.862806 0.183536 0.0217594
0.896529 0.194293 0.0196536
0.923796 0.207736 0.0177005
0.942748 0.223774 0.0159762
0.956649 0.237675 0.0142672
0.957321 0.239231 0.0142977
0.957946 0.240635 0.014313
0.958526 0.241947 0.0143435
0.0508278 0.127291 0.13547
0.0660563 0.127443 0.131334
0.0975204 0.130556 0.12488
0.136187 0.13344 0.117006
0.172305 0.13695 0.110933
0.208972 0.140795 0.105776
0.248203 0.144747 0.100206
0.289555 0.148974 0.0941939
0.334264 0.153307 0.0872053
0.382803 0.157534 0.079408
0.433433 0.161471 0.0720226
0.486458 0.165194 0.0654917
0.536828 0.168627 0.0601511
0.580957 0.171313 0.0552834
0.618387 0.173526 0.0511482
0.649439 0.175174 0.0477455
0.67631 0.176471 0.0448157
0.70135 0.177966 0.0421149
0.724758 0.17966 0.0396735
0.747845 0.181582 0.0372473
0.772503 0.184436 0.0348974
0.798428 0.188251 0.0325628
0.825147 0.193194 0.0303655
0.851423 0.199451 0.0285191
0.878447 0.207156 0.0263828
0.904143 0.216556 0.024155
0.925978 0.227924 0.0219883
0.942931 0.241627 0.0200046
0.957 0.256672 0.0179904
0.967819 0.272297 0.016022
0.969207 0.274861 0.0158694
0.969558 0.275975 0.0159304
0.969802 0.276997 0.0160067
0.0416876 0.156588 0.156024
0.0561837 0.156405 0.150271
0.0834669 0.160098 0.140185
0.12343 0.162676 0.130632
0.176501 0.164065 0.121019
0.226673 0.166354 0.112627
0.272496 0.169558 0.105486
0.319142 0.17319 0.0981003
0.367697 0.177325 0.0903334
0.4177 0.18146 0.0824903
0.471351 0.185718 0.0750591
0.526177 0.189975 0.0688182
0.581033 0.194522 0.0635538
0.635325 0.199435 0.0588846
0.686992 0.205371 0.0553597
0.736339 0.212528 0.0518502
0.782223 0.22002 0.0481422
0.821118 0.22771 0.0446479
0.852476 0.235554 0.0411841
0.878447 0.242939 0.0377966
0.900328 0.249744 0.0347448
0.918944 0.256199 0.0320745
0.931029 0.263249 0.0299535
0.94136 0.270512 0.0280308
0.950439 0.278737 0.0262913
0.959609 0.286885 0.0244144
0.968017 0.296315 0.0226444
0.973983 0.307378 0.0212406
0.976806 0.312139 0.0205386
0.977676 0.313161 0.0202792
0.97821 0.314153 0.0201419
0.978241 0.314275 0.0201572
0.978302 0.314611 0.0202029
0.0333562 0.187686 0.174899
0.0436103 0.188128 0.16733
0.0665599 0.191516 0.15758
0.11162 0.192905 0.145342
0.16788 0.193927 0.13283
0.224857 0.195621 0.122133
0.28397 0.197513 0.11133
0.337438 0.200595 0.101534
0.387686 0.204364 0.0926528
0.440665 0.208057 0.0846265
0.496574 0.212146 0.078172
0.551644 0.216312 0.0728771
0.607813 0.221378 0.0684825
0.660716 0.227451 0.0647593
0.711055 0.235172 0.0606851
0.760601 0.244572 0.0566567
0.8094 0.254887 0.053315
0.852781 0.267567 0.0504921
0.891752 0.282353 0.0478828
0.925978 0.298283 0.045304
0.948287 0.314946 0.04271
0.962768 0.331945 0.0405585
0.974838 0.348165 0.0387274
0.982452 0.363745 0.0372168
0.985367 0.373877 0.035996
0.985763 0.372015 0.035111
0.986023 0.369757 0.0341497
0.986419 0.367712 0.0331731
0.98677 0.366079 0.0322576
0.986938 0.36495 0.0314794
0.986664 0.362676 0.0308537
0.986404 0.361044 0.0304265
0.986191 0.359686 0.0300755
0.0236973 0.222904 0.194995
0.0325475 0.222385 0.188083
0.0540475 0.224659 0.176623
0.0898909 0.226642 0.16173
0.143709 0.227604 0.147631
0.216358 0.227527 0.133776
0.286732 0.228504 0.120241
0.345464 0.230945 0.108095
0.401785 0.234028 0.0966812
0.456107 0.237964 0.0884871
0.509224 0.242069 0.0813764
0.561852 0.246525 0.0755169
0.617594 0.252506 0.0712902
0.670954 0.2589 0.0678874
0.723125 0.267247 0.0648356
0.77351 0.277302 0.0622263
0.821302 0.288746 0.0599069
0.86389 0.303029 0.0578927
0.903746 0.318868 0.0561379
0.936263 0.336599 0.0544137
0.957977 0.357061 0.0529946
0.974975 0.379507 0.0525063
0.986496 0.404532 0.0528725
0.991699 0.429099 0.0534218
0.991989 0.429786 0.053254
0.992096 0.429618 0.0528572
0.992004 0.428229 0.0522774
0.991867 0.426261 0.051545
0.991714 0.424079 0.0507057
0.991531 0.421546 0.0497902
0.991333 0.418708 0.0487678
0.991165 0.4159 0.0478065
0.990997 0.413367 0.0469368
0.0148623 0.260655 0.219898
0.0232547 0.259144 0.209567
0.0390173 0.262119 0.195239
0.0667124 0.264103 0.181521
0.121828 0.263416 0.167254
0.195087 0.263249 0.152117
0.268833 0.264195 0.135698
0.341878 0.2654 0.118288
0.408301 0.267353 0.103258
0.461265 0.271061 0.0939803
0.514183 0.274891 0.085771
0.568383 0.279713 0.079881
0.622431 0.28571 0.0758221
0.674998 0.292546 0.0721599
0.727016 0.301503 0.0693065
0.777157 0.311864 0.0672313
0.823774 0.323766 0.0652781
0.86659 0.338369 0.063859
0.907912 0.353399 0.0629892
0.93933 0.371923 0.0631723
0.960815 0.39379 0.0645304
0.979751 0.416953 0.0660258
0.989776 0.443259 0.0669261
0.994034 0.468849 0.0679332
0.994308 0.471153 0.0682078
0.994339 0.472023 0.0684977
0.994354 0.472541 0.0686961
0.994354 0.472435 0.0686656
0.994339 0.471992 0.0684977
0.994293 0.471061 0.0681621
0.994247 0.469718 0.0676738
0.994171 0.468009 0.0670634
0.99411 0.466316 0.0664225
0.00976577 0.302373 0.240894
0.0143435 0.300237 0.229877
0.0253758 0.302937 0.218402
0.0553597 0.302754 0.204639
0.0993362 0.302296 0.188357
0.161929 0.302266 0.171328
0.24535 0.302327 0.153796
0.328557 0.303059 0.136187
0.397894 0.305196 0.119722
0.459449 0.307912 0.105669
0.518547 0.311192 0.0940719
0.571771 0.315831 0.0863203
0.621637 0.321431 0.0803235
0.672343 0.328511 0.0757763
0.724941 0.337331 0.0728313
0.776226 0.347219 0.0710155
0.82443 0.359213 0.0699931
0.868467 0.3738 0.0698558
0.908919 0.38909 0.0695964
0.938155 0.407538 0.0701915
0.960204 0.42858 0.0716716
0.97966 0.450324 0.0734569
0.98941 0.475532 0.0759289
0.994629 0.499947 0.0796674
0.995178 0.503075 0.0805524
0.995224 0.50396 0.0810712
0.995254 0.504707 0.0814679
0.995285 0.50547 0.0817884
0.995315 0.506157 0.082002
0.995346 0.506737 0.0821546
0.995361 0.506981 0.0823072
0.995346 0.506798 0.0822461
0.995346 0.5066 0.0821698
0.00782788 0.348135 0.266163
0.0103761 0.345113 0.257771
0.0231632 0.345403 0.243091
0.0446937 0.3449 0.226017
0.0762036 0.344701 0.209827
0.132876 0.343725 0.194736
0.213123 0.343908 0.180301
0.301244 0.344854 0.161425
0.382757 0.345892 0.139223
0.459693 0.347311 0.118364
0.520241 0.350118 0.104341
0.571267 0.354604 0.0945449
0.620859 0.359655 0.0867628
0.672969 0.367147 0.082002
0.72372 0.37554 0.0782483
0.772473 0.385122 0.0751965
0.819486 0.397528 0.0734722
0.864103 0.410712 0.0722362
0.902647 0.425361 0.0720684
0.932601 0.442466 0.0733806
0.958572 0.460899 0.0757458
0.978332 0.48159 0.079408
0.988281 0.506172 0.0857404
0.995209 0.529732 0.0940261
0.996155 0.533516 0.0955978
0.99617 0.53434 0.0960403
0.99617 0.535134 0.0965133
0.996185 0.535943 0.0970016
0.996201 0.536767 0.0974899
0.996201 0.537652 0.0979629
0.996216 0.538415 0.0983291
0.996231 0.53904 0.098497
0.996231 0.539422 0.0985122
0.00555428 0.395422 0.298726
0.00900282 0.39028 0.285725
0.0162814 0.390249 0.267323
0.0297398 0.390967 0.251682
0.0622416 0.3897 0.23856
0.110491 0.387869 0.221988
0.176928 0.387472 0.203967
0.268345 0.388403 0.183688
0.362448 0.389807 0.163058
0.443961 0.391684 0.142428
0.509743 0.394141 0.123812
0.569879 0.397528 0.107469
0.624765 0.402045 0.0964523
0.673915 0.408423 0.0896773
0.720348 0.415579 0.0833448
0.766445 0.424399 0.0785534
0.813428 0.436042 0.0760662
0.858473 0.447349 0.0739452
0.896529 0.460838 0.0742809
0.928679 0.47628 0.0767224
0.957275 0.492821 0.0798047
0.976211 0.512779 0.0848554
0.986053 0.536004 0.0926833
0.994034 0.557702 0.100786
0.995193 0.561669 0.102174
0.995148 0.56231 0.102281
0.995087 0.563043 0.102403
0.995041 0.563714 0.102525
0.994995 0.564431 0.102678
0.994949 0.565072 0.102815
0.994904 0.565682 0.102922
0.994873 0.56614 0.103044
0.994858 0.566415 0.103166
0.0053254 0.445533 0.328283
0.00776684 0.440116 0.31487
0.0121157 0.440528 0.302098
0.0276646 0.439689 0.287037
0.0559396 0.436805 0.267628
0.0847791 0.434501 0.243931
0.141039 0.433402 0.225574
0.23061 0.434607 0.211597
0.334112 0.437079 0.198657
0.420325 0.438926 0.172335
0.500328 0.440208 0.144686
0.57377 0.441962 0.120592
0.627848 0.44509 0.106538
0.672999 0.449989 0.0971237
0.717876 0.456291 0.0892653
0.764492 0.465339 0.084184
0.810788 0.475151 0.0807507
0.852979 0.485573 0.0778363
0.889647 0.49807 0.0772564
0.92314 0.511635 0.0778668
0.951537 0.526558 0.0796368
0.970153 0.544228 0.0846418
0.983444 0.563256 0.092195
0.992432 0.582315 0.100969
0.993667 0.586511 0.102831
0.993637 0.587045 0.102953
0.993606 0.587579 0.10309
0.993576 0.588159 0.103212
0.993561 0.588663 0.103349
0.993545 0.589014 0.103487
0.99353 0.589288 0.103624
0.99353 0.589426 0.103746
0.99353 0.589487 0.103853
0.00411994 0.496513 0.362356
0.00573739 0.491249 0.35285
0.0109407 0.489815 0.33814
0.0222477 0.487251 0.315404
0.0369879 0.485161 0.292515
0.066453 0.483391 0.275044
0.120012 0.481422 0.259678
0.196551 0.481804 0.244587
0.295644 0.483833 0.226001
0.393652 0.486198 0.199145
0.482567 0.488716 0.175387
0.559335 0.491173 0.153933
0.617212 0.494163 0.133227
0.673442 0.497169 0.114214
0.723598 0.502037 0.101137
0.76701 0.508644 0.0932937
0.808057 0.515541 0.0857099
0.846647 0.523964 0.080354
0.883406 0.534508 0.0779583
0.918517 0.545388 0.0767529
0.946624 0.558282 0.0786603
0.966033 0.573266 0.0844129
0.982376 0.589227 0.0920424
0.99086 0.60763 0.102113
0.991791 0.611994 0.104417
0.991714 0.612558 0.104494
0.991653 0.61297 0.104555
0.991608 0.613352 0.104646
0.991577 0.613565 0.104738
0.991562 0.613626 0.104829
0.991562 0.613703 0.104936
0.991577 0.613596 0.105058
0.991592 0.613428 0.105119
0.00332647 0.548196 0.402152
0.00531014 0.541955 0.390143
0.0100557 0.539178 0.370336
0.016434 0.537346 0.350515
0.0312963 0.535622 0.331899
0.0614023 0.533104 0.315129
0.10042 0.530007 0.293492
0.155245 0.529107 0.272374
0.247807 0.531182 0.253895
0.359564 0.534905 0.237293
0.458228 0.537972 0.217807
0.540352 0.539803 0.189761
0.611551 0.5411 0.159396
0.675105 0.543206 0.134005
0.724544 0.54641 0.116503
0.765759 0.550439 0.103853
0.805417 0.554925 0.0924086
0.843412 0.562036 0.0858625
0.880583 0.570657 0.0821088
0.914458 0.579782 0.0800031
0.941253 0.591424 0.081529
0.961868 0.604852 0.0859541
0.97818 0.619364 0.092195
0.986893 0.635111 0.10132
0.988205 0.638865 0.103517
0.988159 0.639078 0.103578
0.988159 0.6392 0.103639
0.988144 0.639261 0.103716
0.988159 0.639155 0.103807
0.98819 0.638956 0.103914
0.98822 0.638682 0.10399
0.988281 0.638239 0.104112
0.988342 0.637797 0.104219
0.00265507 0.596582 0.437079
0.00434882 0.589899 0.422141
0.00640879 0.587701 0.407767
0.0123903 0.586557 0.392599
0.0284733 0.583871 0.373037
0.0498665 0.580682 0.350195
0.0760967 0.577996 0.326024
0.124254 0.576669 0.305562
0.207706 0.57847 0.291615
0.324331 0.581964 0.279347
0.430472 0.58468 0.257908
0.520195 0.586313 0.226078
0.6009 0.587716 0.195819
0.666575 0.58938 0.168597
0.717189 0.591348 0.143999
0.765301 0.593271 0.123171
0.809125 0.596185 0.106844
0.84538 0.601511 0.098085
0.879225 0.606943 0.0907607
0.909575 0.614389 0.0863813
0.935378 0.624552 0.0859998
0.958099 0.635645 0.0872663
0.974289 0.647898 0.0922103
0.983642 0.660258 0.100877
0.985779 0.663264 0.103227
0.985779 0.663249 0.103288
0.985794 0.66305 0.103349
0.985809 0.662776 0.10341
0.98584 0.662425 0.103456
0.985885 0.661921 0.103517
0.985916 0.661357 0.103593
0.985977 0.660685 0.103655
0.986038 0.66009 0.103716
0.00187686 0.643381 0.472648
0.0024567 0.637217 0.462455
0.00442512 0.635111 0.451286
0.0116884 0.632639 0.432273
0.0221714 0.629526 0.40798
0.0345769 0.627008 0.383703
0.0636912 0.625147 0.366491
0.11191 0.623392 0.348837
0.181476 0.623072 0.33077
0.281514 0.624811 0.312444
0.391684 0.628122 0.291569
0.491859 0.631983 0.27274
0.578363 0.634607 0.252781
0.648814 0.635019 0.219547
0.710552 0.634623 0.180896
0.768307 0.634638 0.1467
0.812726 0.636133 0.125704
0.845335 0.638834 0.112673
0.876432 0.641871 0.101122
0.904875 0.647639 0.0940719
0.931197 0.655894 0.0912947
0.954955 0.664378 0.0904402
0.971084 0.674723 0.0952621
0.981277 0.685206 0.103487
0.984604 0.688258 0.106004
0.984619 0.687861 0.105974
0.984634 0.687312 0.105974
0.984665 0.686687 0.105928
0.984695 0.685954 0.105898
0.984726 0.685145 0.105852
0.984756 0.684306 0.105806
0.984802 0.68336 0.105745
0.984833 0.682475 0.105699
0.00106813 0.687266 0.512749
0.0016022 0.681453 0.502449
0.00331121 0.678431 0.487373
0.00688182 0.675898 0.467903
0.0122377 0.674037 0.448692
0.0270237 0.671702 0.429297
0.0573129 0.668833 0.411505
0.0937667 0.666102 0.388647
0.142504 0.664454 0.363958
0.232578 0.666148 0.346365
0.353933 0.670497 0.336019
0.465751 0.675212 0.32781
0.557794 0.67715 0.305791
0.634607 0.67628 0.264164
0.704707 0.67538 0.222782
0.763012 0.675303 0.189288
0.803677 0.675868 0.164843
0.841993 0.676493 0.141665
0.877241 0.678477 0.123064
0.906401 0.682857 0.11313
0.931701 0.688243 0.106493
0.952163 0.694453 0.102525
0.966796 0.703136 0.103838
0.978622 0.71194 0.106722
0.983734 0.715251 0.107881
0.98378 0.714473 0.107836
0.983825 0.713603 0.107805
0.983856 0.712596 0.107729
0.983886 0.711421 0.107713
0.983917 0.710323 0.107683
0.983978 0.709026 0.107652
0.984009 0.707668 0.107591
0.984039 0.706508 0.107576
0.000610361 0.726619 0.548424
0.000900282 0.720821 0.535836
0.00122072 0.718029 0.521508
0.00250248 0.716457 0.50811
0.00857557 0.714641 0.491783
0.0247349 0.711376 0.470268
0.0454414 0.707881 0.447044
0.0689403 0.704952 0.42266
0.115633 0.704189 0.40238
0.198474 0.705104 0.387198
0.320424 0.707774 0.376715
0.434562 0.711208 0.36466
0.526726 0.713863 0.342046
0.609232 0.715969 0.3178
0.682597 0.717266 0.291524
0.74258 0.716579 0.256245
0.792981 0.714809 0.215152
0.841108 0.713268 0.177127
0.878096 0.713527 0.151568
0.905364 0.715679 0.135805
0.929747 0.71812 0.122393
0.94876 0.722301 0.114168
0.962997 0.729564 0.112474
0.975891 0.73637 0.111482
0.982361 0.739895 0.111666
0.982376 0.738735 0.110842
0.982406 0.737667 0.11014
0.982437 0.736431 0.109453
0.982513 0.735119 0.109377
0.982605 0.733715 0.109285
0.982696 0.732219 0.109209
0.982788 0.730632 0.109117
0.982864 0.729259 0.109026
0.000610361 0.762417 0.57847
0.000793469 0.757046 0.568704
0.00114443 0.755093 0.560265
0.00300603 0.753445 0.547921
0.00907912 0.750759 0.527947
0.0177157 0.747539 0.503456
0.0278019 0.744793 0.480171
0.0511177 0.742535 0.46128
0.101091 0.741604 0.446006
0.167865 0.740551 0.425849
0.269703 0.740887 0.408347
0.390204 0.744259 0.395651
0.492805 0.748653 0.383444
0.582864 0.752316 0.372061
0.659846 0.754025 0.351949
0.722789 0.752651 0.313985
0.782101 0.750149 0.268864
0.833738 0.747921 0.227115
0.870771 0.746944 0.196002
0.900511 0.746807 0.171328
0.926787 0.747539 0.150881
0.94612 0.750225 0.138399
0.961059 0.755199 0.133303
0.974746 0.760021 0.129564
0.981949 0.763958 0.130465
0.981964 0.762539 0.129091
0.981979 0.761105 0.127749
0.98201 0.759579 0.126482
0.98204 0.757946 0.125277
0.982071 0.756252 0.124025
0.982101 0.754528 0.122774
0.982132 0.752697 0.121416
0.982147 0.751064 0.120211
0.000320439 0.794385 0.611627
0.000518807 0.789471 0.604303
0.0009308 0.786954 0.595041
0.00230411 0.784695 0.579644
0.00422675 0.782315 0.560235
0.00630198 0.780163 0.540139
0.0163577 0.777874 0.520165
0.0456397 0.775509 0.504219
0.0853437 0.772992 0.484062
0.131243 0.770581 0.457908
0.209094 0.770031 0.437003
0.338354 0.773648 0.427893
0.457237 0.778286 0.423514
0.555749 0.781842 0.416327
0.633875 0.783642 0.397375
0.699916 0.783658 0.366415
0.762875 0.783185 0.333516
0.81651 0.781613 0.297322
0.856855 0.779293 0.260136
0.893233 0.777173 0.223529
0.923781 0.776028 0.192172
0.943694 0.777356 0.173953
0.959411 0.779614 0.162097
0.973373 0.782559 0.153979
0.981399 0.786404 0.153399
0.981735 0.785 0.1514
0.98175 0.783291 0.149447
0.981765 0.781552 0.147768
0.981796 0.77966 0.145922
0.981811 0.777783 0.14406
0.981826 0.775891 0.142229
0.981842 0.773877 0.140261
0.981857 0.772107 0.138537
0.000228885 0.822034 0.64416
0.000366217 0.817197 0.635279
0.00062562 0.814389 0.624445
0.000961318 0.812345 0.611414
0.00141909 0.810864 0.598718
0.00442512 0.809262 0.583566
0.0183719 0.806485 0.563409
0.0391699 0.803128 0.540093
0.0609903 0.799527 0.513695
0.0939193 0.797208 0.4878
0.162799 0.797024 0.470863
0.288334 0.799298 0.462867
0.420233 0.803021 0.458839
0.523445 0.806561 0.451835
0.602991 0.809415 0.436347
0.673472 0.811994 0.417884
0.740383 0.813718 0.397803
0.794995 0.812345 0.36463
0.840818 0.809186 0.324132
0.883574 0.805966 0.28188
0.918013 0.803494 0.244617
0.940185 0.802716 0.219593
0.956634 0.803006 0.201495
0.970397 0.804303 0.187839
0.979309 0.807019 0.182589
0.981582 0.806607 0.179858
0.981598 0.804685 0.17731
0.981598 0.80267 0.17464
0.981613 0.800626 0.171969
0.981628 0.798459 0.169055
0.981643 0.796246 0.166125
0.981659 0.793957 0.163104
0.981674 0.792081 0.160601
0.000213626 0.845792 0.671229
0.000320439 0.841703 0.662882
0.000503548 0.8392 0.654749
0.000732433 0.837644 0.646723
0.00146487 0.836301 0.636393
0.00544747 0.834226 0.618631
0.0129702 0.831128 0.593393
0.0200961 0.827726 0.564935
0.0305791 0.824414 0.537072
0.0668193 0.822507 0.521218
0.13402 0.822141 0.5093
0.241291 0.822644 0.497414
0.368444 0.824796 0.487907
0.473793 0.828595 0.47982
0.562264 0.832715 0.471687
0.643015 0.8365 0.464042
0.716091 0.839109 0.451957
0.772244 0.838087 0.42092
0.822644 0.835508 0.382254
0.870146 0.832593 0.341787
0.907668 0.829725 0.30425
0.932601 0.827436 0.27396
0.952071 0.825818 0.249058
0.967575 0.825528 0.230137
0.977279 0.8271 0.221286
0.981903 0.827359 0.216098
0.981872 0.825223 0.212284
0.981826 0.82298 0.20827
0.981781 0.820661 0.204105
0.981735 0.81825 0.199817
0.981689 0.815824 0.195499
0.981628 0.813321 0.191043
0.981613 0.811185 0.187289
0.000320439 0.860792 0.688823
0.000564584 0.860807 0.686961
0.000762951 0.85893 0.682094
0.00108339 0.857877 0.676356
0.00190738 0.856367 0.664591
0.00396735 0.854093 0.644831
0.00653086 0.851652 0.622782
0.0101625 0.84921 0.600732
0.0245823 0.846708 0.581338
0.0612497 0.844373 0.565835
0.109041 0.842786 0.546487
0.174411 0.841642 0.524407
0.274098 0.842557 0.508339
0.398093 0.846647 0.502159
0.511925 0.85156 0.501244
0.609689 0.855772 0.501396
0.687953 0.858427 0.492485
0.747753 0.858854 0.467964
0.801465 0.858305 0.437583
0.851575 0.85713 0.405539
0.891295 0.854841 0.372854
0.918715 0.851682 0.339788
0.944854 0.848478 0.30547
0.965087 0.84622 0.277272
0.975387 0.846418 0.263416
0.982574 0.846494 0.253147
0.982727 0.844282 0.248402
0.982574 0.841932 0.243793
0.982422 0.83949 0.238987
0.982284 0.836957 0.234028
0.982132 0.834394 0.229023
0.981994 0.8318 0.224033
0.981949 0.829633 0.220127
0.000335698 0.861021 0.689128
0.000595102 0.863569 0.690578
0.000915541 0.865431 0.691417
0.00138857 0.86685 0.689448
0.00222782 0.867277 0.679362
0.00335698 0.867231 0.664607
0.00448615 0.867292 0.650996
0.0083772 0.86685 0.636942
0.0230716 0.8645 0.617304
0.0475624 0.862058 0.596521
0.0754711 0.859785 0.573114
0.111849 0.858152 0.547494
0.18909 0.858778 0.531136
0.321126 0.862135 0.526055
0.46096 0.866911 0.527764
0.57258 0.871031 0.530632
0.65594 0.874113 0.524895
0.718791 0.876371 0.508339
0.777142 0.878355 0.489342
0.828519 0.879057 0.466011
0.870863 0.877165 0.43415
0.905638 0.873304 0.395453
0.93695 0.869169 0.355642
0.959319 0.865965 0.324117
0.972152 0.864439 0.304631
0.981247 0.863493 0.28986
0.983825 0.86154 0.282139
0.983658 0.85922 0.277592
0.98349 0.856809 0.272953
0.983337 0.854337 0.268116
0.983169 0.851621 0.262791
0.983001 0.848859 0.257374
0.982864 0.846647 0.253056
0.000335698 0.861036 0.689128
0.000595102 0.863554 0.690578
0.000900282 0.86537 0.691417
0.00135805 0.866819 0.68957
0.00216678 0.867277 0.679988
0.00329595 0.867231 0.66537
0.00436408 0.867292 0.651911
0.00788891 0.867384 0.639048
0.0213931 0.866896 0.623316
0.0426184 0.866102 0.605051
0.0628672 0.865202 0.583337
0.0851301 0.864942 0.559045
0.144259 0.86685 0.544701
0.268162 0.871153 0.542794
0.41973 0.87689 0.547082
0.537835 0.882139 0.551751
0.620493 0.886717 0.548974
0.684474 0.889937 0.538415
0.748867 0.89247 0.527581
0.806622 0.893538 0.510658
0.851438 0.892439 0.482734
0.888838 0.889998 0.447776
0.923323 0.887083 0.410391
0.949828 0.884062 0.376135
0.966171 0.881376 0.349248
0.977905 0.87921 0.328099
0.984527 0.877073 0.313649
0.984527 0.874662 0.308598
0.98439 0.872084 0.303395
0.984283 0.869535 0.298207
0.984146 0.866911 0.292851
0.983993 0.864225 0.287419
0.983856 0.861997 0.283024
0.000335698 0.861067 0.689158
0.000595102 0.863539 0.690578
0.000885023 0.865324 0.691402
0.00135805 0.866773 0.689708
0.00210575 0.867277 0.680735
0.00323491 0.867231 0.66627
0.00424201 0.867292 0.652873
0.00733959 0.867399 0.640269
0.0194858 0.866987 0.625132
0.040177 0.866194 0.607263
0.060502 0.865278 0.586664
0.0812695 0.864927 0.5626
0.131151 0.866331 0.545907
0.243824 0.870344 0.542794
0.390433 0.875746 0.546166
0.516182 0.881056 0.551446
0.60473 0.885954 0.551308
0.666041 0.890883 0.543755
0.728191 0.895354 0.538323
0.788785 0.898756 0.530556
0.835554 0.899672 0.510933
0.872572 0.899168 0.482658
0.907759 0.898924 0.454765
0.938018 0.898344 0.427543
0.955703 0.895567 0.39942
0.971466 0.892958 0.372396
0.98204 0.890944 0.351644
0.983764 0.888716 0.343511
0.983963 0.886397 0.337438
0.984192 0.883787 0.330602
0.984421 0.880995 0.323323
0.984604 0.878187 0.316243
0.984604 0.875914 0.311086
0.000335698 0.861112 0.689189
0.000595102 0.863508 0.690562
0.000869764 0.865278 0.691386
0.00132753 0.866728 0.689891
0.00204471 0.867277 0.681529
0.00315862 0.867231 0.667292
0.0041352 0.867277 0.653971
0.00672923 0.867399 0.641566
0.0174105 0.867063 0.6271
0.0373541 0.866285 0.609705
0.0578317 0.865385 0.590021
0.0769513 0.864912 0.566476
0.116854 0.865751 0.547204
0.21706 0.869444 0.542809
0.359014 0.87454 0.545174
0.489189 0.879896 0.55021
