LUT预设1/柯达5219&2393/柯达5219系列-709/柯达2393-709.cube
TITLE "Generated by Resolve"
LUT_3D_SIZE 9
0.0299535 0.0773022 0.0716259
0.118776 0.0849928 0.059144
0.256382 0.0894179 0.0326848
0.434852 0.0834058 0.00917067
0.599817 0.0673991 0.00483711
0.723278 0.0512398 0.000762951
0.824567 0.0236362 0
0.901884 0.0124666 0.00518807
0.944595 0.0251011 0.0119478
0.0207828 0.130861 0.0838331
0.145525 0.145785 0.0645762
0.327489 0.162631 0.0324102
0.526085 0.168856 0.00791943
0.686336 0.174029 0.00381476
0.796658 0.180804 0.00593576
0.88043 0.188159 0.00816358
0.940887 0.197971 0.0113069
0.978042 0.211551 0.0151217
0.00205997 0.234455 0.0927291
0.143038 0.257542 0.048661
0.379721 0.287648 0.016556
0.588663 0.30985 0.0059968
0.743404 0.328939 0.000915541
0.851667 0.350591 1.5259e-05
0.93254 0.368215 0
0.984939 0.382971 0.00315862
1 0.398245 0.00715648
0.00015259 0.396704 0.107851
0.129381 0.419974 0.0260624
0.431006 0.457969 0.00325017
0.650355 0.489067 1.5259e-05
0.796826 0.513207 0.0015259
0.895552 0.533364 0.0011902
0.967437 0.545083 0
0.999985 0.551934 0
1 0.557565 0
0.00155642 0.54992 0.122545
0.176928 0.576303 0.0206912
0.498985 0.613382 0.00740063
0.703853 0.636957 0.00112917
0.834012 0.652811 0
0.926329 0.6636 0
0.992035 0.669444 0
1 0.671824 0.000549325
1 0.674189 4.57771e-05
0.00952163 0.646525 0.144869
0.234501 0.673961 0.0330816
0.54078 0.706355 0.00675975
0.734325 0.72726 0
0.856428 0.743252 0.00256352
0.949432 0.754757 0.00117494
1 0.762371 0
1 0.766232 0
1 0.771939 0
0.00296025 0.699229 0.164462
0.247776 0.730571 0.0438697
0.558618 0.76762 0.0145724
0.745129 0.790784 0.0112306
0.86659 0.807553 0.00579843
0.961028 0.819547 0.000167849
1 0.827924 0
1 0.833829 0.00274662
1 0.839124 0.0125277
0.0137026 0.738231 0.203006
0.274006 0.773434 0.0894942
0.57879 0.808484 0.0407263
0.758602 0.831373 0.0299229
0.874708 0.847959 0.0340887
0.965637 0.859892 0.0360876
1 0.867903 0.0370794
1 0.874189 0.0486763
1 0.876783 0.0824445
0.0135805 0.772122 0.269169
0.31603 0.805829 0.173358
0.593225 0.837491 0.128893
0.75874 0.859068 0.117556
0.873945 0.875288 0.128634
0.962356 0.886976 0.141711
0.999146 0.894652 0.157641
1 0.900328 0.183764
1 0.902495 0.224948
0.0168154 0.0834211 0.126848
0.112718 0.0884718 0.124453
0.261311 0.0933547 0.116197
0.44358 0.0866865 0.102724
0.609369 0.0657816 0.0983902
0.733074 0.0462043 0.106294
0.830121 0.0250248 0.121111
0.905623 0.01561 0.149279
0.950332 0.0257267 0.173114
0.00993362 0.144991 0.165423
0.133288 0.15639 0.157107
0.331563 0.172259 0.143587
0.532189 0.176791 0.128023
0.687694 0.180346 0.120729
0.798474 0.186404 0.128893
0.882307 0.193774 0.144457
0.940902 0.202945 0.162554
0.974548 0.218601 0.181537
0.00122072 0.262608 0.203708
0.111894 0.27686 0.173953
0.369055 0.301885 0.145647
0.583291 0.322301 0.122133
0.739727 0.341436 0.118563
0.848615 0.362387 0.12752
0.928267 0.379492 0.134279
0.981125 0.392279 0.141817
0.999786 0.406149 0.154864
0 0.436576 0.256596
0.0948806 0.44744 0.18294
0.407721 0.477958 0.136629
0.635676 0.505516 0.108904
0.78436 0.529198 0.102113
0.886046 0.54815 0.10454
0.960433 0.557763 0.109255
0.998703 0.561425 0.115663
1 0.566766 0.120806
0.00062562 0.594079 0.315221
0.12282 0.605737 0.213245
0.46273 0.633188 0.157046
0.677134 0.653315 0.126757
0.813031 0.667872 0.120638
0.90956 0.678172 0.115648
0.981552 0.682216 0.105867
0.999908 0.683467 0.106706
1 0.688212 0.115145
0 0.686503 0.358267
0.156481 0.701503 0.247303
0.497841 0.727367 0.189425
0.700145 0.74757 0.15436
0.826993 0.761807 0.139956
0.924071 0.771679 0.130556
0.990585 0.778973 0.140154
1 0.783398 0.156298
1 0.790387 0.170901
0.000549325 0.740383 0.393713
0.138018 0.762127 0.27509
0.509148 0.789792 0.216678
0.707851 0.812009 0.195468
0.834669 0.829068 0.194232
0.931426 0.840604 0.200473
0.992874 0.848447 0.211826
1 0.854337 0.225818
1 0.861509 0.244831
0 0.778744 0.433524
0.187793 0.803647 0.329442
0.530617 0.832578 0.287205
0.719463 0.856031 0.280171
0.840726 0.872572 0.286809
0.93463 0.883925 0.290669
0.991928 0.891112 0.298253
1 0.897139 0.31313
1 0.902403 0.337301
0.00328069 0.810941 0.487831
0.22472 0.83621 0.404562
0.549249 0.863951 0.374228
0.721386 0.884947 0.371466
0.840482 0.90013 0.379965
0.932189 0.911254 0.389731
0.989456 0.918441 0.403052
0.999939 0.9234 0.420081
1 0.927565 0.440543
0.00383001 0.0974441 0.232166
0.0961318 0.0925765 0.235218
0.262394 0.0957198 0.239094
0.449424 0.0889296 0.243809
0.616129 0.0683452 0.254826
0.738033 0.0512245 0.280507
0.832471 0.0349584 0.310307
0.905196 0.0226596 0.338918
0.95079 0.0318761 0.364324
0.00137331 0.17351 0.298497
0.111101 0.16846 0.294255
0.324681 0.179477 0.294728
0.52845 0.186648 0.296742
0.687984 0.190738 0.305745
0.798413 0.197681 0.326848
0.879255 0.206134 0.347051
0.93579 0.21706 0.365362
0.970413 0.234974 0.384222
9.15541e-05 0.309789 0.364981
0.086244 0.301946 0.337377
0.352026 0.322972 0.325002
0.57261 0.341176 0.321202
0.730831 0.360265 0.329213
0.836881 0.380957 0.342214
0.917357 0.398581 0.355688
0.969726 0.411856 0.368154
0.998245 0.424323 0.379019
0 0.489097 0.438834
0.056733 0.481361 0.378302
0.375235 0.505623 0.348714
0.614191 0.529885 0.338415
0.764355 0.552621 0.340627
0.866148 0.571008 0.345983
0.941955 0.579934 0.352148
0.989502 0.582498 0.356985
1 0.583749 0.359808
0 0.641016 0.511818
0.0687572 0.641871 0.428977
0.418158 0.660121 0.387137
0.647013 0.677592 0.369055
0.784802 0.690608 0.363821
0.88217 0.700313 0.364569
0.957992 0.704326 0.367864
0.997848 0.706676 0.371069
1 0.709255 0.37322
0 0.72903 0.555962
0.0722972 0.735393 0.464149
0.451835 0.754498 0.419013
0.666087 0.773205 0.397208
0.795087 0.786007 0.391455
0.892546 0.794385 0.392981
0.967071 0.802045 0.395224
0.999908 0.808545 0.403769
1 0.816251 0.413642
0 0.778164 0.584161
0.103929 0.793927 0.487861
0.461311 0.815702 0.442542
0.672572 0.8383 0.430732
0.803098 0.854017 0.435172
0.901534 0.865476 0.439139
0.970825 0.872175 0.444251
0.999451 0.877531 0.450721
1 0.884489 0.464576
0 0.812451 0.614847
0.132998 0.833555 0.530602
0.487251 0.859129 0.494362
0.685222 0.881239 0.490776
0.810681 0.896468 0.496437
0.905547 0.907378 0.499702
0.971283 0.913619 0.5028
0.999527 0.918288 0.512978
1 0.924056 0.527642
0.00250248 0.840208 0.654414
0.170047 0.862409 0.584604
0.508553 0.888594 0.558236
0.690242 0.908415 0.55758
0.814252 0.922332 0.564736
0.908263 0.932296 0.569497
0.970565 0.938704 0.576181
0.998581 0.943145 0.588647
1 0.946441 0.602731
0.00105287 0.139849 0.373953
0.0777447 0.0975052 0.376303
0.263508 0.0944686 0.388266
0.456672 0.0846723 0.40235
0.621302 0.0649119 0.422187
0.741619 0.0510719 0.451392
0.838407 0.035935 0.483238
0.909636 0.0285954 0.509941
0.952941 0.0388952 0.532403
0 0.227375 0.452979
0.0766308 0.184436 0.448768
0.31899 0.190738 0.458305
0.527352 0.19823 0.466255
0.686046 0.202197 0.480446
0.795575 0.2103 0.502739
0.876722 0.219257 0.522362
0.934203 0.231785 0.538705
0.968887 0.251774 0.557748
0 0.368322 0.529305
0.0547799 0.3337 0.505455
0.334478 0.345312 0.499794
0.564126 0.361715 0.502922
0.721691 0.377676 0.512062
0.82858 0.398947 0.525109
0.908171 0.418463 0.537118
0.960922 0.430381 0.547967
0.992905 0.441444 0.553948
0 0.538491 0.601709
0.0292363 0.519585 0.557504
0.342245 0.533272 0.533364
0.590768 0.551843 0.525902
0.743465 0.573205 0.526635
0.847883 0.590585 0.532006
0.926345 0.599588 0.535653
0.977005 0.601831 0.536263
0.999054 0.600443 0.537911
0 0.68217 0.66923
0.0308385 0.675059 0.606378
0.376135 0.683726 0.56585
0.61735 0.698283 0.549676
0.759167 0.710369 0.545922
0.860731 0.719951 0.548394
0.938979 0.725139 0.547936
0.989899 0.727611 0.545892
1 0.729564 0.547723
0 0.761074 0.703532
0.0515602 0.763104 0.632639
0.410773 0.776684 0.587747
0.635416 0.794247 0.571527
0.769039 0.806424 0.566857
0.871855 0.815915 0.566995
0.948837 0.823011 0.568231
0.993667 0.82945 0.571588
0.999985 0.836576 0.577417
0 0.80676 0.721111
0.0802319 0.81915 0.64863
0.421714 0.838697 0.605432
0.642756 0.859648 0.595621
0.778531 0.874342 0.597177
0.88014 0.884184 0.599344
0.952224 0.890562 0.600458
0.995972 0.896666 0.604028
1 0.902617 0.611048
0 0.837949 0.742702
0.0937972 0.857816 0.677363
0.456672 0.880323 0.643595
0.657725 0.900786 0.638758
0.786419 0.915511 0.640894
0.88661 0.925734 0.641978
0.955062 0.930556 0.642756
0.993683 0.935103 0.648692
1 0.940047 0.657832
0.00112917 0.863386 0.772732
0.135515 0.884123 0.716487
0.480354 0.907179 0.689586
0.666941 0.925277 0.687022
0.795926 0.93814 0.691447
0.893339 0.947295 0.692851
0.957198 0.953353 0.696406
0.993698 0.957412 0.705989
0.999969 0.961196 0.714488
0 0.195773 0.497795
0.071931 0.101579 0.506645
0.267903 0.0878614 0.524773
0.467048 0.0742199 0.543374
0.631327 0.0578622 0.564523
0.750912 0.045243 0.593362
0.849561 0.0260319 0.62417
0.918959 0.0314794 0.647639
0.957168 0.0457771 0.661707
0 0.278035 0.575631
0.0523079 0.198352 0.58294
0.318151 0.200107 0.594995
0.531838 0.205921 0.605447
0.688075 0.210971 0.61883
0.79762 0.219638 0.638697
0.878553 0.22977 0.654231
0.934585 0.243534 0.669657
0.968338 0.265354 0.684504
0 0.408911 0.644892
0.0395819 0.364172 0.63949
0.318914 0.363027 0.636255
0.560357 0.379599 0.640879
0.716564 0.394186 0.648798
0.825101 0.41622 0.662058
0.904646 0.432258 0.670893
0.956512 0.444907 0.675776
0.987762 0.456306 0.678553
0 0.572168 0.712077
0.00457771 0.552224 0.692454
0.31252 0.554086 0.668437
0.577081 0.572274 0.662074
0.730404 0.591424 0.661158
0.836118 0.606058 0.664729
0.916732 0.614038 0.664317
0.968978 0.615 0.661341
0.996414 0.614771 0.658946
0 0.704189 0.767681
0.0280003 0.697826 0.730541
0.345724 0.700786 0.69366
0.596857 0.714046 0.676783
0.742306 0.725948 0.672969
0.848875 0.735958 0.672923
0.929763 0.739544 0.6701
0.978882 0.741665 0.665858
0.999954 0.745296 0.668696
0 0.779873 0.79733
0.0402075 0.783123 0.748791
0.378515 0.792889 0.707805
0.614099 0.80856 0.688838
0.753109 0.821118 0.686549
0.859525 0.831769 0.686946
0.936843 0.838483 0.685679
0.984497 0.844099 0.685649
0.999878 0.851011 0.689769
0 0.825193 0.811139
0.0590066 0.839292 0.75903
0.393988 0.856321 0.719234
0.624811 0.874769 0.709834
0.76228 0.889265 0.708583
0.866346 0.899855 0.708095
0.942321 0.904418 0.709575
0.985504 0.910048 0.711757
0.999954 0.915862 0.715389
0 0.856809 0.828992
0.0587015 0.875944 0.779858
0.436347 0.89601 0.748638
0.640986 0.91548 0.743358
0.77258 0.929152 0.742901
0.874128 0.937636 0.742977
0.942473 0.94342 0.745235
0.985107 0.948577 0.748821
0.999634 0.952529 0.756619
6.10361e-05 0.879225 0.85359
0.120668 0.900572 0.810758
0.464622 0.921798 0.78819
0.65362 0.938033 0.782788
0.784085 0.950179 0.785397
0.882399 0.959381 0.78555
0.946258 0.964691 0.788998
0.984604 0.968612 0.796902
0.999344 0.971878 0.802579
0 0.246052 0.58439
0.0703288 0.113664 0.604517
0.27747 0.0775616 0.630579
0.481544 0.0637675 0.650889
0.64509 0.0525063 0.670481
0.762692 0.0407874 0.695827
0.859159 0.0276493 0.723644
0.925505 0.0350042 0.744137
0.96025 0.0535897 0.753277
0 0.314061 0.655665
0.0459144 0.214191 0.679255
0.320272 0.207996 0.695491
0.537987 0.21178 0.705913
0.694194 0.217731 0.719493
0.80177 0.228382 0.736492
0.880537 0.239902 0.750057
0.936873 0.253727 0.763424
0.970565 0.275456 0.774945
0 0.435874 0.719936
0.0318303 0.388251 0.734524
0.310796 0.378378 0.736034
0.561227 0.393439 0.740627
0.717845 0.41033 0.749905
0.825101 0.43209 0.75938
0.902464 0.447517 0.767086
0.954589 0.457786 0.770047
0.984878 0.469612 0.772091
0 0.591974 0.779477
0.00146487 0.574243 0.784634
0.298375 0.570581 0.765591
0.570626 0.590005 0.758877
0.726009 0.606088 0.760449
0.829984 0.618936 0.762249
0.909422 0.62472 0.761044
0.961868 0.625681 0.759106
0.99202 0.628305 0.758114
0 0.715694 0.831373
0.0260319 0.712779 0.817609
0.324163 0.713832 0.78674
0.584298 0.726329 0.772671
0.73135 0.738293 0.770535
0.839429 0.746731 0.769055
0.920668 0.750378 0.766232
0.969604 0.752926 0.76556
0.997604 0.756741 0.767452
0 0.790982 0.861509
0.0283665 0.798352 0.834653
0.351827 0.806332 0.799619
0.596475 0.820935 0.784588
0.740169 0.833509 0.782742
0.848493 0.844022 0.783475
0.926284 0.850874 0.782116
0.973617 0.855009 0.782361
0.997482 0.861158 0.785901
0 0.835782 0.87541
0.0375525 0.855726 0.846754
0.373877 0.87155 0.814328
0.609949 0.888426 0.80473
0.748379 0.901717 0.802365
0.854444 0.911543 0.802075
0.929946 0.918608 0.80441
0.974975 0.923232 0.805142
0.997986 0.927199 0.808881
0 0.868544 0.894713
0.0388952 0.890959 0.865934
0.41471 0.911299 0.839582
0.626001 0.928374 0.833234
0.760311 0.940673 0.832334
0.864195 0.948898 0.830747
0.933654 0.955001 0.832715
0.975128 0.959442 0.835859
0.996033 0.964004 0.843107
0 0.891295 0.917082
0.106477 0.914809 0.890211
0.448173 0.934142 0.87068
0.642298 0.950088 0.865919
0.773663 0.961227 0.864637
0.87245 0.969512 0.866178
0.937652 0.975677 0.867872
0.975937 0.979034 0.87306
0.99585 0.981613 0.87715
0 0.274525 0.643534
0.0670634 0.116899 0.681193
0.287434 0.0729839 0.712581
0.495735 0.0609293 0.735851
0.658671 0.0471199 0.756512
0.775021 0.0334936 0.7794
0.865476 0.0326696 0.802853
0.928206 0.0417029 0.820111
0.962966 0.059556 0.829343
0 0.336172 0.713771
0.0504005 0.23415 0.753079
0.322652 0.216007 0.776013
0.544167 0.218265 0.788678
0.699413 0.225147 0.802213
0.8056 0.236759 0.818387
0.884932 0.249714 0.831479
0.939742 0.264286 0.841123
0.971817 0.284306 0.851301
0 0.455024 0.775631
0.026215 0.407446 0.808911
0.302953 0.392508 0.819699
0.56141 0.406714 0.825574
0.719844 0.425132 0.834302
0.825864 0.446342 0.843381
0.901564 0.460822 0.848478
0.952392 0.468345 0.850889
0.982788 0.478828 0.85214
0 0.60621 0.832593
0.00485237 0.589761 0.858595
0.289998 0.585885 0.850797
0.564202 0.602594 0.84445
0.718944 0.618067 0.845624
0.82327 0.628916 0.847501
0.902434 0.633234 0.846036
0.954025 0.634211 0.845563
0.986206 0.637247 0.845121
0 0.725811 0.883375
0.0226596 0.726162 0.889082
0.305074 0.7252 0.869657
0.57174 0.736904 0.857389
0.71902 0.749111 0.854978
0.828916 0.755611 0.855543
0.910613 0.757565 0.853086
0.961501 0.759701 0.851896
0.99089 0.76582 0.854749
0 0.797162 0.909743
0.0191653 0.809186 0.906416
0.325032 0.818128 0.881483
0.581949 0.832319 0.869596
0.728145 0.844282 0.867338
0.837766 0.853925 0.867109
0.915602 0.86009 0.865507
0.964584 0.864042 0.865019
0.991638 0.870665 0.868711
0 0.841917 0.923598
0.0239872 0.867506 0.919554
0.351247 0.883757 0.89546
0.597452 0.90013 0.885145
0.73669 0.91284 0.882551
0.844968 0.921569 0.880674
0.920333 0.928206 0.88333
0.965301 0.932754 0.883314
0.991211 0.935882 0.885328
0 0.874769 0.94313
0.0328985 0.905165 0.936889
0.392203 0.922698 0.912337
0.612192 0.938552 0.904707
0.749935 0.949844 0.902678
0.854276 0.958618 0.90132
0.925963 0.964019 0.90219
0.967269 0.967971 0.903349
0.989807 0.971786 0.907729
0 0.898177 0.963912
0.0830396 0.925963 0.953521
0.43064 0.943297 0.933959
0.631128 0.957961 0.928481
0.764416 0.969573 0.925566
0.865003 0.978225 0.924849
0.929656 0.983276 0.924681
0.96817 0.986496 0.926146
0.989059 0.987518 0.930892
0 0.293645 0.692821
0.0614939 0.11397 0.750622
0.293751 0.0723278 0.784619
0.504952 0.0591135 0.80911
0.669306 0.0401617 0.83328
0.788235 0.0279393 0.856748
0.873808 0.0369421 0.875486
0.932143 0.047776 0.885756
0.96614 0.0637064 0.894041
0 0.358495 0.761639
0.0517739 0.256809 0.812924
0.321599 0.223209 0.845594
0.546777 0.224842 0.860319
0.703929 0.231632 0.873823
0.809216 0.245228 0.887739
0.888319 0.25922 0.89984
0.941497 0.273716 0.907103
0.972045 0.291279 0.912581
0 0.472236 0.820294
0.0169528 0.423743 0.870909
0.29305 0.405966 0.890715
0.558389 0.418433 0.895644
0.717739 0.435859 0.904784
0.822049 0.456641 0.911971
0.899702 0.469596 0.915587
0.949752 0.475578 0.916732
0.981079 0.483696 0.917357
0 0.620584 0.878416
0.00834669 0.602853 0.91696
0.281331 0.597055 0.921111
0.555535 0.611383 0.916625
0.709438 0.625376 0.916243
0.816648 0.636133 0.915999
0.897734 0.638422 0.915587
0.950393 0.638682 0.914275
0.983368 0.640848 0.913878
0 0.732754 0.922713
0.0197299 0.734432 0.94258
0.292393 0.733867 0.936156
0.560769 0.744717 0.926406
0.710887 0.754681 0.92311
0.821469 0.761822 0.923171
0.901671 0.766125 0.919127
0.954192 0.767544 0.918486
0.98471 0.773587 0.920684
0 0.800092 0.944823
0.0102846 0.817136 0.958465
0.306172 0.828351 0.945922
0.571145 0.841657 0.935225
0.71931 0.852399 0.931975
0.829435 0.861585 0.930053
0.908476 0.866926 0.929
0.957748 0.872267 0.928542
0.985794 0.879103 0.928878
0 0.845624 0.959106
0.0189364 0.875547 0.971084
0.331319 0.891844 0.953841
0.58706 0.907362 0.944518
0.730282 0.919432 0.940841
0.838483 0.928298 0.938567
0.913558 0.934478 0.93727
0.958343 0.938827 0.938979
0.984298 0.943542 0.939498
0 0.880934 0.976562
0.024094 0.914107 0.986343
0.37406 0.928985 0.964492
0.600015 0.943984 0.957565
0.740368 0.955871 0.953048
0.847684 0.964096 0.950881
0.91931 0.970291 0.949691
0.95996 0.974731 0.950286
0.984253 0.977951 0.951431
0 0.903319 0.991257
0.0611887 0.934203 0.992859
0.418112 0.949599 0.977035
0.622003 0.963882 0.96968
0.758877 0.974487 0.966751
0.859968 0.982742 0.964965
0.92372 0.986374 0.962966
0.961547 0.991165 0.961151
0.985519 0.991852 0.963027
0 0.30602 0.73164
0.0569467 0.11284 0.807507
0.299886 0.0739757 0.843076
0.512139 0.0598154 0.867247
0.678386 0.0388495 0.892073
0.799802 0.0306249 0.918349
0.882338 0.0406195 0.93106
0.935103 0.0548714 0.935149
0.968307 0.0723888 0.941238
0 0.378302 0.794812
0.0542916 0.283711 0.853254
0.320989 0.230808 0.89958
0.549386 0.232288 0.914061
0.706111 0.238743 0.926574
0.811109 0.254108 0.938842
0.889357 0.267048 0.947005
0.941787 0.279927 0.953017
0.971481 0.297612 0.95819
0 0.485771 0.854765
0.0133516 0.434119 0.918029
0.297185 0.415076 0.944579
0.557275 0.425666 0.949523
0.71194 0.442329 0.955459
0.816648 0.462669 0.96083
0.895811 0.474434 0.962875
0.946929 0.480797 0.963333
0.977386 0.486137 0.963943
0 0.630747 0.909194
0.0113832 0.613275 0.957855
0.277974 0.605615 0.971344
0.547829 0.616373 0.967208
0.701015 0.628763 0.966217
0.8094 0.640848 0.966125
0.891524 0.644846 0.963394
0.947127 0.643122 0.961334
0.977691 0.643809 0.963531
0 0.734188 0.944457
0.0166476 0.739605 0.976394
0.284703 0.739666 0.982559
0.55314 0.74934 0.974853
0.702205 0.759258 0.970886
0.815473 0.766415 0.970565
0.897963 0.771221 0.967498
0.949615 0.773678 0.967422
0.980514 0.779248 0.966751
0 0.801297 0.966308
0.00920119 0.822873 0.991974
0.294697 0.833158 0.988495
0.562921 0.845838 0.980011
0.712596 0.857847 0.975906
0.823682 0.866972 0.973037
0.904311 0.872374 0.97084
0.953643 0.87776 0.969329
0.981399 0.883391 0.968322
0 0.847257 0.98085
0.0145418 0.881758 0.997848
0.32137 0.897307 0.990936
0.578729 0.912215 0.984298
0.722713 0.924041 0.978058
0.833448 0.93315 0.97705
0.907591 0.939101 0.972427
0.955337 0.943145 0.974243
0.981872 0.948333 0.972778
0 0.882612 0.994034
0.0137026 0.92166 0.999664
0.361578 0.932692 0.996689
0.593103 0.948196 0.990173
0.734279 0.959731 0.985992
0.841703 0.968261 0.982025
0.914931 0.973388 0.979248
0.957015 0.978332 0.977966
0.980194 0.981064 0.977401
0 0.905928 0.999634
0.0381933 0.94078 0.999985
0.412848 0.954162 0.998383
0.616724 0.967407 0.995102
0.755276 0.9785 0.992294
0.855817 0.985641 0.988571
0.921508 0.990234 0.986465
0.958938 0.992737 0.984085
0.980438 0.994598 0.983703
