LUT预设1/柯达5219&2393/柯达5219系列-709/柯达5219（暖）-709.cube
TITLE "Generated by Resolve"
LUT_3D_SIZE 33
0.0408179 0.0450446 0.0697795
0.0665751 0.0473182 0.0630961
0.0930648 0.0499275 0.0570687
0.119905 0.0526131 0.0529488
0.147875 0.0553292 0.0498207
0.176532 0.0581979 0.0470283
0.206104 0.0610971 0.0446632
0.236347 0.0639353 0.0425269
0.266148 0.0669413 0.0403754
0.297063 0.0698405 0.0381628
0.327855 0.0733349 0.0358129
0.360494 0.0766461 0.0340276
0.394583 0.080293 0.0320134
0.429465 0.0838026 0.0303044
0.465797 0.0866712 0.028687
0.503334 0.0899519 0.026688
0.542718 0.0933089 0.0247959
0.584161 0.096849 0.0230411
0.626184 0.10103 0.0209354
0.668666 0.10602 0.0184024
0.713268 0.111101 0.0165866
0.757778 0.117372 0.0143587
0.800549 0.124193 0.0128939
0.842374 0.132113 0.0117037
0.881025 0.14136 0.0105592
0.914748 0.152453 0.00935378
0.939742 0.165972 0.00862135
0.962158 0.181353 0.00746166
0.97789 0.199817 0.00643931
0.987457 0.220706 0.0055848
0.993988 0.24242 0.00480659
0.99765 0.266941 0.00433356
0.999161 0.294179 0.00384527
0.0410925 0.0665751 0.0823072
0.0698253 0.0679789 0.0755016
0.100862 0.069398 0.0685893
0.130999 0.0714275 0.0628977
0.160266 0.0737926 0.0590219
0.189975 0.0763561 0.0558328
0.219562 0.0794385 0.0530556
0.251011 0.0826886 0.0502174
0.281422 0.0859693 0.0479744
0.314076 0.0891432 0.0456092
0.3458 0.0931563 0.0432136
0.379644 0.0964675 0.0408637
0.413657 0.0998703 0.0387121
0.448936 0.102937 0.0368048
0.485801 0.105821 0.035172
0.523262 0.109194 0.0332341
0.562982 0.112871 0.0311131
0.603754 0.116823 0.0286564
0.644862 0.121584 0.025742
0.686809 0.126986 0.0229191
0.730678 0.132342 0.0209812
0.774746 0.138521 0.0188754
0.816449 0.145953 0.0171054
0.856382 0.154711 0.0154421
0.892851 0.164965 0.0138247
0.923491 0.176898 0.0123751
0.946197 0.191348 0.011368
0.96698 0.207126 0.00982681
0.980941 0.225299 0.00863661
0.98909 0.245731 0.00782788
0.995117 0.267201 0.00700389
0.997971 0.292653 0.00611887
0.999207 0.320958 0.005066
0.0407263 0.0897231 0.0972915
0.0666056 0.091722 0.0890669
0.103914 0.0920424 0.0808576
0.137377 0.0933852 0.0751965
0.172274 0.0947127 0.0704356
0.203082 0.0970779 0.0670787
0.233921 0.0997482 0.0630808
0.265949 0.102663 0.059556
0.298146 0.105913 0.0561685
0.330861 0.109636 0.0522469
0.363882 0.112963 0.0494545
0.399008 0.115557 0.0471351
0.43415 0.118502 0.0450904
0.470497 0.121569 0.0430915
0.507591 0.124834 0.0406195
0.545296 0.128801 0.0378882
0.584176 0.132921 0.0350652
0.624537 0.137209 0.0322728
0.665263 0.141894 0.029572
0.707805 0.147021 0.0273747
0.751476 0.152697 0.0251011
0.793957 0.159655 0.0223545
0.833555 0.167926 0.020264
0.871229 0.17731 0.0184176
0.906188 0.188037 0.016556
0.93434 0.200381 0.0149844
0.954009 0.215198 0.0136263
0.971725 0.231556 0.011841
0.984024 0.249973 0.010544
0.99086 0.270466 0.00972
0.996094 0.292424 0.00839246
0.998291 0.318715 0.00729381
0.999329 0.346944 0.00663767
0.0342718 0.115694 0.112993
0.0593576 0.117662 0.105425
0.0986801 0.117479 0.0955825
0.144854 0.11635 0.0867018
0.17673 0.118227 0.0817121
0.212726 0.11957 0.0772412
0.246494 0.121721 0.0737316
0.279271 0.1243 0.0706645
0.312642 0.127214 0.0668345
0.346578 0.129992 0.0630198
0.381369 0.132525 0.0599527
0.41735 0.135195 0.0570993
0.451942 0.138735 0.053727
0.48809 0.142199 0.0499275
0.524971 0.145586 0.0465095
0.562951 0.149096 0.0436103
0.602991 0.152804 0.0407111
0.644358 0.15697 0.0378729
0.685359 0.16144 0.0350347
0.728237 0.166995 0.0323644
0.770871 0.173571 0.02916
0.811536 0.18117 0.0260319
0.84947 0.190066 0.0237583
0.884749 0.200137 0.0220951
0.918959 0.211048 0.0196994
0.943862 0.224414 0.0176394
0.962173 0.239612 0.0157778
0.976699 0.256443 0.0140841
0.987167 0.275013 0.0127718
0.992554 0.295888 0.0121614
0.996933 0.318334 0.011017
0.998718 0.344488 0.0106661
0.999451 0.372946 0.0105287
0.0325933 0.141741 0.131167
0.0535134 0.144335 0.122133
0.0846571 0.145724 0.110369
0.130175 0.144289 0.100359
0.191531 0.139986 0.0917372
0.224231 0.141863 0.0873884
0.256153 0.144305 0.0836194
0.290715 0.146609 0.0801251
0.324605 0.149294 0.0771801
0.358068 0.15198 0.0742046
0.393057 0.154894 0.0705425
0.427909 0.157794 0.066453
0.463951 0.160739 0.0624094
0.502098 0.163577 0.0590372
0.540993 0.166262 0.0563058
0.580743 0.169207 0.0536202
0.621195 0.172839 0.0500496
0.661006 0.177508 0.0454108
0.700557 0.182864 0.0413519
0.742107 0.188907 0.0378424
0.784344 0.195773 0.0345159
0.825116 0.203403 0.031342
0.863172 0.212329 0.0286259
0.897887 0.222644 0.026215
0.930694 0.234424 0.0229496
0.953399 0.248173 0.0204318
0.969573 0.263691 0.018677
0.981231 0.280674 0.0174563
0.989822 0.299519 0.0167086
0.993912 0.320867 0.0163119
0.997375 0.343862 0.0153964
0.999084 0.369772 0.0151522
0.999557 0.39826 0.0153201
0.0302739 0.168887 0.147112
0.0430762 0.172915 0.138918
0.075288 0.173663 0.128328
0.120089 0.172305 0.116869
0.1682 0.170687 0.107195
0.229313 0.16672 0.098497
0.265599 0.167956 0.0937514
0.297719 0.170153 0.088838
0.332708 0.171969 0.0855116
0.368139 0.174014 0.0826581
0.405447 0.176425 0.0801709
0.440818 0.179385 0.0775616
0.477195 0.182452 0.0740368
0.513863 0.185611 0.0700542
0.550393 0.188861 0.065919
0.588403 0.19234 0.0617227
0.628534 0.196353 0.0573739
0.669429 0.200702 0.0531167
0.711269 0.205844 0.0495613
0.754147 0.211872 0.046128
0.797238 0.218524 0.0425879
0.838285 0.22623 0.0391089
0.875792 0.235386 0.035523
0.909056 0.246082 0.0314183
0.937789 0.258228 0.0280766
0.958358 0.272312 0.025864
0.973083 0.2878 0.0242924
0.984833 0.304906 0.0230716
0.991791 0.324331 0.0225528
0.995285 0.346105 0.0220035
0.997848 0.369665 0.0211795
0.99939 0.395361 0.0206455
0.999695 0.423499 0.0211032
0.0243381 0.196643 0.164752
0.0387732 0.199649 0.156771
0.0666361 0.201205 0.145083
0.104982 0.201266 0.132692
0.154864 0.199237 0.122042
0.210575 0.196353 0.112612
0.270542 0.192752 0.104555
0.306783 0.193866 0.099855
0.336431 0.196536 0.0943313
0.373068 0.198245 0.0903639
0.409323 0.200229 0.0873121
0.444587 0.202548 0.0843214
0.483162 0.205432 0.0816663
0.521767 0.208331 0.0791333
0.560357 0.211643 0.0763256
0.600015 0.215198 0.0728313
0.640497 0.219165 0.0687724
0.680903 0.223423 0.0646067
0.72108 0.228931 0.06009
0.762783 0.235294 0.0554208
0.804761 0.242145 0.0508278
0.84509 0.250019 0.0464179
0.881193 0.259663 0.0423285
0.914519 0.270527 0.0386664
0.942031 0.282902 0.0359655
0.961669 0.297139 0.0341344
0.975235 0.313252 0.0328985
0.988006 0.33022 0.0314336
0.993698 0.350362 0.0305791
0.996735 0.372122 0.0297551
0.998459 0.395727 0.0291905
0.999588 0.421332 0.0293278
0.999817 0.449424 0.0307469
0.022797 0.224735 0.181415
0.0359197 0.227649 0.172534
0.0545663 0.230442 0.161547
0.0917983 0.230259 0.150179
0.141939 0.227955 0.139239
0.194949 0.225284 0.128725
0.250126 0.222461 0.118212
0.312123 0.21825 0.108629
0.349935 0.219226 0.103975
0.376913 0.222187 0.0984512
0.409949 0.224247 0.0942397
0.446113 0.226337 0.090959
0.485252 0.229007 0.0885176
0.524117 0.231601 0.0860609
0.564431 0.234699 0.0839551
0.606241 0.238041 0.0818799
0.648127 0.241947 0.0792248
0.688777 0.246586 0.0757
0.728985 0.252613 0.0704814
0.770138 0.259052 0.0650645
0.811032 0.266011 0.0598917
0.849943 0.274113 0.0554971
0.884581 0.28426 0.0517433
0.918166 0.295262 0.0490883
0.944884 0.307897 0.0469062
0.964187 0.322271 0.0450141
0.977172 0.338567 0.043473
0.989425 0.356008 0.0420081
0.994842 0.376349 0.0410773
0.997574 0.398428 0.040528
0.998917 0.422049 0.0406806
0.99971 0.447929 0.0423133
0.999863 0.476051 0.0456397
0.0189975 0.253269 0.196948
0.0263523 0.256794 0.189654
0.0456397 0.259083 0.179767
0.0822766 0.258671 0.168154
0.125948 0.257374 0.156252
0.176089 0.255039 0.144839
0.231739 0.251926 0.133898
0.294163 0.247532 0.121721
0.353002 0.24358 0.113054
0.388846 0.244541 0.108659
0.41503 0.247974 0.103334
0.447776 0.250736 0.0988479
0.485466 0.253056 0.0956588
0.522591 0.255482 0.0924849
0.56199 0.258473 0.0895857
0.603311 0.26183 0.0869917
0.645838 0.265629 0.0844892
0.68896 0.270207 0.0819715
0.733013 0.276249 0.0786145
0.777127 0.282597 0.0751049
0.818448 0.289921 0.07187
0.856184 0.298528 0.0686351
0.890242 0.308766 0.0655985
0.922866 0.319936 0.0627298
0.947082 0.332708 0.0599527
0.965209 0.347341 0.0575113
0.978454 0.363439 0.0554665
0.989487 0.381155 0.0545205
0.994644 0.402014 0.0543374
0.997528 0.424567 0.0547951
0.999176 0.448936 0.0564279
0.999802 0.475196 0.0595865
0.999893 0.503273 0.0641489
0.0139467 0.281987 0.213901
0.0197757 0.285222 0.207828
0.0421607 0.286503 0.196933
0.0700236 0.287388 0.183932
0.10811 0.28687 0.171801
0.159319 0.284443 0.161044
0.216251 0.281178 0.151278
0.270069 0.278508 0.14136
0.328374 0.274952 0.129213
0.386816 0.271473 0.11873
0.426535 0.272114 0.11339
0.453376 0.275257 0.108156
0.481926 0.278019 0.10251
0.518105 0.280003 0.0980087
0.558236 0.282383 0.0948043
0.600824 0.285222 0.092256
0.645289 0.288548 0.0898756
0.691127 0.292775 0.0881666
0.736507 0.29897 0.0867933
0.780484 0.305455 0.0849012
0.820569 0.313573 0.0826581
0.857725 0.323018 0.0801404
0.892378 0.333364 0.0773327
0.924376 0.344488 0.0746319
0.946166 0.357778 0.0723278
0.964309 0.372412 0.0705577
0.979446 0.38854 0.0696422
0.990051 0.407202 0.0699016
0.994781 0.429053 0.070985
0.997726 0.45214 0.0730907
0.999557 0.476707 0.0765393
0.999908 0.503075 0.0813916
0.999954 0.529961 0.0852674
0.0135348 0.310658 0.232105
0.0235599 0.31284 0.223041
0.0366369 0.31519 0.211246
0.0525216 0.317388 0.199054
0.091783 0.316396 0.188998
0.144213 0.313451 0.179995
0.19733 0.31078 0.170565
0.251469 0.307912 0.158801
0.307485 0.304509 0.144442
0.375799 0.298604 0.128222
0.427161 0.296513 0.120989
0.462028 0.29781 0.117006
0.489174 0.300786 0.111376
0.518257 0.304387 0.105806
0.55555 0.307362 0.101793
0.595865 0.310216 0.0985275
0.636835 0.313634 0.0954604
0.680934 0.318242 0.0931258
0.726528 0.323613 0.0912184
0.771939 0.329366 0.0891432
0.814328 0.337255 0.0878767
0.854871 0.346548 0.0872816
0.894041 0.35671 0.0868849
0.928191 0.36817 0.0868086
0.948943 0.383139 0.0874037
0.96762 0.398688 0.087892
0.982666 0.415564 0.0881819
0.991455 0.434256 0.0879988
0.994553 0.45507 0.0884718
0.997391 0.476844 0.0902419
0.99939 0.500298 0.0937514
0.999786 0.525734 0.0992447
0.999924 0.553185 0.1066
0.0116426 0.338079 0.245731
0.0157015 0.341115 0.236728
0.0201114 0.344549 0.228
0.0457771 0.345403 0.218494
0.0857862 0.344198 0.207843
0.127779 0.342809 0.196216
0.175738 0.340764 0.184237
0.232319 0.337697 0.172976
0.288762 0.334768 0.162524
0.345129 0.331807 0.1523
0.405035 0.327413 0.137713
0.458183 0.324834 0.127565
0.498802 0.325521 0.121187
0.529213 0.328832 0.116228
0.55523 0.332784 0.110262
0.588571 0.335744 0.104891
0.627924 0.338506 0.100404
0.672786 0.34287 0.0977798
0.719387 0.347616 0.095613
0.765835 0.353063 0.0938582
0.809659 0.360632 0.0932479
0.851545 0.370016 0.0934005
0.891615 0.380041 0.0936904
0.924697 0.392096 0.0945144
0.946532 0.407263 0.0965286
0.966552 0.422995 0.0987716
0.981399 0.440208 0.100771
0.989715 0.459281 0.102876
0.994186 0.479805 0.105776
0.997528 0.501976 0.110201
0.999344 0.526024 0.116335
0.999756 0.551858 0.124376
0.999954 0.580041 0.135317
0.0110475 0.368734 0.261616
0.0130312 0.371466 0.256947
0.0238651 0.37319 0.24802
0.0462196 0.373693 0.235248
0.0727092 0.373663 0.220874
0.10724 0.372961 0.208515
0.155261 0.370947 0.199252
0.212528 0.367987 0.192035
0.269154 0.365194 0.18439
0.323812 0.36257 0.173129
0.377218 0.359747 0.157549
0.44538 0.35404 0.139284
0.498116 0.35198 0.129625
0.53518 0.353414 0.124971
0.564126 0.356313 0.119448
0.589761 0.360586 0.113146
0.623346 0.364416 0.107424
0.666941 0.368566 0.103883
0.712444 0.372656 0.100679
0.757992 0.37821 0.098436
0.802029 0.385534 0.0974899
0.844511 0.394339 0.0973831
0.884855 0.403952 0.0974289
0.915999 0.416144 0.0987411
0.940902 0.430152 0.101549
0.962936 0.445441 0.105714
0.978775 0.462882 0.110887
0.988159 0.482841 0.117266
0.995041 0.503929 0.124865
0.998093 0.528069 0.133425
0.999344 0.553399 0.142504
0.99971 0.579797 0.152544
0.999985 0.607156 0.163867
0.00900282 0.397604 0.281865
0.0122988 0.39971 0.27483
0.0216983 0.401297 0.263111
0.0352941 0.402579 0.249119
0.0548562 0.403555 0.235599
0.0902419 0.402838 0.225238
0.139818 0.400717 0.217945
0.193881 0.398215 0.210971
0.247898 0.395697 0.202625
0.303105 0.393027 0.189853
0.358526 0.390326 0.175494
0.420356 0.386389 0.159136
0.484474 0.381277 0.142306
0.530602 0.380194 0.133974
0.568063 0.381353 0.127535
0.603098 0.385275 0.122744
0.63151 0.390463 0.116991
0.665141 0.395178 0.111177
0.704631 0.398993 0.105531
0.747936 0.404623 0.102251
0.791562 0.411597 0.100343
0.834516 0.419455 0.0991836
0.875242 0.428199 0.0990768
0.906386 0.439979 0.102235
0.93576 0.452583 0.106661
0.959838 0.467399 0.112642
0.976608 0.48513 0.120684
0.986877 0.505608 0.130587
0.995926 0.527321 0.141924
0.998184 0.552728 0.15314
0.999161 0.578347 0.163668
0.999649 0.604486 0.174563
0.999969 0.631296 0.186725
0.00836194 0.4271 0.299519
0.0121614 0.428534 0.290349
0.0174258 0.430411 0.278599
0.0245518 0.432532 0.266316
0.0438544 0.433417 0.254612
0.0801251 0.43238 0.244724
0.125521 0.430625 0.23595
0.172381 0.428763 0.22649
0.224521 0.426627 0.216968
0.281773 0.424063 0.205554
0.339803 0.421714 0.195758
0.394476 0.41976 0.184939
0.450004 0.416999 0.169863
0.513115 0.412665 0.151766
0.568399 0.410483 0.137926
0.610178 0.412619 0.131975
0.645136 0.41622 0.125795
0.672145 0.420844 0.118502
0.700771 0.425162 0.110231
0.73872 0.430838 0.105669
0.782345 0.437354 0.103487
0.826444 0.444038 0.101915
0.867811 0.451728 0.10222
0.900069 0.463249 0.107729
0.932311 0.475334 0.113237
0.956924 0.490227 0.119448
0.973083 0.508003 0.127016
0.983505 0.527855 0.135531
0.993637 0.548196 0.144778
0.996567 0.572152 0.156924
0.998566 0.597101 0.170657
0.999619 0.623789 0.186679
0.999969 0.652277 0.205188
0.00895705 0.457511 0.313878
0.0113222 0.459205 0.306172
0.0139467 0.461387 0.29807
0.0216831 0.463218 0.288518
0.0444343 0.463172 0.276661
0.0754253 0.462135 0.263279
0.107027 0.461234 0.249058
0.144167 0.460166 0.236622
0.200641 0.458122 0.230304
0.259937 0.455894 0.225269
0.320287 0.453758 0.221454
0.374838 0.451911 0.20972
0.428031 0.449897 0.192645
0.492943 0.445823 0.169512
0.560464 0.440696 0.148699
0.607843 0.440085 0.138903
0.646998 0.4421 0.131868
0.682322 0.445899 0.125719
0.711482 0.451255 0.119417
0.741817 0.458061 0.114809
0.778698 0.464378 0.110872
0.818982 0.47097 0.108324
0.857435 0.479103 0.108263
0.891325 0.48983 0.11104
0.92343 0.501381 0.113893
0.948302 0.515114 0.118547
0.966537 0.530755 0.125368
0.980789 0.547936 0.134386
0.991684 0.567163 0.145953
0.995499 0.590311 0.161913
0.998489 0.614939 0.180438
0.999802 0.64268 0.202426
0.999954 0.673213 0.226612
0.0071107 0.488975 0.331655
0.00794995 0.490654 0.327855
0.0106355 0.492561 0.322774
0.0221256 0.493126 0.309239
0.0371405 0.493294 0.292485
0.0520485 0.493523 0.274662
0.0769513 0.493568 0.260563
0.1234 0.492363 0.254093
0.183505 0.490242 0.25211
0.241642 0.488472 0.249561
0.29868 0.486427 0.241825
0.354253 0.484764 0.227344
0.40972 0.483268 0.211566
0.467155 0.481575 0.195911
0.531243 0.477745 0.176699
0.593225 0.473381 0.156725
0.645258 0.472328 0.142321
0.688258 0.474983 0.135424
0.725872 0.480003 0.131014
0.756069 0.486183 0.125978
0.782559 0.492561 0.11928
0.813474 0.499229 0.113863
0.84744 0.507454 0.111406
0.883635 0.516518 0.110826
0.916304 0.526635 0.112032
0.941711 0.538857 0.117067
0.962524 0.552544 0.124941
0.980453 0.567742 0.13518
0.990158 0.58761 0.149813
0.994278 0.610513 0.167285
0.997787 0.63444 0.186145
0.999405 0.660945 0.20763
0.999741 0.689525 0.23154
0.00582895 0.522881 0.356176
0.00749218 0.524208 0.352422
0.0125887 0.525414 0.34136
0.0204166 0.526299 0.326772
0.0285191 0.527214 0.311345
0.0428931 0.52781 0.297169
0.0726635 0.527306 0.286229
0.118685 0.525643 0.27921
0.167346 0.523888 0.272755
0.213703 0.522408 0.26511
0.270344 0.520943 0.256367
0.328771 0.519661 0.246204
0.387991 0.5187 0.236988
0.445914 0.517571 0.225895
0.502739 0.515816 0.20914
0.567941 0.511559 0.18378
0.63856 0.506905 0.158328
0.689754 0.506935 0.146242
0.729915 0.509957 0.139361
0.764355 0.514275 0.132723
0.792218 0.519814 0.125536
0.816526 0.527855 0.120226
0.844892 0.535927 0.115892
0.878447 0.543954 0.112581
0.909468 0.553521 0.113451
0.935164 0.564935 0.118578
0.957366 0.577829 0.12665
0.97644 0.592462 0.136706
0.986236 0.611353 0.151232
0.992752 0.631586 0.167941
0.996994 0.653742 0.186908
0.998932 0.677867 0.20885
0.999603 0.703731 0.234089
0.00572213 0.557122 0.377539
0.00759899 0.558083 0.371099
0.011368 0.559136 0.360052
0.015259 0.560418 0.348302
0.0219272 0.5617 0.336156
0.0393378 0.561852 0.32369
0.068925 0.560906 0.311696
0.104295 0.55967 0.299947
0.138842 0.558526 0.287572
0.183261 0.557641 0.279255
0.242573 0.556542 0.274128
0.304341 0.555657 0.270497
0.367041 0.554681 0.265812
0.426596 0.553552 0.254963
0.482719 0.55227 0.236439
0.544381 0.549828 0.212329
0.619669 0.544854 0.182788
0.682048 0.541039 0.159731
0.72546 0.540841 0.145815
0.763012 0.54342 0.136645
0.798199 0.548913 0.131685
0.828504 0.556725 0.128923
0.853239 0.564858 0.124498
0.879377 0.572763 0.119615
0.903746 0.582467 0.119524
0.92871 0.593332 0.122499
0.951812 0.605585 0.128634
0.97055 0.619287 0.137316
0.981994 0.635355 0.150729
0.991913 0.651637 0.166278
0.996567 0.671275 0.186954
0.998657 0.693431 0.211475
0.999588 0.718166 0.239765
0.00509651 0.591852 0.397528
0.00637827 0.592706 0.390494
0.00775158 0.594064 0.3832
0.0102693 0.595468 0.374395
0.019028 0.596262 0.363378
0.0365911 0.595926 0.349432
0.0587625 0.59527 0.33373
0.0812695 0.594751 0.317556
0.109361 0.594293 0.303532
0.160296 0.593393 0.298375
0.220356 0.59263 0.297353
0.282322 0.591608 0.296956
0.344656 0.590509 0.291997
0.405722 0.589288 0.279057
0.465003 0.588281 0.260365
0.525734 0.587411 0.241871
0.594995 0.585046 0.219669
0.655039 0.581201 0.194171
0.716609 0.577646 0.168582
0.766476 0.57821 0.15288
0.804959 0.582147 0.146334
0.838331 0.587579 0.141558
0.864317 0.594568 0.136873
0.883864 0.603021 0.132555
0.902617 0.612528 0.129396
0.92549 0.62237 0.127932
0.948043 0.632959 0.13051
0.96643 0.644968 0.138476
0.979843 0.657969 0.151263
0.991547 0.671824 0.166766
0.996078 0.689738 0.189364
0.998367 0.710765 0.215518
0.999588 0.734951 0.244541
0.00328069 0.627634 0.42005
0.00352483 0.628809 0.416556
0.00440986 0.629969 0.411627
0.00880446 0.631083 0.402945
0.0188907 0.631189 0.388586
0.0305333 0.631144 0.371832
0.0426337 0.631281 0.354543
0.0616159 0.631189 0.339467
0.0986648 0.630488 0.330571
0.152041 0.629099 0.326818
0.204974 0.627894 0.322377
0.2589 0.626612 0.317372
0.316213 0.626093 0.308919
0.376898 0.626154 0.298955
0.440452 0.626337 0.289921
0.504372 0.626627 0.2813
0.564752 0.626123 0.263645
0.627451 0.622873 0.232731
0.703288 0.617121 0.1944
0.764248 0.613916 0.169207
0.803601 0.615503 0.158724
0.837812 0.618769 0.15053
0.867262 0.624247 0.144991
0.890929 0.632898 0.143191
0.910765 0.64181 0.13962
0.930465 0.650752 0.136126
0.947875 0.660777 0.138247
0.964141 0.671672 0.145174
0.978805 0.683665 0.155612
0.988937 0.698421 0.170657
0.993988 0.715755 0.190127
0.997513 0.734157 0.212192
0.99942 0.754437 0.238697
0.00247196 0.665431 0.450248
0.00274662 0.666255 0.447318
0.00469978 0.666789 0.439551
0.00865187 0.667231 0.42649
0.0130312 0.667613 0.412528
0.0178683 0.668391 0.398703
0.0293278 0.668681 0.385031
0.054551 0.667994 0.37261
0.0940719 0.666606 0.362676
0.133898 0.665278 0.35198
0.174105 0.664057 0.340948
0.226108 0.663722 0.33434
0.286976 0.663996 0.330709
0.352804 0.66453 0.328878
0.420752 0.665034 0.326879
0.487053 0.665232 0.319783
0.547265 0.664179 0.294972
0.610132 0.662379 0.26569
0.683742 0.658946 0.232944
0.746456 0.654383 0.203281
0.796231 0.652247 0.181949
0.83769 0.65301 0.167117
0.869902 0.657542 0.16051
0.898512 0.664424 0.157626
0.921523 0.67245 0.155978
0.938323 0.68162 0.154314
0.950668 0.691737 0.154208
0.96405 0.702266 0.155123
0.978256 0.713191 0.158618
0.986847 0.725978 0.170809
0.993378 0.739452 0.187274
0.997391 0.754757 0.209415
0.999222 0.771756 0.237064
0.00167849 0.701579 0.477333
0.00198367 0.702159 0.471336
0.00257877 0.7028 0.463127
0.00361639 0.703502 0.453513
0.00538643 0.70428 0.443839
0.011368 0.704829 0.432013
0.0265965 0.704326 0.41767
0.05066 0.703258 0.402228
0.0770886 0.702098 0.386938
0.102281 0.701106 0.371191
0.145357 0.70045 0.362524
0.203281 0.700145 0.359625
0.267155 0.699992 0.358602
0.333379 0.700069 0.357626
0.399207 0.700145 0.353643
0.462547 0.700725 0.343236
0.525338 0.701015 0.32546
0.591241 0.7019 0.309102
0.656397 0.701411 0.286336
0.719173 0.69781 0.252995
0.784482 0.692271 0.215167
0.837339 0.68983 0.190219
0.872145 0.692668 0.180774
0.902556 0.696818 0.173587
0.926101 0.703716 0.170947
0.943694 0.712444 0.170916
0.957488 0.721935 0.170108
0.969177 0.73164 0.168994
0.978912 0.741833 0.171862
0.98674 0.752605 0.180682
0.993896 0.76405 0.193927
0.997467 0.777966 0.2159
0.999023 0.793637 0.242771
0.00143435 0.737011 0.502373
0.0016022 0.737438 0.49752
0.00173953 0.738094 0.49221
0.00221256 0.73904 0.485725
0.00424201 0.739513 0.475807
0.0109102 0.739513 0.462089
0.0225834 0.738964 0.445579
0.0361944 0.738293 0.428473
0.0510109 0.737804 0.411856
0.0778058 0.737087 0.397894
0.129046 0.736233 0.392203
0.186481 0.735576 0.388815
0.245411 0.734691 0.384421
0.307256 0.734493 0.380438
0.371557 0.735134 0.376059
0.436393 0.736416 0.369253
0.504662 0.737972 0.36231
0.57467 0.739712 0.354238
0.635172 0.73991 0.333242
0.696193 0.738338 0.302022
0.765743 0.734142 0.262043
0.82826 0.729183 0.225071
0.869429 0.728206 0.205173
0.902876 0.729854 0.191653
0.927428 0.7355 0.187289
0.948074 0.742809 0.186206
0.963928 0.751232 0.187808
0.975448 0.760342 0.190265
0.982162 0.770306 0.19498
0.988693 0.780407 0.20029
0.994812 0.790814 0.208911
0.99733 0.803021 0.226856
0.998947 0.816281 0.250233
0.00112917 0.771496 0.530846
0.00122072 0.771923 0.528328
0.00138857 0.77258 0.524483
0.00213626 0.773083 0.517327
0.00436408 0.773297 0.505837
0.00885023 0.773175 0.491264
0.0137026 0.773083 0.475807
0.0200198 0.773037 0.460151
0.0343481 0.772732 0.444907
0.0679026 0.772 0.432929
0.11632 0.770687 0.424369
0.162387 0.769574 0.414542
0.213519 0.768582 0.40589
0.273671 0.768566 0.401343
0.341604 0.769558 0.400305
0.41297 0.770901 0.40032
0.488334 0.772229 0.401068
0.557275 0.774014 0.393103
0.617624 0.774838 0.372259
0.678401 0.775387 0.347982
0.74406 0.774395 0.317937
0.805936 0.770871 0.281086
0.860273 0.765972 0.24445
0.903273 0.764752 0.22092
0.929824 0.768566 0.213443
0.952728 0.773449 0.208835
0.96791 0.780819 0.211246
0.978897 0.789349 0.216022
0.987121 0.798459 0.220218
0.991806 0.808087 0.22623
0.995529 0.817884 0.233631
0.997879 0.828077 0.246128
0.999222 0.839231 0.266117
0.000686656 0.804654 0.563104
0.00077821 0.805081 0.561013
0.000991836 0.805356 0.555749
0.00157168 0.805631 0.546838
0.00259403 0.80589 0.53608
0.00344854 0.806256 0.525109
0.00491341 0.806683 0.513329
0.0125582 0.806683 0.499535
0.0321355 0.806043 0.483864
0.0621958 0.804837 0.468177
0.0919814 0.80351 0.451102
0.123735 0.802502 0.434974
0.174456 0.801846 0.427298
0.240589 0.802029 0.426871
0.315312 0.802396 0.429923
0.391791 0.80293 0.433173
0.469749 0.803616 0.434714
0.534539 0.805707 0.423896
0.598016 0.808164 0.410269
0.663264 0.810758 0.396902
0.72401 0.812009 0.376944
0.782956 0.810437 0.343267
0.845609 0.805875 0.297551
0.899153 0.801694 0.258656
0.930129 0.801404 0.243183
0.953933 0.804379 0.235798
0.969528 0.810376 0.236759
0.982208 0.817426 0.23978
0.990295 0.825544 0.246662
0.994461 0.834226 0.255314
0.99707 0.843397 0.263996
0.9991 0.852735 0.273457
0.999557 0.862852 0.289799
0.000549325 0.835996 0.594888
0.000671397 0.836271 0.590631
0.000839246 0.836698 0.585199
0.00103761 0.837095 0.578866
0.00123598 0.837842 0.573053
0.00151064 0.838575 0.566934
0.0059205 0.838712 0.554971
0.0154269 0.838239 0.537026
0.0273289 0.837369 0.516152
0.0379034 0.836713 0.494377
0.0470436 0.836027 0.472206
0.0810254 0.835584 0.459998
0.143069 0.835004 0.45864
0.216892 0.834424 0.460929
0.292531 0.833585 0.462531
0.365713 0.833402 0.462119
0.434714 0.835035 0.45951
0.501808 0.838041 0.454963
