LUT预设1/柯达5219&2393/柯达5219系列-709/柯达5219基准-709.cube
TITLE "Generated by Resolve"
LUT_3D_SIZE 9
0.0448157 0.0517891 0.0790265
0.101717 0.0686198 0.0794842
0.191272 0.0840162 0.0733349
0.323339 0.0977798 0.0585336
0.507073 0.110628 0.038468
0.718227 0.12401 0.0216831
0.898711 0.157458 0.0122988
0.909133 0.165087 0.0124361
0.914809 0.172091 0.0127108
0.0418097 0.156344 0.155856
0.176516 0.163714 0.120897
0.367361 0.176989 0.0903182
0.580026 0.19411 0.0635386
0.778836 0.21883 0.0482032
0.896025 0.247578 0.0348821
0.947631 0.275761 0.0263828
0.976028 0.310155 0.0204471
0.978134 0.31371 0.0200198
0.00984207 0.301472 0.24033
0.100023 0.301472 0.187869
0.398062 0.304326 0.119341
0.621302 0.320577 0.0802319
0.824018 0.358236 0.0699168
0.959915 0.427573 0.0715953
0.995148 0.502297 0.0803388
0.995285 0.505272 0.081651
0.9953 0.505135 0.0814832
0.00416571 0.495018 0.36112
0.0374762 0.483726 0.291234
0.29752 0.48246 0.22504
0.617395 0.492561 0.132357
0.80798 0.514168 0.0855421
0.946517 0.557076 0.0785534
0.991913 0.611078 0.104677
0.991699 0.612726 0.105211
0.991714 0.61265 0.105776
0.00109865 0.685603 0.511147
0.012604 0.672343 0.446662
0.144411 0.66276 0.362234
0.559289 0.675578 0.304158
0.804074 0.674144 0.162707
0.931609 0.686763 0.105928
0.98381 0.714153 0.108003
0.983948 0.710369 0.108019
0.9841 0.705379 0.107973
0.000228885 0.820752 0.642618
0.00144961 0.809567 0.596597
0.0632029 0.798093 0.5122
0.42359 0.801755 0.457038
0.741527 0.812268 0.394751
0.918349 0.801953 0.241459
0.979339 0.805753 0.180453
0.981613 0.799435 0.17026
0.981674 0.790921 0.159228
0.000335698 0.861112 0.689174
0.00221256 0.867277 0.679606
0.0219272 0.86688 0.622934
0.146715 0.866941 0.544625
0.621988 0.886595 0.548486
0.852338 0.891783 0.480537
0.966827 0.880217 0.345434
0.984405 0.870985 0.300877
0.98378 0.86099 0.281056
0.000350958 0.861295 0.689281
0.00195315 0.867247 0.682765
0.0134279 0.867231 0.630869
0.0945754 0.865034 0.551827
0.541772 0.882368 0.551827
0.790707 0.898817 0.530068
0.932815 0.898955 0.43415
0.982925 0.897963 0.367788
0.983001 0.897963 0.367666
0.000366217 0.861433 0.689387
0.00172427 0.86714 0.685527
0.00814832 0.867384 0.638727
0.0720226 0.864881 0.570291
0.417273 0.876799 0.547112
0.708064 0.893965 0.540169
0.877317 0.899107 0.47892
0.963745 0.898039 0.39556
0.983001 0.897963 0.367666
0.0411536 0.0585184 0.105776
0.101579 0.0714885 0.13402
0.188037 0.0956283 0.133165
0.315618 0.114122 0.132204
0.513375 0.11548 0.130098
0.736843 0.11664 0.126696
0.818677 0.129458 0.135058
0.821424 0.133715 0.148348
0.823514 0.138582 0.161837
0.0494545 0.162951 0.192615
0.149157 0.1682 0.189899
0.29482 0.183749 0.162203
0.454139 0.189609 0.120729
0.633707 0.200137 0.0842451
0.818158 0.230137 0.0603799
0.94696 0.287648 0.0404974
0.976349 0.324987 0.0323339
0.9785 0.328832 0.0301518
0.0319829 0.29836 0.292241
0.0811933 0.301778 0.282872
0.327199 0.311254 0.226246
0.568383 0.329503 0.195468
0.76788 0.36907 0.18793
0.898054 0.382101 0.142763
0.950042 0.365103 0.0644541
0.982834 0.392752 0.0518959
0.991714 0.423865 0.0505684
0.0179904 0.483101 0.423819
0.0391546 0.482383 0.410941
0.186984 0.484031 0.330709
0.566262 0.494514 0.263188
0.777829 0.51986 0.223667
0.93283 0.565011 0.237095
0.989487 0.631876 0.285176
0.989242 0.633402 0.290471
0.990097 0.627405 0.279606
0.00929274 0.67071 0.560571
0.0182193 0.666316 0.547677
0.0654154 0.668162 0.483024
0.479103 0.667552 0.403098
0.761425 0.672755 0.318471
0.911315 0.687755 0.274464
0.983322 0.721065 0.300832
0.983474 0.71809 0.302281
0.983719 0.714015 0.302892
0.00552377 0.80708 0.67454
0.0106203 0.799878 0.662913
0.0297551 0.798627 0.616342
0.261082 0.792782 0.531594
0.680308 0.801282 0.482734
0.886763 0.797818 0.378088
0.968338 0.803388 0.337835
0.975326 0.799283 0.332296
0.975784 0.791318 0.324041
0.00567636 0.853574 0.720134
0.0106203 0.862028 0.725414
0.0198825 0.868025 0.706249
0.083299 0.869764 0.647044
0.5019 0.874281 0.583185
0.811765 0.882292 0.546517
0.947662 0.874632 0.441642
0.977096 0.867033 0.40206
0.977279 0.857206 0.384665
0.00495918 0.854047 0.718563
0.00906386 0.862135 0.723568
0.0159609 0.86807 0.708064
0.0518959 0.869261 0.646647
0.400427 0.875639 0.591119
0.731807 0.891752 0.581155
0.903273 0.89691 0.515526
0.976287 0.898131 0.450309
0.97702 0.898177 0.448035
0.00418097 0.854643 0.716289
0.00730907 0.862272 0.721508
0.0112764 0.86804 0.708507
0.0366217 0.868757 0.647593
0.290257 0.872755 0.59762
0.632624 0.887953 0.578668
0.843626 0.895537 0.538994
0.94757 0.897673 0.470741
0.977935 0.898253 0.437781
0.0352789 0.0794995 0.151385
0.0846723 0.0848707 0.20914
0.192905 0.0911421 0.247745
0.302098 0.126604 0.240574
0.432395 0.164248 0.234943
0.634714 0.168154 0.245365
0.732921 0.163104 0.263798
0.731182 0.176715 0.277165
0.728511 0.190448 0.290074
0.043473 0.205325 0.285908
0.11664 0.197101 0.295918
0.255589 0.193423 0.318364
0.39884 0.224628 0.29102
0.571939 0.251423 0.277333
0.764141 0.273075 0.285954
0.885328 0.307866 0.301595
0.882094 0.31368 0.313359
0.879057 0.319203 0.325017
0.0252384 0.339239 0.365866
0.102251 0.319936 0.373053
0.28426 0.3243 0.373312
0.476783 0.348379 0.351278
0.648844 0.364416 0.311284
0.805508 0.388678 0.266758
0.937179 0.448493 0.239307
0.971939 0.480919 0.223621
0.975204 0.483131 0.21236
0.0222782 0.507607 0.479591
0.0798047 0.487938 0.490425
0.190799 0.490074 0.481224
0.480034 0.507378 0.434882
0.722744 0.532311 0.413214
0.87953 0.573983 0.411948
0.942168 0.544076 0.307744
0.978836 0.514092 0.189914
0.995392 0.525505 0.133349
0.0180667 0.674327 0.604776
0.0580911 0.658961 0.612131
0.113649 0.664317 0.610071
0.332784 0.671199 0.545327
0.696559 0.677073 0.487037
0.881636 0.694499 0.466438
0.976333 0.734829 0.494011
0.976837 0.731792 0.491646
0.977661 0.726787 0.485908
0.0161746 0.802304 0.708202
0.0485695 0.788785 0.706172
0.0857404 0.789288 0.704158
0.148623 0.792615 0.660014
0.586862 0.793271 0.587747
0.847074 0.793744 0.526665
0.951125 0.803464 0.503502
0.964736 0.801984 0.501625
0.965484 0.794766 0.494713
0.0221866 0.848585 0.749996
0.0485847 0.854597 0.760494
0.0812695 0.860914 0.76379
0.116487 0.866728 0.742061
0.314504 0.866285 0.671733
0.737728 0.870771 0.625269
0.918151 0.867567 0.559945
0.963333 0.862562 0.525505
0.964569 0.853315 0.511086
0.0206302 0.848707 0.747143
0.0411994 0.85481 0.756619
0.0691539 0.860548 0.760327
0.0928664 0.86746 0.746319
0.191394 0.871656 0.685893
0.625269 0.882826 0.645426
0.862669 0.891356 0.610101
0.960769 0.895064 0.553338
0.964813 0.895598 0.548165
0.0181582 0.849058 0.743267
0.0333104 0.8551 0.751965
0.0560006 0.860655 0.757015
0.0692912 0.866606 0.74345
0.146746 0.870359 0.68835
0.512078 0.879789 0.645426
0.7823 0.889006 0.613748
0.923217 0.893858 0.566476
0.966995 0.896101 0.533852
0.0305943 0.1131 0.211872
0.065095 0.121416 0.284398
0.154803 0.111742 0.384497
0.326635 0.105562 0.423377
0.471015 0.160922 0.391028
0.588449 0.233402 0.371206
0.655024 0.264027 0.383917
0.660761 0.272374 0.398871
0.666453 0.280171 0.413245
0.0616007 0.28893 0.447028
0.0932021 0.272541 0.426535
0.188479 0.237537 0.461158
0.386313 0.225086 0.489158
0.535576 0.268528 0.441672
0.661326 0.321691 0.418143
0.790845 0.344152 0.430152
0.787457 0.353262 0.44007
0.784039 0.362554 0.450019
0.0472572 0.444785 0.575448
0.101686 0.412055 0.519219
0.227573 0.384009 0.512993
0.42388 0.370718 0.527108
0.59379 0.403693 0.50071
0.741802 0.45211 0.480797
0.878126 0.488777 0.490593
0.87454 0.493324 0.498909
0.871031 0.498375 0.506508
0.016556 0.563653 0.574823
0.0661021 0.537896 0.5729
0.202152 0.522225 0.577661
0.465156 0.524651 0.571374
0.647334 0.552422 0.552453
0.801648 0.583917 0.533471
0.921126 0.611185 0.503151
0.942916 0.612787 0.477501
0.949142 0.60853 0.455619
0.0151217 0.703273 0.648005
0.0566262 0.681193 0.652598
0.170809 0.670832 0.659159
0.415427 0.674418 0.650675
0.650416 0.685542 0.618814
0.841672 0.702663 0.6009
0.943938 0.725383 0.587427
0.958282 0.645808 0.444587
0.984924 0.614557 0.340414
0.0208286 0.812558 0.731243
0.0606088 0.794858 0.734462
0.166476 0.787366 0.734981
0.352087 0.787762 0.726574
0.533852 0.794232 0.686427
0.799954 0.794095 0.642435
0.933349 0.805463 0.62594
0.955428 0.80647 0.622675
0.956268 0.799847 0.616464
0.0247807 0.85417 0.770733
0.0796674 0.856138 0.783978
0.171221 0.860105 0.78735
0.311055 0.863005 0.779324
0.441901 0.864576 0.75172
0.669062 0.864958 0.701701
0.887633 0.861845 0.654978
0.949767 0.859678 0.631388
0.951812 0.851026 0.620432
0.0256199 0.852491 0.768292
0.0737163 0.854765 0.780346
0.145907 0.858885 0.784115
0.251209 0.864836 0.779446
0.357794 0.872923 0.761563
0.534035 0.880232 0.718196
0.819516 0.887266 0.687556
0.939147 0.891218 0.643442
0.947829 0.892103 0.636439
0.0259098 0.850843 0.764935
0.0646982 0.853544 0.77583
0.121904 0.857801 0.77995
0.191791 0.863264 0.777203
0.24889 0.870619 0.760632
0.449332 0.876722 0.715785
0.712535 0.885069 0.684977
0.895094 0.889693 0.644495
0.951797 0.892851 0.617487
0.0255741 0.163577 0.299596
0.0533913 0.1841 0.386755
0.115923 0.184375 0.507332
0.287083 0.14963 0.604227
0.518318 0.138689 0.604105
0.656641 0.229191 0.539818
0.704158 0.288151 0.528466
0.713054 0.294057 0.5449
0.721965 0.299489 0.561273
0.0607156 0.418738 0.604913
0.086183 0.397528 0.584619
0.148028 0.340856 0.588174
0.31899 0.299123 0.649775
0.550271 0.277867 0.641627
0.67689 0.34107 0.572091
0.747448 0.41239 0.544686
0.750637 0.418509 0.55523
0.754253 0.424521 0.566217
0.0460212 0.556863 0.677775
0.158938 0.557076 0.701289
0.202914 0.505013 0.652689
0.365469 0.443366 0.650584
0.578927 0.431617 0.663981
0.714549 0.476417 0.618204
0.809949 0.530159 0.597864
0.809201 0.535348 0.605585
0.808698 0.539864 0.612177
0.0547951 0.673243 0.775952
0.116686 0.625452 0.721035
0.217685 0.623026 0.697826
0.448737 0.597131 0.682658
0.613764 0.580118 0.682445
0.753902 0.608423 0.661479
0.872786 0.642863 0.647761
0.870939 0.643763 0.650553
0.869413 0.64213 0.650492
0.00972 0.743481 0.726802
0.0449683 0.72195 0.725124
0.151629 0.709087 0.725231
0.478019 0.700359 0.723369
0.646372 0.700359 0.712795
0.789441 0.716365 0.696773
0.908309 0.741512 0.683574
0.920195 0.733654 0.665965
0.924971 0.717693 0.640085
0.0143282 0.833844 0.767803
0.0540322 0.814786 0.765896
0.157473 0.803662 0.765209
0.437308 0.796262 0.760632
0.619501 0.795361 0.759136
0.766247 0.799512 0.733761
0.906722 0.808789 0.713405
0.939361 0.792111 0.678981
0.961196 0.706783 0.534844
0.0221561 0.869032 0.792569
0.0709697 0.86688 0.803204
0.206897 0.868223 0.806546
0.448569 0.865644 0.804959
0.577874 0.864469 0.800809
0.689555 0.8636 0.773907
0.855467 0.860929 0.735042
0.937591 0.860014 0.716152
0.939971 0.852125 0.707118
0.0226291 0.865339 0.786618
0.0712444 0.86389 0.797803
0.18172 0.865476 0.802152
0.404791 0.869062 0.802823
0.531731 0.875502 0.803571
0.614725 0.88246 0.788403
0.768277 0.88661 0.752773
0.913741 0.889967 0.723812
0.93315 0.888899 0.712505
0.0231937 0.861204 0.780652
0.070573 0.860578 0.792279
0.156405 0.862455 0.797711
0.345647 0.865919 0.796277
0.474403 0.872099 0.797208
0.531624 0.879484 0.781796
0.695705 0.884932 0.749966
0.860792 0.887526 0.714687
0.936004 0.891112 0.694087
0.0202335 0.242985 0.4262
0.0468147 0.282765 0.522835
0.0993362 0.300145 0.623789
0.238087 0.284657 0.728954
0.502525 0.239368 0.777844
0.71371 0.239734 0.731487
0.772503 0.29662 0.687099
0.775219 0.302068 0.689403
0.777935 0.307668 0.691615
0.0552529 0.560861 0.73785
0.088365 0.54847 0.731365
0.135698 0.49572 0.718837
0.257359 0.447532 0.748135
0.514351 0.390082 0.786099
0.713619 0.364294 0.750622
0.794934 0.434226 0.682475
0.799176 0.439826 0.694423
0.803052 0.445502 0.70576
0.113527 0.673381 0.802457
0.216129 0.674937 0.798276
0.260487 0.648936 0.776226
0.344594 0.571267 0.751568
0.536004 0.534188 0.780301
0.720577 0.514748 0.765896
0.815427 0.562676 0.706874
0.817929 0.566384 0.714473
0.819883 0.569085 0.72018
0.0700084 0.72987 0.824262
0.143832 0.748531 0.821195
0.472114 0.73785 0.810071
0.497856 0.70869 0.788632
0.585733 0.647791 0.775982
0.741588 0.638392 0.778225
0.84329 0.670253 0.739498
0.843259 0.670222 0.741421
0.842649 0.667994 0.740154
0.0476539 0.783749 0.842863
0.163394 0.771679 0.832486
0.313512 0.771374 0.817304
0.509178 0.779767 0.806363
0.649119 0.754879 0.794659
0.761257 0.736934 0.787259
0.865187 0.754009 0.766125
0.875898 0.753231 0.760586
0.87483 0.747463 0.756039
0.0122377 0.859525 0.826246
0.0439155 0.841093 0.822278
0.137758 0.831113 0.820768
0.42356 0.82182 0.812009
0.661723 0.812726 0.815244
0.76527 0.809186 0.799542
0.874235 0.815457 0.783246
0.909194 0.816419 0.773419
0.910079 0.806699 0.761791
0.0213626 0.887617 0.831083
0.0577096 0.884474 0.832868
0.171908 0.883741 0.832395
0.440101 0.877073 0.826474
0.619196 0.870542 0.828397
0.729213 0.865232 0.823606
0.841047 0.862623 0.800443
0.92221 0.862654 0.782055
0.930571 0.831693 0.737072
0.0220035 0.88217 0.81912
0.0547341 0.879011 0.822507
0.162066 0.879881 0.824262
0.410224 0.880217 0.823209
0.589319 0.881453 0.829664
0.689082 0.883726 0.830259
0.775402 0.88809 0.813657
0.889143 0.892226 0.787488
0.923934 0.888426 0.773816
0.0222477 0.87631 0.806683
0.0550698 0.873518 0.812299
0.147707 0.874327 0.816144
0.361227 0.875242 0.814939
0.545007 0.877836 0.820325
0.63743 0.880812 0.8224
0.708141 0.885695 0.805219
0.835111 0.888487 0.777386
0.925475 0.892287 0.756588
0.020325 0.28806 0.48838
0.0473335 0.33286 0.58117
0.100938 0.34638 0.664652
0.230518 0.326207 0.751522
0.500206 0.264729 0.795438
0.714687 0.245136 0.743236
0.773968 0.299199 0.688823
0.77641 0.304433 0.690593
0.778866 0.309636 0.692378
0.0507668 0.597452 0.764126
0.092195 0.601083 0.775876
0.143526 0.573877 0.77908
0.250401 0.535515 0.798703
0.491142 0.478355 0.830854
0.706157 0.410605 0.813535
0.809705 0.444495 0.731914
0.810483 0.448829 0.732372
0.810956 0.452842 0.733272
0.143343 0.666163 0.799435
0.188479 0.685954 0.802533
0.292607 0.680812 0.798108
0.383001 0.646418 0.798611
0.520012 0.608835 0.8206
0.708415 0.562005 0.824659
0.831922 0.57229 0.759091
0.832532 0.574533 0.759457
0.832731 0.57554 0.759747
0.0594339 0.761318 0.835554
0.330755 0.746395 0.814435
0.509331 0.751766 0.814069
0.54435 0.747311 0.815061
0.58996 0.703838 0.819837
0.727642 0.673869 0.833326
0.845106 0.681895 0.792523
0.846601 0.681712 0.790845
0.846296 0.679026 0.790066
0.0733196 0.778881 0.841169
0.130465 0.800351 0.84477
0.334264 0.822156 0.840772
0.664714 0.808026 0.835554
0.681331 0.79855 0.834501
0.74609 0.764965 0.834928
0.850706 0.765621 0.821057
0.866529 0.764904 0.814237
0.865019 0.759976 0.812558
0.0265507 0.850996 0.857389
0.119509 0.83212 0.85507
0.333043 0.826856 0.842557
0.514626 0.838788 0.842771
0.674784 0.851759 0.84947
0.770703 0.836271 0.849073
0.850248 0.825727 0.843656
0.88397 0.826017 0.836301
0.883528 0.818845 0.829419
0.0200351 0.902113 0.867735
0.0600595 0.901152 0.872923
0.146426 0.899077 0.872953
0.409186 0.892622 0.862913
0.63592 0.881651 0.859739
0.77409 0.8701 0.860761
0.838163 0.867811 0.850752
0.905058 0.867582 0.835843
0.905196 0.85977 0.827375
0.0202487 0.900649 0.863767
0.054139 0.896864 0.861021
0.136339 0.896605 0.859831
0.376104 0.895506 0.851148
0.584146 0.893797 0.851972
0.715068 0.891463 0.856886
0.797986 0.892241 0.855192
0.879271 0.895888 0.839231
0.912444 0.890013 0.823972
0.0208896 0.89337 0.844556
0.0470588 0.890181 0.843412
0.128878 0.889845 0.8439
0.329503 0.888502 0.837934
0.545007 0.887892 0.839582
0.675731 0.886595 0.845289
0.753017 0.887831 0.844556
0.824109 0.891768 0.828733
0.916182 0.89546 0.807568
0.0211948 0.304082 0.507958
0.0494392 0.348074 0.596185
0.10367 0.358755 0.674327
0.232395 0.333532 0.754955
0.500877 0.269688 0.797238
0.714565 0.247959 0.745541
0.775189 0.301869 0.689723
0.777523 0.306889 0.691432
0.779889 0.311925 0.693156
0.0482032 0.604639 0.767651
0.0935073 0.604623 0.777584
0.148608 0.579873 0.781537
0.257893 0.540642 0.799222
0.488136 0.481849 0.830381
0.703151 0.414099 0.814588
0.80972 0.446311 0.732723
0.810712 0.45069 0.732784
0.811154 0.454505 0.733654
0.154788 0.665309 0.798749
0.168093 0.693187 0.805951
0.293828 0.682963 0.79855
0.402472 0.653346 0.799985
0.52314 0.612558 0.820478
0.704875 0.564584 0.825483
0.831601 0.57348 0.760006
0.832715 0.575525 0.759747
0.832792 0.575936 0.759869
0.132891 0.750698 0.827558
0.413413 0.741146 0.811154
0.468864 0.760998 0.815946
0.558892 0.755077 0.817472
0.613748 0.71426 0.821927
0.72398 0.67538 0.833677
0.842618 0.68043 0.794598
0.846586 0.681376 0.790738
0.84622 0.678172 0.789822
0.052491 0.809491 0.850019
0.117815 0.829587 0.854582
0.565866 0.818021 0.834791
0.693904 0.820569 0.840024
0.712581 0.812955 0.839292
0.750561 0.76965 0.835676
0.845014 0.763729 0.822553
0.866163 0.763638 0.813779
0.8645 0.758389 0.812055
0.0564889 0.831296 0.855695
0.142473 0.834257 0.854414
0.250034 0.856458 0.855924
0.561212 0.876005 0.856489
0.785153 0.859434 0.85716
0.792966 0.849454 0.853803
0.84332 0.823651 0.843549
0.88333 0.824125 0.835813
0.881422 0.817807 0.8336
0.0234989 0.897688 0.86775
0.101259 0.880888 0.868437
0.306859 0.872923 0.858625
0.540871 0.872236 0.854917
0.655131 0.880796 0.860334
0.771771 0.886854 0.868666
0.840848 0.874403 0.864561
0.898222 0.868406 0.85362
0.8963 0.86154 0.850202
0.0200351 0.902129 0.86775
0.0537728 0.901411 0.872663
0.129396 0.902663 0.875074
0.362325 0.90312 0.867964
0.590936 0.902678 0.867735
0.742092 0.89955 0.872938
0.830427 0.895766 0.875944
0.874571 0.897368 0.873808
0.902983 0.892943 0.866514
0.0200351 0.902129 0.86775
0.0482338 0.901671 0.872251
0.11339 0.902403 0.875212
0.285496 0.902937 0.86978
0.510628 0.903197 0.866911
0.664988 0.90016 0.867384
0.767788 0.896208 0.869261
0.838361 0.895552 0.867216
0.90042 0.899718 0.854261
0.0220645 0.319051 0.525841
0.0514076 0.361929 0.609567
0.106538 0.371145 0.683757
0.235416 0.342855 0.759457
0.501839 0.274342 0.798962
0.714488 0.251118 0.747662
0.776287 0.304326 0.690562
0.778592 0.309285 0.692256
0.78085 0.314122 0.693889
0.0471962 0.609537 0.770245
0.0948043 0.60763 0.779019
0.152926 0.584894 0.783368
0.26685 0.546059 0.799802
0.487922 0.486168 0.830274
0.700557 0.417472 0.815549
0.809674 0.448081 0.733623
0.810941 0.452644 0.733227
0.811337 0.455924 0.733974
0.14789 0.670527 0.800504
0.157977 0.696941 0.807889
0.295979 0.68452 0.798856
0.416678 0.658274 0.801312
0.532326 0.617273 0.82092
0.701808 0.567041 0.826169
0.831174 0.574563 0.760967
0.832868 0.576394 0.760006
0.832837 0.576135 0.759915
0.238514 0.736751 0.815656
0.437217 0.740001 0.810559
0.434043 0.766232 0.817884
0.559152 0.756115 0.81767
0.630045 0.721691 0.823423
0.724361 0.679362 0.833722
0.839658 0.678492 0.79678
0.84651 0.680735 0.790555
0.846113 0.677195 0.789532
0.0492561 0.831235 0.855543
0.312932 0.818311 0.840223
0.630488 0.812863 0.835096
0.664027 0.82887 0.841123
0.726864 0.820005 0.841871
0.766659 0.77995 0.837812
0.839353 0.761608 0.82414
0.865736 0.762203 0.81326
0.863905 0.756542 0.81149
0.0649119 0.838621 0.857679
0.12253 0.859388 0.862806
0.358419 0.879316 0.859403
0.720775 0.871275 0.859174
0.807385 0.871305 0.862638
0.815946 0.86276 0.858961
0.843687 0.82649 0.844388
0.882765 0.822232 0.835157
0.880796 0.815732 0.832883
0.0420539 0.874296 0.864775
0.139101 0.869383 0.864744
0.348272 0.875959 0.858503
0.549813 0.890761 0.862318
0.72781 0.900038 0.872312
0.851377 0.89456 0.874495
0.85536 0.885008 0.869001
0.894484 0.865751 0.852888
0.89546 0.859083 0.849119
0.0226444 0.902403 0.868955
0.0948348 0.902129 0.875029
0.294453 0.902953 0.869551
0.536934 0.900923 0.866224
0.673136 0.898939 0.868986
0.750423 0.899321 0.873335
0.823667 0.897688 0.876844
0.874815 0.898909 0.874678
0.903059 0.890349 0.865034
0.0200198 0.902113 0.867735
0.0471809 0.901717 0.87219
0.112825 0.902403 0.875227
0.289967 0.902953 0.869673
0.523476 0.903166 0.867002
0.684794 0.901167 0.870588
0.795987 0.898116 0.8757
0.857328 0.89865 0.876265
0.893599 0.901396 0.873381
