LUT预设1/柯达5219&2393/柯达5219系列-709/柯达5219微调709.cube
TITLE "Generated by Resolve"
LUT_3D_SIZE 9
0.0448157 0.0517891 0.0790265
0.0702373 0.0596933 0.0804608
0.109789 0.0687572 0.0769513
0.164431 0.076936 0.0723125
0.242054 0.0839246 0.0650034
0.347875 0.0914321 0.0519112
0.487694 0.0990158 0.0352483
0.657816 0.10338 0.0227359
0.834943 0.118669 0.0108644
0.0565347 0.0926833 0.112596
0.102708 0.102312 0.107042
0.170077 0.111116 0.097612
0.254765 0.120531 0.0863813
0.369543 0.130785 0.0674754
0.515007 0.139666 0.0491493
0.676555 0.149264 0.0337377
0.83566 0.169512 0.0212711
0.947585 0.217136 0.013901
0.0420844 0.154681 0.154864
0.087068 0.165377 0.139696
0.213611 0.169451 0.116121
0.339269 0.177508 0.0958419
0.483345 0.187808 0.0739147
0.643977 0.199603 0.0579385
0.800244 0.220737 0.0463874
0.927977 0.26244 0.0325322
0.982315 0.334585 0.0235904
0.0185092 0.237934 0.204959
0.0481575 0.250217 0.186206
0.17409 0.254078 0.152529
0.364385 0.258244 0.110719
0.524208 0.266804 0.0824445
0.688502 0.282826 0.0703288
0.84033 0.314855 0.0630198
0.951583 0.367254 0.0577401
0.993637 0.450599 0.0608225
0.00766003 0.353811 0.269429
0.0234073 0.364446 0.252003
0.0920424 0.367849 0.216129
0.308522 0.370321 0.168078
0.526131 0.375937 0.111711
0.685756 0.392126 0.0850996
0.834104 0.422751 0.0738384
0.950149 0.469413 0.076585
0.996429 0.544579 0.101076
0.0040589 0.495705 0.361807
0.0107424 0.506065 0.349447
0.0411536 0.508843 0.301488
0.183902 0.507927 0.25597
0.480354 0.518715 0.197635
0.688975 0.525002 0.118578
0.819883 0.5393 0.0834211
0.937591 0.571298 0.0777142
0.990082 0.624903 0.10399
0.00187686 0.642725 0.472023
0.00437934 0.652049 0.468482
0.0181735 0.653208 0.41973
0.106676 0.651514 0.374517
0.369253 0.659327 0.322362
0.651423 0.665293 0.243641
0.818616 0.666224 0.145617
0.925963 0.679576 0.104631
0.983963 0.711559 0.107469
0.000640879 0.766308 0.581292
0.000808728 0.772869 0.582116
0.00588998 0.773785 0.544488
0.0468452 0.772778 0.501106
0.200412 0.771099 0.436133
0.571511 0.788083 0.423926
0.791531 0.794873 0.340322
0.929778 0.791577 0.211078
0.981537 0.805798 0.177722
0.00030518 0.860761 0.688975
0.000823987 0.86508 0.691463
0.00263981 0.867277 0.67451
0.0081178 0.86746 0.635813
0.0706188 0.864912 0.572305
0.402655 0.876143 0.546212
0.712337 0.894377 0.539574
0.89807 0.898909 0.462531
0.983001 0.897963 0.367666
0.0422827 0.0559854 0.09897
0.0682078 0.0622568 0.109422
0.107683 0.0706798 0.110201
0.154955 0.0824292 0.102205
0.226001 0.0901961 0.096788
0.328389 0.0943923 0.088304
0.464103 0.0973983 0.0734722
0.63003 0.104158 0.0578317
0.8103 0.124331 0.0379492
0.0545205 0.0986496 0.138216
0.0956436 0.105806 0.145846
0.153887 0.116533 0.139696
0.227466 0.128786 0.128557
0.333318 0.138186 0.115373
0.471 0.147143 0.0953078
0.629007 0.158984 0.0762036
0.794797 0.183337 0.0569162
0.92813 0.229816 0.0424659
0.0508736 0.158373 0.182055
0.0946059 0.166247 0.188418
0.187701 0.176516 0.169833
0.30016 0.187655 0.155154
0.43418 0.2 0.136126
0.588327 0.214755 0.114031
0.744076 0.238392 0.0961776
0.887572 0.279072 0.0797894
0.970382 0.348592 0.0639658
0.036286 0.237583 0.240345
0.0568093 0.250355 0.246601
0.139223 0.260334 0.218509
0.332158 0.266499 0.184512
0.494545 0.277424 0.160235
0.652506 0.296803 0.143633
0.804074 0.33106 0.132387
0.930541 0.383825 0.128359
0.989181 0.462104 0.124651
0.0213016 0.349722 0.314763
0.0338598 0.363043 0.318959
0.0816052 0.372763 0.293919
0.258183 0.377111 0.24126
0.499184 0.385519 0.196979
0.669474 0.403342 0.169116
0.821088 0.435187 0.159106
0.944488 0.484733 0.162982
0.995148 0.559487 0.18967
0.0107881 0.489982 0.409552
0.0156863 0.503685 0.412955
0.0383612 0.516487 0.396994
0.134218 0.515969 0.334234
0.446525 0.522866 0.281697
0.674556 0.531579 0.207431
0.810864 0.548562 0.173236
0.932418 0.582269 0.179309
0.989059 0.639948 0.219287
0.00643931 0.637766 0.513924
0.00979629 0.647776 0.518624
0.0140078 0.658869 0.508492
0.0691997 0.659007 0.450904
0.299413 0.661234 0.396139
0.6224 0.666239 0.326635
0.799863 0.671305 0.251316
0.919463 0.685481 0.207492
0.984421 0.718868 0.228534
0.00274662 0.761654 0.613077
0.004654 0.768414 0.621592
0.00637827 0.77435 0.607401
0.0370794 0.77673 0.57496
0.128374 0.775723 0.510735
0.518471 0.784512 0.468894
0.767742 0.794629 0.418982
0.915801 0.795193 0.319097
0.977096 0.809644 0.296605
0.00215152 0.856199 0.708003
0.00383001 0.860853 0.71603
0.0052491 0.865202 0.712093
0.0106661 0.869261 0.697276
0.0389563 0.868376 0.632853
0.328374 0.873381 0.589624
0.670787 0.890181 0.576364
0.882918 0.896727 0.517296
0.977966 0.898268 0.438163
0.0382239 0.0631266 0.119615
0.0623331 0.0675212 0.139483
0.104387 0.0719158 0.153002
0.154376 0.083299 0.148333
0.210773 0.0989853 0.139116
0.295338 0.108324 0.132998
0.427787 0.104509 0.126162
0.588769 0.0943465 0.119341
0.765286 0.0982528 0.106249
0.0489357 0.109468 0.166018
0.0839704 0.114519 0.186618
0.143832 0.118227 0.199145
0.210529 0.133608 0.186831
0.295933 0.148669 0.172107
0.421225 0.155886 0.15964
0.577829 0.156954 0.1458
0.743023 0.164889 0.131945
0.894133 0.210834 0.113649
0.0440986 0.172473 0.215
0.0897231 0.176501 0.230243
0.165545 0.18262 0.238087
0.264775 0.195483 0.225193
0.379599 0.210986 0.2065
0.524071 0.224262 0.188067
0.681331 0.242359 0.171069
0.833082 0.280629 0.153796
0.945098 0.348974 0.135378
0.0340887 0.252918 0.272801
0.0757 0.256764 0.288533
0.146639 0.263478 0.293507
0.293675 0.274937 0.265766
0.442756 0.289601 0.247868
0.591531 0.309712 0.233143
0.747356 0.342336 0.221515
0.885359 0.393042 0.211826
0.972107 0.466499 0.199268
0.0296025 0.357916 0.349447
0.0604868 0.364279 0.369268
0.0915999 0.37641 0.373037
0.219135 0.384237 0.336034
0.44889 0.396353 0.296757
0.633524 0.414313 0.275013
0.789548 0.448524 0.269963
0.920958 0.499016 0.273716
0.987106 0.568444 0.286351
0.0224765 0.492576 0.446616
0.0392309 0.503197 0.463691
0.0645609 0.514809 0.467552
0.117937 0.524071 0.438636
0.366629 0.530694 0.369619
0.647486 0.539437 0.325307
0.796674 0.559976 0.30428
0.920256 0.595758 0.313313
0.985046 0.653376 0.348699
0.0154421 0.634165 0.548989
0.0236667 0.643 0.56141
0.0340429 0.65272 0.572045
0.0441444 0.666178 0.550301
0.228107 0.664088 0.484886
0.573831 0.66862 0.418723
0.778088 0.675364 0.369421
0.907347 0.692119 0.343832
0.981689 0.728069 0.370596
0.00941482 0.75613 0.639292
0.0155489 0.76173 0.64889
0.0236667 0.768841 0.655344
0.0387579 0.774929 0.639139
0.103731 0.779309 0.601633
0.406973 0.782361 0.531106
0.737133 0.791836 0.496834
0.896437 0.797055 0.425361
0.970428 0.812238 0.410224
0.00932326 0.851179 0.727718
0.0146487 0.855207 0.73579
0.0214694 0.860182 0.741192
0.0299077 0.865263 0.740078
0.0394751 0.869276 0.713512
0.200229 0.870802 0.647379
0.615366 0.88452 0.622507
0.860471 0.893126 0.578912
0.96968 0.896727 0.512673
0.0344244 0.0723583 0.141665
0.0539254 0.0769665 0.169543
0.093492 0.0774701 0.19939
0.156558 0.0791791 0.21387
0.218738 0.0964675 0.20206
0.281727 0.121065 0.187182
0.38323 0.132677 0.18056
0.538552 0.123766 0.177829
0.717678 0.0967727 0.179721
0.0423285 0.126085 0.201068
0.0693675 0.131884 0.228519
0.119753 0.129427 0.264988
0.205188 0.129976 0.276463
0.290944 0.14815 0.255955
0.378973 0.172625 0.23212
0.511849 0.179095 0.2206
0.681712 0.166125 0.220249
0.837217 0.1664 0.225803
0.041413 0.194217 0.265721
0.0758679 0.198795 0.283787
0.141283 0.198291 0.307179
0.243595 0.198245 0.322332
0.347082 0.216876 0.298177
0.461418 0.237736 0.272755
0.613077 0.250034 0.260365
0.770977 0.269352 0.25597
0.901534 0.310094 0.256199
0.0301061 0.280369 0.32871
0.0649577 0.282002 0.340658
0.139635 0.279973 0.352743
0.262806 0.2851 0.361364
0.395743 0.301213 0.343847
0.532403 0.322713 0.324178
0.681147 0.350072 0.310765
0.82887 0.392462 0.301472
0.943465 0.454704 0.297566
0.0246281 0.386511 0.3944
0.0566262 0.389029 0.413138
0.119051 0.386648 0.426184
0.220844 0.392874 0.424079
0.421988 0.40679 0.39617
0.584512 0.427619 0.378271
0.734798 0.458915 0.371679
0.871565 0.50634 0.365743
0.966217 0.570855 0.369451
0.0222934 0.511254 0.48043
0.0487678 0.515724 0.500328
0.0919509 0.519036 0.515373
0.150881 0.525826 0.512596
0.308919 0.539193 0.480629
0.597177 0.549554 0.435981
0.764263 0.571267 0.423041
0.892485 0.605814 0.423453
0.975006 0.662623 0.447089
0.0181582 0.640238 0.577249
0.0389715 0.645518 0.59324
0.067216 0.651377 0.60824
0.103441 0.660624 0.614313
0.179538 0.669978 0.572229
0.523079 0.673381 0.515541
0.751019 0.680812 0.475914
0.891554 0.69868 0.46154
0.976761 0.738369 0.491478
0.0153964 0.755642 0.663996
0.0286717 0.759869 0.675593
0.0546883 0.763516 0.686549
0.0811017 0.77055 0.68896
0.129671 0.7776 0.667338
0.335744 0.783734 0.616983
0.687953 0.789822 0.567346
0.87631 0.797024 0.523537
0.963363 0.815122 0.517311
0.0205844 0.848447 0.747356
0.0328374 0.851896 0.756161
0.0581826 0.855268 0.763348
0.0851453 0.860105 0.766323
0.11223 0.86627 0.762646
0.163333 0.870802 0.718029
0.544808 0.879515 0.670481
0.835599 0.889281 0.641337
0.958526 0.894148 0.583902
0.0309758 0.0849165 0.166613
0.0457008 0.0928511 0.199969
0.0759899 0.0937209 0.243992
0.136278 0.0864576 0.284993
0.22388 0.0882582 0.292531
0.303578 0.113237 0.272053
0.378454 0.147356 0.253193
0.486244 0.170657 0.242954
0.659052 0.15816 0.246372
0.0371252 0.148089 0.244938
0.0586252 0.156619 0.277897
0.0969558 0.157412 0.321721
0.172641 0.146059 0.366857
0.289616 0.140597 0.373175
0.387335 0.168826 0.337911
0.473869 0.205509 0.305898
0.609598 0.217624 0.295232
0.77406 0.207095 0.30547
0.0366369 0.226322 0.329397
0.066453 0.231998 0.348043
0.114275 0.232059 0.376822
0.199496 0.222217 0.420096
0.337316 0.21442 0.431312
0.450538 0.239368 0.391882
0.557885 0.271626 0.356512
0.693065 0.288914 0.348043
0.844266 0.298238 0.357061
0.0305333 0.320699 0.411688
0.0635386 0.322499 0.418952
0.118547 0.317815 0.429084
0.222309 0.312108 0.449042
0.365759 0.313252 0.46009
0.496818 0.332265 0.438148
0.621881 0.362737 0.408438
0.762112 0.390143 0.400153
0.900679 0.428397 0.402396
0.0232853 0.430014 0.474586
0.0487373 0.429984 0.48365
0.10396 0.422873 0.488945
0.214237 0.416434 0.494133
0.391821 0.421866 0.499947
0.538628 0.443366 0.481193
0.676402 0.473945 0.460639
0.815824 0.510277 0.454688
0.93164 0.563119 0.452049
0.0183261 0.544228 0.532189
0.0369879 0.54522 0.545769
0.0890822 0.542855 0.557977
0.182864 0.538796 0.56466
0.376867 0.546456 0.558251
0.554559 0.562188 0.537926
0.720211 0.583139 0.519188
0.853193 0.614572 0.516258
0.95494 0.666331 0.520165
0.0158389 0.660212 0.603647
0.0365911 0.661982 0.621271
0.0777905 0.662959 0.637247
0.14464 0.662745 0.643961
0.28127 0.669215 0.639582
0.484993 0.680339 0.604028
0.727993 0.687114 0.570184
0.873289 0.705653 0.561929
0.964202 0.747799 0.577844
0.0149996 0.763073 0.683024
0.038056 0.765606 0.696193
0.0724956 0.766522 0.70985
0.139437 0.7691 0.714778
0.23328 0.775494 0.710277
0.409369 0.784909 0.682414
0.638483 0.792782 0.63978
0.854795 0.799512 0.6112
0.956725 0.81886 0.604639
0.0254978 0.850431 0.763836
0.0471351 0.852674 0.774029
0.0926223 0.855467 0.780987
0.150698 0.859174 0.783062
0.244923 0.864439 0.77969
0.34464 0.87216 0.767575
0.501808 0.879423 0.727184
0.809018 0.8869 0.697459
0.943725 0.891524 0.655711
0.027451 0.101579 0.198398
0.0403601 0.112261 0.238132
0.0646372 0.117006 0.290593
0.11281 0.109758 0.351629
0.205203 0.0938735 0.395575
0.322255 0.0970321 0.394156
0.421134 0.131426 0.360494
0.497795 0.186969 0.329473
0.609445 0.21944 0.325338
0.0324559 0.17847 0.301961
0.0505379 0.191638 0.341756
0.0809796 0.197101 0.392096
0.139513 0.184192 0.452262
0.261891 0.156298 0.495872
0.406439 0.152895 0.480735
0.508751 0.196612 0.426368
0.589136 0.251026 0.387121
0.706966 0.276661 0.383658
0.0356146 0.273655 0.408942
0.0581521 0.284611 0.434806
0.0953841 0.284489 0.462364
0.160769 0.273472 0.5028
0.291905 0.249836 0.543877
0.45333 0.239384 0.536095
0.562966 0.27718 0.478538
0.647425 0.325658 0.440055
0.774655 0.345205 0.437232
0.0321202 0.378424 0.500084
0.0596017 0.380362 0.507973
0.108339 0.372396 0.514138
0.183383 0.362768 0.531853
0.322026 0.349432 0.565026
0.486061 0.344076 0.565454
0.601541 0.375463 0.522118
0.703288 0.416022 0.491417
0.837537 0.4383 0.491569
0.0249943 0.480552 0.565164
0.0506447 0.479377 0.569268
0.100175 0.472038 0.568734
0.196078 0.460639 0.567437
0.350774 0.459419 0.581277
0.516976 0.459373 0.594293
0.645106 0.485405 0.565591
0.762524 0.522911 0.540703
0.888106 0.556298 0.537118
0.0150301 0.585977 0.610636
0.0309453 0.586099 0.618524
0.0719005 0.582452 0.624247
0.161685 0.573968 0.621363
0.361212 0.571756 0.623529
0.546929 0.578317 0.621393
0.684031 0.597009 0.606775
0.808865 0.625788 0.591638
0.927184 0.663218 0.585687
0.0126955 0.687846 0.653025
0.0235752 0.688411 0.663722
0.0667735 0.686625 0.67509
0.143465 0.682445 0.678752
0.351614 0.679683 0.676677
0.538231 0.68603 0.67425
0.712917 0.696117 0.646647
0.841794 0.716396 0.639338
0.94139 0.752438 0.638498
0.0148623 0.779126 0.707057
0.0337377 0.78027 0.718318
0.0717327 0.779355 0.730068
0.154833 0.777752 0.736233
0.346853 0.779309 0.737179
0.489494 0.788251 0.733394
0.651865 0.796063 0.710521
0.833295 0.804776 0.684382
0.947341 0.822995 0.676997
0.0230259 0.858106 0.775784
0.0529488 0.859281 0.786709
0.0979782 0.860716 0.796292
0.200336 0.863188 0.79733
0.387381 0.867765 0.798184
0.509148 0.874311 0.798871
0.594049 0.882094 0.785031
0.772519 0.886656 0.749249
0.93109 0.891188 0.721492
0.0243992 0.123049 0.238376
0.0357824 0.138796 0.286442
0.05449 0.150851 0.347051
0.0890822 0.151095 0.423163
0.166171 0.128008 0.498421
0.305303 0.101305 0.53257
0.450782 0.112322 0.504845
0.553826 0.170687 0.451057
0.627832 0.244556 0.417044
0.0262608 0.222568 0.375448
0.0427558 0.243015 0.422492
0.0704051 0.254841 0.47396
0.110796 0.250431 0.532158
0.20734 0.21651 0.597391
0.383841 0.17322 0.625376
0.544213 0.179065 0.578058
0.632074 0.247807 0.507362
0.696849 0.319356 0.473182
0.0317082 0.343664 0.508949
0.0535744 0.356786 0.53341
0.087602 0.357595 0.557
0.137819 0.346487 0.58912
0.244434 0.317861 0.632425
0.428122 0.280308 0.654444
0.583078 0.280079 0.61651
0.669062 0.335531 0.551202
0.739208 0.397131 0.518669
0.0358587 0.448081 0.594247
0.0595254 0.45124 0.599954
0.0992752 0.447044 0.60531
0.160998 0.435767 0.617105
0.271168 0.419593 0.642985
0.452369 0.39089 0.673671
0.616449 0.382757 0.650202
0.704845 0.433753 0.592126
0.78967 0.483513 0.566445
0.0311284 0.539132 0.649088
0.0564584 0.538125 0.648692
0.100603 0.533608 0.648173
0.167437 0.523995 0.648844
0.318074 0.515404 0.657755
0.486336 0.50663 0.675227
0.634058 0.505684 0.672877
0.740322 0.537621 0.634058
0.837079 0.574868 0.612955
0.0184482 0.630961 0.691386
0.0404517 0.630381 0.693248
0.0780194 0.626841 0.693492
0.153475 0.618738 0.689143
0.357794 0.612268 0.683177
0.530571 0.609934 0.690791
0.665568 0.612741 0.693111
0.773037 0.637812 0.668193
0.884474 0.665187 0.654948
0.0114443 0.719066 0.718135
0.0242466 0.719295 0.723934
0.0578012 0.716335 0.729061
0.133471 0.711452 0.728038
0.325887 0.705104 0.720821
0.554665 0.705058 0.719326
0.688838 0.710826 0.720699
0.808942 0.727825 0.705562
0.915541 0.755322 0.697658
0.0137942 0.800107 0.747112
0.0240787 0.800717 0.754681
0.0646372 0.798459 0.762722
0.133974 0.796185 0.766033
0.352728 0.793759 0.763302
0.550637 0.796216 0.768414
0.677211 0.802609 0.76553
0.823148 0.811383 0.746792
0.930465 0.829068 0.740063
0.0215305 0.871 0.795911
0.0463722 0.871199 0.804669
0.0892805 0.87155 0.812421
0.201755 0.87303 0.813565
0.425345 0.875761 0.815763
0.578927 0.879042 0.822736
0.677348 0.882765 0.822522
0.7832 0.887922 0.803296
0.923186 0.893126 0.777035
0.0210727 0.151858 0.289448
0.0302434 0.17557 0.347265
0.0472419 0.196887 0.417288
0.078233 0.208881 0.496834
0.13727 0.194049 0.57792
0.27361 0.156466 0.638514
0.452918 0.127977 0.645411
0.603494 0.154726 0.594034
0.686992 0.243854 0.528984
0.0233463 0.284794 0.471321
0.0382849 0.313176 0.520638
0.0622568 0.331792 0.566629
0.103487 0.332235 0.618357
0.177859 0.310582 0.67303
0.346578 0.266041 0.719936
0.538033 0.219165 0.714473
0.672633 0.244633 0.648707
0.738399 0.330755 0.578164
0.0343023 0.42948 0.614664
0.0527199 0.44593 0.636973
0.0815595 0.45185 0.65565
0.126665 0.444862 0.678492
0.203662 0.422202 0.709499
0.382483 0.379553 0.747112
0.578302 0.3252 0.745388
0.706615 0.3393 0.680385
0.767315 0.416129 0.61387
0.0396429 0.537499 0.692332
0.0621805 0.541558 0.698268
0.0975967 0.538064 0.700755
0.148608 0.526467 0.704326
0.243305 0.508965 0.717128
0.411719 0.484901 0.743847
0.593622 0.443976 0.758526
0.727642 0.44715 0.710109
0.792996 0.509743 0.651011
0.0381933 0.610666 0.730877
0.0605936 0.610895 0.731182
0.103929 0.607095 0.729046
0.172885 0.598047 0.726238
0.31043 0.589151 0.728588
0.466499 0.576883 0.7458
0.61709 0.555718 0.75935
0.742885 0.557916 0.73051
0.819013 0.601801 0.684779
0.0293889 0.680613 0.761303
0.0515908 0.680507 0.762478
0.0977493 0.677546 0.760494
0.182071 0.669551 0.751659
0.370123 0.663569 0.743297
0.516121 0.659831 0.750988
0.645136 0.649927 0.770367
0.766918 0.65301 0.753002
0.853025 0.683589 0.72166
0.0165255 0.754131 0.785534
0.0348821 0.75404 0.788891
0.0626841 0.751171 0.791348
0.154147 0.745861 0.784085
0.355657 0.739223 0.771435
0.544106 0.736858 0.770809
0.677348 0.735653 0.777523
0.790127 0.743038 0.771908
0.886152 0.765255 0.756008
0.0108949 0.824079 0.799527
0.0213474 0.82385 0.804898
0.0567483 0.820783 0.809506
0.127596 0.818814 0.809552
0.316274 0.815152 0.801511
0.554543 0.815305 0.800824
0.70013 0.814801 0.807446
0.813001 0.820737 0.802258
0.909667 0.836225 0.792096
0.0213474 0.885801 0.826993
0.035874 0.886244 0.832074
0.0861219 0.88658 0.836988
0.17734 0.886809 0.836728
0.42182 0.887297 0.835172
0.597452 0.887617 0.842206
0.717052 0.887907 0.849119
0.804181 0.891569 0.844709
0.911345 0.897337 0.826581
0.0172427 0.191287 0.356603
0.0259709 0.225422 0.429114
0.0426184 0.258824 0.504753
0.0715648 0.281071 0.58172
0.124483 0.282887 0.658381
0.240299 0.255589 0.727459
0.437644 0.211124 0.768933
0.624689 0.179324 0.743008
0.739712 0.242267 0.669352
0.023331 0.366094 0.578164
0.0381323 0.400732 0.627008
0.0622873 0.427726 0.669779
0.099382 0.440284 0.710826
0.161746 0.432761 0.754971
0.310216 0.398611 0.797681
0.519158 0.338628 0.821302
0.693721 0.29012 0.788632
0.789929 0.338277 0.702007
0.0357977 0.534676 0.721813
0.0547646 0.554314 0.741695
0.0841077 0.562249 0.756176
0.123323 0.558862 0.768429
0.189792 0.542824 0.787213
0.352758 0.511025 0.813199
0.543969 0.452796 0.835889
0.713863 0.395865 0.810391
0.808377 0.431159 0.728389
0.043122 0.63624 0.785092
0.0677195 0.640406 0.789899
0.107485 0.636744 0.790677
0.159365 0.627405 0.78912
0.250813 0.612711 0.792599
0.405203 0.590387 0.808881
0.567376 0.5514 0.829114
0.721828 0.510918 0.815473
0.822965 0.528161 0.749584
0.0435187 0.689174 0.80911
0.0768749 0.690486 0.809766
0.126375 0.687922 0.806699
0.210956 0.681895 0.799939
0.339345 0.673716 0.796017
0.4663 0.66157 0.806806
0.596307 0.637217 0.82797
0.739635 0.603494 0.826017
0.839307 0.617166 0.772122
0.0405127 0.738567 0.827909
0.0666361 0.739513 0.827909
0.126177 0.738399 0.823743
0.231342 0.733135 0.814771
0.39379 0.728252 0.807782
0.525139 0.721462 0.810162
0.632776 0.70956 0.824552
0.752773 0.693141 0.831159
0.849714 0.702998 0.796643
0.0295567 0.791821 0.84445
0.0557565 0.791943 0.845411
0.103502 0.791226 0.843503
0.192111 0.787396 0.835462
0.389349 0.783795 0.825132
0.554818 0.780209 0.822751
0.673472 0.775113 0.829938
0.779232 0.769894 0.837247
0.870527 0.778592 0.81915
0.016495 0.848798 0.855558
0.0384375 0.848722 0.858061
0.0687877 0.846693 0.859739
0.14432 0.846036 0.857832
0.335973 0.843107 0.848295
0.560906 0.841962 0.843626
0.704173 0.838407 0.845518
0.806638 0.837079 0.849744
0.890639 0.845426 0.84329
0.0199741 0.902113 0.86772
0.0361028 0.902129 0.871305
0.0835737 0.90193 0.874769
0.161471 0.902831 0.87393
0.387884 0.903212 0.867445
0.586297 0.902754 0.867582
0.725277 0.90013 0.87219
0.826795 0.897597 0.877043
0.902663 0.902464 0.872221
