LUT预设1/柯达5219&2393/柯达5219系列-709/柯达5219绿调-709.cube
TITLE "Generated by Resolve"
LUT_3D_SIZE 9
0.0448157 0.0517891 0.0790265
0.101793 0.0686351 0.0794842
0.191592 0.0840467 0.0733043
0.32398 0.0978408 0.0584421
0.50808 0.110674 0.0383917
0.719432 0.124147 0.0215915
0.899168 0.157473 0.0122377
0.909087 0.16495 0.0124056
0.914717 0.171908 0.0126802
0.0416876 0.156588 0.156024
0.176501 0.164065 0.121019
0.367697 0.177325 0.0903334
0.581033 0.194522 0.0635538
0.782223 0.22002 0.0481422
0.900328 0.249744 0.0347448
0.950439 0.278737 0.0262913
0.976806 0.312139 0.0205386
0.978302 0.314611 0.0202029
0.00976577 0.302373 0.240894
0.0993362 0.302296 0.188357
0.397894 0.305196 0.119722
0.621637 0.321431 0.0803235
0.82443 0.359213 0.0699931
0.960204 0.42858 0.0716716
0.995178 0.503075 0.0805524
0.995315 0.506157 0.082002
0.995346 0.5066 0.0821698
0.00411994 0.496513 0.362356
0.0369879 0.485161 0.292515
0.295644 0.483833 0.226001
0.617212 0.494163 0.133227
0.808057 0.515541 0.0857099
0.946624 0.558282 0.0786603
0.991791 0.611994 0.104417
0.991577 0.613565 0.104738
0.991592 0.613428 0.105119
0.00106813 0.687266 0.512749
0.0122377 0.674037 0.448692
0.142504 0.664454 0.363958
0.557794 0.67715 0.305791
0.803677 0.675868 0.164843
0.931701 0.688243 0.106493
0.983734 0.715251 0.107881
0.983886 0.711421 0.107713
0.984039 0.706508 0.107576
0.000228885 0.822034 0.64416
0.00141909 0.810864 0.598718
0.0609903 0.799527 0.513695
0.420233 0.803021 0.458839
0.740383 0.813718 0.397803
0.918013 0.803494 0.244617
0.979309 0.807019 0.182589
0.981613 0.800626 0.171969
0.981674 0.792081 0.160601
0.000335698 0.861036 0.689128
0.00216678 0.867277 0.679988
0.0213931 0.866896 0.623316
0.144259 0.86685 0.544701
0.620493 0.886717 0.548974
0.851438 0.892439 0.482734
0.966171 0.881376 0.349248
0.98439 0.872084 0.303395
0.983856 0.861997 0.283024
0.000350958 0.861204 0.689235
0.00190738 0.867262 0.683192
0.0127718 0.867262 0.631449
0.0927901 0.864958 0.552254
0.538949 0.882216 0.551812
0.789212 0.898756 0.530419
0.932128 0.898955 0.434791
0.982879 0.897963 0.367849
0.983001 0.897963 0.367666
0.000366217 0.861341 0.689342
0.00169375 0.86714 0.685924
0.00787366 0.867384 0.639078
0.0716411 0.864897 0.57084
0.415686 0.876722 0.547021
0.7075 0.893935 0.5402
0.877287 0.899107 0.478935
0.963821 0.898039 0.395468
0.983001 0.897963 0.367666
0.0413977 0.0582742 0.104723
0.101915 0.0714885 0.131746
0.188693 0.0955978 0.130556
0.318364 0.113298 0.129534
0.517403 0.114336 0.126864
0.741558 0.117952 0.121736
0.821469 0.130587 0.130068
0.824277 0.134844 0.143191
0.826535 0.139925 0.156268
0.0495918 0.162676 0.191257
0.14995 0.168292 0.186847
0.295308 0.182376 0.157595
0.449302 0.186572 0.115526
0.627192 0.19678 0.0801404
0.812848 0.2262 0.0566567
0.944717 0.283177 0.0372778
0.976959 0.322728 0.0289311
0.979232 0.32697 0.0268254
0.0311437 0.299001 0.29102
0.0807355 0.302541 0.27863
0.330678 0.311604 0.221408
0.57174 0.329793 0.189593
0.773144 0.370779 0.183612
0.909789 0.393942 0.148058
0.95787 0.379217 0.0696422
0.985061 0.401343 0.0536202
0.991852 0.426291 0.0514687
0.0169985 0.484871 0.422522
0.0369726 0.484169 0.406622
0.191714 0.484977 0.32575
0.568887 0.49546 0.256825
0.77969 0.520668 0.215671
0.933791 0.565438 0.228229
0.989761 0.631678 0.276905
0.989517 0.633417 0.282628
0.98996 0.629679 0.277394
0.0087129 0.672831 0.559609
0.0170748 0.668238 0.544701
0.0678569 0.6692 0.477058
0.481132 0.669245 0.399527
0.763134 0.674235 0.311772
0.912398 0.688731 0.26479
0.983398 0.72134 0.290272
0.983566 0.718288 0.291905
0.983825 0.714137 0.29247
0.00509651 0.809049 0.674357
0.0096437 0.801724 0.661173
0.0295872 0.799954 0.61239
0.266911 0.79411 0.527718
0.682078 0.802945 0.479438
0.887999 0.799207 0.37261
0.968917 0.804349 0.330312
0.975784 0.800183 0.324178
0.976211 0.792065 0.315694
0.00514229 0.85391 0.718517
0.00953689 0.862409 0.723491
0.0189822 0.868223 0.702632
0.0836347 0.869596 0.640497
0.507759 0.875135 0.580728
0.812604 0.883543 0.544182
0.948333 0.875807 0.437522
0.977691 0.868086 0.396689
0.977829 0.858228 0.378805
0.00445563 0.854368 0.716854
0.00814832 0.862486 0.721599
0.0147097 0.868284 0.704646
0.0520638 0.869001 0.640024
0.408453 0.875929 0.588006
0.733684 0.892195 0.57792
0.904005 0.897124 0.510765
0.976593 0.898177 0.444602
0.9776 0.898238 0.442008
0.00375372 0.854963 0.71458
0.00662242 0.862608 0.719509
0.0102083 0.868223 0.704799
0.0378729 0.868559 0.641794
0.29749 0.872923 0.593332
0.637369 0.888365 0.57554
0.845762 0.895872 0.534798
0.948638 0.897795 0.465126
0.978454 0.898283 0.431922
0.0357061 0.0782177 0.148928
0.0863508 0.0836957 0.205203
0.193484 0.0917678 0.239918
0.300694 0.127825 0.232181
0.435492 0.162417 0.227787
0.643427 0.162097 0.238788
0.740276 0.155962 0.257038
0.739071 0.168719 0.270161
0.736171 0.18233 0.282734
0.0436713 0.202426 0.281117
0.118746 0.194553 0.289509
0.257862 0.193896 0.308003
0.40293 0.224674 0.280919
0.580804 0.249897 0.268788
0.773342 0.273838 0.276478
0.891112 0.310292 0.291676
0.88809 0.315404 0.303731
0.885252 0.320638 0.315282
0.0260777 0.336706 0.360372
0.103227 0.318395 0.368231
0.285939 0.324132 0.364828
0.473426 0.340551 0.32958
0.636088 0.345892 0.278706
0.79237 0.366125 0.232776
0.930953 0.426047 0.207782
0.975235 0.468421 0.193545
0.979171 0.47541 0.184344
0.0226749 0.506294 0.476967
0.0789502 0.487938 0.487633
0.184634 0.491539 0.474784
0.484321 0.507958 0.424231
0.727901 0.532784 0.401907
0.888045 0.57908 0.407599
0.956054 0.572137 0.333379
0.98291 0.536629 0.214694
0.995377 0.532464 0.141909
0.0177615 0.674937 0.603555
0.055436 0.660502 0.609735
0.107347 0.666575 0.605707
0.335348 0.672511 0.535683
0.701991 0.67805 0.476982
0.88397 0.695155 0.454673
0.976944 0.734752 0.482506
0.977539 0.731731 0.480369
0.978134 0.727489 0.476356
0.0155642 0.803632 0.707195
0.0454871 0.790646 0.704524
0.0787366 0.791379 0.701381
0.147173 0.793912 0.652476
0.591043 0.794934 0.581521
0.849393 0.795224 0.517891
0.952209 0.804334 0.492775
0.965484 0.802563 0.490425
0.966201 0.795254 0.483238
0.0207828 0.848692 0.747723
0.0446326 0.855024 0.758083
0.074403 0.861311 0.76083
0.109697 0.867216 0.737453
0.316594 0.867079 0.665232
0.741512 0.872419 0.620783
0.919799 0.869078 0.553033
0.964477 0.863798 0.517418
0.965682 0.854444 0.502464
0.0191196 0.848875 0.744808
0.0375372 0.855253 0.754192
0.0626993 0.861143 0.757549
0.0852979 0.867674 0.741009
0.195911 0.871641 0.677592
0.632731 0.88333 0.640284
0.864744 0.891768 0.603235
0.961822 0.895354 0.545617
0.966018 0.895872 0.540261
0.0168154 0.849241 0.741085
0.0303044 0.855512 0.749676
0.0503548 0.861326 0.754589
0.0621347 0.867018 0.73785
0.15349 0.87042 0.680842
0.52079 0.880354 0.639582
0.787869 0.889494 0.607691
0.925338 0.894255 0.558999
0.968032 0.896345 0.526146
0.0311284 0.110018 0.20618
0.0667735 0.117647 0.277836
0.160021 0.108125 0.373968
0.328283 0.107179 0.40473
0.465995 0.164172 0.373877
0.587259 0.231739 0.358495
0.657099 0.258427 0.372351
0.661006 0.267765 0.386984
0.665125 0.276249 0.400961
0.0615549 0.279606 0.432135
0.0949111 0.264027 0.413474
0.195666 0.232059 0.450355
0.389181 0.224567 0.471031
0.533715 0.270542 0.423453
0.668254 0.317617 0.405951
0.800198 0.337316 0.420356
0.796368 0.346395 0.430182
0.792706 0.355337 0.439902
0.0458381 0.434607 0.562097
0.101778 0.399466 0.503731
0.231418 0.376394 0.500404
0.430472 0.368063 0.512474
0.598138 0.403906 0.484443
0.752178 0.451469 0.468345
0.886275 0.48954 0.478981
0.882994 0.493278 0.487739
0.879728 0.497566 0.495506
0.0168002 0.559045 0.564218
0.0673228 0.533379 0.563241
0.203418 0.518547 0.567651
0.470558 0.523537 0.558846
0.639811 0.536629 0.519478
0.779049 0.543801 0.47454
0.901366 0.564401 0.435187
0.95053 0.586267 0.414343
0.961349 0.592325 0.398322
0.0158083 0.701274 0.643641
0.057908 0.679866 0.64976
0.167102 0.670726 0.655695
0.40557 0.675166 0.64361
0.651484 0.686015 0.607996
0.846922 0.702785 0.590097
0.95288 0.736095 0.589456
0.965057 0.678492 0.485054
0.98407 0.635523 0.371817
0.0210422 0.8121 0.72987
0.0608835 0.794659 0.73312
0.161959 0.788098 0.733211
0.328908 0.789166 0.722896
0.529473 0.795178 0.676905
0.804456 0.794903 0.632502
0.935347 0.806119 0.615122
0.956481 0.806806 0.611917
0.957305 0.800153 0.605661
0.0251469 0.853071 0.768994
0.0782635 0.855406 0.781949
0.162188 0.85977 0.785214
0.282948 0.863325 0.776547
0.41973 0.865415 0.745876
0.669032 0.866056 0.694209
0.89012 0.863142 0.646311
0.950973 0.860624 0.621195
0.952911 0.851926 0.609903
0.0256809 0.851591 0.766339
0.0707256 0.854292 0.778134
0.137652 0.858732 0.781872
0.227253 0.864805 0.776761
0.327489 0.87277 0.755886
0.531258 0.879942 0.709148
0.823285 0.88748 0.679789
0.941482 0.891569 0.633524
0.94992 0.892515 0.626474
0.025452 0.850431 0.762737
0.0611582 0.853437 0.773434
0.114626 0.857832 0.777707
0.174517 0.863569 0.775021
0.225544 0.870497 0.754162
0.451804 0.876753 0.708156
0.718166 0.885344 0.676997
0.898543 0.890043 0.63621
0.953735 0.893202 0.608057
0.0263828 0.15729 0.289097
0.0548257 0.17586 0.374365
0.120439 0.173907 0.494591
0.294728 0.139849 0.587106
0.51783 0.138979 0.578271
0.648432 0.232563 0.517067
0.695888 0.287694 0.509697
0.704799 0.29366 0.525765
0.71342 0.299199 0.541695
0.0617685 0.40354 0.588739
0.087129 0.381445 0.566491
0.152148 0.325841 0.57322
0.331258 0.28571 0.635462
0.55317 0.273213 0.61915
0.671397 0.342702 0.550912
0.745846 0.408209 0.530114
0.748531 0.414603 0.540383
0.751522 0.421042 0.551049
0.0435645 0.540719 0.660945
0.152987 0.539696 0.683711
0.205463 0.488853 0.636271
0.37409 0.432853 0.637217
0.583047 0.42678 0.644999
0.713603 0.476051 0.599771
0.816052 0.524697 0.585367
0.81474 0.530282 0.592981
0.813413 0.535027 0.599512
0.0450904 0.657572 0.754711
0.116991 0.613565 0.709957
0.205264 0.604822 0.678965
0.44596 0.586419 0.669245
0.619745 0.575799 0.668818
0.759579 0.607614 0.64651
0.881468 0.642435 0.63595
0.879377 0.642817 0.638987
0.877668 0.640803 0.639033
0.00988785 0.739452 0.71606
0.0452277 0.717647 0.71429
0.153216 0.704738 0.714153
0.457527 0.696834 0.710887
0.649638 0.699016 0.701518
0.784878 0.705043 0.671809
0.887266 0.704112 0.631891
0.927123 0.695842 0.594903
0.941833 0.688151 0.56817
0.0152895 0.831968 0.7626
0.0556802 0.81294 0.761456
0.161822 0.802029 0.761501
0.434195 0.795651 0.757046
0.607767 0.796109 0.752209
0.767681 0.799771 0.72311
0.910918 0.809094 0.70309
0.94313 0.804105 0.685802
0.958877 0.742672 0.582437
0.0223392 0.866743 0.788846
0.073518 0.86511 0.800366
0.205859 0.866697 0.803784
0.439063 0.865293 0.802045
0.562463 0.865339 0.795834
0.683207 0.864546 0.765743
0.858244 0.861677 0.725322
0.939239 0.860563 0.705562
0.941588 0.852598 0.6963
0.0228428 0.863157 0.783429
0.0732891 0.862226 0.795346
0.179919 0.864073 0.79968
0.392157 0.868147 0.799649
0.514305 0.874922 0.798642
0.598917 0.882277 0.780468
0.771969 0.886519 0.743481
0.916762 0.889906 0.713146
0.934829 0.889342 0.702464
0.0233768 0.859281 0.777752
0.0709392 0.859236 0.789944
0.153826 0.861357 0.795407
0.332952 0.86508 0.793484
0.45594 0.871687 0.793408
0.515435 0.87921 0.773938
0.697292 0.88484 0.741711
0.865827 0.887617 0.704829
0.937972 0.891081 0.683925
0.0208896 0.230289 0.406928
0.0477913 0.267109 0.502754
0.100404 0.281743 0.607172
0.246647 0.260471 0.713771
0.508232 0.21767 0.757977
0.710704 0.234943 0.706172
0.765621 0.295827 0.670085
0.771099 0.301717 0.679072
0.776089 0.307515 0.686946
0.0563058 0.540124 0.720439
0.0883192 0.527291 0.711894
0.137224 0.471183 0.699718
0.267384 0.423392 0.733959
0.523583 0.367361 0.767971
0.713161 0.356313 0.723293
0.786801 0.43238 0.659953
0.791363 0.437446 0.671641
0.795865 0.442664 0.683528
0.106218 0.676204 0.803662
0.216403 0.668315 0.793637
0.246265 0.628183 0.759686
0.342931 0.550469 0.736828
0.544671 0.514946 0.76669
0.723644 0.505409 0.744549
0.81062 0.560128 0.689418
0.813046 0.563989 0.69688
0.814878 0.566674 0.70248
0.0730449 0.724559 0.821866
0.124804 0.728588 0.803433
0.456107 0.734096 0.807401
0.487739 0.691142 0.772869
0.590463 0.63621 0.76321
0.744411 0.633295 0.760464
0.844144 0.667689 0.724712
0.843915 0.667659 0.726513
0.843153 0.665522 0.725307
0.0395972 0.789166 0.842313
0.150942 0.773678 0.833478
0.324529 0.761242 0.809323
0.480537 0.760342 0.786801
0.64535 0.744472 0.781964
0.766201 0.733364 0.774105
0.87158 0.752499 0.753567
0.881758 0.751324 0.748699
0.880705 0.745556 0.744198
0.0120699 0.856199 0.816373
0.0449683 0.837629 0.81181
0.137591 0.827237 0.809583
0.412192 0.817411 0.799252
0.639628 0.810437 0.800443
0.769741 0.80763 0.791196
0.878386 0.813718 0.771328
0.916732 0.802243 0.741863
0.922103 0.779492 0.708278
0.0217136 0.884352 0.823896
0.0586404 0.881209 0.827054
0.178195 0.881193 0.827268
0.444907 0.875319 0.822797
0.617304 0.869612 0.82501
0.722652 0.865476 0.817304
0.841352 0.863035 0.791043
0.92462 0.862776 0.772442
0.929091 0.84744 0.751659
0.0220493 0.879103 0.81239
0.0566873 0.876005 0.817426
0.166247 0.877012 0.819837
0.411749 0.878004 0.819532
0.584192 0.880079 0.825803
0.679698 0.883055 0.824506
0.770642 0.887694 0.804517
0.892134 0.891646 0.777249
0.925231 0.888716 0.763912
0.0221561 0.873701 0.801511
0.0576333 0.871031 0.808316
0.1505 0.8719 0.812634
0.36553 0.873213 0.811963
0.539178 0.876631 0.816907
0.623743 0.88069 0.817502
0.702754 0.885496 0.795727
0.839551 0.888121 0.767239
0.926925 0.891905 0.746822
0.0203861 0.287358 0.487739
0.0473945 0.332021 0.580606
0.101183 0.345708 0.664622
0.232242 0.326253 0.752361
0.503044 0.264286 0.795392
0.716869 0.245609 0.742336
0.77409 0.299535 0.68893
0.776547 0.304799 0.69073
0.779019 0.31014 0.692546
0.051957 0.596887 0.764111
0.092668 0.601053 0.775952
0.143465 0.573281 0.778943
0.251789 0.53518 0.798947
0.494377 0.477913 0.831312
0.708827 0.410697 0.812924
0.810101 0.445594 0.73164
0.810559 0.449409 0.732494
0.811048 0.453483 0.73341
0.140185 0.667704 0.800015
0.195987 0.684657 0.80174
0.293935 0.680934 0.798093
0.380316 0.645457 0.798428
0.522744 0.608896 0.820905
0.711055 0.56231 0.82417
0.832227 0.57322 0.759213
0.832685 0.575387 0.759701
0.832914 0.576577 0.760052
0.0555276 0.759258 0.834928
0.296834 0.74931 0.816632
0.512764 0.749859 0.813748
0.540383 0.745602 0.814374
0.588098 0.703029 0.819654
0.729564 0.674617 0.833143
0.84564 0.683238 0.792508
0.846769 0.682872 0.79115
0.846479 0.680278 0.790417
0.0713512 0.777691 0.840803
0.147982 0.790967 0.840085
0.299428 0.817853 0.840574
0.650004 0.806531 0.834348
0.67541 0.796201 0.83357
0.748287 0.765896 0.835126
0.852369 0.766995 0.820935
0.86685 0.765957 0.814481
0.865339 0.760906 0.811551
0.0208591 0.859251 0.857969
0.0998093 0.838529 0.85742
0.311635 0.829053 0.844114
0.531456 0.832868 0.84033
0.653513 0.846876 0.846937
0.768185 0.833722 0.846006
0.853758 0.824933 0.835142
0.888029 0.824857 0.825422
0.887434 0.817716 0.818463
0.0200504 0.902007 0.86743
0.0594034 0.899046 0.867445
0.149279 0.897032 0.865187
0.408316 0.891173 0.854398
0.617868 0.882322 0.851987
0.754742 0.871427 0.853391
0.839338 0.866896 0.842115
0.908141 0.866468 0.824979
0.91104 0.854002 0.808286
0.0206149 0.896956 0.853895
0.0533303 0.893278 0.852064
0.140826 0.893141 0.851499
0.384924 0.892073 0.844434
0.587442 0.890745 0.847044
0.712749 0.889235 0.851987
0.793408 0.89102 0.847868
0.879698 0.895094 0.82919
0.914794 0.890288 0.814633
0.0211185 0.889967 0.836393
0.0469215 0.886946 0.83621
0.131945 0.886809 0.837278
0.336553 0.885679 0.832502
0.548363 0.885512 0.835462
0.672068 0.884901 0.841093
0.745708 0.887098 0.838132
0.824979 0.891081 0.81915
0.918593 0.894697 0.797726
0.0212863 0.303517 0.5075
0.0495613 0.347158 0.595636
0.104067 0.357549 0.674083
0.23389 0.33312 0.755489
0.503853 0.269017 0.797101
0.716991 0.248447 0.744671
0.77525 0.302083 0.689799
0.777661 0.307332 0.691569
0.779995 0.312352 0.693294
0.049073 0.604318 0.767666
0.0940414 0.604623 0.777661
0.148699 0.579309 0.78146
0.258732 0.539971 0.79939
0.491554 0.481453 0.830869
0.706127 0.414008 0.813916
0.810315 0.447547 0.732128
0.810819 0.451423 0.732952
0.811261 0.455222 0.733806
0.155489 0.66569 0.798825
0.173007 0.692592 0.805417
0.2963 0.683207 0.79855
0.401465 0.652735 0.799924
0.524193 0.6121 0.820645
0.707866 0.564797 0.824979
0.832517 0.574624 0.759548
0.832883 0.576501 0.760037
0.832975 0.576989 0.760174
0.110033 0.755764 0.831174
0.403861 0.742855 0.811734
0.482551 0.760113 0.815732
0.560403 0.755474 0.817624
0.610574 0.712825 0.821683
0.72639 0.676173 0.833524
0.843488 0.682017 0.794339
0.846754 0.682597 0.791074
0.846387 0.679454 0.790173
0.0604257 0.801022 0.847791
0.108309 0.827802 0.85452
0.529778 0.821134 0.835843
0.695567 0.818311 0.839567
0.708553 0.811215 0.838727
0.749371 0.768841 0.835538
0.847166 0.76524 0.822263
0.866514 0.764874 0.814221
0.864897 0.759686 0.812497
0.0509651 0.833616 0.856001
0.147066 0.830762 0.853132
0.271733 0.847379 0.852033
0.527092 0.871839 0.854765
0.77026 0.857298 0.85594
0.78851 0.847349 0.852949
0.845411 0.824903 0.843854
0.883726 0.82536 0.83624
0.881819 0.819135 0.834073
0.0210727 0.901946 0.868193
0.0849622 0.888747 0.870314
0.263813 0.878767 0.86186
0.532906 0.87393 0.855543
0.667445 0.874968 0.858259
0.755688 0.882826 0.86595
0.838834 0.873671 0.864073
0.898314 0.869535 0.854215
0.896651 0.86273 0.850797
0.0200198 0.902129 0.86775
0.053315 0.901442 0.872633
0.127504 0.902632 0.87509
0.348409 0.903075 0.868238
0.570123 0.902861 0.86743
0.71458 0.900404 0.871778
0.818082 0.897505 0.876402
0.875532 0.897673 0.871427
0.904234 0.892653 0.858808
0.0200351 0.902129 0.86775
0.0486305 0.901656 0.872282
0.114687 0.901854 0.873747
0.294652 0.900862 0.864851
0.52015 0.899657 0.860334
0.670756 0.896437 0.861769
0.768368 0.893553 0.864332
0.834501 0.894667 0.859693
0.903365 0.898787 0.844236
0.0221866 0.318837 0.525841
0.051667 0.361593 0.609659
0.106889 0.370169 0.683574
0.236957 0.341772 0.759762
0.505196 0.273747 0.79884
0.71696 0.251606 0.746746
0.77644 0.304753 0.6907
0.778729 0.309743 0.692409
0.781003 0.314656 0.694072
0.0478981 0.609934 0.770642
0.0955367 0.608118 0.779309
0.153307 0.584741 0.783413
0.267628 0.54551 0.799969
0.490715 0.48542 0.830671
0.703716 0.417472 0.814862
0.810376 0.449454 0.732876
0.811063 0.453437 0.73341
0.811475 0.456779 0.734157
0.153155 0.669337 0.799908
0.161303 0.696986 0.80766
0.298436 0.685023 0.798901
0.416251 0.658061 0.801282
0.532387 0.616663 0.821012
0.704875 0.567224 0.825681
0.832715 0.576059 0.759991
0.833036 0.577371 0.760296
0.833021 0.577264 0.76025
0.214908 0.7402 0.818189
0.438361 0.740703 0.810697
0.445014 0.766125 0.817594
0.560845 0.756848 0.817884
0.628214 0.721157 0.823209
0.72517 0.679225 0.833646
0.841077 0.680354 0.796246
0.846693 0.682078 0.790921
0.846281 0.678508 0.789899
0.0439155 0.830076 0.85507
0.235645 0.82359 0.845518
0.621683 0.814801 0.835294
0.676432 0.827802 0.841169
0.72697 0.820325 0.841947
0.762707 0.778302 0.837308
0.841657 0.763317 0.823774
0.866133 0.763546 0.813748
0.864332 0.757977 0.811963
0.0625772 0.836713 0.857176
0.110231 0.856916 0.862333
0.301946 0.87718 0.860105
0.692317 0.874739 0.859251
0.808911 0.86923 0.861677
0.811032 0.860517 0.858
0.842527 0.825696 0.844221
0.883146 0.823468 0.835584
0.881178 0.817014 0.833326
0.0363622 0.879377 0.8654
0.133242 0.870359 0.865202
0.34226 0.87332 0.857786
0.503685 0.88925 0.861509
0.688762 0.901076 0.870741
0.840009 0.892088 0.873915
0.850874 0.882185 0.868086
0.895827 0.867033 0.853315
0.895888 0.86038 0.849714
0.0205386 0.902205 0.868009
0.0767987 0.901701 0.874281
0.226902 0.902861 0.871595
0.509819 0.903181 0.866972
0.670756 0.899443 0.869108
0.754299 0.899016 0.873411
0.808118 0.897871 0.87628
0.872816 0.897383 0.873945
0.903029 0.891554 0.865751
0.0200198 0.902113 0.867735
0.0467079 0.901732 0.872145
0.111101 0.902388 0.875212
0.277272 0.902922 0.870008
0.505638 0.903243 0.866911
0.662379 0.901671 0.869688
0.771771 0.898726 0.874388
0.853346 0.898405 0.876478
0.895109 0.901564 0.873198
