LUT预设1/柯达5219&2393/柯达5219系列-709/柯达5219基准-709.cube
TITLE "Generated by Resolve"
LUT_3D_SIZE 5
0.0448157 0.0517891 0.0790265
0.191272 0.0840162 0.0733349
0.507073 0.110628 0.038468
0.898711 0.157458 0.0122988
0.914809 0.172091 0.0127108
0.00984207 0.301472 0.24033
0.398062 0.304326 0.119341
0.824018 0.358236 0.0699168
0.995148 0.502297 0.0803388
0.9953 0.505135 0.0814832
0.00109865 0.685603 0.511147
0.144411 0.66276 0.362234
0.804074 0.674144 0.162707
0.98381 0.714153 0.108003
0.9841 0.705379 0.107973
0.000335698 0.861112 0.689174
0.0219272 0.86688 0.622934
0.621988 0.886595 0.548486
0.966827 0.880217 0.345434
0.98378 0.86099 0.281056
0.000366217 0.861433 0.689387
0.00814832 0.867384 0.638727
0.417273 0.876799 0.547112
0.877317 0.899107 0.47892
0.983001 0.897963 0.367666
0.0352789 0.0794995 0.151385
0.192905 0.0911421 0.247745
0.432395 0.164248 0.234943
0.732921 0.163104 0.263798
0.728511 0.190448 0.290074
0.0252384 0.339239 0.365866
0.28426 0.3243 0.373312
0.648844 0.364416 0.311284
0.937179 0.448493 0.239307
0.975204 0.483131 0.21236
0.0180667 0.674327 0.604776
0.113649 0.664317 0.610071
0.696559 0.677073 0.487037
0.976333 0.734829 0.494011
0.977661 0.726787 0.485908
0.0221866 0.848585 0.749996
0.0812695 0.860914 0.76379
0.314504 0.866285 0.671733
0.918151 0.867567 0.559945
0.964569 0.853315 0.511086
0.0181582 0.849058 0.743267
0.0560006 0.860655 0.757015
0.146746 0.870359 0.68835
0.7823 0.889006 0.613748
0.966995 0.896101 0.533852
0.0255741 0.163577 0.299596
0.115923 0.184375 0.507332
0.518318 0.138689 0.604105
0.704158 0.288151 0.528466
0.721965 0.299489 0.561273
0.0460212 0.556863 0.677775
0.202914 0.505013 0.652689
0.578927 0.431617 0.663981
0.809949 0.530159 0.597864
0.808698 0.539864 0.612177
0.00972 0.743481 0.726802
0.151629 0.709087 0.725231
0.646372 0.700359 0.712795
0.908309 0.741512 0.683574
0.924971 0.717693 0.640085
0.0221561 0.869032 0.792569
0.206897 0.868223 0.806546
0.577874 0.864469 0.800809
0.855467 0.860929 0.735042
0.939971 0.852125 0.707118
0.0231937 0.861204 0.780652
0.156405 0.862455 0.797711
0.474403 0.872099 0.797208
0.695705 0.884932 0.749966
0.936004 0.891112 0.694087
0.020325 0.28806 0.48838
0.100938 0.34638 0.664652
0.500206 0.264729 0.795438
0.773968 0.299199 0.688823
0.778866 0.309636 0.692378
0.143343 0.666163 0.799435
0.292607 0.680812 0.798108
0.520012 0.608835 0.8206
0.831922 0.57229 0.759091
0.832731 0.57554 0.759747
0.0733196 0.778881 0.841169
0.334264 0.822156 0.840772
0.681331 0.79855 0.834501
0.850706 0.765621 0.821057
0.865019 0.759976 0.812558
0.0200351 0.902113 0.867735
0.146426 0.899077 0.872953
0.63592 0.881651 0.859739
0.838163 0.867811 0.850752
0.905196 0.85977 0.827375
0.0208896 0.89337 0.844556
0.128878 0.889845 0.8439
0.545007 0.887892 0.839582
0.753017 0.887831 0.844556
0.916182 0.89546 0.807568
0.0220645 0.319051 0.525841
0.106538 0.371145 0.683757
0.501839 0.274342 0.798962
0.776287 0.304326 0.690562
0.78085 0.314122 0.693889
0.14789 0.670527 0.800504
0.295979 0.68452 0.798856
0.532326 0.617273 0.82092
0.831174 0.574563 0.760967
0.832837 0.576135 0.759915
0.0492561 0.831235 0.855543
0.630488 0.812863 0.835096
0.726864 0.820005 0.841871
0.839353 0.761608 0.82414
0.863905 0.756542 0.81149
0.0420539 0.874296 0.864775
0.348272 0.875959 0.858503
0.72781 0.900038 0.872312
0.85536 0.885008 0.869001
0.89546 0.859083 0.849119
0.0200198 0.902113 0.867735
0.112825 0.902403 0.875227
0.523476 0.903166 0.867002
0.795987 0.898116 0.8757
0.893599 0.901396 0.873381
