LUT预设1/柯达5219&2393/柯达5219系列-709/柯达2393-709.cube
TITLE "Generated by Resolve"
LUT_3D_SIZE 33
0.0299535 0.0773022 0.0716259
0.0512398 0.0789502 0.0692302
0.0724498 0.0807355 0.0666819
0.0943618 0.0829023 0.0631723
0.118776 0.0849928 0.059144
0.147463 0.0869612 0.0542
0.179812 0.0883803 0.0480354
0.216541 0.0892653 0.0405737
0.256382 0.0894179 0.0326848
0.298436 0.0892042 0.0242466
0.343313 0.0879683 0.0178378
0.3897 0.0863661 0.0117037
0.434852 0.0834058 0.00917067
0.479988 0.0802319 0.00715648
0.521828 0.076051 0.00648508
0.563378 0.0717937 0.00575265
0.599817 0.0673991 0.00483711
0.635386 0.063035 0.00373846
0.666514 0.0593423 0.00283818
0.696559 0.0555581 0.00183108
0.723278 0.0512398 0.000762951
0.749691 0.0468757 1.5259e-05
0.775036 0.0423743 0
0.8 0.0350805 0
0.824567 0.0236362 0
0.847272 0.016022 0.000823987
0.868605 0.0116274 0.002121
0.886534 0.0106661 0.00354009
0.901884 0.0124666 0.00518807
0.914611 0.015198 0.00677501
0.926131 0.0184634 0.00843824
0.93579 0.0218967 0.0102388
0.944595 0.0251011 0.0119478
0.0290532 0.0869917 0.0757916
0.0510414 0.0886549 0.0731518
0.0740826 0.0905318 0.0698863
0.0990158 0.0928206 0.0660716
0.127199 0.0951553 0.0615854
0.157504 0.0975357 0.0567483
0.193988 0.0992905 0.0501411
0.232731 0.100877 0.0432746
0.275761 0.10164 0.0349126
0.319692 0.102358 0.0260929
0.366567 0.102037 0.0193027
0.413367 0.10161 0.0124971
0.45977 0.099733 0.0104219
0.50518 0.0976425 0.0083772
0.547402 0.094789 0.00729381
0.587655 0.0920577 0.00602731
0.623774 0.0894789 0.00442512
0.657908 0.087068 0.00294499
0.688518 0.0848859 0.00189212
0.717128 0.0822309 0.000991836
0.743572 0.0792859 0.000289921
0.7691 0.076112 0
0.793835 0.0733043 0.000747692
0.816922 0.0690776 0.00178531
0.838804 0.0645457 0.00291447
0.85977 0.0606699 0.00416571
0.880125 0.0564584 0.00567636
0.89572 0.0564736 0.00714122
0.91017 0.057435 0.0087129
0.922026 0.0604105 0.0102693
0.933593 0.0632181 0.0120089
0.942397 0.0667582 0.0135958
0.950988 0.0707103 0.0152132
0.0274968 0.0989242 0.0790112
0.0489815 0.10103 0.0760357
0.0747539 0.103731 0.0721599
0.1028 0.10663 0.068101
0.134478 0.109911 0.0630808
0.167041 0.113298 0.0578622
0.207523 0.116075 0.0509804
0.248798 0.118929 0.0440681
0.293965 0.120775 0.0351873
0.339956 0.122377 0.0265049
0.388296 0.122621 0.019028
0.436713 0.122438 0.0127565
0.483787 0.121187 0.0104219
0.528878 0.119814 0.00828565
0.571008 0.118227 0.00653086
0.610208 0.116869 0.00459297
0.646418 0.115709 0.00247196
0.679347 0.114549 0.00108339
0.709758 0.113405 0.00030518
0.736843 0.112184 0.000839246
0.762493 0.111025 0.00192264
0.78706 0.109957 0.00285344
0.811215 0.108721 0.00370794
0.832166 0.107607 0.00469978
0.85275 0.106645 0.00575265
0.872282 0.103838 0.00701915
0.891585 0.101442 0.00836194
0.905653 0.103151 0.00970474
0.919341 0.104845 0.0112001
0.930861 0.108003 0.0125734
0.941802 0.111376 0.0139773
0.950301 0.115969 0.0153201
0.95848 0.120211 0.0168765
0.0242771 0.113603 0.0815595
0.0444038 0.11603 0.0785992
0.0749523 0.11931 0.0742962
0.106462 0.122942 0.0699168
0.141268 0.12694 0.0643778
0.177783 0.130983 0.0585489
0.220935 0.134829 0.0514382
0.26511 0.138369 0.0438087
0.311666 0.141054 0.0346227
0.35935 0.14316 0.0259556
0.409216 0.144259 0.0176547
0.457771 0.14464 0.0123445
0.50547 0.144366 0.00959792
0.549844 0.144121 0.00712596
0.592386 0.143908 0.0047303
0.630701 0.143755 0.00276188
0.667277 0.143725 0.00187686
0.698878 0.144015 0.00228885
0.72932 0.144442 0.0028687
0.755199 0.144472 0.00375372
0.780697 0.144579 0.00460822
0.804273 0.145006 0.00518807
0.82742 0.145571 0.00570687
0.847181 0.14609 0.00675975
0.866789 0.146807 0.00775158
0.885252 0.148043 0.00881971
0.902296 0.14966 0.00991836
0.915923 0.152041 0.011017
0.928725 0.154726 0.0121462
0.940169 0.15758 0.0133059
0.950423 0.160861 0.0145571
0.95906 0.165042 0.015671
0.967071 0.168856 0.0168917
0.0207828 0.130861 0.0838331
0.0396582 0.133761 0.0798352
0.0721294 0.137591 0.0752728
0.106386 0.141436 0.0702983
0.145525 0.145785 0.0645762
0.187198 0.150042 0.0580301
0.232547 0.154589 0.0503548
0.279438 0.158801 0.0418708
0.327489 0.162631 0.0324102
0.377523 0.165362 0.0238193
0.428382 0.167422 0.0154116
0.477409 0.168307 0.0111391
0.526085 0.168856 0.00791943
0.569894 0.170138 0.0062562
0.613031 0.171359 0.00430304
0.649866 0.172641 0.00408942
0.686336 0.174029 0.00381476
0.716701 0.175891 0.00440986
0.746319 0.177676 0.00488289
0.77174 0.179156 0.00546273
0.796658 0.180804 0.00593576
0.819928 0.182681 0.00622568
0.841978 0.184512 0.00662242
0.861463 0.186267 0.00733959
0.88043 0.188159 0.00816358
0.898848 0.190402 0.00900282
0.914809 0.192645 0.00979629
0.928512 0.195178 0.0105135
0.940887 0.197971 0.0113069
0.9523 0.2009 0.0121767
0.961913 0.204257 0.0130922
0.97055 0.207767 0.0140383
0.978042 0.211551 0.0151217
0.0162661 0.15024 0.0860456
0.0360571 0.153857 0.0810407
0.0672618 0.158251 0.0758373
0.104723 0.16286 0.0697795
0.148608 0.168002 0.0631876
0.194766 0.173312 0.0550393
0.242329 0.179049 0.0460212
0.291707 0.184161 0.0363928
0.341787 0.189349 0.0260777
0.393393 0.192981 0.0188602
0.444968 0.196536 0.0131075
0.494331 0.198245 0.0106203
0.543557 0.200259 0.00796521
0.587045 0.202548 0.00675975
0.62948 0.204898 0.00563058
0.666438 0.207187 0.00552377
0.70132 0.209583 0.00540169
0.732021 0.21178 0.00531014
0.76083 0.214237 0.00518807
0.786603 0.216785 0.00544747
0.811292 0.219409 0.00563058
0.834791 0.222019 0.00578317
0.856092 0.224613 0.00607309
0.875578 0.227527 0.00637827
0.894255 0.230259 0.0068513
0.912642 0.232853 0.00740063
0.92755 0.235889 0.00775158
0.941283 0.239139 0.00791943
0.953155 0.242679 0.00819409
0.964462 0.245899 0.00851453
0.973327 0.249439 0.00892653
0.981842 0.252964 0.00933852
0.987991 0.257099 0.00968948
0.00973526 0.174441 0.0881819
0.0296178 0.178256 0.0819867
0.057435 0.182589 0.0754559
0.101274 0.187991 0.0678416
0.151019 0.193576 0.0599985
0.201297 0.199969 0.0495613
0.252064 0.206424 0.0390173
0.303502 0.212451 0.0297093
0.35552 0.218204 0.0214542
0.408713 0.223011 0.017258
0.461082 0.227466 0.0130312
0.51133 0.230655 0.0101625
0.559564 0.233692 0.00787366
0.603922 0.236988 0.00695811
0.645075 0.240345 0.00614939
0.681971 0.243793 0.00572213
0.715877 0.247211 0.00497444
0.747463 0.250355 0.00390631
0.775448 0.253986 0.0033875
0.80145 0.257832 0.00329595
0.825498 0.261814 0.00315862
0.849058 0.265934 0.00297551
0.869657 0.269459 0.00289921
0.889433 0.272892 0.00280766
0.907851 0.275868 0.00277714
0.926284 0.278782 0.00268559
0.940398 0.282261 0.0024567
0.954299 0.285786 0.00216678
0.965545 0.289113 0.00190738
0.976516 0.29247 0.0016022
0.98468 0.295903 0.00146487
0.992187 0.299428 0.0012665
0.996902 0.3037 0.00222782
0.00448615 0.202914 0.0903029
0.0249485 0.207477 0.0821546
0.0475929 0.21207 0.0736858
0.0971237 0.218173 0.0640574
0.147265 0.224582 0.0543526
0.202899 0.23154 0.0437781
0.258732 0.23859 0.0340429
0.313237 0.245106 0.0259861
0.36817 0.251514 0.0194095
0.422995 0.257053 0.0149844
0.476402 0.262089 0.0115206
0.527245 0.266285 0.009308
0.574746 0.270008 0.00775158
0.619532 0.273747 0.00672923
0.659602 0.277867 0.0055848
0.697002 0.281941 0.00421149
0.730602 0.286198 0.00233463
0.762646 0.290669 0.000350958
0.789471 0.295552 7.62951e-05
0.815518 0.300557 4.57771e-05
0.839307 0.305715 4.57771e-05
0.862867 0.310826 3.0518e-05
0.882841 0.314473 1.5259e-05
0.902556 0.318379 0
0.920623 0.321706 0
0.937926 0.325093 0
0.95201 0.328756 0
0.96524 0.332341 0
0.976043 0.335714 3.0518e-05
0.985443 0.339254 0.00103761
0.992432 0.343008 0.00273136
0.997314 0.347036 0.00436408
0.999176 0.351507 0.00595102
0.00205997 0.234455 0.0927291
0.0195621 0.239155 0.082414
0.0433814 0.244129 0.0715496
0.0911879 0.250492 0.0598764
0.143038 0.257542 0.048661
0.20415 0.265156 0.0382544
0.263783 0.272938 0.0295109
0.321981 0.280415 0.0220645
0.379721 0.287648 0.016556
0.436667 0.294301 0.0124514
0.489891 0.300038 0.00987259
0.541619 0.305028 0.00775158
0.588663 0.30985 0.0059968
0.634714 0.31458 0.00401312
0.673213 0.31902 0.00292973
0.711376 0.323705 0.0019379
0.743404 0.328939 0.000915541
0.774945 0.334279 3.0518e-05
0.80116 0.339513 3.0518e-05
0.827131 0.345037 1.5259e-05
0.851667 0.350591 1.5259e-05
0.874983 0.355871 0
0.895262 0.360464 0
0.914626 0.364797 0
0.93254 0.368215 0
0.948943 0.371923 0
0.963043 0.375753 0.000885023
0.974975 0.379461 0.00207523
0.984939 0.382971 0.00315862
0.992554 0.386572 0.00418097
0.998108 0.390158 0.00517281
1 0.394141 0.00616464
1 0.398245 0.00715648
0.00401312 0.271122 0.0957961
0.0152285 0.274723 0.0816663
0.040238 0.279561 0.0676127
0.0816205 0.285969 0.0537881
0.136858 0.293797 0.0423438
0.202655 0.302174 0.0322576
0.266484 0.310399 0.0244297
0.329915 0.318868 0.0172427
0.389883 0.326345 0.013077
0.449912 0.33402 0.00936904
0.50312 0.339757 0.0071107
0.555917 0.345968 0.00479133
0.602884 0.351385 0.00234989
0.648402 0.35697 0.00015259
0.687099 0.362249 0.000106813
0.724117 0.367437 6.10361e-05
0.756695 0.37348 1.5259e-05
0.787076 0.379492 0
0.813413 0.385626 0
0.838819 0.391409 0
0.863523 0.397452 0
0.885939 0.40293 0
0.906462 0.407889 0
0.925032 0.41207 0.000915541
0.942535 0.416083 0.00170901
0.957824 0.419821 0.00250248
0.972045 0.423377 0.00315862
0.983063 0.426764 0.00370794
0.992905 0.43006 0.00415045
0.997177 0.433387 0.00454719
0.999725 0.436637 0.00485237
1 0.440131 0.00526436
1 0.443549 0.0056611
0.0033875 0.310536 0.0988632
0.0087892 0.313603 0.0807965
0.0355688 0.319005 0.0639506
0.0712749 0.325322 0.0474403
0.135485 0.333913 0.036408
0.205768 0.343114 0.025864
0.272862 0.352132 0.019791
0.339925 0.36112 0.014023
0.401999 0.369741 0.0107729
0.463066 0.377874 0.00747692
0.517906 0.385077 0.00497444
0.570382 0.39173 0.00257877
0.617212 0.397803 0.00102235
0.66154 0.403494 4.57771e-05
0.700999 0.409277 3.0518e-05
0.73756 0.414755 1.5259e-05
0.770291 0.420401 0
0.799252 0.426551 0
0.825269 0.432807 0
0.850324 0.439216 9.15541e-05
0.87454 0.445716 0.000808728
0.896147 0.451057 0.00151064
0.916548 0.45568 0.00205997
0.934478 0.45951 0.00247196
0.951873 0.463066 0.00267033
0.966491 0.466072 0.00285344
0.980804 0.468956 0.00292973
0.990005 0.471672 0.00299077
0.998505 0.474067 0.00300603
0.999359 0.476768 0.00300603
1 0.479377 0.00297551
1 0.481819 0.00311284
1 0.484306 0.00314336
0.000976577 0.353491 0.101854
0.00170901 0.355734 0.0792401
0.0310063 0.361181 0.0594949
0.0643168 0.366949 0.0399939
0.13785 0.376486 0.0292515
0.209644 0.385748 0.0192569
0.280507 0.395163 0.0150454
0.350179 0.404654 0.0109255
0.41561 0.413718 0.00766003
0.477073 0.422156 0.00462348
0.533074 0.43006 0.00231937
0.584985 0.437034 0.000869764
0.633005 0.443671 0.000244144
0.676326 0.449577 0
0.716396 0.45539 0
0.751263 0.460883 0
0.783978 0.466728 0.000228885
0.8112 0.47306 0.000869764
0.837125 0.479072 0.00132753
0.861646 0.485054 0.00169375
0.885847 0.490883 0.00190738
0.906218 0.495155 0.00189212
0.926207 0.499519 0.00172427
0.943252 0.502831 0.0015259
0.960052 0.506004 0.00120546
0.974182 0.508339 0.00106813
0.986954 0.510826 0.000885023
0.994507 0.513085 0.000701915
0.999832 0.515373 0.000488289
0.999954 0.517815 0.000274662
1 0.520012 4.57771e-05
1 0.521309 0
1 0.523033 0
0.00015259 0.396704 0.107851
0.00430304 0.398886 0.08159
0.0274815 0.404257 0.0585031
0.0629435 0.410712 0.038117
0.129381 0.419974 0.0260624
0.202747 0.429358 0.0164797
0.287114 0.438865 0.0115053
0.362814 0.448524 0.0071107
0.431006 0.457969 0.00325017
0.492164 0.466316 0.00123598
0.549783 0.474357 0.000442512
0.601007 0.481651 0.00015259
0.650355 0.489067 1.5259e-05
0.691585 0.495064 0.000442512
0.731487 0.501228 0.0009308
0.764584 0.507149 0.00134279
0.796826 0.513207 0.0015259
0.822629 0.518471 0.00164797
0.848264 0.523903 0.00161746
0.872251 0.528939 0.00144961
0.895552 0.533364 0.0011902
0.915511 0.537041 0.000823987
0.934646 0.540368 0.000457771
0.951614 0.542733 0.000183108
0.967437 0.545083 0
0.981338 0.547143 0
0.991669 0.548745 0
0.997345 0.550301 0
0.999985 0.551934 0
1 0.553613 0
1 0.555032 0
1 0.556069 0
1 0.557565 0
0 0.439017 0.113191
0.00668345 0.441382 0.0833448
0.0228122 0.44625 0.0559854
0.0636759 0.453346 0.0356603
0.126253 0.462501 0.0218509
0.208942 0.472023 0.0133822
0.301793 0.481544 0.00776684
0.377813 0.491142 0.00387579
0.448112 0.500923 0.000549325
0.508888 0.509194 7.62951e-05
0.56791 0.517357 0.000869764
0.617441 0.524437 0.00141909
0.666407 0.531136 0.00175479
0.706371 0.537301 0.00181582
0.744686 0.54313 0.00169375
0.777096 0.548852 0.00144961
0.807523 0.554208 0.00112917
0.832746 0.559609 0.000915541
0.85745 0.564416 0.000701915
0.881209 0.56875 0.000518807
0.903563 0.572259 0.000335698
0.923812 0.575357 0.000183108
0.942519 0.577951 7.62951e-05
0.959503 0.579843 1.5259e-05
0.974548 0.581872 0
0.988251 0.583719 0
0.995407 0.584924 0
0.999115 0.585748 0
1 0.586831 0
1 0.587915 0
1 0.588678 0
1 0.589105 0
1 0.590204 0
0 0.478691 0.116426
0.00956741 0.481559 0.0837568
0.024094 0.485893 0.0526741
0.0746166 0.494133 0.0336004
0.135683 0.503609 0.0178683
0.226413 0.513558 0.0106661
0.321614 0.523552 0.00480659
0.394324 0.533455 0.0037232
0.465476 0.543145 0.00251774
0.525734 0.551629 0.00291447
0.583703 0.559319 0.00302129
0.633616 0.565362 0.0027924
0.680369 0.571511 0.00230411
0.71986 0.577111 0.00173953
0.756466 0.582376 0.00108339
0.789044 0.587472 0.000549325
0.817594 0.592081 0.000198367
0.842268 0.596597 6.10361e-05
0.866453 0.60032 0
0.89015 0.603906 0
0.911482 0.606714 0
0.931945 0.608957 0
0.949859 0.610803 0
0.967102 0.612177 0
0.981414 0.613825 0
0.995178 0.615473 0
0.998291 0.616495 0
0.999969 0.6177 0
1 0.618631 0
1 0.619501 0
1 0.619501 0
1 0.619776 0
1 0.620859 0
0 0.515343 0.118883
0.0127565 0.518425 0.0829328
0.0270848 0.522118 0.046891
0.0888838 0.531456 0.0317693
0.154116 0.540764 0.0175479
0.249516 0.550835 0.0119783
0.340017 0.560861 0.0069276
0.414359 0.570993 0.00621042
0.483421 0.580133 0.00540169
0.543053 0.587976 0.00488289
0.598398 0.594995 0.0040589
0.648585 0.601358 0.00297551
0.692714 0.607034 0.00187686
0.732509 0.61239 0.000839246
0.767437 0.617624 0.000289921
0.799969 0.622461 0.000106813
0.826825 0.626505 3.0518e-05
0.851774 0.629847 0
0.875486 0.633371 0
0.898772 0.63653 0
0.919417 0.638544 0
0.939727 0.640314 0
0.957107 0.641428 0
0.974273 0.642374 0
0.987655 0.643626 0
0.999191 0.644816 0
0.999725 0.645472 0
1 0.64622 0
1 0.646555 0
1 0.646586 0
1 0.64651 0.000228885
1 0.646876 0.000427253
1 0.647822 0.000564584
0.00155642 0.54992 0.122545
0.0166629 0.553658 0.0837262
0.0421454 0.558511 0.0504616
0.104021 0.567254 0.0341192
0.176928 0.576303 0.0206912
0.27216 0.586191 0.0135348
0.358007 0.59588 0.00915541
0.4327 0.605264 0.00842298
0.498985 0.613382 0.00740063
0.558618 0.620447 0.0059205
0.611887 0.626459 0.00424201
0.661921 0.632105 0.00230411
0.703853 0.636957 0.00112917
0.743313 0.641535 0.000122072
0.776425 0.645792 0
0.808896 0.649805 0
0.834012 0.652811 0
0.85922 0.656001 0
0.88275 0.658839 0
0.905776 0.661677 0
0.926329 0.6636 0
0.946136 0.665522 0
0.963516 0.666804 0
0.979538 0.668208 0
0.992035 0.669444 0
0.999863 0.670344 0
0.999985 0.671092 0
1 0.671504 0.000381476
1 0.671824 0.000549325
1 0.672053 0.000488289
1 0.672053 0.000320439
1 0.672908 0.00015259
1 0.674189 4.57771e-05
0.00486763 0.578775 0.128573
0.0191043 0.581933 0.088426
0.0543832 0.587518 0.0585946
0.114488 0.595865 0.03888
0.195178 0.605035 0.0255436
0.291188 0.614816 0.0163577
0.372763 0.62417 0.0124666
0.447913 0.633234 0.0106661
0.511406 0.64062 0.00862135
0.572442 0.647578 0.00619516
0.623758 0.653086 0.00386053
0.674144 0.658518 0.00120546
0.71371 0.662989 0.000564584
0.752728 0.667323 0
0.784649 0.671092 0
0.815412 0.674647 0
0.841138 0.677852 0
0.866423 0.681025 0
0.890043 0.683665 0
0.912764 0.686198 0
0.933471 0.688167 0
0.952743 0.690059 0
0.970214 0.691524 0
0.984451 0.693019 0.000122072
0.995575 0.694286 0.000488289
0.999924 0.695445 0.000701915
0.999969 0.696315 0.00077821
1 0.696803 0.000701915
1 0.697032 0.000534066
1 0.697154 0.000366217
1 0.69752 0.000167849
1 0.698466 7.62951e-05
1 0.699702 1.5259e-05
0.00758373 0.605524 0.134401
0.0204929 0.608316 0.0930648
0.0645914 0.614664 0.0654612
0.121904 0.622415 0.0421302
0.210895 0.631647 0.0293126
0.307103 0.641169 0.0178378
0.384543 0.650095 0.014786
0.461128 0.658885 0.01178
0.522667 0.665599 0.00880446
0.582681 0.672053 0.00552377
0.633616 0.677378 0.00280766
0.681819 0.682399 0.000534066
0.721614 0.686702 0.000198367
0.758938 0.6907 0
0.791669 0.69453 0
0.821424 0.698222 0
0.84773 0.701427 0
0.873045 0.704387 0
0.897246 0.707286 0
0.919493 0.709682 0
0.940536 0.712093 0.000335698
0.959014 0.714 0.00077821
0.976226 0.715755 0.00103761
0.988067 0.717494 0.000946059
0.998276 0.718975 0.000595102
0.999939 0.720195 0.000350958
1 0.721416 6.10361e-05
1 0.721462 3.0518e-05
1 0.721599 0
1 0.721981 0
1 0.722637 0
1 0.723857 0
1 0.725063 0
0.00939956 0.628168 0.139849
0.0205997 0.631434 0.0974289
0.0718853 0.638697 0.0708171
0.127855 0.646281 0.0445563
0.223926 0.65594 0.0317082
0.317205 0.665492 0.0196384
0.396094 0.674586 0.0159304
0.471031 0.682857 0.0118715
0.533089 0.689082 0.00791943
0.591058 0.694942 0.00425727
0.642573 0.700221 0.00148013
0.688334 0.704753 0
0.728862 0.708553 0
0.764691 0.712337 0
0.797528 0.716289 0
0.826276 0.719646 0
0.853208 0.722805 0
0.877882 0.725963 0.000717174
0.902327 0.728939 0.00123598
0.924025 0.731395 0.00149538
0.945541 0.733928 0.00149538
0.963241 0.735759 0.00132753
0.980682 0.737713 0.000976577
0.990662 0.739437 0.000671397
0.999954 0.741344 0.000320439
0.999969 0.742809 0.00015259
1 0.744289 1.5259e-05
1 0.74464 1.5259e-05
1 0.745327 0
1 0.746303 0
1 0.747555 0
1 0.748867 0
1 0.75053 0
0.00952163 0.646525 0.144869
0.0251011 0.650309 0.103822
0.0742199 0.657206 0.0745098
0.137026 0.664775 0.0484016
0.234501 0.673961 0.0330816
0.324742 0.682994 0.0216373
0.406287 0.691768 0.016495
0.477913 0.699519 0.0115663
0.54078 0.706355 0.00675975
0.597009 0.712627 0.00329595
0.649165 0.718578 0.000732433
0.693355 0.723247 0
0.734325 0.72726 0
0.768963 0.731487 0.000244144
0.802243 0.735897 0.0011902
0.829587 0.739544 0.00202945
0.856428 0.743252 0.00256352
0.881453 0.746593 0.00265507
0.906157 0.749813 0.00244144
0.92813 0.752407 0.0019379
0.949432 0.754757 0.00117494
0.967147 0.756603 0.000610361
0.983063 0.758556 6.10361e-05
0.993042 0.760449 3.0518e-05
1 0.762371 0
1 0.763806 0
1 0.764965 0
1 0.765393 0
1 0.766232 0
1 0.767269 0
1 0.768597 0
1 0.769985 0
1 0.771939 0
0.00802625 0.662181 0.149569
0.0295262 0.666896 0.109728
0.0730907 0.673472 0.0764782
0.144762 0.68127 0.0511788
0.243259 0.690318 0.0331121
0.33196 0.699229 0.0225528
0.4159 0.708034 0.016083
0.484367 0.715663 0.0104829
0.548043 0.722927 0.00491341
0.602365 0.729351 0.00227359
0.655253 0.735683 0.00105287
0.697124 0.739956 0.00216678
0.738582 0.744213 0.0030518
0.772152 0.748775 0.00373846
0.804913 0.753201 0.00404364
0.831769 0.757122 0.00430304
0.858351 0.760876 0.00425727
0.883696 0.764324 0.00364691
0.908385 0.767544 0.00277714
0.931136 0.770275 0.00157168
0.952148 0.772656 0.000564584
0.970306 0.774639 0.000213626
0.984787 0.776822 1.5259e-05
0.995224 0.779049 0
1 0.780972 0
1 0.782452 0
1 0.783566 0
1 0.784253 0
1 0.785351 0
1 0.786709 0
1 0.788556 0
1 0.790463 0
1 0.79234 0
0.00503548 0.675776 0.154101
0.030045 0.681376 0.114153
0.0669413 0.68777 0.0758221
0.149722 0.695979 0.0517586
0.247669 0.704585 0.0312505
0.336461 0.713558 0.0222629
0.424125 0.72253 0.0149691
0.489326 0.730465 0.0110475
0.552941 0.738231 0.00682078
0.606546 0.74493 0.00624094
0.657786 0.751141 0.00561532
0.700542 0.755657 0.00613413
0.740658 0.760281 0.00634775
0.774945 0.765087 0.0062562
0.806622 0.769665 0.00601205
0.833844 0.773983 0.00578317
0.860471 0.777981 0.00511177
0.886488 0.781674 0.00370794
0.911009 0.784848 0.00222782
0.934524 0.787717 0.000701915
0.955169 0.790097 7.62951e-05
0.973999 0.792187 1.5259e-05
0.986969 0.794522 0
0.997635 0.796841 0
1 0.798398 0
1 0.799878 0
1 0.801114 0
1 0.802548 0
1 0.803952 0
1 0.805508 0
1 0.807568 0
1 0.80972 0
1 0.811551 0
0.00183108 0.688518 0.158358
0.0296025 0.69453 0.116594
0.0605325 0.700648 0.0740978
0.155444 0.709178 0.0535744
0.248692 0.7178 0.0347753
0.340093 0.72726 0.0280461
0.426123 0.736522 0.0208896
0.492531 0.745098 0.0153964
0.555489 0.75314 0.0107881
0.61033 0.760082 0.0099031
0.660334 0.766201 0.00929274
0.70341 0.771221 0.00921645
0.742763 0.776287 0.00880446
0.77818 0.781338 0.00813306
0.809049 0.786023 0.00741588
0.837095 0.790478 0.00666819
0.863539 0.794583 0.00505074
0.889708 0.798459 0.00280766
0.914061 0.801663 0.00138857
0.938277 0.804776 0.000183108
0.958373 0.807263 1.5259e-05
0.977996 0.809567 0
0.989258 0.811978 0
1 0.814328 0
1 0.815366 0
1 0.816556 0
1 0.818143 0
1 0.819623 0
1 0.82092 0
1 0.822217 0
1 0.823835 0
1 0.825299 0.00192264
1 0.826917 0.00437934
0.00296025 0.699229 0.164462
0.0300755 0.705867 0.122194
0.0705272 0.712901 0.084596
0.158572 0.721462 0.0618601
0.247776 0.730571 0.0438697
0.343053 0.740688 0.0345159
0.427665 0.750408 0.0255283
0.496712 0.75964 0.0184176
0.558618 0.76762 0.0145724
0.614954 0.774685 0.0133516
0.663142 0.780529 0.0126345
0.706981 0.785733 0.0121614
0.745129 0.790784 0.0112306
0.781582 0.795789 0.00996414
0.811383 0.8 0.00907912
0.840116 0.804013 0.0081178
0.86659 0.807553 0.00579843
0.892775 0.811093 0.00317388
0.917342 0.814115 0.00170901
0.941344 0.817121 0.000183108
0.961028 0.819547 0.000167849
0.979232 0.82208 0.000137331
0.991028 0.82414 6.10361e-05
1 0.826108 0
1 0.827924 0
1 0.829602 0
1 0.831098 0
1 0.832609 0.000503548
1 0.833829 0.00274662
1 0.83505 0.0052491
1 0.83621 0.00741588
1 0.837507 0.00972
1 0.839124 0.0125277
0.00769055 0.709438 0.172702
0.0303044 0.716136 0.130266
0.0795148 0.723568 0.0959335
0.160449 0.732097 0.0709544
0.250843 0.741558 0.0542763
0.350195 0.751553 0.042649
0.430869 0.761242 0.0332036
0.502525 0.770672 0.0242924
0.562982 0.77847 0.0205234
0.620859 0.785885 0.0176394
0.666484 0.791684 0.016846
0.711376 0.79733 0.0159609
0.74844 0.802335 0.0145113
0.784878 0.807248 0.0129549
0.814054 0.810987 0.0120546
0.842878 0.814649 0.0107271
0.869398 0.818051 0.00790417
0.89575 0.821485 0.00497444
0.920592 0.824964 0.00265507
0.943755 0.828336 0.00109865
0.963485 0.83125 0.0011902
0.980346 0.833783 0.00102235
0.993271 0.835889 0.00047303
1 0.837995 9.15541e-05
0.999969 0.839918 0.00138857
1 0.841703 0.00369268
1 0.843549 0.00588998
1 0.845029 0.00842298
1 0.846281 0.0108034
1 0.847501 0.0134737
1 0.848569 0.0159152
1 0.849699 0.0187381
1 0.850721 0.0220645
0.0108644 0.719081 0.181323
0.0294041 0.72604 0.138979
0.0864729 0.73402 0.107225
0.159167 0.74258 0.0801404
0.255726 0.752468 0.0645914
0.35903 0.76257 0.0512551
0.434943 0.772061 0.0411994
0.508873 0.781338 0.0305943
0.567864 0.789181 0.0265354
0.625284 0.796704 0.0224002
0.67068 0.802274 0.0216526
0.714153 0.807706 0.0205844
0.75198 0.812955 0.0188907
0.787274 0.817838 0.0173953
0.816907 0.821942 0.0166629
0.845441 0.82591 0.0153658
0.872328 0.829648 0.0132906
0.898238 0.833341 0.0111391
0.92343 0.836851 0.0087129
0.945861 0.83978 0.00712596
0.966018 0.842145 0.00607309
0.981781 0.844617 0.00624094
0.995666 0.847181 0.00587472
0.999588 0.84918 0.00767529
0.999908 0.850965 0.00994888
1 0.853254 0.0121004
1 0.855833 0.014435
1 0.857282 0.016846
1 0.858534 0.0193484
1 0.859495 0.0226291
1 0.860441 0.0259251
1 0.860777 0.0298619
1 0.861067 0.0345617
0.0128939 0.728756 0.191287
0.0282597 0.736156 0.148516
0.0920272 0.745037 0.118914
0.159594 0.754025 0.0899519
0.263966 0.764019 0.0759289
0.364584 0.7738 0.0614939
0.441077 0.782757 0.0497597
0.513542 0.791501 0.0392309
0.573648 0.799924 0.033051
