LUT预设1/柯达5219&2393/柯达5219系列-709/柯达5219（暖）-709.cube
TITLE "Generated by Resolve"
LUT_3D_SIZE 9
0.0408179 0.0450446 0.0697795
0.147875 0.0553292 0.0498207
0.266148 0.0669413 0.0403754
0.394583 0.080293 0.0320134
0.542718 0.0933089 0.0247959
0.713268 0.111101 0.0165866
0.881025 0.14136 0.0105592
0.97789 0.199817 0.00643931
0.999161 0.294179 0.00384527
0.0325933 0.141741 0.131167
0.191531 0.139986 0.0917372
0.324605 0.149294 0.0771801
0.463951 0.160739 0.0624094
0.621195 0.172839 0.0500496
0.784344 0.195773 0.0345159
0.930694 0.234424 0.0229496
0.989822 0.299519 0.0167086
0.999557 0.39826 0.0153201
0.0189975 0.253269 0.196948
0.125948 0.257374 0.156252
0.353002 0.24358 0.113054
0.485466 0.253056 0.0956588
0.645838 0.265629 0.0844892
0.818448 0.289921 0.07187
0.947082 0.332708 0.0599527
0.994644 0.402014 0.0543374
0.999893 0.503273 0.0641489
0.0110475 0.368734 0.261616
0.0727092 0.373663 0.220874
0.269154 0.365194 0.18439
0.498116 0.35198 0.129625
0.623346 0.364416 0.107424
0.802029 0.385534 0.0974899
0.940902 0.430152 0.101549
0.995041 0.503929 0.124865
0.999985 0.607156 0.163867
0.0071107 0.488975 0.331655
0.0371405 0.493294 0.292485
0.183505 0.490242 0.25211
0.40972 0.483268 0.211566
0.645258 0.472328 0.142321
0.782559 0.492561 0.11928
0.916304 0.526635 0.112032
0.990158 0.58761 0.149813
0.999741 0.689525 0.23154
0.00328069 0.627634 0.42005
0.0188907 0.631189 0.388586
0.0986648 0.630488 0.330571
0.316213 0.626093 0.308919
0.564752 0.626123 0.263645
0.803601 0.615503 0.158724
0.910765 0.64181 0.13962
0.978805 0.683665 0.155612
0.99942 0.754437 0.238697
0.00112917 0.771496 0.530846
0.00436408 0.773297 0.505837
0.0343481 0.772732 0.444907
0.213519 0.768582 0.40589
0.488334 0.772229 0.401068
0.74406 0.774395 0.317937
0.929824 0.768566 0.213443
0.987121 0.798459 0.220218
0.999222 0.839231 0.266117
0.00177005 0.892699 0.657816
0.00318914 0.893767 0.645533
0.00817884 0.894286 0.598627
0.0842145 0.89308 0.528786
0.342382 0.892424 0.516762
0.665202 0.900038 0.515114
0.897215 0.903502 0.421012
0.994278 0.902266 0.332219
0.999985 0.926619 0.380911
0.0145876 0.975372 0.792782
0.0182498 0.975982 0.790646
0.0195468 0.977508 0.770901
0.0342107 0.978912 0.720455
0.13846 0.978973 0.660334
0.458503 0.976928 0.646296
0.814984 0.982025 0.664942
0.978714 0.985351 0.557351
1 0.988037 0.507408
0.0305333 0.0614328 0.131731
0.125109 0.0587778 0.148989
0.215381 0.0818189 0.120516
0.334966 0.0884565 0.115877
0.477089 0.0934462 0.113878
0.638651 0.110918 0.101366
0.812543 0.143771 0.0844739
0.948074 0.203494 0.0636149
0.994873 0.302861 0.0475624
0.0447395 0.148089 0.179675
0.148425 0.150896 0.182773
0.268925 0.164675 0.161685
0.394949 0.177493 0.149844
0.537942 0.194141 0.135164
0.702266 0.217258 0.118868
0.865034 0.255528 0.0975052
0.968215 0.317174 0.0805066
0.997818 0.414572 0.0689555
0.047364 0.24918 0.247333
0.113909 0.25713 0.244816
0.297887 0.257069 0.208057
0.43801 0.265888 0.190661
0.585107 0.280735 0.173983
0.754131 0.305974 0.15874
0.905715 0.348287 0.144869
0.983734 0.416342 0.13843
0.999283 0.516152 0.142931
0.0375067 0.358618 0.316014
0.071397 0.367834 0.31043
0.217807 0.371893 0.261601
0.458854 0.361532 0.227451
0.597833 0.373495 0.207935
0.772488 0.397177 0.201053
0.919738 0.440696 0.200839
0.989044 0.509316 0.209491
0.999786 0.608576 0.235828
0.0201724 0.476783 0.385321
0.0346227 0.486412 0.374929
0.153033 0.491386 0.335393
0.371084 0.486427 0.289921
0.617334 0.479713 0.24448
0.757977 0.499596 0.221729
0.910369 0.533684 0.22681
0.988449 0.600824 0.264668
0.999741 0.69868 0.322881
0.0123598 0.616938 0.468086
0.0209506 0.623011 0.458198
0.0770733 0.629786 0.422507
0.256184 0.627665 0.371313
0.533165 0.623972 0.339513
0.78114 0.618952 0.262318
0.894728 0.644602 0.248951
0.978988 0.689525 0.275196
0.999405 0.763989 0.35436
0.00726329 0.761685 0.568185
0.0114137 0.765133 0.561532
0.028687 0.770474 0.53228
0.138842 0.770047 0.471946
0.431525 0.767636 0.452079
0.710979 0.770764 0.39913
0.914656 0.767971 0.316014
0.979889 0.796231 0.320241
0.998825 0.838224 0.366873
0.00715648 0.885801 0.683604
0.0107118 0.88716 0.68098
0.016144 0.890929 0.665629
0.0466773 0.893019 0.60206
0.282322 0.889876 0.569146
0.611704 0.893065 0.556283
0.871611 0.89865 0.492088
0.989731 0.897414 0.411597
0.999893 0.920897 0.45098
0.0396887 0.971023 0.805859
0.0508431 0.971038 0.806745
0.0581369 0.972534 0.802289
0.0586557 0.974655 0.773465
0.116564 0.976318 0.719478
0.372854 0.975082 0.680308
0.770321 0.977157 0.693156
0.967926 0.982666 0.616907
1 0.985443 0.562509
0.0226444 0.0936904 0.194049
0.0945907 0.0774853 0.246525
0.213718 0.0738689 0.247913
0.288945 0.113222 0.207935
0.391669 0.130159 0.196826
0.552407 0.1205 0.199145
0.725917 0.108415 0.205295
0.881819 0.140185 0.198505
0.976944 0.206897 0.194018
0.0411994 0.17438 0.247013
0.125246 0.168185 0.264958
0.241749 0.165866 0.278248
0.338018 0.190204 0.247471
0.458061 0.204227 0.23267
0.61651 0.214267 0.224537
0.785077 0.233036 0.217014
0.922866 0.280095 0.208103
0.990173 0.379873 0.200412
0.0397803 0.271153 0.294118
0.133791 0.263584 0.308873
0.259907 0.265873 0.306905
0.380301 0.278447 0.285847
0.510628 0.2934 0.27126
0.670558 0.315694 0.25597
0.834531 0.351888 0.244541
0.952911 0.415991 0.235752
0.996826 0.519371 0.236591
0.04271 0.368734 0.353292
0.116564 0.3635 0.36968
0.211963 0.371054 0.364569
0.399695 0.372305 0.328786
0.546029 0.383856 0.312276
0.707424 0.406744 0.296452
0.871122 0.447608 0.290089
0.97293 0.513436 0.293599
0.998474 0.610315 0.310094
0.0383001 0.477714 0.423484
0.0874647 0.477104 0.43798
0.145205 0.487984 0.428809
0.319417 0.491081 0.387488
0.56965 0.487587 0.353506
0.728664 0.50515 0.334768
0.890532 0.541787 0.343191
0.980423 0.606973 0.362325
0.999237 0.694514 0.393072
0.0299992 0.61059 0.507378
0.0546426 0.61239 0.51577
0.0942397 0.620768 0.506798
0.215641 0.627955 0.472572
0.474556 0.625437 0.423041
0.752132 0.620935 0.377081
0.878233 0.648325 0.36965
0.978134 0.695613 0.398383
0.999466 0.772931 0.465339
0.0206607 0.752789 0.60119
0.037583 0.753979 0.606058
0.0586099 0.759533 0.60293
0.105531 0.767697 0.571954
0.337362 0.766003 0.522011
0.670634 0.764355 0.485771
0.894926 0.765637 0.42446
0.968566 0.793744 0.428275
0.998367 0.838834 0.480415
0.0231479 0.878172 0.707042
0.0381933 0.878599 0.71046
0.0616617 0.881514 0.712779
0.0766308 0.886275 0.690089
0.208026 0.886793 0.638392
0.533486 0.885847 0.612222
0.834607 0.890013 0.569757
0.981186 0.890669 0.499916
0.999405 0.913863 0.531243
0.0911879 0.966369 0.82034
0.122393 0.965148 0.822126
0.161044 0.965133 0.824247
0.171374 0.96733 0.817853
0.169802 0.970977 0.784726
0.309514 0.972 0.735775
0.694209 0.971405 0.726772
0.94902 0.9776 0.68043
0.999985 0.980514 0.62475
0.0186007 0.140352 0.271077
0.066041 0.127031 0.317845
0.180041 0.0875868 0.384253
0.310262 0.0863508 0.366003
0.385229 0.138781 0.310201
0.466407 0.181125 0.2813
0.618372 0.17998 0.278874
0.808347 0.148211 0.288655
0.950759 0.153323 0.30631
0.0383001 0.214725 0.320043
0.100572 0.208591 0.341924
0.201663 0.189975 0.389166
0.32752 0.181994 0.389883
0.419013 0.215747 0.344106
0.51989 0.245472 0.316152
0.687739 0.241535 0.314992
0.854459 0.243854 0.322438
0.970092 0.286305 0.333074
0.0508888 0.305135 0.391043
0.123751 0.294392 0.385733
0.228565 0.285878 0.401083
0.351659 0.280278 0.4121
0.455009 0.303624 0.376699
0.587228 0.325063 0.354345
0.751461 0.344717 0.345876
0.903639 0.382376 0.345418
0.986114 0.454749 0.356924
0.0339055 0.399283 0.413443
0.103944 0.389075 0.422461
0.22797 0.381155 0.434684
0.36054 0.382132 0.433555
0.492012 0.395392 0.410803
0.639979 0.416419 0.39559
0.801282 0.449638 0.384558
0.936049 0.505745 0.381704
0.992523 0.597009 0.394568
0.0326543 0.499611 0.459785
0.0948501 0.490791 0.477104
0.20441 0.485878 0.496208
0.311894 0.493874 0.487511
0.52694 0.494911 0.454292
0.680995 0.512825 0.441733
0.836133 0.546654 0.434134
0.954406 0.604883 0.436362
0.997299 0.691768 0.459327
0.0304875 0.621057 0.536858
0.0802777 0.615579 0.552682
0.153689 0.615335 0.566873
0.246128 0.622965 0.55938
0.42359 0.628824 0.524514
0.704906 0.626429 0.490059
0.855695 0.651987 0.482124
0.970214 0.69929 0.50103
0.998611 0.774777 0.543313
0.0298924 0.753231 0.629648
0.0728618 0.749798 0.640208
0.131151 0.75024 0.65037
0.194186 0.756466 0.649424
0.305653 0.76556 0.615183
0.612497 0.762142 0.56968
0.870817 0.763912 0.530388
0.957824 0.792905 0.532296
0.997497 0.840513 0.581674
0.0414588 0.875608 0.730877
0.0844282 0.873121 0.735851
0.144213 0.871717 0.741482
0.201617 0.874617 0.743191
0.250751 0.880995 0.718654
0.465446 0.881407 0.675486
0.796002 0.882322 0.642298
0.970169 0.884398 0.586374
0.997757 0.908064 0.608957
0.159274 0.963027 0.835416
0.216175 0.960861 0.837461
0.290318 0.959274 0.840589
0.342519 0.960082 0.84332
0.348226 0.963211 0.8336
0.36965 0.967041 0.796872
0.619806 0.966476 0.766003
0.919997 0.971481 0.737026
0.999695 0.973465 0.684092
0.0151369 0.202686 0.369009
0.052079 0.18941 0.404349
0.126406 0.15845 0.478187
0.272221 0.104067 0.529366
0.415747 0.106325 0.484321
0.494163 0.174975 0.405447
0.560311 0.234623 0.367056
0.69778 0.245975 0.363607
0.881102 0.226337 0.375036
0.0325322 0.273869 0.417441
0.0837262 0.265309 0.433173
0.164767 0.247745 0.478782
0.290166 0.206424 0.530938
0.432151 0.19617 0.507225
0.519875 0.248127 0.437156
0.608148 0.290959 0.401556
0.756695 0.298604 0.399695
0.926513 0.29247 0.414603
0.049836 0.354376 0.473259
0.105638 0.343542 0.465583
0.196612 0.333379 0.484672
0.308446 0.313558 0.521981
0.440879 0.302953 0.52192
0.552392 0.332372 0.47126
0.665141 0.364462 0.44126
0.823117 0.377829 0.440345
0.958663 0.401221 0.457435
0.0418097 0.44065 0.512444
0.115145 0.429129 0.518898
0.21416 0.416724 0.515099
0.331395 0.406775 0.52668
0.460914 0.404822 0.530709
0.587884 0.426108 0.502052
0.723873 0.454444 0.480323
0.878157 0.483848 0.480003
0.979416 0.548379 0.490883
0.029099 0.534997 0.533181
0.0735485 0.524804 0.53962
0.179416 0.514183 0.549081
0.33576 0.507439 0.559457
0.485801 0.506691 0.559335
0.626749 0.525811 0.536202
0.777173 0.554314 0.523705
0.917815 0.600717 0.521706
0.990936 0.680919 0.530083
0.0238956 0.647318 0.576669
0.0620432 0.637659 0.588525
0.16379 0.629221 0.604273
0.311482 0.624582 0.619974
0.462135 0.628489 0.612696
0.654185 0.635966 0.588891
0.817563 0.657526 0.575906
0.942412 0.700908 0.578286
0.994598 0.77023 0.593744
0.0293431 0.76791 0.651453
0.0752422 0.760601 0.66537
0.171283 0.754559 0.681178
0.289464 0.753079 0.69366
0.406622 0.758602 0.690883
0.576074 0.765225 0.656794
0.836774 0.766644 0.626749
0.94905 0.7935 0.624811
0.996307 0.842649 0.659266
0.0502327 0.879759 0.74844
0.113298 0.874235 0.756832
0.208515 0.869612 0.766629
0.328725 0.867643 0.774365
0.415778 0.87129 0.776806
0.502037 0.878737 0.748852
0.756085 0.878508 0.707164
0.954421 0.88098 0.669444
0.994598 0.904387 0.682399
0.199649 0.963516 0.849454
0.283436 0.960296 0.852445
0.384771 0.957092 0.856458
0.470008 0.955398 0.860502
0.517906 0.956344 0.862165
0.528557 0.959915 0.847059
0.623102 0.96289 0.813703
0.886732 0.966064 0.78706
0.998474 0.967681 0.741039
0.0136873 0.278904 0.490791
0.0407111 0.268132 0.508156
0.106249 0.244236 0.564645
0.218753 0.193835 0.634134
0.386374 0.12578 0.658671
0.537774 0.13994 0.576898
0.605219 0.226459 0.485191
0.664439 0.294469 0.448112
0.787289 0.322988 0.448966
0.0312657 0.349248 0.530694
0.0721599 0.339483 0.536858
0.142443 0.322805 0.565927
0.242603 0.289143 0.618402
0.393118 0.235218 0.652964
0.546883 0.231235 0.594903
0.624842 0.2972 0.51223
0.694423 0.354604 0.479042
0.841932 0.36817 0.483436
0.0456703 0.418875 0.564095
0.0957504 0.408881 0.561135
0.176654 0.396002 0.573953
0.274784 0.376349 0.605798
0.406851 0.343603 0.638117
0.55761 0.333791 0.609155
0.649241 0.381277 0.54374
0.747189 0.421347 0.51928
0.900008 0.429877 0.528252
0.063447 0.498085 0.61915
0.1093 0.480797 0.596139
0.195727 0.467201 0.588449
0.301289 0.457023 0.605066
0.428153 0.438148 0.63743
0.578256 0.432761 0.625605
0.6869 0.468513 0.578714
0.809277 0.499168 0.562936
0.945266 0.523064 0.574273
0.0282292 0.576959 0.626657
0.0797894 0.566751 0.629877
0.200626 0.555215 0.634913
0.326604 0.543938 0.631159
0.456916 0.537163 0.640803
0.603342 0.536675 0.644556
0.730877 0.563867 0.616388
0.866316 0.598001 0.603571
0.973663 0.643137 0.614206
0.0157168 0.680842 0.646754
0.0436561 0.671366 0.652827
0.130251 0.660761 0.659739
0.303243 0.650736 0.667369
0.472251 0.644709 0.678401
0.633143 0.647852 0.671824
0.775097 0.668284 0.655436
0.908049 0.703197 0.648966
0.987457 0.762234 0.656397
0.0249943 0.791547 0.690578
0.0588693 0.783276 0.699001
0.157229 0.773785 0.711299
0.308019 0.765789 0.72462
0.470878 0.762142 0.735454
0.617945 0.76553 0.729931
0.802502 0.773159 0.705974
0.9308 0.796551 0.699504
0.992279 0.841962 0.712108
0.0501717 0.892042 0.766445
0.102159 0.885206 0.774121
0.224002 0.877668 0.785122
0.375723 0.871626 0.796933
0.51017 0.869642 0.806165
0.602518 0.873518 0.802884
0.744137 0.877592 0.77171
0.936004 0.880781 0.742077
0.991852 0.902724 0.74966
0.202136 0.968612 0.860502
0.303426 0.964263 0.864836
0.421408 0.959457 0.870283
0.536248 0.954955 0.875776
0.614023 0.952758 0.880598
0.654154 0.954742 0.879942
0.688655 0.959472 0.860716
0.857511 0.961761 0.830427
0.995453 0.964263 0.791379
0.0162203 0.377264 0.621042
0.0412909 0.364584 0.629679
0.0962539 0.345525 0.658228
0.191287 0.311742 0.710613
0.33463 0.244572 0.758938
0.520928 0.176257 0.740429
0.653346 0.206043 0.636439
0.706935 0.298329 0.548806
0.769543 0.368505 0.524269
0.0352636 0.442237 0.646464
0.071397 0.430014 0.646464
0.130297 0.412741 0.658061
0.22063 0.385489 0.694347
0.350973 0.332601 0.739376
0.527337 0.27245 0.736233
0.663798 0.289052 0.652094
0.725536 0.363226 0.574426
0.800748 0.421592 0.555825
0.0526894 0.499977 0.665415
0.0983444 0.489601 0.660319
0.167102 0.475685 0.663066
0.253285 0.456153 0.683192
0.371313 0.421088 0.721798
0.53814 0.373693 0.733516
0.678309 0.381003 0.671305
0.750057 0.441291 0.606546
0.84094 0.487373 0.594797
0.0623484 0.561746 0.693736
0.100542 0.545586 0.673915
0.183719 0.53463 0.672007
0.287846 0.522469 0.68127
0.400046 0.504738 0.708522
0.551354 0.472435 0.735592
0.695079 0.476112 0.693767
0.781476 0.524697 0.643046
0.88806 0.559991 0.637018
0.0643473 0.636301 0.732128
0.126314 0.623835 0.72105
0.199969 0.607752 0.702861
0.305623 0.595789 0.697688
0.443198 0.584558 0.710872
0.578851 0.571694 0.728923
0.715053 0.577142 0.713115
0.81973 0.612863 0.679637
0.934447 0.64126 0.681086
0.0247959 0.717983 0.725917
0.0662242 0.708812 0.727108
0.156893 0.698161 0.731258
0.329427 0.68658 0.738186
0.4878 0.675532 0.734676
0.616388 0.67129 0.741894
0.748699 0.679393 0.737072
0.86627 0.707164 0.718853
0.970901 0.744945 0.721279
0.0196231 0.817929 0.747417
0.0506905 0.809812 0.751324
0.128634 0.799832 0.757031
0.288594 0.789273 0.763973
0.472313 0.780362 0.772335
0.637308 0.776287 0.779187
0.778119 0.782559 0.770947
0.904143 0.80177 0.759793
0.986313 0.840742 0.763882
0.0429084 0.908614 0.795071
0.0853132 0.901823 0.799222
0.208362 0.893736 0.806394
0.365026 0.885206 0.815976
0.531823 0.877424 0.827024
0.66125 0.874159 0.834836
0.767452 0.877897 0.824857
0.917342 0.883253 0.800336
0.989197 0.904372 0.804532
0.196658 0.97586 0.872923
0.291676 0.971023 0.876188
0.422049 0.965194 0.881575
0.553811 0.95964 0.887938
0.655268 0.955108 0.894759
0.7252 0.953323 0.899855
0.762692 0.956069 0.894621
0.850416 0.960739 0.87068
0.990341 0.962798 0.838361
0.0230716 0.509346 0.754162
0.0468605 0.494087 0.753277
0.0949874 0.470817 0.763012
0.181598 0.442145 0.789456
0.310185 0.393835 0.829633
0.482139 0.306127 0.849989
0.660563 0.245014 0.795789
0.763424 0.292546 0.683589
0.805844 0.385565 0.613306
0.0409552 0.560433 0.764935
0.0745098 0.545068 0.760586
0.130892 0.52343 0.762158
0.210498 0.497627 0.776822
0.325826 0.45832 0.809873
0.489921 0.385519 0.839597
0.667979 0.326589 0.799588
0.774273 0.362905 0.699321
0.820691 0.444968 0.638331
0.054139 0.601999 0.766445
0.0996567 0.588769 0.761273
0.167254 0.571542 0.757931
0.246036 0.552529 0.762982
0.347036 0.525292 0.787503
0.497398 0.473838 0.825925
0.675181 0.421607 0.803372
0.784939 0.448554 0.720012
0.838529 0.518761 0.668742
0.0618296 0.638666 0.770916
0.114748 0.628794 0.764248
0.198642 0.617807 0.759304
0.293904 0.605203 0.760327
0.396094 0.587411 0.774975
0.521111 0.555673 0.805051
0.683986 0.518364 0.803647
0.798108 0.538491 0.740078
0.862074 0.595575 0.703288
0.093492 0.710719 0.812329
0.133776 0.68838 0.787579
0.208621 0.671778 0.770092
0.327398 0.661509 0.768338
0.44184 0.650187 0.776043
0.559792 0.631647 0.799664
0.70489 0.609094 0.806027
0.816327 0.628504 0.763256
0.894743 0.670909 0.740734
0.0608835 0.768475 0.82063
0.140337 0.761593 0.820539
0.256153 0.748821 0.811246
0.35288 0.733013 0.79498
0.477302 0.721645 0.788891
0.603647 0.712535 0.800885
0.731609 0.704814 0.810346
0.841276 0.721416 0.788785
0.936263 0.749966 0.780163
0.0231174 0.847028 0.813199
0.0612345 0.839002 0.814176
0.136385 0.829343 0.815976
0.294072 0.818631 0.81915
0.504265 0.807324 0.825666
0.649577 0.798169 0.825666
0.770016 0.797192 0.827131
0.87837 0.809857 0.819059
0.970352 0.837278 0.816373
0.0355535 0.927596 0.835874
0.0865339 0.920653 0.837903
0.186343 0.912001 0.840864
0.345815 0.902708 0.845121
0.518502 0.893217 0.851301
0.676402 0.884627 0.860197
0.791562 0.882307 0.865187
0.896086 0.888243 0.854353
0.983291 0.906584 0.850523
0.188708 0.984497 0.890776
0.271931 0.98056 0.892409
0.413901 0.97499 0.895796
0.547005 0.968368 0.900557
0.662913 0.961578 0.906783
0.758129 0.956558 0.914565
0.819104 0.955749 0.919783
0.866758 0.959426 0.908995
0.979477 0.963134 0.884062
0.0536202 0.667842 0.871183
0.0796063 0.653239 0.869108
0.117876 0.634043 0.870314
0.186511 0.604181 0.877699
0.303365 0.563485 0.895872
0.457298 0.500572 0.922683
0.630671 0.396735 0.924681
0.790768 0.335149 0.84892
0.863767 0.393118 0.73698
0.0816663 0.708644 0.875883
0.117754 0.692653 0.870253
0.159045 0.669474 0.864347
0.218387 0.639567 0.863951
0.322301 0.601968 0.878218
0.46595 0.549081 0.905211
0.634989 0.465934 0.914534
0.795056 0.409659 0.852064
0.871214 0.455299 0.749996
0.0882277 0.728084 0.864897
0.136553 0.717235 0.857908
0.211933 0.696239 0.85359
0.277913 0.672374 0.851179
0.356603 0.644999 0.858503
0.485344 0.604517 0.884504
0.643153 0.541115 0.901717
0.802014 0.491493 0.856336
0.880125 0.530587 0.768566
0.0849012 0.742092 0.856046
0.149187 0.733577 0.851682
0.238834 0.721294 0.847242
0.328359 0.70692 0.843809
0.412467 0.689189 0.848127
0.517342 0.661021 0.868635
0.658763 0.613138 0.890806
0.811582 0.57435 0.860655
0.888029 0.611276 0.79115
0.114641 0.787381 0.873579
0.153872 0.76463 0.854322
0.262592 0.75613 0.848875
0.371832 0.746975 0.845167
0.462409 0.735348 0.845472
0.559197 0.717784 0.859464
0.681788 0.686671 0.881804
0.820264 0.660212 0.86598
0.896681 0.692119 0.812253
0.174823 0.850614 0.905638
0.242557 0.83595 0.894057
0.293584 0.811093 0.870665
0.37142 0.794202 0.855375
0.496849 0.785245 0.854719
0.610162 0.77438 0.861112
0.718791 0.758038 0.876326
0.838575 0.743725 0.872969
0.909636 0.772 0.840421
0.067155 0.884474 0.891722
0.153216 0.880446 0.898192
0.31313 0.874434 0.900526
0.447913 0.863371 0.894057
0.538109 0.848081 0.878416
0.649195 0.837201 0.872999
0.762264 0.82829 0.881514
0.861494 0.825101 0.884276
0.937194 0.844007 0.871138
0.0311742 0.947585 0.891432
0.0847181 0.941268 0.891661
0.171649 0.933608 0.892103
0.324453 0.925185 0.89305
0.510506 0.915785 0.896483
0.693049 0.904524 0.9028
0.803204 0.895827 0.901701
0.888228 0.895491 0.9028
0.965393 0.909483 0.898802
0.175692 0.992782 0.918502
0.267796 0.989578 0.918654
0.403235 0.985382 0.919264
0.530587 0.980056 0.920745
0.647837 0.973526 0.923262
0.754803 0.966064 0.928298
0.842298 0.960388 0.935775
0.90132 0.959396 0.941588
0.964111 0.964355 0.930404
