LUT预设1/柯达5219&2393/柯达5219系列-709/柯达5219微调709.cube
TITLE "Generated by Resolve"
LUT_3D_SIZE 33
0.0448157 0.0517891 0.0790265
0.0502174 0.0536049 0.079881
0.0559243 0.055436 0.0804913
0.0621805 0.0574044 0.0808728
0.0702373 0.0596933 0.0804608
0.0789654 0.0619059 0.0799268
0.0885939 0.0641489 0.0791333
0.0986801 0.0665141 0.0781262
0.109789 0.0687572 0.0769513
0.122179 0.0707561 0.0759594
0.135271 0.0729076 0.074876
0.149004 0.0750744 0.0735332
0.164431 0.076936 0.0723125
0.182025 0.0785992 0.0709087
0.200061 0.080354 0.0692302
0.219898 0.0822461 0.0673075
0.242054 0.0839246 0.0650034
0.265171 0.085893 0.0623941
0.2907 0.0877699 0.0592813
0.3187 0.0895247 0.0557107
0.347875 0.0914321 0.0519112
0.379461 0.093492 0.0475776
0.413825 0.0953841 0.0433204
0.450217 0.0973373 0.0387274
0.487694 0.0990158 0.0352483
0.529458 0.0996872 0.0323186
0.571221 0.100496 0.0294041
0.613443 0.10193 0.026154
0.657816 0.10338 0.0227359
0.702831 0.105974 0.0189822
0.747219 0.109377 0.0153506
0.791363 0.113359 0.0126497
0.834943 0.118669 0.0108644
0.0493935 0.0602274 0.0874037
0.0552834 0.0623026 0.0876478
0.0620584 0.06421 0.0877089
0.0707103 0.0663615 0.0873732
0.0800183 0.0684672 0.0868849
0.0899672 0.0706035 0.0860456
0.100511 0.0729839 0.0849012
0.111849 0.0752575 0.0835584
0.124636 0.0774395 0.0824598
0.137987 0.0797131 0.0810559
0.152331 0.0821851 0.0795148
0.168246 0.0844129 0.0779736
0.186236 0.0863966 0.0762951
0.204868 0.0884565 0.0742351
0.225147 0.090486 0.0718242
0.248142 0.0924392 0.0690623
0.271839 0.0946212 0.065919
0.297642 0.0967117 0.0623789
0.326467 0.0986648 0.05832
0.356451 0.100832 0.0540475
0.38909 0.102922 0.0497139
0.42446 0.104692 0.0454719
0.461295 0.106294 0.0413825
0.499352 0.108019 0.0380255
0.540444 0.109102 0.0347906
0.581964 0.110536 0.031342
0.623621 0.112444 0.0277256
0.667384 0.114366 0.0242008
0.711421 0.117052 0.0205844
0.754788 0.120653 0.0171359
0.797452 0.125277 0.0144961
0.839597 0.131121 0.0126802
0.877928 0.138781 0.0110781
0.0535744 0.0694133 0.0946365
0.0605478 0.0713054 0.0945602
0.0690013 0.0734112 0.0945296
0.0785687 0.0756542 0.0939956
0.0891432 0.0780346 0.0931258
0.100359 0.0806287 0.0920729
0.112428 0.0831617 0.0905013
0.125551 0.0855573 0.08925
0.139467 0.088014 0.0878157
0.15462 0.0904402 0.0861372
0.170855 0.0927901 0.0843671
0.188907 0.0949264 0.0823835
0.20824 0.0971389 0.0800183
0.228717 0.0993515 0.077409
0.252308 0.101396 0.0741741
0.276997 0.103548 0.0705119
0.303227 0.105806 0.0666819
0.332784 0.107866 0.0623484
0.363363 0.110231 0.0577707
0.396582 0.112428 0.0531472
0.432303 0.114427 0.0486152
0.469535 0.116274 0.0444038
0.507515 0.11812 0.0410315
0.548257 0.119463 0.0376287
0.589349 0.121096 0.0339818
0.630594 0.123369 0.030045
0.672923 0.126009 0.0261845
0.716228 0.128695 0.0226749
0.758953 0.132265 0.019379
0.800305 0.13698 0.0168154
0.840879 0.143496 0.014847
0.880171 0.151156 0.0128939
0.907607 0.1626 0.0121614
0.0555581 0.0803693 0.103273
0.0623026 0.0825513 0.104173
0.0730602 0.084947 0.103212
0.0849165 0.0873732 0.101625
0.0975357 0.0896925 0.0998856
0.111009 0.0920882 0.0979934
0.124941 0.0944533 0.0963455
0.139345 0.0968185 0.094789
0.155108 0.0991531 0.0930495
0.172076 0.101366 0.090959
0.190127 0.103746 0.0887465
0.209491 0.106126 0.0861982
0.230594 0.108446 0.0832074
0.254368 0.110674 0.0798505
0.27982 0.112902 0.0760967
0.306386 0.11519 0.0721294
0.336645 0.117556 0.0670024
0.36791 0.120211 0.0619516
0.40116 0.122744 0.0572061
0.437354 0.124773 0.0523537
0.474327 0.127199 0.0478676
0.512505 0.129198 0.0441901
0.552682 0.130694 0.0407263
0.593729 0.13225 0.0373236
0.634516 0.134432 0.0335241
0.675929 0.137285 0.0296635
0.718486 0.140551 0.0260166
0.760098 0.144427 0.0224002
0.800137 0.149996 0.0198215
0.839094 0.156695 0.017731
0.877043 0.164538 0.0157015
0.906783 0.17554 0.0143893
0.929732 0.189792 0.0132601
0.0565347 0.0926833 0.112596
0.0647288 0.0950637 0.112856
0.0764935 0.0975509 0.111009
0.0886549 0.100053 0.108919
0.102708 0.102312 0.107042
0.118044 0.104555 0.104753
0.134569 0.106722 0.102419
0.152346 0.108858 0.0997787
0.170077 0.111116 0.097612
0.188785 0.113451 0.0952773
0.208469 0.115877 0.0927901
0.230518 0.118273 0.0898451
0.254765 0.120531 0.0863813
0.2804 0.122972 0.082826
0.308064 0.125551 0.0784772
0.338018 0.128099 0.0732128
0.369543 0.130785 0.0674754
0.402411 0.13341 0.0620584
0.438849 0.135546 0.0571756
0.476493 0.137636 0.0528115
0.515007 0.139666 0.0491493
0.554482 0.141649 0.0455482
0.595163 0.14342 0.041825
0.635462 0.14612 0.0377813
0.676555 0.149264 0.0337377
0.717723 0.152926 0.0300145
0.75848 0.157168 0.0265965
0.797864 0.16257 0.0236057
0.83566 0.169512 0.0212711
0.871748 0.177691 0.0192264
0.906569 0.187335 0.0170291
0.927535 0.20145 0.0158236
0.947585 0.217136 0.013901
0.057023 0.106142 0.121477
0.0661936 0.108568 0.120607
0.0766918 0.11136 0.119158
0.0885634 0.113863 0.117357
0.105074 0.115938 0.114794
0.12372 0.117983 0.111666
0.144533 0.119783 0.107805
0.164523 0.121859 0.104646
0.184207 0.124193 0.102144
0.204715 0.126467 0.0994736
0.226947 0.128801 0.0964981
0.25182 0.131106 0.0930648
0.277974 0.133593 0.0893721
0.305699 0.136172 0.0852369
0.336309 0.138811 0.079942
0.368292 0.141558 0.0741131
0.401724 0.144167 0.0685283
0.437369 0.146487 0.0630655
0.475547 0.148425 0.0581369
0.514 0.150515 0.0546883
0.553796 0.152621 0.0509041
0.593744 0.155047 0.0469978
0.633585 0.157961 0.0429084
0.673625 0.161501 0.0390326
0.714321 0.165499 0.0352483
0.754009 0.170123 0.0316167
0.793927 0.17525 0.0280461
0.830488 0.182193 0.0259403
0.865599 0.190433 0.0237278
0.899214 0.200458 0.0211948
0.925429 0.213275 0.018967
0.943832 0.228855 0.0169375
0.960433 0.246021 0.0143893
0.0530251 0.121187 0.13138
0.0605936 0.123781 0.130709
0.0724498 0.126207 0.128954
0.0877852 0.128298 0.126162
0.109468 0.12987 0.121736
0.131441 0.13164 0.117372
0.153201 0.133532 0.113191
0.174182 0.135805 0.110063
0.195773 0.138079 0.107073
0.219928 0.1402 0.103517
0.245136 0.142611 0.0998703
0.271565 0.145037 0.0959182
0.298833 0.147494 0.0917525
0.329549 0.150103 0.0866712
0.362631 0.152712 0.0810559
0.396429 0.155138 0.0756542
0.432944 0.157366 0.0702983
0.471397 0.159564 0.0652476
0.510597 0.161883 0.0611429
0.549584 0.16437 0.0570077
0.589456 0.167224 0.0527047
0.62829 0.170397 0.0484932
0.667109 0.173877 0.0449073
0.707088 0.178103 0.0414893
0.746624 0.18262 0.0381018
0.785794 0.188067 0.0348516
0.823575 0.19469 0.0317235
0.857649 0.203296 0.0293126
0.891981 0.213169 0.0263218
0.921431 0.22533 0.0233463
0.940536 0.240085 0.0208896
0.956603 0.256504 0.0184329
0.969497 0.275532 0.0158389
0.0469978 0.137346 0.142275
0.0540475 0.140002 0.141833
0.0666056 0.142229 0.139178
0.0827344 0.144411 0.135332
0.102647 0.146456 0.130068
0.125475 0.148241 0.12517
0.151141 0.149813 0.120439
0.178775 0.151354 0.115862
0.207538 0.153002 0.111254
0.234897 0.154925 0.107057
0.262577 0.157137 0.102815
0.29102 0.159518 0.0986038
0.320638 0.161807 0.0939651
0.353597 0.164477 0.0884871
0.387228 0.167132 0.0830243
0.422538 0.169512 0.0773175
0.460044 0.172045 0.0720226
0.499214 0.174456 0.0673533
0.538369 0.177111 0.063035
0.578637 0.179919 0.0585946
0.618662 0.182956 0.054551
0.658076 0.186343 0.0512551
0.696712 0.190448 0.0484932
0.736171 0.195483 0.0452277
0.775433 0.201068 0.0420539
0.813306 0.207782 0.0388037
0.848341 0.216144 0.0356603
0.880796 0.226169 0.0325017
0.913069 0.237324 0.0290532
0.937163 0.251026 0.0259709
0.951965 0.267338 0.0235904
0.966552 0.284779 0.0206912
0.976455 0.305135 0.0184939
0.0420844 0.154681 0.154864
0.0483864 0.157473 0.154528
0.0601511 0.159792 0.150118
0.0732891 0.162631 0.145098
0.087068 0.165377 0.139696
0.111818 0.166918 0.13431
0.143862 0.167742 0.128649
0.179706 0.168322 0.121996
0.213611 0.169451 0.116121
0.24419 0.171099 0.111177
0.275059 0.173114 0.106325
0.3066 0.175204 0.101183
0.339269 0.177508 0.0958419
0.373175 0.180026 0.0902876
0.407492 0.18262 0.0847334
0.444419 0.185168 0.0790265
0.483345 0.187808 0.0739147
0.522881 0.190417 0.0693828
0.5626 0.193179 0.0653239
0.603449 0.196262 0.0614328
0.643977 0.199603 0.0579385
0.683131 0.203586 0.0552529
0.722194 0.208347 0.0525521
0.761151 0.214252 0.0495003
0.800244 0.220737 0.0463874
0.836316 0.229099 0.0431067
0.868559 0.239109 0.0396124
0.899474 0.250126 0.035874
0.927977 0.26244 0.0325322
0.945663 0.277745 0.0300145
0.95967 0.294896 0.0276036
0.974609 0.312963 0.0251621
0.982315 0.334585 0.0235904
0.0372931 0.172412 0.16614
0.0424201 0.175799 0.164065
0.0493935 0.179187 0.160143
0.0588083 0.182177 0.155749
0.0777752 0.184192 0.150347
0.105425 0.185229 0.143923
0.141268 0.185779 0.136568
0.175265 0.18677 0.129442
0.209277 0.188251 0.123079
0.242237 0.189944 0.117372
0.280003 0.191257 0.110399
0.315969 0.19321 0.103807
0.350851 0.195483 0.0974746
0.385382 0.197787 0.0914015
0.421546 0.199847 0.085359
0.461112 0.202152 0.0802167
0.5028 0.20444 0.0759289
0.543877 0.206851 0.072343
0.586404 0.209537 0.0689403
0.627512 0.21265 0.0663005
0.666499 0.216831 0.0632334
0.703593 0.222187 0.0596628
0.740459 0.228504 0.0559701
0.77818 0.235325 0.052369
0.816129 0.242512 0.0493019
0.849393 0.252094 0.0463111
0.880949 0.263157 0.0434119
0.912337 0.27512 0.0407568
0.938933 0.288533 0.0382391
0.953628 0.305196 0.0363012
0.967849 0.322789 0.0342412
0.981384 0.341955 0.0322271
0.987045 0.364126 0.0310826
0.0319677 0.192538 0.177798
0.0361181 0.196201 0.175311
0.0419165 0.199634 0.172274
0.0501564 0.202655 0.168582
0.0700084 0.204211 0.162173
0.0936294 0.2056 0.154574
0.122103 0.207111 0.14609
0.158755 0.207752 0.138109
0.199985 0.208331 0.130175
0.244617 0.208713 0.121874
0.290242 0.209277 0.113298
0.328588 0.210758 0.106081
0.363195 0.213016 0.099733
0.397742 0.215457 0.093492
0.436255 0.218128 0.0877241
0.475654 0.220783 0.0827955
0.515007 0.223438 0.0781567
0.553597 0.226398 0.074052
0.594888 0.229923 0.0703593
0.635279 0.233768 0.0673991
0.674464 0.238224 0.0646372
0.713344 0.243748 0.0616159
0.7523 0.25034 0.0585641
0.791333 0.257404 0.0559091
0.829267 0.265309 0.0538796
0.861555 0.276143 0.0517128
0.893217 0.287984 0.0497444
0.9234 0.300633 0.0476234
0.946563 0.315007 0.0452888
0.959854 0.332113 0.0430915
0.973983 0.349874 0.0413672
0.985168 0.369863 0.0403754
0.989792 0.392981 0.0397803
0.0261387 0.215106 0.189944
0.0284581 0.218723 0.189212
0.034638 0.221714 0.186358
0.0431525 0.224399 0.181918
0.059678 0.226062 0.174365
0.0797589 0.228077 0.165927
0.103044 0.229923 0.157076
0.142214 0.23035 0.148714
0.188586 0.230442 0.139879
0.238727 0.230488 0.130694
0.284474 0.231525 0.121706
0.325444 0.232959 0.113161
0.364904 0.234882 0.104707
0.405402 0.236591 0.096376
0.44419 0.239307 0.090547
0.482628 0.241764 0.085069
0.520943 0.244312 0.0799725
0.559747 0.247333 0.075761
0.601724 0.251255 0.0723735
0.642466 0.255283 0.0696269
0.682673 0.259937 0.0671244
0.722683 0.265965 0.0646982
0.761944 0.273198 0.0625315
0.800549 0.280629 0.0603952
0.837201 0.289631 0.0586252
0.869108 0.301076 0.0569009
0.901579 0.313008 0.055314
0.930022 0.326101 0.0536355
0.950607 0.341222 0.0517739
0.964248 0.358709 0.0502937
0.978775 0.376562 0.0494545
0.987259 0.397818 0.049424
0.991547 0.421546 0.0496681
0.0185092 0.237934 0.204959
0.0202792 0.241688 0.205829
0.0269932 0.244724 0.201938
0.0381933 0.247211 0.194186
0.0481575 0.250217 0.186206
0.0625467 0.252689 0.178286
0.0870222 0.254047 0.169879
0.125887 0.254047 0.161547
0.17409 0.254078 0.152529
0.224628 0.254429 0.142947
0.270161 0.255802 0.132952
0.31725 0.256947 0.121965
0.364385 0.258244 0.110719
0.410361 0.259388 0.100404
0.447868 0.261952 0.0941482
0.485344 0.264164 0.0879377
0.524208 0.266804 0.0824445
0.564294 0.269932 0.0783246
0.606592 0.273869 0.0753948
0.647028 0.277882 0.0727092
0.688502 0.282826 0.0703288
0.728923 0.289372 0.0682841
0.768002 0.296895 0.0667277
0.806104 0.304814 0.0649424
0.84033 0.314855 0.0630198
0.872312 0.326284 0.0611887
0.905257 0.337835 0.0595102
0.932357 0.351263 0.05832
0.951583 0.367254 0.0577401
0.966873 0.385046 0.0579385
0.982834 0.40325 0.0586709
0.989349 0.426169 0.0597086
0.993637 0.450599 0.0608225
0.0141299 0.263737 0.222324
0.0180209 0.267216 0.218448
0.0226749 0.270481 0.21323
0.0278782 0.274022 0.206683
0.0332799 0.277638 0.200458
0.0442206 0.280064 0.194232
0.0760815 0.279316 0.186725
0.111223 0.279118 0.177768
0.153414 0.279637 0.168093
0.200473 0.280125 0.157183
0.256123 0.2804 0.14342
0.314168 0.28043 0.128969
0.368261 0.280964 0.115923
0.413458 0.282307 0.106081
0.449256 0.285237 0.0996872
0.487663 0.28751 0.0924849
0.527886 0.290547 0.0866712
0.569024 0.294316 0.0827344
0.608988 0.298573 0.0792401
0.646143 0.302708 0.0756695
0.685786 0.308568 0.0726177
0.726009 0.315312 0.0702525
0.76582 0.322469 0.068574
0.804929 0.330007 0.0668193
0.839887 0.340688 0.0658732
0.87483 0.351675 0.0653544
0.910307 0.362661 0.0652171
0.936736 0.376959 0.0657359
0.954376 0.394324 0.067277
0.971374 0.412512 0.0689403
0.987533 0.430671 0.0695506
0.990951 0.453269 0.069337
0.994476 0.475914 0.0698405
0.0103304 0.291386 0.235538
0.0125124 0.294987 0.232105
0.0148318 0.29865 0.227802
0.0169375 0.302434 0.223575
0.0269169 0.304875 0.217884
0.0435645 0.305867 0.210819
0.0683909 0.306172 0.201999
0.0934768 0.307103 0.19147
0.124926 0.307698 0.180499
0.176516 0.307958 0.169284
0.23473 0.308415 0.158145
0.294331 0.309133 0.14699
0.348608 0.310323 0.135302
0.394888 0.312016 0.123354
0.441535 0.313695 0.111955
0.488609 0.315114 0.101289
0.53135 0.317494 0.0932021
0.569818 0.320851 0.08748
0.606638 0.324346 0.0823987
0.643732 0.328283 0.0780041
0.684596 0.334081 0.0750896
0.726055 0.340658 0.0730449
0.766812 0.347646 0.0715953
0.806531 0.355459 0.0703746
0.842359 0.366491 0.0704814
0.877623 0.377584 0.0702373
0.910353 0.389319 0.0697642
0.934432 0.403738 0.0700084
0.952621 0.420447 0.0709239
0.971008 0.436988 0.0721294
0.986007 0.454826 0.0734264
0.990188 0.476677 0.0750134
0.99501 0.498741 0.0779889
0.00846876 0.321233 0.250614
0.00962844 0.325292 0.248859
0.0108797 0.329137 0.247028
0.0156863 0.332128 0.242191
0.025864 0.333806 0.235065
0.040528 0.334539 0.225986
0.0549325 0.335698 0.21619
0.0757305 0.336553 0.205982
0.105333 0.336965 0.196368
0.152483 0.336873 0.187228
0.209964 0.337758 0.178347
0.271397 0.33872 0.166979
0.330098 0.339788 0.152605
0.385397 0.340612 0.136416
0.443153 0.341222 0.120012
0.491936 0.342611 0.108049
0.532357 0.345113 0.0996719
0.56907 0.348424 0.0932021
0.604791 0.351675 0.0869764
0.644602 0.356329 0.0827955
0.685374 0.362325 0.0798047
0.72549 0.368551 0.0772106
0.764431 0.375433 0.0749218
0.80264 0.384009 0.0733501
0.839078 0.39443 0.0726482
0.875105 0.404593 0.0716411
0.905699 0.416571 0.0715648
0.92987 0.430274 0.0721599
0.950927 0.445319 0.073579
0.97142 0.460426 0.0754406
0.984161 0.478508 0.0780804
0.989868 0.499931 0.0826734
0.996017 0.52166 0.0897993
0.00766003 0.353811 0.269429
0.0084535 0.357473 0.269383
0.00959792 0.360967 0.26804
0.016022 0.362722 0.260807
0.0234073 0.364446 0.252003
0.0313878 0.366003 0.241932
0.0417182 0.367529 0.232395
0.0622568 0.368063 0.224918
0.0920424 0.367849 0.216129
0.132143 0.367895 0.207416
0.182605 0.368505 0.19736
0.244083 0.36939 0.184131
0.308522 0.370321 0.168078
0.372457 0.371145 0.151308
0.434928 0.371908 0.13518
0.484199 0.373526 0.122316
0.526131 0.375937 0.111711
0.566445 0.378882 0.102266
0.606561 0.381735 0.0939803
0.646876 0.386755 0.0893416
0.685756 0.392126 0.0850996
0.723171 0.397757 0.0810559
0.759655 0.404227 0.0775158
0.797147 0.413169 0.0754253
0.834104 0.422751 0.0738384
0.871015 0.43183 0.0721447
0.900603 0.443244 0.0727092
0.925902 0.456123 0.074464
0.950149 0.469413 0.076585
0.972351 0.483757 0.0791028
0.9823 0.502632 0.0839857
0.98938 0.523201 0.0916457
0.996429 0.544579 0.101076
0.00538643 0.386465 0.293828
0.00653086 0.389517 0.292973
0.00898756 0.392035 0.286671
0.0117647 0.394247 0.27779
0.0145266 0.396826 0.269154
0.0173953 0.399802 0.261128
0.0315251 0.401007 0.254292
0.0541543 0.401328 0.248585
0.0818799 0.400534 0.238575
0.113252 0.40061 0.226383
0.153643 0.400656 0.212955
0.213291 0.401755 0.199344
0.281926 0.403189 0.185595
0.351949 0.404715 0.172839
0.413718 0.406683 0.15877
0.465995 0.408453 0.143908
0.515816 0.4103 0.128237
0.565072 0.412161 0.113344
0.61117 0.414328 0.102266
0.648814 0.418692 0.0964218
0.684779 0.423148 0.090425
0.719631 0.427741 0.0844282
0.755169 0.43389 0.0798657
0.793179 0.442573 0.0778515
0.830869 0.450767 0.0756237
0.867521 0.45864 0.0736706
0.896834 0.469398 0.0748608
0.923629 0.481575 0.0772717
0.949676 0.493889 0.0796368
0.971511 0.507851 0.0825208
0.979034 0.527077 0.0885481
0.987747 0.545632 0.0951858
0.994904 0.565209 0.102083
0.00567636 0.422232 0.314778
0.0069276 0.425162 0.311116
0.00834669 0.427848 0.306188
0.00962844 0.431022 0.301457
0.0121004 0.434073 0.296605
0.0170138 0.436637 0.291279
0.0346838 0.436316 0.281514
0.052903 0.435904 0.27042
0.0704356 0.435264 0.255726
0.0865034 0.434928 0.239231
0.126375 0.434897 0.227893
0.181888 0.435889 0.218448
0.251789 0.437858 0.210391
0.328771 0.440314 0.203387
0.392111 0.441917 0.184314
0.453422 0.442878 0.162127
0.513726 0.443839 0.140871
0.570687 0.444709 0.121523
0.614237 0.44654 0.109438
0.648661 0.449607 0.101823
0.682261 0.453269 0.0949111
0.717296 0.458381 0.0891127
0.754742 0.465187 0.0849775
0.792782 0.472892 0.082536
0.829252 0.480201 0.0793469
0.861891 0.488548 0.0774243
0.890761 0.498909 0.0774243
0.918822 0.50959 0.0777905
0.944839 0.520974 0.0784314
0.963943 0.534218 0.0811933
0.975021 0.55024 0.0870375
0.986984 0.565316 0.093431
0.99382 0.583871 0.102327
0.00502022 0.45832 0.336049
0.00569161 0.461433 0.334112
0.00628672 0.464591 0.33254
0.00750744 0.467613 0.33022
0.0108034 0.469978 0.325032
0.0179904 0.470573 0.313787
0.0275578 0.470466 0.300099
0.0362249 0.470497 0.285359
0.046952 0.470909 0.271916
0.0717632 0.470817 0.26302
0.11017 0.470375 0.254017
0.159976 0.471046 0.24567
0.223819 0.473045 0.236606
0.298146 0.474952 0.223377
0.368673 0.476783 0.202106
0.435538 0.478798 0.182223
0.499077 0.480598 0.164858
0.556786 0.482643 0.149813
0.599329 0.485023 0.135348
0.64155 0.487404 0.120638
0.684627 0.48983 0.107439
0.723247 0.493843 0.0985885
0.758297 0.499458 0.0932631
0.792477 0.505074 0.0877394
0.825254 0.510063 0.0816968
0.855787 0.518181 0.0788281
0.88539 0.526879 0.0773327
0.915297 0.535683 0.0761273
0.941527 0.545602 0.0765393
0.959167 0.557656 0.0805219
0.973465 0.570504 0.0865187
0.988357 0.583474 0.0931106
0.992966 0.603006 0.104234
0.0040589 0.495705 0.361807
0.00442512 0.499031 0.362417
0.00512703 0.502312 0.362203
0.00720226 0.504585 0.357733
0.0107424 0.506065 0.349447
0.0163119 0.506722 0.336843
0.0208743 0.5075 0.323888
0.0281376 0.508324 0.311772
0.0411536 0.508843 0.301488
0.0689403 0.5084 0.29427
0.100557 0.507225 0.282277
0.137423 0.506981 0.269398
0.183902 0.507927 0.25597
0.25864 0.510231 0.241306
0.337591 0.513146 0.225879
0.412238 0.516228 0.212497
0.480354 0.518715 0.197635
0.539757 0.520424 0.179187
0.590555 0.521798 0.157794
0.642267 0.52314 0.136492
0.688975 0.525002 0.118578
0.726772 0.527962 0.107103
0.758129 0.53167 0.0994583
0.788922 0.535195 0.0910811
0.819883 0.5393 0.0834211
0.851331 0.546944 0.0807202
0.882445 0.554711 0.0787366
0.912383 0.562234 0.0771344
0.937591 0.571298 0.0777142
0.95523 0.582879 0.0822919
0.97113 0.594293 0.0872511
0.985 0.607141 0.09337
0.990082 0.624903 0.10399
0.00331121 0.534249 0.391653
0.00384527 0.537408 0.392569
0.00503548 0.539818 0.390036
0.00735485 0.541558 0.382559
0.0099794 0.542962 0.372854
0.0122835 0.544411 0.363287
0.0158846 0.545754 0.353704
0.0251011 0.546487 0.344167
0.0412146 0.546395 0.335012
0.0636149 0.545647 0.324529
0.0846571 0.544198 0.307942
0.108904 0.543099 0.291173
0.149462 0.544015 0.277256
0.218738 0.546685 0.265934
0.305837 0.550439 0.257725
0.388617 0.553735 0.248341
0.460914 0.555917 0.232715
0.52343 0.556817 0.206653
0.582879 0.557519 0.179812
0.641093 0.558495 0.155413
0.686381 0.560327 0.137438
0.722408 0.562661 0.124224
0.75523 0.565011 0.11252
0.788922 0.567132 0.100084
0.820066 0.571115 0.092195
0.851057 0.577188 0.0880598
0.881483 0.582895 0.0840162
0.909239 0.589624 0.081651
0.932494 0.598199 0.0817273
0.951431 0.608774 0.0847639
0.968841 0.61912 0.0871748
0.980316 0.631617 0.09337
0.987137 0.645899 0.102724
0.00315862 0.571771 0.421363
0.00399786 0.573877 0.41825
0.00500496 0.575753 0.412299
0.00585946 0.577707 0.406638
0.00666819 0.579614 0.400916
0.00764477 0.581888 0.395422
0.0131228 0.582864 0.387671
0.0233158 0.582986 0.377356
0.0378424 0.582238 0.364294
0.0507973 0.58143 0.349355
0.0647593 0.580682 0.332738
0.0875105 0.58027 0.317113
0.127199 0.58056 0.30518
0.187152 0.58291 0.297108
0.274311 0.586297 0.291524
0.359808 0.589181 0.280644
0.436561 0.591363 0.261997
0.504707 0.592554 0.235431
0.57023 0.593866 0.211704
0.63035 0.595392 0.190005
0.675258 0.596872 0.169787
0.71339 0.598093 0.148699
0.753338 0.599298 0.131319
0.793835 0.600351 0.113512
0.824277 0.604059 0.105257
0.852811 0.607965 0.0983597
0.880217 0.611658 0.0914931
0.905135 0.617258 0.0872969
0.927001 0.625101 0.0863508
0.947677 0.633967 0.0866712
0.967025 0.642542 0.086656
0.976883 0.653941 0.0937362
0.985519 0.665507 0.102724
0.00227359 0.606867 0.444007
0.00251774 0.609171 0.441917
0.00276188 0.611643 0.439658
0.00296025 0.614115 0.437919
0.00354009 0.616449 0.435828
0.00631724 0.618418 0.431235
0.01355 0.618479 0.419715
0.0217594 0.617868 0.404776
0.0292363 0.617517 0.388708
0.0358892 0.617121 0.372366
0.0528115 0.617365 0.362509
0.0800641 0.617258 0.351934
0.119936 0.61709 0.341054
0.170916 0.617823 0.329519
0.239338 0.619165 0.318029
0.321141 0.621668 0.303029
0.402213 0.624704 0.286168
0.477424 0.628199 0.271656
0.548959 0.631174 0.260426
0.608377 0.632395 0.239979
0.659953 0.632715 0.211917
0.7075 0.632364 0.180499
0.755734 0.631952 0.15024
0.799023 0.632288 0.128603
0.825315 0.634653 0.118196
0.851606 0.636744 0.108263
0.87686 0.638987 0.0988785
0.900664 0.643748 0.092958
0.923201 0.65098 0.0905776
0.9458 0.658167 0.088838
0.965225 0.665873 0.0887465
0.974594 0.676402 0.0974899
0.984619 0.687022 0.10573
0.00187686 0.642725 0.472023
0.00198367 0.645487 0.472816
0.00207523 0.648219 0.473732
0.00282292 0.650568 0.472663
0.00437934 0.652049 0.468482
0.00775158 0.652613 0.458091
0.0115969 0.652659 0.445777
0.015198 0.652796 0.432715
0.0181735 0.653208 0.41973
0.0271305 0.6533 0.408484
0.048661 0.65301 0.401068
0.0764172 0.652461 0.390173
0.106676 0.651514 0.374517
0.13901 0.650584 0.356023
0.193744 0.651576 0.340322
0.274861 0.654856 0.329107
0.369253 0.659327 0.322362
0.453712 0.664042 0.318532
0.532052 0.667689 0.315007
0.594156 0.666865 0.282643
0.651423 0.665293 0.243641
0.706432 0.664088 0.206912
0.757382 0.663706 0.176608
0.791074 0.664683 0.159564
0.818616 0.666224 0.145617
0.84889 0.667063 0.129091
0.877684 0.669429 0.115282
0.903059 0.674098 0.108904
0.925963 0.679576 0.104631
0.946487 0.684977 0.100313
0.961303 0.692424 0.100374
0.972168 0.702052 0.104326
0.983963 0.711559 0.107469
0.00123598 0.67718 0.503502
0.00125124 0.679683 0.505989
0.00138857 0.681712 0.504631
0.00183108 0.683314 0.500633
0.00256352 0.684428 0.494118
0.00370794 0.685161 0.484565
0.00468452 0.685954 0.475441
0.00614939 0.6869 0.466789
0.00906386 0.687694 0.457938
0.0250706 0.686839 0.446403
0.0445716 0.685603 0.434424
0.0646372 0.684413 0.420264
0.0836652 0.682933 0.400641
0.11014 0.682399 0.3823
0.159335 0.683696 0.370001
0.239902 0.686259 0.362646
0.345418 0.689982 0.358404
0.432425 0.693843 0.354543
0.505653 0.695857 0.337621
0.569528 0.696666 0.312001
0.630716 0.697612 0.286625
0.687785 0.698711 0.262547
0.738186 0.699672 0.238712
0.774823 0.699626 0.211093
0.81294 0.69926 0.182605
0.853071 0.698421 0.153429
0.882597 0.700343 0.136416
0.904967 0.70367 0.126131
0.926818 0.706844 0.115434
0.94522 0.71046 0.107347
0.957763 0.718349 0.107057
0.970565 0.726345 0.106447
0.982452 0.7346 0.107561
0.000595102 0.709255 0.534188
0.000656138 0.711376 0.535332
0.000869764 0.712795 0.531197
0.00103761 0.714015 0.525979
0.00114443 0.71516 0.520241
0.00115969 0.716411 0.514626
0.00175479 0.717723 0.509224
0.00428778 0.718593 0.502297
0.0112612 0.718425 0.491051
