LUT预设1/柯达5219&2393/柯达5219系列-709/柯达5219基准-709.cube
TITLE "Generated by Resolve"
LUT_3D_SIZE 33
0.0448157 0.0517891 0.0790265
0.0515755 0.0540475 0.0800336
0.0660868 0.0585184 0.0806744
0.0831922 0.0634928 0.0802625
0.101717 0.0686198 0.0794842
0.121843 0.0729839 0.0783246
0.142763 0.0770275 0.0769513
0.165896 0.0807813 0.0753033
0.191272 0.0840162 0.0733349
0.21886 0.0872663 0.0707408
0.251072 0.0908522 0.0674601
0.285237 0.094377 0.0634012
0.323339 0.0977798 0.0585336
0.364721 0.101411 0.0531472
0.409705 0.104723 0.0477455
0.457618 0.107744 0.0427558
0.507073 0.110628 0.038468
0.559396 0.113085 0.0344091
0.611673 0.116152 0.0300755
0.66482 0.119814 0.025803
0.718227 0.12401 0.0216831
0.770047 0.12958 0.0180362
0.819684 0.136965 0.0153201
0.866361 0.145953 0.0132448
0.898711 0.157458 0.0122988
0.901625 0.159228 0.012314
0.904433 0.161028 0.0123293
0.907027 0.163058 0.0124056
0.909133 0.165087 0.0124361
0.910521 0.166781 0.0124971
0.911986 0.168566 0.0125734
0.913344 0.170306 0.012665
0.914809 0.172091 0.0127108
0.0543832 0.0736095 0.0979477
0.0647288 0.0752728 0.0970779
0.0852216 0.0801556 0.0957809
0.107332 0.0853285 0.0937667
0.130816 0.0902113 0.0916304
0.152392 0.0940566 0.0896162
0.168811 0.0963912 0.0876936
0.183001 0.0981003 0.085893
0.198932 0.0997482 0.083772
0.217838 0.101656 0.0811627
0.24065 0.104021 0.0781415
0.269368 0.107012 0.074342
0.300435 0.11017 0.0699779
0.334966 0.113436 0.0648966
0.371969 0.116793 0.059617
0.412207 0.12015 0.0543679
0.454734 0.123232 0.0492866
0.498726 0.126238 0.0448615
0.544625 0.128893 0.0409094
0.591531 0.131441 0.0371252
0.638773 0.13463 0.0330816
0.685878 0.138705 0.0290074
0.73341 0.143572 0.0252689
0.779156 0.149508 0.0217746
0.822049 0.157656 0.0193637
0.862348 0.167269 0.0173342
0.896712 0.177218 0.0156252
0.921767 0.190372 0.0144808
0.93756 0.201953 0.0135805
0.938781 0.203723 0.0135805
0.939834 0.205341 0.013611
0.940887 0.206958 0.0136568
0.941848 0.208438 0.0136873
0.0568246 0.0993668 0.116991
0.0705272 0.100435 0.114443
0.0950942 0.10486 0.110353
0.123598 0.108949 0.106157
0.154391 0.112917 0.101686
0.185031 0.117128 0.0980545
0.217044 0.121324 0.0941939
0.254032 0.125582 0.0894484
0.292149 0.129534 0.0841688
0.327443 0.132372 0.0780652
0.355779 0.133898 0.0725109
0.378576 0.134676 0.0679179
0.400412 0.13547 0.0638895
0.423758 0.1364 0.0602426
0.45008 0.137667 0.0566873
0.47953 0.139239 0.053315
0.513237 0.141314 0.0501717
0.548669 0.143435 0.0469825
0.586419 0.145724 0.0436255
0.625422 0.148547 0.0400244
0.665324 0.152102 0.0363012
0.706157 0.156252 0.0326696
0.747051 0.16112 0.0292515
0.787427 0.166964 0.0262303
0.825528 0.174243 0.0238804
0.862242 0.183154 0.0217594
0.896086 0.193866 0.0196384
0.923506 0.207324 0.0177005
0.942611 0.223529 0.0159762
0.956573 0.237476 0.0142672
0.957198 0.238895 0.0142824
0.957824 0.240284 0.014313
0.958434 0.241672 0.0143282
0.0509651 0.127062 0.135302
0.0660868 0.127337 0.131258
0.0977188 0.130358 0.124727
0.136187 0.133227 0.116915
0.172198 0.136736 0.110857
0.208774 0.140581 0.105714
0.247776 0.144533 0.100191
0.289082 0.148745 0.0941939
0.333715 0.153079 0.0872206
0.381811 0.157244 0.0794842
0.432135 0.161151 0.0721141
0.484337 0.164752 0.0656291
0.534112 0.168093 0.0603189
0.577813 0.170733 0.0554665
0.613962 0.172671 0.0513619
0.645197 0.174395 0.0479591
0.672007 0.175647 0.0450294
0.696742 0.176913 0.0423133
0.720363 0.178561 0.0398566
0.744244 0.180667 0.0374151
0.769238 0.183505 0.03505
0.795422 0.187289 0.0327001
0.822293 0.192142 0.0304875
0.848997 0.198367 0.0286107
0.876432 0.206058 0.0264744
0.902495 0.215396 0.0242313
0.924804 0.226749 0.0220493
0.941909 0.240131 0.0200656
0.956283 0.255314 0.0180209
0.967544 0.271489 0.0159762
0.969039 0.274189 0.0158083
0.96939 0.275334 0.0158694
0.969696 0.276555 0.0159609
0.0418097 0.156344 0.155856
0.0563973 0.156176 0.150088
0.0838026 0.159747 0.13994
0.123766 0.162341 0.130434
0.176516 0.163714 0.120897
0.226566 0.166003 0.11252
0.272343 0.169314 0.10544
0.318914 0.172946 0.098085
0.367361 0.176989 0.0903182
0.417212 0.181216 0.0825055
0.470527 0.185351 0.0750744
0.525307 0.189593 0.0688182
0.580026 0.19411 0.0635386
0.634028 0.198932 0.0588693
0.685283 0.204715 0.0553445
0.734081 0.211673 0.0518502
0.778836 0.21883 0.0482032
0.817121 0.22623 0.0447395
0.84828 0.233845 0.0412909
0.874022 0.24097 0.0379187
0.896025 0.247578 0.0348821
0.914427 0.253559 0.0322271
0.927016 0.260456 0.0300908
0.938094 0.267948 0.0281834
0.947631 0.275761 0.0263828
0.957458 0.284062 0.0244602
0.96643 0.293614 0.0226596
0.972747 0.304845 0.0212253
0.976028 0.310155 0.0204471
0.977279 0.311757 0.0201267
0.978027 0.313207 0.0199741
0.978073 0.31339 0.0199741
0.978134 0.31371 0.0200198
0.0335088 0.187274 0.174624
0.0438239 0.187747 0.167056
0.0670481 0.19115 0.157259
0.112093 0.192508 0.145098
0.168139 0.193515 0.132647
0.225132 0.195239 0.121965
0.283848 0.197131 0.111238
0.33724 0.200198 0.101472
0.387366 0.203861 0.092607
0.440146 0.20766 0.0846265
0.49604 0.211627 0.0781415
0.551156 0.215885 0.0728771
0.607126 0.220813 0.0684825
0.66006 0.226963 0.0647593
0.710353 0.234546 0.0606546
0.759884 0.244022 0.056611
0.808362 0.254047 0.053254
0.851637 0.266636 0.0504311
0.890318 0.281193 0.0478065
0.924178 0.296651 0.0451972
0.946395 0.312825 0.0426032
0.960845 0.329168 0.0403754
0.972992 0.344823 0.0384985
0.98088 0.360037 0.0369268
0.984039 0.370428 0.0356603
0.984543 0.36849 0.0347295
0.985092 0.366613 0.0337377
0.985794 0.36524 0.0327916
0.986419 0.36408 0.0318608
0.98677 0.363516 0.0310826
0.986496 0.361318 0.030457
0.986221 0.359457 0.0299687
0.986007 0.358144 0.029633
0.0238651 0.222461 0.194659
0.0328679 0.221836 0.187671
0.0545663 0.224094 0.176211
0.0904707 0.226062 0.161364
0.14432 0.227039 0.14728
0.216907 0.226947 0.13344
0.286931 0.227909 0.120012
0.345418 0.230365 0.107942
0.401556 0.233463 0.0966049
0.455695 0.237385 0.0884413
0.508812 0.241489 0.0813458
0.56141 0.245945 0.0754711
0.616968 0.251881 0.0712596
0.670344 0.258244 0.0678416
0.72253 0.266575 0.0647898
0.772931 0.2766 0.0621653
0.820783 0.287999 0.0598306
0.863233 0.302174 0.0578164
0.903258 0.318074 0.0560616
0.935805 0.335592 0.0542916
0.957549 0.35584 0.0527962
0.974395 0.377874 0.0522164
0.986023 0.402441 0.052491
0.991348 0.426749 0.0529641
0.991806 0.427787 0.0527352
0.991974 0.427955 0.0522927
0.991913 0.42652 0.0516518
0.99176 0.42446 0.0509041
0.991592 0.422004 0.0499733
0.991394 0.419303 0.0489815
0.991196 0.416449 0.0479744
0.991028 0.413855 0.0470893
0.99086 0.411292 0.0462196
0.0150301 0.259831 0.219409
0.0235142 0.258534 0.20914
0.0394598 0.261509 0.194766
0.0671092 0.263508 0.181109
0.122545 0.262654 0.166781
0.195987 0.262486 0.15169
0.269398 0.263569 0.135363
0.341955 0.264775 0.118029
0.408347 0.26656 0.102953
0.461158 0.27042 0.0938125
0.51397 0.274128 0.0856184
0.56817 0.279088 0.0797894
0.622309 0.284947 0.0757458
0.674708 0.291875 0.0721294
0.726696 0.300679 0.0692454
0.776867 0.31104 0.0671702
0.823468 0.323049 0.0652018
0.865904 0.337377 0.0637369
0.907485 0.352438 0.0628519
0.93901 0.37084 0.063035
0.96051 0.392706 0.0643931
0.979507 0.415763 0.0659037
0.98967 0.4421 0.0668345
0.993988 0.468009 0.0677653
0.994293 0.47042 0.0679484
0.994308 0.471061 0.0681468
0.994324 0.471473 0.0682994
0.994308 0.471229 0.0682231
0.994293 0.470588 0.0679789
0.994247 0.469505 0.0675822
0.994171 0.468025 0.0670329
0.994095 0.466194 0.0663767
0.994018 0.464347 0.0656901
0.00984207 0.301472 0.24033
0.0145418 0.299397 0.229191
0.0256504 0.302113 0.217807
0.0559091 0.301946 0.204105
0.100023 0.301472 0.187869
0.163104 0.301442 0.170733
0.246204 0.301488 0.153216
0.329259 0.302205 0.135622
0.398062 0.304326 0.119341
0.459297 0.307088 0.10544
0.518334 0.310353 0.0938888
0.571633 0.315007 0.0861677
0.621302 0.320577 0.0802319
0.671977 0.327504 0.0756542
0.72459 0.336461 0.0727398
0.775921 0.346319 0.0709239
0.824018 0.358236 0.0699168
0.86807 0.372839 0.06981
0.908553 0.388037 0.0695354
0.938018 0.406546 0.0701305
0.959915 0.427573 0.0715953
0.979492 0.449271 0.0733959
0.989334 0.47422 0.0757305
0.994568 0.499046 0.0794232
0.995148 0.502297 0.0803388
0.995193 0.503182 0.0808881
0.995224 0.504021 0.0813306
0.995254 0.504707 0.08159
0.995285 0.505272 0.081651
0.995315 0.505776 0.0816815
0.995315 0.505928 0.0817884
0.995315 0.505623 0.0816968
0.9953 0.505135 0.0814832
0.00790417 0.347005 0.265309
0.010544 0.344244 0.257053
0.0234684 0.344533 0.242481
0.0454261 0.343832 0.225238
0.0769665 0.343633 0.209033
0.133654 0.342672 0.194034
0.214588 0.342855 0.179599
0.30222 0.343801 0.16083
0.383368 0.344808 0.138613
0.460121 0.346181 0.117754
0.520546 0.349004 0.103853
0.571145 0.353491 0.094255
0.620401 0.358541 0.0865492
0.672541 0.366018 0.0818341
0.723461 0.374456 0.0781415
0.772274 0.384024 0.0751354
0.819135 0.396384 0.0734264
0.863767 0.409583 0.0722057
0.902419 0.424247 0.0720073
0.932372 0.441367 0.0732891
0.958328 0.459846 0.0756542
0.978195 0.480415 0.0792554
0.988205 0.504997 0.0855268
0.995193 0.528862 0.0939345
0.99617 0.532799 0.0955978
0.996185 0.533623 0.0961166
0.996201 0.534432 0.0966354
0.996216 0.535256 0.0971695
0.996231 0.536095 0.0977188
0.996246 0.536858 0.0981918
0.996246 0.537682 0.098558
0.996262 0.538231 0.0986496
0.996262 0.538521 0.098497
0.00560006 0.393988 0.29778
0.0091249 0.38912 0.28484
0.0164797 0.38909 0.266392
0.0301671 0.389609 0.250553
0.0627146 0.388571 0.237751
0.111574 0.386755 0.221347
0.178408 0.386358 0.203311
0.269444 0.387259 0.182986
0.363348 0.388449 0.16199
0.444343 0.390463 0.141726
0.509773 0.39295 0.123339
0.569574 0.396384 0.107195
0.624475 0.400748 0.0962081
0.673762 0.40734 0.0895247
0.720256 0.414328 0.0832074
0.76614 0.423255 0.0784466
0.813138 0.434775 0.0759594
0.858274 0.446265 0.0738537
0.89633 0.459541 0.0741588
0.928466 0.475029 0.0766613
0.957168 0.491585 0.0797894
0.976272 0.511559 0.0848402
0.985977 0.53492 0.0926528
0.994018 0.556909 0.100877
0.995224 0.561028 0.102342
0.995193 0.561685 0.102495
0.995148 0.562341 0.102647
0.995102 0.563012 0.102815
0.995041 0.563729 0.102998
0.994995 0.564401 0.103182
0.994949 0.565026 0.103365
0.994919 0.565499 0.103532
0.994904 0.565789 0.10367
0.00540169 0.444251 0.327291
0.00787366 0.438743 0.313695
0.0123293 0.439185 0.300938
0.0281224 0.438529 0.286152
0.0567941 0.435447 0.266682
0.0857252 0.433127 0.242969
0.142565 0.432044 0.224475
0.232197 0.433265 0.210575
0.335576 0.435706 0.19765
0.421149 0.437537 0.171527
0.500816 0.438773 0.143832
0.574121 0.440513 0.119677
0.628138 0.443641 0.105791
0.672999 0.448585 0.0966506
0.71754 0.454917 0.0889601
0.764019 0.463951 0.0839399
0.810513 0.473854 0.0806287
0.852857 0.484321 0.07776
0.88954 0.496849 0.0772412
0.922896 0.51043 0.0778973
0.951522 0.525444 0.0796826
0.970108 0.543099 0.0846571
0.983322 0.562219 0.0922103
0.992416 0.581415 0.10103
0.993729 0.585657 0.102968
0.993698 0.586191 0.103136
0.993667 0.586847 0.103319
0.993637 0.587427 0.103517
0.993622 0.587961 0.1037
0.993606 0.588327 0.103883
0.993591 0.588617 0.104051
0.993576 0.588769 0.104219
0.993591 0.58883 0.104356
0.00416571 0.495018 0.36112
0.00582895 0.489647 0.351461
0.0111086 0.488243 0.336889
0.0226291 0.485832 0.314092
0.0374762 0.483726 0.291234
0.0669718 0.481773 0.27364
0.121401 0.47985 0.258427
0.198489 0.480262 0.24358
0.29752 0.48246 0.22504
0.394675 0.484733 0.198032
0.48336 0.487037 0.173953
0.559838 0.489693 0.15285
0.617395 0.492561 0.132357
0.673121 0.495766 0.113725
0.723339 0.500496 0.100694
0.766857 0.507347 0.0930343
0.80798 0.514168 0.0855421
0.846586 0.522606 0.0802167
0.883162 0.533303 0.0778668
0.918349 0.544228 0.0766766
0.946517 0.557076 0.0785534
0.966018 0.57203 0.0843824
0.982345 0.587945 0.0920424
0.990967 0.606546 0.102235
0.991913 0.611078 0.104677
0.991836 0.611658 0.104784
0.991775 0.6121 0.104921
0.99173 0.612497 0.105058
0.991699 0.612726 0.105211
0.991669 0.612909 0.105333
0.991684 0.612909 0.105486
0.991699 0.612802 0.105638
0.991714 0.61265 0.105776
0.00337224 0.546593 0.400885
0.00540169 0.540413 0.388861
0.0102846 0.537438 0.368719
0.0167849 0.53576 0.348898
0.0317082 0.534035 0.330388
0.06215 0.531518 0.313741
0.101747 0.528435 0.292241
0.156893 0.52755 0.271214
0.250187 0.52961 0.252506
0.36112 0.533303 0.235752
0.459388 0.536355 0.216281
0.541253 0.538216 0.188418
0.611826 0.539513 0.158251
0.675334 0.541436 0.132784
0.724727 0.544854 0.115618
0.765621 0.548775 0.103197
0.805097 0.55346 0.0919661
0.843153 0.560616 0.085481
0.88043 0.569207 0.0818036
0.914366 0.578347 0.0797894
0.941283 0.590021 0.0813764
0.961852 0.603525 0.0859541
0.97821 0.618204 0.092256
0.986954 0.634104 0.101457
0.988296 0.638025 0.103807
0.988251 0.638254 0.103914
0.988251 0.638376 0.104021
0.988251 0.638376 0.104143
0.988266 0.638285 0.104265
0.988281 0.638102 0.104417
0.988327 0.637827 0.10457
0.988388 0.6374 0.104723
0.988449 0.636973 0.104875
0.00271611 0.594812 0.435554
0.00445563 0.588205 0.420508
0.00657664 0.586175 0.406104
0.0126497 0.585031 0.391028
0.0289006 0.582177 0.371542
0.0507973 0.578958 0.348653
0.0770428 0.576226 0.324376
0.1252 0.574929 0.303899
0.209705 0.576806 0.290028
0.326299 0.580316 0.277958
0.432212 0.583017 0.256489
0.521508 0.584543 0.224262
0.601633 0.585901 0.193713
0.66717 0.58761 0.166674
0.717418 0.589654 0.142626
0.765087 0.591638 0.122362
0.808759 0.594766 0.106294
0.845167 0.600015 0.097612
0.879133 0.605554 0.0904402
0.909621 0.613046 0.086183
0.935332 0.623209 0.085893
0.958022 0.634394 0.0872663
0.974289 0.646723 0.0921798
0.983658 0.65919 0.100908
0.985824 0.662303 0.103365
0.985824 0.662303 0.103487
0.98584 0.662135 0.103578
0.98587 0.66186 0.10367
0.985901 0.661524 0.103777
0.985946 0.661036 0.103883
0.985977 0.660487 0.10399
0.986038 0.659846 0.104097
0.986084 0.659236 0.104189
0.00192264 0.641535 0.470878
0.00251774 0.635599 0.460838
0.00460822 0.633509 0.449653
0.0120089 0.631037 0.430655
0.0227054 0.627848 0.406165
0.0352789 0.625315 0.381796
0.0643778 0.623331 0.364446
0.113222 0.621592 0.347005
0.183963 0.621347 0.329244
0.283803 0.623224 0.311101
0.393439 0.62649 0.289845
0.49308 0.630274 0.270527
0.5794 0.632746 0.250324
0.649561 0.633234 0.217517
0.710872 0.633036 0.179294
0.768353 0.632898 0.145098
0.812985 0.634409 0.124163
0.845273 0.637186 0.111589
0.876219 0.640406 0.10042
0.904662 0.646204 0.0934768
0.931014 0.654566 0.090837
0.954849 0.663096 0.0900893
0.971191 0.673411 0.0949874
0.981308 0.683955 0.103456
0.984634 0.687099 0.106142
0.984649 0.686717 0.106157
0.98468 0.686183 0.106172
0.984695 0.685573 0.106172
0.984726 0.684855 0.106172
0.984756 0.684169 0.106188
0.984787 0.68336 0.106142
0.984833 0.682322 0.106126
0.984878 0.681437 0.106096
0.00109865 0.685603 0.511147
0.00166323 0.679835 0.500877
0.00344854 0.676814 0.485771
0.00717174 0.674235 0.465965
0.012604 0.672343 0.446662
0.0275273 0.670008 0.427359
0.0582437 0.667155 0.40972
0.0953994 0.664439 0.386923
0.144411 0.66276 0.362234
0.234485 0.664485 0.344594
0.355978 0.66891 0.334203
0.467597 0.673655 0.326024
0.559289 0.675578 0.304158
0.635935 0.674403 0.261601
0.705501 0.673548 0.219898
0.763806 0.673472 0.186389
0.804074 0.674144 0.162707
0.841901 0.674891 0.140276
0.876921 0.676921 0.122057
0.90631 0.681407 0.112306
0.931609 0.686763 0.105928
0.952193 0.693049 0.102144
0.966812 0.701839 0.103624
0.978637 0.710781 0.106737
0.98381 0.714153 0.108003
0.983841 0.71339 0.108019
0.983886 0.712535 0.108034
0.983917 0.711543 0.108003
0.983948 0.710369 0.108019
0.983993 0.709194 0.108019
0.984039 0.707912 0.108003
0.98407 0.706554 0.107988
0.9841 0.705379 0.107973
0.000610361 0.725078 0.546975
0.000915541 0.719326 0.534295
0.00125124 0.716518 0.519753
0.00257877 0.714916 0.506233
0.00883497 0.7131 0.489952
0.0253452 0.709819 0.468544
0.0464485 0.706294 0.445396
0.070161 0.703365 0.420935
0.117205 0.702586 0.400336
0.200671 0.703578 0.385428
0.323354 0.706203 0.375113
0.436759 0.709621 0.363149
0.528801 0.7122 0.339956
0.610574 0.714183 0.315114
0.683665 0.715434 0.288426
0.743282 0.714961 0.253803
0.793439 0.713222 0.212879
0.841184 0.711604 0.175082
0.878248 0.71191 0.149737
0.905379 0.714137 0.134386
0.929763 0.71667 0.121233
0.948745 0.720867 0.113176
0.962951 0.728222 0.11165
0.975814 0.735134 0.11078
0.982376 0.738705 0.110964
0.982391 0.737575 0.110216
0.982437 0.736522 0.10959
0.982467 0.735286 0.10901
0.982559 0.734005 0.10901
0.982635 0.732601 0.10898
0.982727 0.731136 0.10898
0.982818 0.729564 0.108949
0.98291 0.728191 0.108934
0.00062562 0.760891 0.576822
0.000808728 0.755581 0.566964
0.0011902 0.753658 0.558526
0.00314336 0.751995 0.546197
0.00946059 0.749279 0.526146
0.0184024 0.745998 0.501503
0.028748 0.743221 0.478141
0.0520638 0.740978 0.459174
0.10248 0.740078 0.443976
0.170291 0.739101 0.424216
0.273854 0.739513 0.406912
0.393194 0.74284 0.39408
0.494926 0.747189 0.381445
0.584497 0.750835 0.369741
0.66125 0.752529 0.349432
0.72398 0.751003 0.311223
0.782834 0.748394 0.265721
0.834562 0.746136 0.223514
0.87126 0.745327 0.193042
0.90071 0.745296 0.168994
0.926772 0.74612 0.149111
0.94612 0.748867 0.136904
0.960983 0.753918 0.132113
0.974701 0.758831 0.128542
0.981949 0.762737 0.129427
0.981964 0.761334 0.12813
0.981994 0.759915 0.126848
0.982025 0.758404 0.125628
0.982055 0.756771 0.124483
0.982071 0.755169 0.123354
0.982101 0.75346 0.122133
0.982132 0.751644 0.120821
0.982162 0.750011 0.119646
0.000335698 0.792935 0.609888
0.000534066 0.788083 0.60264
0.000976577 0.785595 0.593332
0.00241093 0.783307 0.577768
0.0043946 0.78088 0.558068
0.00654612 0.778683 0.537682
0.0167086 0.776394 0.517784
0.0465095 0.77406 0.502083
0.0868544 0.771695 0.482368
0.133837 0.769284 0.456321
0.212955 0.768765 0.435401
0.341985 0.772305 0.426078
0.45951 0.776959 0.421576
0.557641 0.780514 0.414267
0.635645 0.782238 0.395087
0.701259 0.782132 0.363699
0.763989 0.781521 0.330068
0.817426 0.779934 0.293828
0.857649 0.777646 0.256718
0.893507 0.775601 0.220645
0.923842 0.774533 0.189685
0.94374 0.775845 0.171542
0.959442 0.778317 0.160174
0.973388 0.781323 0.152361
0.98143 0.785214 0.15198
0.981735 0.78381 0.150088
0.98175 0.782116 0.148211
0.981765 0.780392 0.146563
0.981796 0.778531 0.144808
0.981811 0.776654 0.142992
0.981826 0.774685 0.141131
0.981857 0.772686 0.139223
0.981872 0.770916 0.137514
0.000228885 0.820752 0.642618
0.000381476 0.815946 0.633707
0.000640879 0.813153 0.622736
0.000976577 0.811063 0.609476
0.00144961 0.809567 0.596597
0.00460822 0.80795 0.581521
0.0190585 0.805158 0.561532
0.0405737 0.801709 0.53846
0.0632029 0.798093 0.5122
0.0962997 0.795773 0.485939
0.165957 0.795605 0.468727
0.292012 0.797955 0.460853
0.42359 0.801755 0.457038
0.526238 0.805249 0.450065
0.605249 0.808133 0.434348
0.675273 0.81062 0.415274
0.741527 0.812268 0.394751
0.796124 0.810864 0.361532
0.841703 0.807721 0.321035
0.884184 0.804395 0.278569
0.918349 0.801953 0.241459
0.940459 0.801251 0.216663
0.956741 0.801633 0.198947
0.970459 0.803021 0.185534
0.979339 0.805753 0.180453
0.981567 0.805371 0.17789
0.981582 0.803525 0.175555
0.981598 0.801541 0.172976
0.981613 0.799435 0.17026
0.981628 0.797269 0.167437
0.981643 0.795071 0.164599
0.981659 0.792828 0.161685
0.981674 0.790921 0.159228
0.000213626 0.844816 0.669993
0.00030518 0.840543 0.661311
0.000503548 0.838056 0.65304
0.000717174 0.836484 0.644907
0.0015259 0.835142 0.634516
0.00569161 0.833051 0.616754
0.0134585 0.829923 0.591424
0.0208286 0.826474 0.562493
0.0315099 0.823117 0.534508
0.068101 0.821241 0.518624
0.136492 0.82092 0.507073
0.246128 0.821515 0.49575
0.374334 0.823758 0.486641
0.478553 0.827527 0.478447
0.565362 0.831571 0.469917
0.645411 0.83534 0.461677
0.7178 0.837812 0.449073
0.773602 0.836728 0.417914
0.823743 0.834134 0.379034
0.871077 0.831113 0.338079
0.908507 0.828199 0.300191
0.933272 0.825956 0.2701
0.952392 0.82443 0.245747
0.967605 0.824247 0.227436
0.97731 0.825879 0.218814
0.981857 0.826108 0.213748
0.981826 0.823987 0.209979
0.981781 0.821759 0.206027
0.98175 0.81944 0.201923
0.981704 0.817105 0.197787
0.981659 0.814694 0.193515
0.981613 0.812177 0.18909
0.981582 0.810056 0.185351
0.000335698 0.860777 0.688762
0.000564584 0.860578 0.68661
0.000762951 0.858518 0.681407
0.00108339 0.857237 0.675258
0.0019379 0.855634 0.663233
0.0040589 0.853239 0.643214
0.00671397 0.850629 0.620661
0.0104829 0.848066 0.59826
0.0254215 0.845548 0.578912
0.0626535 0.843244 0.563653
0.111833 0.841703 0.544518
0.179187 0.84062 0.522881
0.281376 0.841535 0.506874
0.403922 0.84564 0.500648
0.515831 0.850568 0.499535
0.612085 0.854765 0.499382
0.690105 0.857389 0.490105
0.749538 0.857679 0.465263
0.802762 0.856962 0.434241
0.852811 0.855634 0.401617
0.892378 0.853315 0.368887
0.919432 0.850233 0.336202
0.945098 0.847196 0.302632
0.965331 0.844907 0.274342
0.975479 0.845212 0.260807
0.982589 0.84535 0.250782
0.982651 0.843122 0.246128
0.982513 0.840772 0.24152
0.982361 0.838315 0.236713
0.982208 0.835813 0.231785
0.982055 0.833265 0.226795
0.981933 0.830671 0.221836
0.981903 0.828428 0.217823
0.000335698 0.861112 0.689174
0.000610361 0.863615 0.690623
0.0009308 0.865461 0.691417
0.00140383 0.866865 0.689219
0.00225834 0.867277 0.678981
0.00337224 0.867231 0.664286
0.00454719 0.867262 0.65069
0.0087129 0.866682 0.636301
0.0236515 0.864195 0.616388
0.0484169 0.861631 0.595407
0.076936 0.859281 0.571954
0.115084 0.857572 0.546426
0.193881 0.858122 0.530037
0.326314 0.861463 0.524758
0.464271 0.866148 0.526284
0.575265 0.870176 0.528969
0.658701 0.873167 0.523018
0.721157 0.875349 0.506111
0.778958 0.877302 0.486519
0.829725 0.877958 0.462837
0.872145 0.875929 0.430442
0.9066 0.872038 0.391806
0.937591 0.867872 0.352071
0.959701 0.864683 0.320912
0.972427 0.863218 0.301701
0.981308 0.862348 0.287404
0.983764 0.860502 0.28011
0.983597 0.858183 0.275578
0.983429 0.855787 0.270939
0.983261 0.853239 0.265965
0.983093 0.850538 0.26067
0.982925 0.847761 0.255222
0.982788 0.845548 0.250904
0.000335698 0.861112 0.689174
0.000610361 0.863615 0.690623
0.000915541 0.865415 0.691402
0.00138857 0.866819 0.689326
0.00221256 0.867277 0.679606
0.00332647 0.867231 0.665049
0.00444038 0.867308 0.651621
0.00819409 0.867384 0.638743
0.0219272 0.86688 0.622934
0.0431067 0.866072 0.604562
0.0632944 0.865187 0.582712
0.0861219 0.864973 0.558694
0.146715 0.866941 0.544625
0.271412 0.87126 0.54287
0.422522 0.876997 0.547189
0.53962 0.88217 0.551644
0.621988 0.886595 0.548486
0.68629 0.889693 0.537667
0.750347 0.892073 0.526406
0.807782 0.892973 0.508797
0.852338 0.891783 0.480537
0.889952 0.889189 0.444968
0.924193 0.886091 0.40705
0.95053 0.882887 0.372183
0.966827 0.880217 0.345434
0.978256 0.878141 0.32488
0.984634 0.876005 0.310964
0.984558 0.873549 0.305974
0.984405 0.870985 0.300877
0.984268 0.868513 0.295964
0.9841 0.865888 0.29073
0.983932 0.863203 0.285389
0.98378 0.86099 0.281056
0.000335698 0.861143 0.689204
0.000610361 0.8636 0.690608
0.000900282 0.865385 0.691402
0.00137331 0.866789 0.689509
0.00215152 0.867277 0.680293
0.00325017 0.867231 0.665934
0.00430304 0.867292 0.652567
0.00764477 0.867384 0.639887
0.0200046 0.866972 0.624735
0.0406958 0.866163 0.606775
0.0609598 0.865263 0.586023
0.0822766 0.864958 0.562112
0.133425 0.866407 0.545815
0.24715 0.870466 0.542855
0.3935 0.875868 0.546304
0.518532 0.881178 0.551492
0.606119 0.886046 0.551186
0.667124 0.890959 0.543648
0.729625 0.895445 0.538186
0.789837 0.898802 0.530297
0.836393 0.899672 0.51043
0.873213 0.899153 0.482155
0.908507 0.898878 0.454063
0.938582 0.898085 0.426352
0.956191 0.89514 0.397726
0.971893 0.892393 0.370382
0.982284 0.890242 0.349523
0.983841 0.887861 0.341283
0.984054 0.885405 0.334844
0.984268 0.882734 0.327855
0.984497 0.879973 0.320653
0.984665 0.877165 0.313649
0.984649 0.874891 0.308614
0.000350958 0.861189 0.689235
0.000610361 0.863584 0.690593
0.000885023 0.865324 0.691402
0.00135805 0.866743 0.689677
0.00207523 0.867277 0.681132
0.00318914 0.867231 0.66688
0.00418097 0.867292 0.653666
0.00700389 0.867384 0.641184
0.0180056 0.867048 0.626596
0.0379339 0.866255 0.609201
0.05832 0.865354 0.58938
0.0777752 0.864927 0.565896
0.119356 0.865843 0.547051
0.220386 0.869566 0.54284
0.36231 0.874678 0.545296
0.49163 0.880003 0.550286
