LUT预设1/柯达5219&2393/柯达5219系列-709/柯达5219（暖）-709.cube
TITLE "Generated by Resolve"
LUT_3D_SIZE 5
0.0408179 0.0450446 0.0697795
0.266148 0.0669413 0.0403754
0.542718 0.0933089 0.0247959
0.881025 0.14136 0.0105592
0.999161 0.294179 0.00384527
0.0189975 0.253269 0.196948
0.353002 0.24358 0.113054
0.645838 0.265629 0.0844892
0.947082 0.332708 0.0599527
0.999893 0.503273 0.0641489
0.0071107 0.488975 0.331655
0.183505 0.490242 0.25211
0.645258 0.472328 0.142321
0.916304 0.526635 0.112032
0.999741 0.689525 0.23154
0.00112917 0.771496 0.530846
0.0343481 0.772732 0.444907
0.488334 0.772229 0.401068
0.929824 0.768566 0.213443
0.999222 0.839231 0.266117
0.0145876 0.975372 0.792782
0.0195468 0.977508 0.770901
0.13846 0.978973 0.660334
0.814984 0.982025 0.664942
1 0.988037 0.507408
0.0226444 0.0936904 0.194049
0.213718 0.0738689 0.247913
0.391669 0.130159 0.196826
0.725917 0.108415 0.205295
0.976944 0.206897 0.194018
0.0397803 0.271153 0.294118
0.259907 0.265873 0.306905
0.510628 0.2934 0.27126
0.834531 0.351888 0.244541
0.996826 0.519371 0.236591
0.0383001 0.477714 0.423484
0.145205 0.487984 0.428809
0.56965 0.487587 0.353506
0.890532 0.541787 0.343191
0.999237 0.694514 0.393072
0.0206607 0.752789 0.60119
0.0586099 0.759533 0.60293
0.337362 0.766003 0.522011
0.894926 0.765637 0.42446
0.998367 0.838834 0.480415
0.0911879 0.966369 0.82034
0.161044 0.965133 0.824247
0.169802 0.970977 0.784726
0.694209 0.971405 0.726772
0.999985 0.980514 0.62475
0.0151369 0.202686 0.369009
0.126406 0.15845 0.478187
0.415747 0.106325 0.484321
0.560311 0.234623 0.367056
0.881102 0.226337 0.375036
0.049836 0.354376 0.473259
0.196612 0.333379 0.484672
0.440879 0.302953 0.52192
0.665141 0.364462 0.44126
0.958663 0.401221 0.457435
0.029099 0.534997 0.533181
0.179416 0.514183 0.549081
0.485801 0.506691 0.559335
0.777173 0.554314 0.523705
0.990936 0.680919 0.530083
0.0293431 0.76791 0.651453
0.171283 0.754559 0.681178
0.406622 0.758602 0.690883
0.836774 0.766644 0.626749
0.996307 0.842649 0.659266
0.199649 0.963516 0.849454
0.384771 0.957092 0.856458
0.517906 0.956344 0.862165
0.623102 0.96289 0.813703
0.998474 0.967681 0.741039
0.0162203 0.377264 0.621042
0.0962539 0.345525 0.658228
0.33463 0.244572 0.758938
0.653346 0.206043 0.636439
0.769543 0.368505 0.524269
0.0526894 0.499977 0.665415
0.167102 0.475685 0.663066
0.371313 0.421088 0.721798
0.678309 0.381003 0.671305
0.84094 0.487373 0.594797
0.0643473 0.636301 0.732128
0.199969 0.607752 0.702861
0.443198 0.584558 0.710872
0.715053 0.577142 0.713115
0.934447 0.64126 0.681086
0.0196231 0.817929 0.747417
0.128634 0.799832 0.757031
0.472313 0.780362 0.772335
0.778119 0.782559 0.770947
0.986313 0.840742 0.763882
0.196658 0.97586 0.872923
0.422049 0.965194 0.881575
0.655268 0.955108 0.894759
0.762692 0.956069 0.894621
0.990341 0.962798 0.838361
0.0536202 0.667842 0.871183
0.117876 0.634043 0.870314
0.303365 0.563485 0.895872
0.630671 0.396735 0.924681
0.863767 0.393118 0.73698
0.0882277 0.728084 0.864897
0.211933 0.696239 0.85359
0.356603 0.644999 0.858503
0.643153 0.541115 0.901717
0.880125 0.530587 0.768566
0.114641 0.787381 0.873579
0.262592 0.75613 0.848875
0.462409 0.735348 0.845472
0.681788 0.686671 0.881804
0.896681 0.692119 0.812253
0.067155 0.884474 0.891722
0.31313 0.874434 0.900526
0.538109 0.848081 0.878416
0.762264 0.82829 0.881514
0.937194 0.844007 0.871138
0.175692 0.992782 0.918502
0.403235 0.985382 0.919264
0.647837 0.973526 0.923262
0.842298 0.960388 0.935775
0.964111 0.964355 0.930404
