LUT预设1/柯达5219&2393/柯达5219系列-709/柯达2393-709.cube
TITLE "Generated by Resolve"
LUT_3D_SIZE 5
0.0299535 0.0773022 0.0716259
0.256382 0.0894179 0.0326848
0.599817 0.0673991 0.00483711
0.824567 0.0236362 0
0.944595 0.0251011 0.0119478
0.00205997 0.234455 0.0927291
0.379721 0.287648 0.016556
0.743404 0.328939 0.000915541
0.93254 0.368215 0
1 0.398245 0.00715648
0.00155642 0.54992 0.122545
0.498985 0.613382 0.00740063
0.834012 0.652811 0
0.992035 0.669444 0
1 0.674189 4.57771e-05
0.00296025 0.699229 0.164462
0.558618 0.76762 0.0145724
0.86659 0.807553 0.00579843
1 0.827924 0
1 0.839124 0.0125277
0.0135805 0.772122 0.269169
0.593225 0.837491 0.128893
0.873945 0.875288 0.128634
0.999146 0.894652 0.157641
1 0.902495 0.224948
0.00383001 0.0974441 0.232166
0.262394 0.0957198 0.239094
0.616129 0.0683452 0.254826
0.832471 0.0349584 0.310307
0.95079 0.0318761 0.364324
9.15541e-05 0.309789 0.364981
0.352026 0.322972 0.325002
0.730831 0.360265 0.329213
0.917357 0.398581 0.355688
0.998245 0.424323 0.379019
0 0.641016 0.511818
0.418158 0.660121 0.387137
0.784802 0.690608 0.363821
0.957992 0.704326 0.367864
1 0.709255 0.37322
0 0.778164 0.584161
0.461311 0.815702 0.442542
0.803098 0.854017 0.435172
0.970825 0.872175 0.444251
1 0.884489 0.464576
0.00250248 0.840208 0.654414
0.508553 0.888594 0.558236
0.814252 0.922332 0.564736
0.970565 0.938704 0.576181
1 0.946441 0.602731
0 0.195773 0.497795
0.267903 0.0878614 0.524773
0.631327 0.0578622 0.564523
0.849561 0.0260319 0.62417
0.957168 0.0457771 0.661707
0 0.408911 0.644892
0.318914 0.363027 0.636255
0.716564 0.394186 0.648798
0.904646 0.432258 0.670893
0.987762 0.456306 0.678553
0 0.704189 0.767681
0.345724 0.700786 0.69366
0.742306 0.725948 0.672969
0.929763 0.739544 0.6701
0.999954 0.745296 0.668696
0 0.825193 0.811139
0.393988 0.856321 0.719234
0.76228 0.889265 0.708583
0.942321 0.904418 0.709575
0.999954 0.915862 0.715389
6.10361e-05 0.879225 0.85359
0.464622 0.921798 0.78819
0.784085 0.950179 0.785397
0.946258 0.964691 0.788998
0.999344 0.971878 0.802579
0 0.274525 0.643534
0.287434 0.0729839 0.712581
0.658671 0.0471199 0.756512
0.865476 0.0326696 0.802853
0.962966 0.059556 0.829343
0 0.455024 0.775631
0.302953 0.392508 0.819699
0.719844 0.425132 0.834302
0.901564 0.460822 0.848478
0.982788 0.478828 0.85214
0 0.725811 0.883375
0.305074 0.7252 0.869657
0.71902 0.749111 0.854978
0.910613 0.757565 0.853086
0.99089 0.76582 0.854749
0 0.841917 0.923598
0.351247 0.883757 0.89546
0.73669 0.91284 0.882551
0.920333 0.928206 0.88333
0.991211 0.935882 0.885328
0 0.898177 0.963912
0.43064 0.943297 0.933959
0.764416 0.969573 0.925566
0.929656 0.983276 0.924681
0.989059 0.987518 0.930892
0 0.30602 0.73164
0.299886 0.0739757 0.843076
0.678386 0.0388495 0.892073
0.882338 0.0406195 0.93106
0.968307 0.0723888 0.941238
0 0.485771 0.854765
0.297185 0.415076 0.944579
0.71194 0.442329 0.955459
0.895811 0.474434 0.962875
0.977386 0.486137 0.963943
0 0.734188 0.944457
0.284703 0.739666 0.982559
0.702205 0.759258 0.970886
0.897963 0.771221 0.967498
0.980514 0.779248 0.966751
0 0.847257 0.98085
0.32137 0.897307 0.990936
0.722713 0.924041 0.978058
0.907591 0.939101 0.972427
0.981872 0.948333 0.972778
0 0.905928 0.999634
0.412848 0.954162 0.998383
0.755276 0.9785 0.992294
0.921508 0.990234 0.986465
0.980438 0.994598 0.983703
