LUT预设1/iPhone 专用lut-合集2/Apple 专用（709）/cinematic709.cube
TITLE "Generated by Resolve"
LUT_3D_SIZE 9
0.0327306 0.0486305 0.0547799
0.05832 0.0547341 0.0577707
0.106783 0.0643168 0.0590829
0.213489 0.0709087 0.046067
0.367315 0.0588083 0.0147707
0.528756 0.0115358 0.0030518
0.635554 0.00271611 0.00381476
0.687404 0.0027924 0.00201419
0.714641 0.00335698 0.00335698
0.0152743 0.0765545 0.0676432
0.0607309 0.0860151 0.0676127
0.143648 0.100572 0.0653086
0.274998 0.112718 0.0499733
0.447486 0.111635 0.022858
0.595758 0.090837 0.0125582
0.68159 0.0644083 0.00961318
0.725063 0.0555734 0.00495918
0.746273 0.0581979 0.00489815
0.00708019 0.134508 0.08542
0.0552071 0.1505 0.08542
0.170108 0.176196 0.0800336
0.34902 0.202716 0.0510719
0.529305 0.216754 0.022034
0.663539 0.214969 0.00993362
0.733043 0.200992 0.0065919
0.768887 0.1897 0.00343328
0.790326 0.185473 0.00544747
0.000686656 0.232609 0.0999313
0.0313115 0.25832 0.0910353
0.170703 0.292683 0.067155
0.374838 0.327367 0.0441901
0.553384 0.345617 0.0276493
0.688319 0.349432 0.0134585
0.776577 0.344579 0.00636301
0.826413 0.338872 0.00169375
0.852461 0.338689 0.00314336
0 0.32723 0.102983
0.00308232 0.354726 0.0909895
0.115389 0.393118 0.066743
0.352224 0.43595 0.0373388
0.555032 0.471427 0.00895705
0.717662 0.494362 0.00343328
0.82208 0.501732 0.000915541
0.885191 0.504723 0.00123598
0.920226 0.510353 0.00202945
0 0.405097 0.0966964
0.00534066 0.436973 0.0800488
0.0963149 0.482338 0.0480049
0.334997 0.539239 0.018555
0.565499 0.593576 0.00608835
0.74905 0.633753 0.00204471
0.874052 0.656672 0.000503548
0.947448 0.668452 0
0.980911 0.678264 0.000198367
0 0.474418 0.0837568
0.000259403 0.508492 0.0682383
0.0706493 0.561502 0.0398108
0.324559 0.629831 0.00901808
0.588083 0.69749 0.000854505
0.785809 0.747814 0.000320439
0.913329 0.776318 0.000183108
0.98146 0.790082 0.000534066
0.998856 0.793393 0.00030518
0 0.521614 0.0867018
0.0024567 0.557351 0.0711376
0.0819409 0.611215 0.042298
0.35433 0.682643 0.013138
0.613626 0.75288 0.0039826
0.80798 0.805447 0.00047303
0.935958 0.836728 1.5259e-05
0.993576 0.848707 0
0.999969 0.847333 0.000122072
0 0.552789 0.126055
0 0.586923 0.112779
0.0980697 0.642222 0.0776532
0.372045 0.711177 0.0330205
0.637018 0.778714 0.00953689
0.825406 0.828992 0.00485237
0.940612 0.855985 0.00610361
0.990188 0.865064 0.00343328
0.999435 0.864439 0.000869764
0.0255436 0.0510109 0.0801556
0.0540322 0.0568399 0.0866865
0.108629 0.0661173 0.0908827
0.21912 0.071931 0.0868238
0.374289 0.0464637 0.0762798
0.535378 0.00469978 0.0658427
0.640421 0.00192264 0.053193
0.691386 0.000869764 0.0479133
0.717037 7.62951e-05 0.0410163
0.00598154 0.0821546 0.102327
0.0537118 0.0916609 0.109483
0.142733 0.10605 0.114519
0.280201 0.117662 0.110369
0.454047 0.104906 0.0948959
0.596948 0.0646372 0.0766766
0.682841 0.0381018 0.066865
0.724559 0.0314641 0.0658579
0.744686 0.0316014 0.0614023
0.00462348 0.145159 0.132448
0.0400092 0.161593 0.138201
0.162982 0.188647 0.144274
0.351507 0.213169 0.138506
0.53135 0.221149 0.120073
0.659876 0.209079 0.0991226
0.727993 0.188769 0.0812085
0.763394 0.176028 0.0731212
0.784375 0.169146 0.058854
4.57771e-05 0.248783 0.162615
0.0230716 0.275227 0.166033
0.156512 0.308125 0.162417
0.370947 0.338231 0.147829
0.549172 0.350362 0.122072
0.683726 0.349081 0.0907912
0.771206 0.342092 0.0746777
0.81973 0.334783 0.0694743
0.846143 0.334554 0.0695811
0 0.343755 0.171954
0.000640879 0.370932 0.16936
0.101839 0.407141 0.159411
0.336049 0.445853 0.135592
0.547738 0.47718 0.104005
0.708782 0.494713 0.0770733
0.813458 0.499718 0.062211
0.876341 0.501534 0.0466621
0.910842 0.50663 0.0337835
0 0.422049 0.175586
0.00154116 0.453803 0.169833
0.0794995 0.496544 0.151827
0.317281 0.548089 0.115404
0.555886 0.596643 0.0741436
0.738766 0.632349 0.0401312
0.863462 0.654032 0.0340124
0.93434 0.665431 0.0401617
0.968917 0.675105 0.043183
0 0.490654 0.174136
6.10361e-05 0.523552 0.168154
0.0601053 0.5738 0.142077
0.301411 0.637095 0.103777
0.573892 0.698833 0.0675517
0.771588 0.744762 0.0469062
0.898634 0.770901 0.0308385
0.969345 0.784649 0.0223239
0.99527 0.790784 0.0196841
0 0.538643 0.193271
0.000793469 0.573175 0.188144
0.0538949 0.623102 0.165637
0.319219 0.687968 0.125978
0.5953 0.751507 0.077821
0.791165 0.799695 0.0500954
0.918334 0.828901 0.0390021
0.983139 0.842054 0.0432441
0.998703 0.842832 0.0414893
0 0.570459 0.233112
0 0.604364 0.2336
0.0801251 0.656825 0.214527
0.344396 0.72076 0.185794
0.619303 0.780896 0.14287
0.80647 0.82504 0.116747
0.921706 0.848844 0.0961471
0.979843 0.859785 0.0928206
0.997787 0.860685 0.0973068
0.0148165 0.0503395 0.130083
0.0457465 0.056672 0.139467
0.111131 0.0647746 0.151476
0.223774 0.0671855 0.163348
0.38291 0.0328374 0.167437
0.544518 0.00395209 0.16849
0.648203 0.00155642 0.167544
0.698512 0.000106813 0.163302
0.724224 0 0.158907
0.00123598 0.0838788 0.170062
0.0396429 0.0955062 0.183124
0.136751 0.110597 0.196414
0.284047 0.122774 0.206775
0.462882 0.106004 0.208209
0.605371 0.0641642 0.205417
0.689601 0.0367742 0.199664
0.728832 0.0260319 0.190127
0.748638 0.0256962 0.183093
0.00173953 0.158007 0.221805
0.0196689 0.176501 0.233234
0.144183 0.204135 0.246555
0.349218 0.227344 0.25742
0.53463 0.232532 0.253758
0.661784 0.217319 0.240314
0.730816 0.197543 0.22678
0.767208 0.183124 0.216419
0.789227 0.177295 0.209201
0 0.268757 0.264546
0.0129244 0.295689 0.274357
0.133501 0.327916 0.278309
0.356359 0.355184 0.276188
0.546715 0.365972 0.265507
0.683925 0.363119 0.249622
0.772259 0.353552 0.232059
0.820066 0.344747 0.223621
0.846708 0.344366 0.224125
0 0.365362 0.271153
0.000854505 0.392782 0.27715
0.0790875 0.428351 0.276921
0.313939 0.465141 0.270573
0.539818 0.494057 0.257877
0.703319 0.508721 0.24361
0.809339 0.51194 0.231571
0.872145 0.51191 0.219669
0.906096 0.516686 0.216602
0 0.445304 0.275059
0.00015259 0.476936 0.280232
0.0537728 0.519005 0.278935
0.282765 0.568765 0.269703
0.542992 0.613977 0.253651
0.728832 0.645258 0.226322
0.853559 0.663691 0.214694
0.92256 0.67335 0.215717
0.957534 0.68217 0.217746
0 0.515312 0.284367
0 0.549371 0.290745
0.0441596 0.598703 0.287663
0.271519 0.657984 0.270436
0.557 0.713878 0.252445
0.756725 0.753933 0.234333
0.882155 0.775937 0.223468
0.953033 0.787503 0.208194
0.987381 0.797543 0.211398
0 0.563027 0.311788
9.15541e-05 0.597681 0.319051
0.0266423 0.647105 0.31725
0.275135 0.70901 0.307485
0.573846 0.767544 0.288838
0.773281 0.810346 0.261723
0.902068 0.836652 0.254368
0.969055 0.847684 0.252155
0.995514 0.852186 0.256977
0 0.595666 0.355825
0.00047303 0.630243 0.364645
0.0602121 0.681788 0.363851
0.309224 0.742763 0.357275
0.602213 0.80061 0.34992
0.791043 0.840238 0.340978
0.907912 0.862028 0.335576
0.970199 0.872587 0.337224
0.995453 0.8766 0.333028
0.00640879 0.0321202 0.209766
0.0371557 0.0393225 0.229435
0.11281 0.0472114 0.248493
0.229313 0.0470893 0.26569
0.393896 0.0164034 0.280079
0.555764 0.00387579 0.292851
0.658289 0.00155642 0.296559
0.708705 1.5259e-05 0.290822
0.73402 0 0.282063
9.15541e-05 0.0737469 0.25803
0.0290684 0.0902571 0.281544
0.128756 0.109056 0.305272
0.288777 0.118532 0.326116
0.471412 0.0991989 0.339117
0.614176 0.0610513 0.34168
0.697932 0.038468 0.334203
0.735592 0.0303197 0.321111
0.755245 0.0270695 0.310369
0.000381476 0.162707 0.331487
0.0134279 0.186847 0.347951
0.128038 0.216938 0.37322
0.342733 0.238621 0.388602
0.534813 0.242741 0.390295
0.662379 0.226627 0.380133
0.73341 0.208194 0.36408
0.772122 0.19266 0.350637
0.795254 0.18732 0.342535
0 0.285344 0.386007
0.00607309 0.313817 0.397269
0.104646 0.345602 0.405203
0.331426 0.370977 0.407553
0.539223 0.381781 0.404196
0.682948 0.378912 0.394324
0.774487 0.368841 0.382177
0.822644 0.359899 0.374487
0.850309 0.360174 0.374228
0 0.386404 0.390723
0.000762951 0.41416 0.400641
0.0639811 0.449241 0.404669
0.287724 0.485405 0.404837
0.529229 0.514412 0.405051
0.69894 0.527871 0.402243
0.808179 0.531868 0.39707
0.872297 0.532189 0.39379
0.906981 0.537057 0.395605
0 0.4701 0.393988
0 0.502037 0.404654
0.027512 0.543877 0.411536
0.240925 0.59295 0.412024
0.527596 0.637812 0.413581
0.722347 0.668635 0.41062
0.848096 0.684749 0.406912
0.916747 0.693736 0.407706
0.952926 0.703105 0.415854
0 0.542351 0.409567
9.15541e-05 0.576745 0.420844
0.0339818 0.625437 0.42649
0.23444 0.68275 0.426444
0.540688 0.737728 0.428931
0.746426 0.777096 0.430579
0.873564 0.798657 0.429587
0.945922 0.810193 0.430228
0.981826 0.819135 0.432563
0 0.589242 0.43859
0 0.623987 0.450858
0.00665293 0.673289 0.457725
0.22063 0.733776 0.457374
0.550256 0.791333 0.45951
0.760891 0.83267 0.458457
0.892195 0.857267 0.457465
0.959915 0.868482 0.46157
0.991165 0.874907 0.471366
0 0.620539 0.480613
0.000167849 0.655283 0.492256
0.0394903 0.705898 0.497978
0.269596 0.76585 0.501579
0.586755 0.822995 0.507713
0.778592 0.86154 0.51136
0.897169 0.882856 0.511055
0.962264 0.893797 0.512413
0.992432 0.899153 0.517189
0.00205997 0.00935378 0.305623
0.0284428 0.0116884 0.327764
0.110521 0.0162051 0.350301
0.237964 0.010071 0.375113
0.407355 0.00581369 0.398932
0.568261 0.00331121 0.41352
0.668818 0.000823987 0.415534
0.719265 0 0.407446
0.744152 0 0.3953
6.10361e-05 0.0488899 0.351919
0.0209659 0.0687114 0.383108
0.122942 0.0954452 0.412894
0.292576 0.103212 0.440009
0.477684 0.0805829 0.458198
0.621317 0.0554818 0.462226
0.704875 0.0354925 0.453468
0.742061 0.0316625 0.438331
0.762432 0.0229191 0.423789
3.0518e-05 0.158801 0.430182
0.00814832 0.186587 0.45391
0.118486 0.222339 0.484886
0.334142 0.243915 0.504875
0.530877 0.246311 0.510628
0.659129 0.23032 0.499168
0.734249 0.212497 0.482719
0.776165 0.196551 0.468284
0.800763 0.190143 0.459907
0 0.29305 0.494347
0.00239567 0.323812 0.506386
0.0728618 0.356085 0.514
0.307515 0.380606 0.521324
0.528267 0.391577 0.523491
0.678508 0.389914 0.517296
0.773892 0.380713 0.50811
0.82414 0.37293 0.502663
0.853178 0.373281 0.499916
0 0.399969 0.501045
0.000701915 0.428824 0.513054
0.0484016 0.46482 0.519905
0.256657 0.500694 0.5234
0.516182 0.530571 0.530556
0.691997 0.544549 0.531975
0.806577 0.548409 0.530556
0.872099 0.54905 0.530388
0.907469 0.554498 0.53373
0 0.490547 0.509514
0 0.521996 0.521798
0.0123903 0.564294 0.531151
0.19913 0.612726 0.535897
0.506859 0.657694 0.544411
0.71397 0.688746 0.550072
0.842939 0.704936 0.552987
0.912581 0.713558 0.55819
0.949584 0.723186 0.563775
0 0.565377 0.526619
4.57771e-05 0.599847 0.540413
0.0229038 0.648234 0.550088
0.198413 0.704387 0.556527
0.521508 0.758816 0.567254
0.734569 0.796994 0.573938
0.865675 0.81886 0.577859
0.939162 0.830472 0.581155
0.976303 0.839445 0.587213
0 0.611231 0.555215
0 0.645609 0.569512
0.00178531 0.695094 0.580301
0.183963 0.754894 0.584054
0.523095 0.811261 0.593133
0.74931 0.852659 0.600549
0.883772 0.876753 0.606271
0.951949 0.887892 0.612711
0.985336 0.893996 0.618433
0 0.640742 0.591363
0 0.6757 0.605005
0.0174563 0.726177 0.614862
0.228428 0.785061 0.621958
0.565286 0.840803 0.633417
0.7664 0.878996 0.640772
0.887358 0.900038 0.643793
0.954894 0.911177 0.647028
0.988403 0.917357 0.652415
0.000350958 0.0010071 0.395636
0.0181277 0.00129702 0.416312
0.0997482 0.00109865 0.44065
0.244266 0.00149538 0.472084
0.417563 0.00283818 0.497887
0.577707 0.00213626 0.513161
0.676951 0.000183108 0.514504
0.728527 0 0.506218
0.753918 0 0.494713
0.00015259 0.0183108 0.441901
0.0147707 0.0387274 0.469718
0.118044 0.0793774 0.499321
0.295735 0.0888533 0.530373
0.480674 0.0654917 0.551369
0.624414 0.0495766 0.558297
0.707607 0.0340124 0.551034
0.747173 0.0252689 0.534066
0.769528 0.0123751 0.520882
0 0.149126 0.508278
0.00576791 0.178485 0.536828
0.110964 0.222309 0.568032
0.324666 0.244022 0.59205
0.522179 0.244602 0.599283
0.65359 0.230289 0.591546
0.733455 0.210712 0.578256
0.778836 0.190829 0.566506
0.804868 0.1823 0.559853
0 0.293217 0.574151
0.00062562 0.324865 0.585672
0.0485847 0.358907 0.595605
0.277546 0.383948 0.608774
0.515251 0.395575 0.617777
0.672419 0.394995 0.617121
0.770428 0.387411 0.611658
0.824598 0.380224 0.605112
0.855756 0.382071 0.603937
0 0.406302 0.590448
0.000320439 0.43592 0.604349
0.0285496 0.473564 0.612558
0.210056 0.510719 0.618692
0.494652 0.539452 0.629969
0.68484 0.5552 0.637369
0.803388 0.559823 0.640101
0.87126 0.560479 0.64155
0.907301 0.567056 0.645762
0 0.502998 0.605417
0 0.534737 0.618952
0.00297551 0.578027 0.631678
0.173068 0.626734 0.638483
0.482933 0.671458 0.651255
0.704524 0.703349 0.662516
0.83653 0.720027 0.670192
0.908995 0.727794 0.673991
0.946639 0.736782 0.679423
0 0.581857 0.626841
1.5259e-05 0.616327 0.641184
0.0104677 0.664515 0.65359
0.156329 0.719676 0.662074
0.496986 0.773373 0.675212
0.723934 0.812055 0.686473
0.858686 0.83386 0.693797
0.933623 0.845106 0.698909
0.971618 0.854612 0.704952
0 0.627054 0.651438
0 0.661158 0.666346
0.00202945 0.710948 0.679225
0.156847 0.770428 0.685756
0.496864 0.825971 0.698497
0.739391 0.867857 0.711116
0.875441 0.89099 0.720897
0.945296 0.901534 0.724483
0.979965 0.90753 0.728328
0 0.655344 0.681865
0 0.690166 0.695644
0.00289921 0.740444 0.707179
0.189975 0.79852 0.714549
0.546807 0.853437 0.728313
0.754971 0.891218 0.738598
0.879164 0.912352 0.743496
0.949248 0.923842 0.748226
0.98436 0.930419 0.754391
1.5259e-05 0 0.464851
0.00843824 6.10361e-05 0.482185
0.0922255 3.0518e-05 0.50634
0.246693 0.00192264 0.536843
0.423774 0.00323491 0.565423
0.582498 0.00132753 0.581949
0.682307 1.5259e-05 0.585489
0.735973 0 0.580591
0.762051 0 0.571603
4.57771e-05 0.00494392 0.50753
0.010132 0.028748 0.529168
0.109163 0.0822461 0.557336
0.295949 0.087892 0.588785
0.479667 0.0686351 0.611643
0.622858 0.0476844 0.621469
0.707088 0.0340581 0.615732
0.750622 0.0162661 0.604486
0.775769 0.0033875 0.595224
0 0.141146 0.56289
0.00561532 0.17612 0.590555
0.104433 0.224063 0.620264
0.313008 0.248066 0.643244
0.510323 0.248066 0.655177
0.646235 0.232975 0.653849
0.731319 0.210941 0.646586
0.780682 0.183108 0.639323
0.808408 0.172091 0.635996
0 0.29398 0.622568
0 0.322774 0.635889
0.0344396 0.358236 0.651316
0.25684 0.384054 0.668406
0.499367 0.396612 0.682506
0.666026 0.397406 0.688441
0.76672 0.390631 0.684916
0.824796 0.385306 0.681392
0.857969 0.387152 0.681697
0 0.408011 0.653651
6.10361e-05 0.438331 0.667933
0.0108492 0.477287 0.677073
0.160906 0.514977 0.684382
0.463096 0.543664 0.700908
0.678355 0.560967 0.714961
0.800793 0.566537 0.720302
0.870863 0.568399 0.723659
0.907088 0.575769 0.727962
0 0.509773 0.676555
0 0.541756 0.690608
0.00428778 0.58587 0.704814
0.140856 0.634989 0.712383
0.448951 0.679805 0.727901
0.694148 0.711849 0.744625
0.830747 0.728283 0.751766
0.906126 0.736584 0.757015
0.944762 0.745571 0.762219
0 0.592309 0.7019
0 0.62681 0.71696
0.00138857 0.673899 0.728405
0.123415 0.729259 0.737011
0.472633 0.782712 0.752194
0.713436 0.821515 0.766583
0.852003 0.843259 0.775433
0.929747 0.854841 0.781277
0.96817 0.864805 0.787808
0 0.636927 0.721813
0 0.670634 0.736278
0.00407416 0.720928 0.749187
0.147433 0.780255 0.75761
0.481346 0.835569 0.772564
0.732738 0.877302 0.788388
0.869078 0.899351 0.795727
0.940383 0.910002 0.800031
0.975982 0.915724 0.802655
0 0.664088 0.744854
0 0.69868 0.758663
0.000885023 0.748837 0.769009
0.161105 0.806485 0.775555
0.53019 0.860533 0.791318
0.74519 0.898268 0.803388
0.873259 0.919951 0.810239
0.945495 0.931655 0.815335
0.980926 0.937972 0.8206
0 0 0.510674
0.00737011 1.5259e-05 0.525582
0.0919661 0.00404364 0.547692
0.24979 0.0133822 0.578531
0.428031 0.012314 0.607309
0.583078 0.00579843 0.624109
0.68455 0.000427253 0.630365
0.740337 0 0.62916
0.767803 0 0.62295
3.0518e-05 0.00621042 0.546777
0.00553903 0.0475319 0.56643
0.0847791 0.117266 0.594766
0.292454 0.128573 0.625528
0.475761 0.104662 0.647654
0.618952 0.0729534 0.657481
0.704189 0.0443732 0.655787
0.752361 0.0183413 0.650034
0.780514 0.00233463 0.645441
0 0.151156 0.598352
0.00636301 0.190829 0.62324
0.0949874 0.239216 0.649088
0.297932 0.264164 0.671962
0.499382 0.262547 0.687236
0.639521 0.244251 0.691432
0.729702 0.219669 0.68986
0.7832 0.192386 0.687129
0.812436 0.186481 0.684932
0 0.29778 0.651545
0 0.323339 0.665965
0.0325628 0.357717 0.684489
0.245151 0.385718 0.702907
0.487541 0.399298 0.72047
0.660853 0.402152 0.72961
0.763699 0.396674 0.730739
0.825345 0.391684 0.730663
0.860288 0.39353 0.732555
0 0.409049 0.691142
0 0.438987 0.702892
0.0062562 0.478126 0.714366
0.133318 0.517052 0.726024
0.434363 0.547173 0.745357
0.672496 0.564858 0.763073
0.798306 0.571923 0.770947
0.870802 0.574121 0.77554
0.907027 0.582147 0.778027
0 0.513191 0.720882
0 0.544884 0.734798
0.0033875 0.589548 0.749477
0.100649 0.638743 0.757259
0.407019 0.684398 0.774319
0.681453 0.717906 0.792386
0.82707 0.733669 0.802609
0.90428 0.742306 0.807904
0.943832 0.751369 0.812711
0 0.59791 0.749172
0 0.631571 0.76144
3.0518e-05 0.678721 0.773373
0.0935988 0.734356 0.781872
0.446067 0.787411 0.79762
0.697993 0.826734 0.814099
0.846448 0.84889 0.824399
0.92697 0.860853 0.830564
0.966155 0.870192 0.835019
0 0.642557 0.76463
0 0.675868 0.777996
0.00570687 0.726619 0.79086
0.142794 0.785214 0.799771
0.47628 0.84123 0.815961
0.729305 0.8822 0.830823
0.86389 0.903655 0.838697
0.936248 0.914214 0.842588
0.973342 0.91986 0.844953
0 0.668864 0.780987
0 0.703426 0.792813
0.000396735 0.753155 0.803296
0.13138 0.810422 0.809308
0.519799 0.864088 0.826139
0.73933 0.901854 0.839628
0.869703 0.923919 0.847791
0.943709 0.935927 0.853391
0.978714 0.941558 0.85655
0 1.5259e-05 0.542611
0.00749218 0.013077 0.557366
0.0798962 0.0589303 0.579736
0.248508 0.0804761 0.6112
0.429023 0.0745861 0.638285
0.580941 0.0406043 0.653025
0.683299 0.0103151 0.658808
0.741314 0.00184634 0.658763
0.772259 0.000198367 0.656519
0 0.0404364 0.573571
0.00213626 0.105943 0.596231
0.0532235 0.173037 0.623697
0.284382 0.196063 0.653605
0.473487 0.182544 0.674144
0.615045 0.138872 0.682383
0.701762 0.0876783 0.681727
0.753628 0.0443275 0.678569
0.783734 0.0142519 0.676371
0 0.18674 0.625055
0.00547799 0.226383 0.647807
0.0805676 0.269062 0.66952
0.280446 0.293675 0.690486
0.48983 0.291127 0.707622
0.634989 0.272587 0.715389
0.730983 0.246571 0.716808
0.787396 0.225345 0.715969
0.81825 0.221592 0.71603
0 0.306523 0.669535
0 0.330861 0.685588
0.0307774 0.365347 0.70399
0.232792 0.395758 0.721889
0.47953 0.411307 0.740688
0.655131 0.415763 0.753201
0.762173 0.410864 0.757885
0.827329 0.406165 0.760006
0.863874 0.407477 0.762585
0 0.413993 0.710506
0 0.442023 0.721614
0.00296025 0.480354 0.735988
0.112612 0.521218 0.75024
0.418235 0.553109 0.770443
0.667338 0.571527 0.788968
0.797208 0.578973 0.798138
0.870848 0.583398 0.802579
0.908339 0.592554 0.805936
0 0.516136 0.744503
0 0.547295 0.758144
0.0009308 0.590723 0.772229
0.0735485 0.64094 0.782162
0.368673 0.687861 0.797833
0.667918 0.722377 0.817807
0.824979 0.738628 0.829313
0.903243 0.747616 0.834623
0.943694 0.756954 0.838727
0 0.60148 0.772473
0 0.634043 0.784268
1.5259e-05 0.681193 0.796948
0.054963 0.73669 0.804822
0.404654 0.788846 0.819425
0.678157 0.82884 0.837201
0.838682 0.851743 0.848707
0.926482 0.864713 0.854917
0.964843 0.872511 0.857755
0 0.645991 0.786618
0 0.679042 0.798871
0.0065156 0.729915 0.811261
0.141543 0.788327 0.820798
0.471458 0.843046 0.835508
0.721141 0.883711 0.850797
0.855116 0.905226 0.858946
0.932601 0.916106 0.863493
0.97142 0.921935 0.865766
0 0.671901 0.798337
0 0.706157 0.809293
0 0.755566 0.819669
0.118578 0.812589 0.825925
0.510628 0.865507 0.842863
0.735592 0.903365 0.857191
0.867918 0.925841 0.865705
0.942382 0.937789 0.870527
0.976806 0.94287 0.872236
