LUT预设1/iPhone 专用lut-合集2/Apple 专用（709）/CINE中性冷白709.cube
TITLE "Generated by Resolve"
LUT_3D_SIZE 33
0.00550851 0.00479133 0.0103914
0.0108492 0.00564584 0.0112917
0.0185397 0.00645457 0.0119631
0.0303655 0.007187 0.012314
0.0422675 0.00787366 0.0123903
0.0624094 0.00888075 0.0130007
0.0819867 0.00978103 0.0133974
0.10959 0.0116121 0.0136263
0.140505 0.0138247 0.0136721
0.172534 0.0161593 0.0137789
0.208103 0.0192721 0.0145266
0.242679 0.0227512 0.0158389
0.277043 0.0264744 0.0181125
0.311116 0.0301671 0.0201877
0.344747 0.0339513 0.0219272
0.378103 0.0378576 0.0235447
0.411704 0.0415656 0.0249332
0.443015 0.0454261 0.0263218
0.474006 0.049134 0.0276493
0.504463 0.052781 0.0289006
0.533227 0.0563363 0.0300603
0.561852 0.0597391 0.0311284
0.588968 0.0631723 0.0320134
0.6159 0.0665293 0.0328069
0.642634 0.0699016 0.0335088
0.668467 0.073579 0.034226
0.694362 0.0779889 0.035874
0.720562 0.0827802 0.037232
0.746548 0.0876631 0.0383917
0.772656 0.0926223 0.0395514
0.800229 0.0979324 0.0411231
0.827359 0.103319 0.042649
0.853391 0.10837 0.0439765
0.00717174 0.0113069 0.0158541
0.0113375 0.0119936 0.0158236
0.0214084 0.0126497 0.0152438
0.032166 0.0141299 0.0147707
0.047715 0.0157626 0.0146944
0.0670939 0.0174563 0.0146487
0.0880751 0.0193484 0.0141451
0.118425 0.0224002 0.0138247
0.14815 0.0254063 0.0140078
0.182315 0.0292058 0.0155947
0.217502 0.0331426 0.0170291
0.251957 0.0369421 0.0184634
0.286351 0.0404974 0.0200656
0.320211 0.0439612 0.0213321
0.353338 0.0475319 0.0227512
0.386587 0.0509651 0.0240024
0.418753 0.0544289 0.0252232
0.449973 0.0581521 0.0264286
0.480873 0.0627756 0.0275425
0.509789 0.0673228 0.0285039
0.538415 0.0720073 0.0293736
0.566171 0.0767071 0.0301213
0.59292 0.081239 0.0307164
0.619791 0.0855726 0.0321965
0.645853 0.0899672 0.0336919
0.671672 0.0945144 0.035172
0.697627 0.0990005 0.0364385
0.723629 0.103853 0.0375525
0.749889 0.108705 0.0386511
0.776608 0.113634 0.0398718
0.804196 0.118853 0.0411841
0.831525 0.123842 0.0423285
0.856779 0.128634 0.0434119
0.00944533 0.0242161 0.0248722
0.0152895 0.0257115 0.0242771
0.0249332 0.0270085 0.0222934
0.034699 0.0282139 0.0201572
0.0531777 0.0297551 0.0183871
0.071107 0.0313725 0.016907
0.0971237 0.033875 0.016846
0.125765 0.0366064 0.0170596
0.156619 0.0395819 0.0172274
0.191653 0.0442512 0.0183108
0.226596 0.0489357 0.019028
0.260456 0.0533608 0.0202945
0.294636 0.0578317 0.0212406
0.328618 0.0624857 0.0220951
0.361425 0.0669871 0.0231327
0.394751 0.0715496 0.0239414
0.425818 0.076173 0.024918
0.456413 0.0808423 0.0257267
0.486397 0.0857099 0.0263981
0.514534 0.0903334 0.0269932
0.543084 0.0948043 0.0282902
0.570062 0.0992447 0.0297246
0.596902 0.103563 0.0310369
0.623316 0.107942 0.0322881
0.649149 0.112428 0.0337072
0.674983 0.116747 0.0350958
0.700893 0.121233 0.0365301
0.727092 0.12604 0.0378424
0.753185 0.130724 0.0390784
0.780331 0.135927 0.0404059
0.807767 0.141024 0.0415503
0.834348 0.145998 0.0425727
0.860029 0.151019 0.0433509
0.0113527 0.0390936 0.0346227
0.01944 0.0411841 0.0329442
0.0280156 0.0436255 0.0316777
0.0412451 0.0461585 0.0298619
0.0578012 0.0487221 0.0268101
0.0757763 0.0515297 0.0236362
0.102342 0.0546883 0.0228733
0.127871 0.0577249 0.0214084
0.161669 0.0619211 0.0213169
0.197314 0.0664683 0.0213474
0.232868 0.0710002 0.0213779
0.268086 0.0757305 0.0216526
0.303532 0.0804761 0.0216983
0.336996 0.0850538 0.0223087
0.369924 0.0898299 0.0227512
0.402121 0.0946517 0.0231937
0.432181 0.0993668 0.0238193
0.462806 0.10396 0.0250553
0.491493 0.108309 0.0267948
0.519722 0.112871 0.0283513
0.547875 0.117296 0.0298314
0.574411 0.121599 0.0314183
0.601221 0.125963 0.0327764
0.627039 0.130327 0.0341344
0.652598 0.134676 0.0354009
0.678233 0.139101 0.0365911
0.704067 0.143816 0.0377508
0.729778 0.148714 0.0387427
0.756512 0.153658 0.0397955
0.783612 0.15874 0.0407111
0.810758 0.163775 0.0414588
0.837537 0.168627 0.0419776
0.864393 0.173724 0.0430762
0.0168765 0.0616464 0.0530709
0.024445 0.0642252 0.050782
0.0319219 0.0667735 0.0487221
0.04654 0.0692912 0.0419776
0.0603037 0.0719158 0.0346532
0.0814679 0.0746014 0.0303044
0.105547 0.077348 0.0270237
0.132662 0.0808118 0.0246128
0.167971 0.0852064 0.0244144
0.20174 0.08925 0.0238193
0.236805 0.0937972 0.0235294
0.272587 0.0986038 0.0227817
0.307561 0.103365 0.0222477
0.341634 0.107988 0.0223545
0.375982 0.112703 0.0230106
0.407248 0.117296 0.0247654
0.438178 0.121904 0.0263371
0.46836 0.12636 0.0278019
0.49691 0.130968 0.0291905
0.5252 0.135576 0.0305028
0.552041 0.140063 0.0318914
0.578561 0.144533 0.0332036
0.604669 0.148913 0.0343175
0.630289 0.153185 0.0353246
0.655909 0.157458 0.0361944
0.681636 0.161944 0.0369879
0.707485 0.166522 0.0376745
0.733394 0.171084 0.0382544
0.760723 0.175921 0.0388952
0.787747 0.180789 0.0400092
0.814847 0.185809 0.0416266
0.842145 0.190936 0.0431067
0.86923 0.196078 0.0444495
0.021912 0.0856641 0.0717327
0.0286259 0.0890211 0.0705882
0.038819 0.0924086 0.0657664
0.051957 0.0962539 0.0571298
0.0661784 0.099733 0.0491035
0.0869459 0.102098 0.0420539
0.106905 0.10425 0.0329747
0.136126 0.10692 0.0300145
0.166857 0.109392 0.0287175
0.199695 0.112612 0.0271153
0.237675 0.117205 0.0251926
0.276081 0.121782 0.0239872
0.311879 0.126604 0.0247196
0.347417 0.131289 0.0254978
0.380972 0.136202 0.0266728
0.412177 0.140856 0.0280613
0.444221 0.145678 0.028687
0.473381 0.150072 0.0298161
0.502052 0.154467 0.0307469
0.53019 0.158755 0.0314946
0.557 0.162844 0.0325475
0.58378 0.167041 0.0334173
0.609583 0.171237 0.0341344
0.634974 0.17528 0.0348363
0.660639 0.179538 0.0353857
0.686229 0.183978 0.0359197
0.711772 0.188434 0.0366827
0.738186 0.19324 0.038468
0.764981 0.198047 0.0401923
0.791684 0.203113 0.0417029
0.819303 0.208484 0.043061
0.846983 0.213855 0.0443427
0.872587 0.218875 0.0454261
0.0263676 0.112566 0.094377
0.0328679 0.116167 0.094377
0.0448768 0.120516 0.0845045
0.0562753 0.125124 0.0755016
0.0715801 0.127489 0.0635538
0.08925 0.129473 0.0499275
0.110628 0.131807 0.0387579
0.139025 0.13344 0.037171
0.166369 0.135103 0.0360266
0.202457 0.138933 0.0353552
0.23888 0.142672 0.034638
0.274647 0.146609 0.0339818
0.311101 0.151583 0.033463
0.348058 0.156283 0.0321202
0.382101 0.160861 0.0316472
0.415915 0.16553 0.0308843
0.448447 0.169757 0.0303197
0.478233 0.173571 0.0307317
0.50782 0.177447 0.0309453
0.53518 0.181292 0.0316014
0.562066 0.185382 0.0322728
0.588663 0.189792 0.0326543
0.614359 0.194324 0.0330053
0.64004 0.198535 0.0335393
0.665415 0.203159 0.0352483
0.690761 0.207813 0.0368505
0.716213 0.212207 0.0382239
0.742748 0.217151 0.039826
0.769299 0.221851 0.0412146
0.796292 0.226886 0.0425727
0.824033 0.232166 0.0438697
0.85156 0.237201 0.0449531
0.875242 0.241825 0.0460517
0.0305333 0.140291 0.120272
0.0391546 0.144488 0.118288
0.0499733 0.149233 0.112001
0.061738 0.153658 0.104891
0.0799725 0.157397 0.0859998
0.097734 0.161761 0.0671397
0.119997 0.163165 0.0597391
0.142977 0.163378 0.0537881
0.169314 0.164065 0.048249
0.203189 0.166125 0.0467536
0.235843 0.167773 0.0449531
0.273854 0.172152 0.0423133
0.312383 0.177127 0.0397803
0.349966 0.181872 0.0377508
0.385351 0.186648 0.036286
0.421164 0.191348 0.0343175
0.452491 0.195712 0.0337835
0.48333 0.200305 0.0328679
0.513344 0.204578 0.0317998
0.540978 0.208484 0.0314336
0.568795 0.212268 0.0310521
0.594629 0.216251 0.0325628
0.619684 0.219913 0.0340124
0.644938 0.223743 0.0354162
0.670054 0.227802 0.0368048
0.695109 0.231785 0.0379797
0.720684 0.236225 0.039353
0.74728 0.240711 0.0406958
0.773587 0.245869 0.0419623
0.801404 0.251209 0.0431525
0.82887 0.256611 0.0442359
0.855161 0.26154 0.0451057
0.878477 0.266255 0.0459754
0.0345006 0.167819 0.151873
0.0447852 0.172824 0.14699
0.0551919 0.17789 0.143832
0.0702678 0.183627 0.128817
0.0869764 0.189807 0.108431
0.104051 0.194385 0.0925765
0.125872 0.195041 0.0817273
0.148501 0.196735 0.0684672
0.179156 0.197787 0.063859
0.210529 0.19852 0.0601511
0.244022 0.200137 0.0560159
0.280842 0.203159 0.052903
0.31664 0.205875 0.0495918
0.353216 0.21033 0.0465705
0.389212 0.214862 0.0433051
0.423972 0.219364 0.0400854
0.456947 0.223957 0.0370031
0.490013 0.228534 0.0339666
0.519081 0.232105 0.033753
0.547433 0.235691 0.0340581
0.574868 0.23978 0.0348058
0.600198 0.243809 0.0362707
0.625589 0.248035 0.0372473
0.65066 0.252171 0.0381933
0.675563 0.256184 0.0390631
0.700465 0.259998 0.0396887
0.72639 0.264485 0.0409247
0.752255 0.268544 0.0417945
0.778866 0.272831 0.0426032
0.806424 0.277714 0.0435187
0.833707 0.282277 0.0441444
0.858503 0.286687 0.04477
0.88275 0.291249 0.0453498
0.0408942 0.199634 0.1776
0.0510872 0.204791 0.176043
0.06215 0.210239 0.173358
0.0772106 0.216892 0.155535
0.0910506 0.223667 0.140307
0.112032 0.227543 0.123537
0.135439 0.231296 0.103593
0.161151 0.233707 0.0866407
0.189197 0.23241 0.0793927
0.21677 0.230488 0.0705425
0.250797 0.231632 0.0662242
0.286061 0.23386 0.0623636
0.321874 0.236988 0.0582895
0.35906 0.241169 0.0544289
0.395895 0.244938 0.0512245
0.430137 0.249714 0.0493324
0.463706 0.254414 0.0473945
0.495796 0.258976 0.0457923
0.525322 0.2636 0.0446937
0.555047 0.268635 0.0430762
0.581506 0.272633 0.0424506
0.607126 0.276188 0.0417639
0.632364 0.279545 0.0409705
0.656733 0.282734 0.0412146
0.681041 0.285451 0.0411841
0.706142 0.288457 0.0415045
0.731579 0.291844 0.0420691
0.757092 0.295811 0.0424048
0.784497 0.30071 0.0431678
0.811582 0.305379 0.0435492
0.837888 0.310201 0.0446479
0.862791 0.314885 0.0466163
0.887816 0.319417 0.0483864
0.0475624 0.231708 0.205509
0.0574502 0.236698 0.207706
0.0693523 0.242908 0.20061
0.0814679 0.249851 0.189685
0.0958419 0.256016 0.177157
0.120409 0.262516 0.150744
0.144579 0.269764 0.122759
0.171572 0.270817 0.108766
0.199283 0.271183 0.0962234
0.229267 0.271885 0.0856031
0.263569 0.272145 0.079408
0.297078 0.271962 0.0735332
0.332723 0.27364 0.0704967
0.368414 0.275135 0.067628
0.403235 0.277256 0.0649424
0.437186 0.281544 0.0623789
0.470832 0.285542 0.059556
0.502007 0.290761 0.0565957
0.532784 0.296422 0.0538491
0.561959 0.301305 0.0515145
0.58793 0.305028 0.0502327
0.614191 0.309163 0.0484169
0.639139 0.312825 0.0474403
0.663539 0.315984 0.0464637
0.687968 0.319432 0.0450294
0.712993 0.322683 0.044831
0.738125 0.325643 0.0442054
0.763531 0.328908 0.0446174
0.790372 0.332631 0.0460822
0.816739 0.336309 0.047364
0.842268 0.340093 0.0489509
0.867689 0.343877 0.0504921
0.892332 0.347478 0.0518959
0.054139 0.265385 0.238529
0.063798 0.269917 0.242634
0.0742657 0.276249 0.235386
0.0836652 0.282307 0.230701
0.104295 0.290776 0.206622
0.128618 0.300267 0.173404
0.153536 0.307637 0.145373
0.180865 0.309941 0.128527
0.207752 0.312993 0.11136
0.240146 0.312108 0.103593
0.273579 0.311238 0.0958114
0.307897 0.311101 0.089128
0.343343 0.311025 0.0860456
0.378897 0.31078 0.0824292
0.412894 0.313207 0.0795911
0.446235 0.315572 0.0770581
0.479057 0.318318 0.0740063
0.509529 0.323491 0.070985
0.540383 0.328191 0.0675212
0.568215 0.333501 0.0642863
0.595544 0.339254 0.0605783
0.622293 0.344549 0.056611
0.646586 0.348135 0.0538033
0.670832 0.351675 0.0504616
0.695216 0.354391 0.049012
0.719402 0.356207 0.0491646
0.743618 0.358679 0.0493172
0.76994 0.362097 0.0505989
0.795987 0.365499 0.0515908
0.821836 0.368978 0.0525063
0.847486 0.372793 0.0537881
0.873182 0.376425 0.0548257
0.894591 0.379828 0.0560311
0.0602426 0.298482 0.274266
0.0690318 0.303731 0.275822
0.0771496 0.30988 0.274266
0.0883192 0.316854 0.266651
0.111742 0.326741 0.23418
0.133135 0.336248 0.206287
0.159426 0.342107 0.184985
0.186465 0.348592 0.162112
0.216114 0.35317 0.141802
0.250599 0.353445 0.128649
0.284764 0.354055 0.114
0.319921 0.352682 0.10782
0.355032 0.350423 0.102312
0.389242 0.348989 0.0975814
0.422324 0.348669 0.0944991
0.455283 0.347738 0.0911574
0.486809 0.351507 0.0873884
0.517647 0.355856 0.0838636
0.547738 0.360479 0.0800031
0.575814 0.366857 0.0753643
0.603571 0.373327 0.0705882
0.629313 0.378058 0.0673686
0.653834 0.382589 0.0644846
0.678218 0.386999 0.0616464
0.702449 0.389914 0.0606851
0.72636 0.392981 0.0591592
0.751049 0.396002 0.0582589
0.776501 0.398535 0.0581216
0.802014 0.401144 0.0576791
0.827558 0.403937 0.0579538
0.852964 0.406622 0.0585336
0.87808 0.408896 0.0590524
0.897749 0.411597 0.0602426
0.0649577 0.33283 0.31162
0.0730449 0.338872 0.310414
0.0816815 0.344686 0.311025
0.0988785 0.352712 0.293141
0.117525 0.361318 0.271199
0.137987 0.369894 0.249592
0.165225 0.379889 0.219211
0.19205 0.390463 0.185565
0.225269 0.392721 0.166613
0.259388 0.39472 0.148486
0.293187 0.395041 0.134356
0.328481 0.392508 0.127138
0.364675 0.390494 0.118654
0.399283 0.388525 0.113771
0.434455 0.385992 0.108858
0.468055 0.385046 0.104295
0.497627 0.386572 0.101076
0.526833 0.387335 0.0978866
0.555169 0.392737 0.094316
0.583337 0.399649 0.0901198
0.610971 0.406119 0.0857404
0.636057 0.412284 0.0815747
0.661311 0.418372 0.0767987
0.685512 0.423117 0.0732738
0.709117 0.426276 0.0702373
0.732662 0.429511 0.0679484
0.757778 0.431739 0.0672618
0.782895 0.434455 0.0661479
0.807965 0.437064 0.0653391
0.83357 0.439902 0.0652323
0.858824 0.442741 0.0649577
0.881224 0.445319 0.0652171
0.901549 0.448127 0.0658122
0.0689403 0.368719 0.342077
0.0785992 0.373938 0.344213
0.0900893 0.379583 0.343542
0.106157 0.387228 0.327688
0.120897 0.394858 0.315328
0.144793 0.405112 0.285512
0.170428 0.416327 0.249958
0.198108 0.42472 0.219043
0.229999 0.429358 0.197101
0.261143 0.435279 0.17406
0.298085 0.434791 0.160494
0.336355 0.433661 0.146914
0.374182 0.431861 0.135317
0.411337 0.427176 0.128359
0.44947 0.422004 0.120912
0.479026 0.420325 0.118349
0.507301 0.419532 0.116686
0.536034 0.420539 0.114168
0.564141 0.426581 0.109987
0.591302 0.431693 0.106355
0.61738 0.437293 0.102251
0.642725 0.443427 0.097734
0.667933 0.449638 0.0933394
0.691859 0.45452 0.0896468
0.715877 0.459831 0.0854047
0.740261 0.464744 0.0819104
0.765057 0.468223 0.0789502
0.789456 0.472114 0.0757153
0.814511 0.474769 0.0740063
0.839628 0.477363 0.0724498
0.863981 0.479561 0.0707256
0.884886 0.481758 0.0709697
0.905745 0.483909 0.0712444
0.0741588 0.403601 0.375463
0.0855268 0.408042 0.380102
0.0985733 0.414389 0.37525
0.111467 0.421363 0.367529
0.127123 0.42974 0.353017
0.151019 0.441032 0.316335
0.17293 0.451637 0.281224
0.20145 0.459159 0.254551
0.230182 0.466987 0.227543
0.262745 0.47248 0.202976
0.302937 0.473106 0.183505
0.343862 0.475059 0.161791
0.383871 0.471199 0.151797
0.424674 0.466697 0.143099
0.461799 0.463325 0.136324
0.490959 0.460044 0.134066
0.520851 0.456199 0.131563
0.547723 0.457069 0.129
0.573236 0.458549 0.126864
0.598459 0.460365 0.124346
0.623972 0.467216 0.119646
0.649485 0.474144 0.114778
0.674189 0.481498 0.109545
0.698863 0.489082 0.103502
0.723079 0.495705 0.0982376
0.747097 0.499458 0.094667
0.771466 0.503319 0.0906386
0.795804 0.507042 0.0870985
0.820584 0.509865 0.0848859
0.84535 0.512764 0.0825055
0.867735 0.515358 0.0811017
0.888914 0.517998 0.0803082
0.910277 0.520409 0.0793622
0.080766 0.437201 0.410437
0.0933852 0.441321 0.414786
0.105303 0.448264 0.409812
0.11664 0.455222 0.406668
0.134493 0.46392 0.383856
0.15256 0.472297 0.357519
0.172076 0.480461 0.332052
0.199054 0.490745 0.29778
0.226154 0.5019 0.260914
0.266133 0.506706 0.233097
0.308522 0.511467 0.203616
0.35021 0.513817 0.180606
0.394507 0.510323 0.168856
0.438911 0.507958 0.156222
0.472236 0.502708 0.151339
0.50367 0.496818 0.148363
0.534752 0.493187 0.145495
0.559182 0.492393 0.144228
0.583185 0.490791 0.143267
0.607782 0.49366 0.140017
0.631937 0.497673 0.135943
0.655543 0.500832 0.132052
0.679973 0.50808 0.126955
0.704417 0.515389 0.121904
0.728893 0.522164 0.116655
0.753292 0.528588 0.111559
0.777432 0.535241 0.106355
0.801907 0.539971 0.101839
0.826429 0.544366 0.0972
0.850492 0.549004 0.0925307
0.871992 0.55169 0.0905318
0.893629 0.554376 0.0880598
0.91194 0.556832 0.0874037
0.0885176 0.468971 0.445624
0.100786 0.474479 0.446845
0.111757 0.481392 0.445579
0.123537 0.488411 0.441352
0.138354 0.494697 0.42533
0.152514 0.500984 0.412436
0.177005 0.512596 0.373785
0.202457 0.52459 0.329656
0.232975 0.534417 0.290394
0.273487 0.540673 0.256168
0.311315 0.54725 0.2215
0.353567 0.547036 0.204425
0.397406 0.547189 0.187198
0.438849 0.54641 0.17232
0.47924 0.542535 0.166217
0.522774 0.538903 0.159625
0.55079 0.534829 0.15787
0.573098 0.529915 0.158145
0.595026 0.52549 0.158129
0.617029 0.524727 0.155413
0.638193 0.523125 0.15317
0.661112 0.526818 0.149599
0.686091 0.535119 0.145418
0.710674 0.543084 0.141238
0.734951 0.550454 0.135119
0.758907 0.557687 0.12929
0.782925 0.564141 0.123812
0.807187 0.569329 0.118563
0.83154 0.574884 0.112795
0.854475 0.579278 0.108278
0.876387 0.583078 0.104448
0.898421 0.587259 0.099855
0.913954 0.590661 0.0985122
0.0967269 0.500618 0.479179
0.108141 0.507347 0.477821
0.120836 0.513832 0.477684
0.134218 0.520424 0.469337
0.147417 0.526864 0.458869
0.164477 0.534691 0.438865
0.189685 0.545586 0.395178
0.213016 0.555596 0.355154
0.245014 0.563287 0.319768
0.276249 0.571023 0.28365
0.309865 0.577188 0.252308
0.35198 0.580865 0.228428
0.394095 0.585977 0.199268
0.443137 0.585214 0.186038
0.495689 0.582483 0.176852
0.540963 0.578637 0.170169
0.562768 0.571496 0.171221
0.586297 0.565606 0.171954
0.607965 0.561593 0.171252
0.627604 0.557321 0.170581
0.647211 0.55346 0.170138
0.670054 0.557809 0.166888
0.69221 0.56083 0.164172
0.715023 0.565362 0.160555
0.73933 0.573159 0.155566
0.763684 0.580896 0.150561
0.788083 0.588556 0.143938
0.812512 0.596826 0.136507
0.836484 0.604974 0.128817
0.858732 0.610666 0.122286
0.8813 0.616678 0.115099
0.900847 0.621225 0.110323
0.916854 0.623728 0.109178
0.103136 0.533837 0.506539
0.117433 0.539773 0.507576
0.132342 0.545586 0.50724
0.144701 0.552178 0.49987
0.157092 0.558633 0.493812
0.178561 0.566735 0.462074
0.199908 0.574746 0.430014
0.221302 0.582528 0.399695
0.245502 0.591104 0.360876
0.267079 0.600137 0.321248
0.305898 0.606561 0.284566
0.347585 0.613077 0.244297
0.393652 0.617441 0.21033
0.451072 0.615656 0.198306
0.510109 0.614298 0.186374
0.545022 0.610925 0.183719
0.573877 0.60798 0.184207
0.602914 0.604623 0.184558
0.620508 0.597543 0.185397
0.637949 0.589685 0.186801
0.656779 0.58555 0.186526
0.676738 0.583719 0.185382
0.69604 0.581064 0.184573
0.720668 0.589532 0.179873
0.744701 0.597543 0.175204
0.768704 0.605035 0.169741
0.792935 0.613306 0.161975
0.816785 0.621164 0.154681
0.839979 0.627741 0.147753
0.862562 0.633814 0.141009
0.885252 0.640192 0.134051
0.902632 0.644434 0.130602
0.91989 0.648798 0.127275
0.112688 0.564782 0.53489
0.130068 0.569421 0.537087
0.14435 0.575082 0.534478
0.157 0.58117 0.530144
0.171038 0.587396 0.521035
0.187518 0.594186 0.498817
0.201953 0.600565 0.481224
0.220401 0.609918 0.442329
0.237827 0.620142 0.396139
0.262196 0.629328 0.34815
0.303624 0.637095 0.296788
0.344198 0.644999 0.243671
0.402914 0.645792 0.225696
0.462562 0.645914 0.211566
0.511162 0.646265 0.198596
0.545708 0.645121 0.197986
0.58616 0.643915 0.194934
0.612634 0.638132 0.195285
0.631754 0.631449 0.199054
0.65214 0.62562 0.203281
0.670207 0.621332 0.202106
0.687388 0.616266 0.201022
0.706615 0.614771 0.198718
0.728634 0.618372 0.195651
0.750042 0.620783 0.19292
0.773297 0.626917 0.187137
0.796994 0.634165 0.18114
0.820279 0.64123 0.175265
0.843565 0.649042 0.167544
0.866712 0.657145 0.160098
0.887572 0.664317 0.154025
0.905486 0.669444 0.14995
0.923308 0.674434 0.145937
0.12546 0.593622 0.563394
0.144579 0.597986 0.565942
0.157382 0.603677 0.563012
0.170642 0.609369 0.561273
0.183551 0.615213 0.550332
0.195224 0.621042 0.538689
0.207691 0.628046 0.517647
0.222705 0.637919 0.471229
0.238148 0.64686 0.428885
0.272511 0.654398 0.384024
0.306813 0.661707 0.339818
0.344228 0.667536 0.301839
0.393454 0.671 0.273686
0.437934 0.675639 0.240253
0.487785 0.676326 0.222934
0.543816 0.675868 0.210361
0.598016 0.674693 0.198993
0.621927 0.671061 0.206165
0.64715 0.668574 0.214618
0.667094 0.66331 0.217853
0.68162 0.654276 0.216632
0.695384 0.644938 0.215793
0.71548 0.644205 0.214023
0.735561 0.644007 0.212589
0.756588 0.645563 0.209979
0.779873 0.651865 0.204562
0.802518 0.657359 0.200153
0.825071 0.663844 0.194522
0.848127 0.670893 0.187976
0.87068 0.677531 0.181765
0.889036 0.683101 0.177935
0.90753 0.688762 0.174121
0.92398 0.693935 0.171344
0.141054 0.620066 0.591119
0.158328 0.624445 0.591531
0.172564 0.629694 0.5906
0.186389 0.634974 0.588083
0.197223 0.640604 0.579095
0.208591 0.646326 0.571252
0.22269 0.654032 0.542199
0.23743 0.661646 0.510781
0.255314 0.669032 0.47834
0.279759 0.677226 0.435447
0.300526 0.685466 0.392752
0.335592 0.692668 0.350271
0.371221 0.700313 0.303365
0.41474 0.706065 0.259831
0.48542 0.705303 0.238712
0.554955 0.704967 0.216022
0.597086 0.704143 0.213626
0.628412 0.703395 0.221225
0.661265 0.702831 0.227237
0.677241 0.695064 0.228061
0.694011 0.688273 0.229633
0.711986 0.683848 0.23035
0.730007 0.680323 0.229358
0.747555 0.676127 0.228824
0.767651 0.677333 0.226154
0.7879 0.678874 0.222904
0.807736 0.680018 0.219806
0.830014 0.685832 0.214679
0.851896 0.691066 0.209598
0.872328 0.696681 0.205386
0.891279 0.703044 0.201526
0.910185 0.709194 0.197482
0.923445 0.713359 0.196109
0.157 0.645701 0.617899
0.171328 0.650706 0.616953
0.187015 0.655406 0.616678
0.200107 0.660731 0.612177
0.212039 0.666239 0.606302
0.224994 0.671809 0.59588
0.239017 0.678447 0.572503
0.25301 0.684947 0.552544
0.271 0.692958 0.514611
0.288121 0.701381 0.47277
0.308827 0.709743 0.43003
0.340993 0.71809 0.376715
0.37026 0.726375 0.322805
0.426383 0.729168 0.28835
0.491218 0.73048 0.257603
0.549416 0.732357 0.228931
0.591379 0.733181 0.231037
0.636851 0.734356 0.23212
0.668971 0.732326 0.234546
0.689036 0.728298 0.239521
0.710033 0.725536 0.245762
0.726253 0.719326 0.246265
0.742 0.712718 0.246067
0.759243 0.708476 0.24567
0.778058 0.707378 0.243549
0.796475 0.705638 0.241474
0.81651 0.707698 0.238285
0.837491 0.711009 0.233936
0.857664 0.713619 0.230182
0.876387 0.718471 0.226719
0.894743 0.722896 0.223545
0.911574 0.726955 0.221256
0.923461 0.730587 0.221012
0.166445 0.671733 0.640375
0.184192 0.676051 0.640864
0.201968 0.680323 0.640818
0.214969 0.68574 0.636408
0.228428 0.690852 0.632532
0.242756 0.696635 0.61912
0.257084 0.702495 0.604166
0.271489 0.708919 0.583978
0.285817 0.717144 0.545907
0.298985 0.725353 0.510658
0.321935 0.733822 0.461082
0.346288 0.742473 0.406241
0.377371 0.749859 0.356451
0.432502 0.753475 0.315557
0.482658 0.758358 0.26743
0.533532 0.760983 0.247333
0.590417 0.762036 0.244388
0.64773 0.762722 0.23859
0.671443 0.760815 0.244755
0.69691 0.759731 0.251255
0.719921 0.757275 0.256062
0.737728 0.752224 0.258381
0.756085 0.747799 0.261479
0.773739 0.743908 0.261189
0.79057 0.739971 0.260502
0.807218 0.735927 0.259556
0.826047 0.735805 0.256306
0.844114 0.735088 0.253697
0.861967 0.735561 0.251011
0.879896 0.738552 0.248753
0.897826 0.741085 0.246235
0.91194 0.744869 0.24535
0.924758 0.748516 0.244862
0.179202 0.697032 0.664088
0.200046 0.700771 0.665812
0.216754 0.705318 0.664424
0.231144 0.710323 0.66157
0.246082 0.715328 0.65716
0.260121 0.720913 0.646174
0.273503 0.726436 0.636652
0.286458 0.733715 0.609857
0.299016 0.741268 0.57998
0.313207 0.748821 0.546975
0.333745 0.757595 0.495644
0.352468 0.765774 0.446967
0.385916 0.772824 0.394095
0.421073 0.780529 0.336583
0.456962 0.787747 0.283833
0.525551 0.787839 0.271275
0.594568 0.788281 0.253498
0.642603 0.788998 0.247211
0.674693 0.790356 0.2542
0.709163 0.792386 0.261784
0.730114 0.789258 0.26688
0.750744 0.78616 0.272419
0.769909 0.782238 0.276097
0.785565 0.776501 0.275898
0.801724 0.770886 0.276463
0.81886 0.767468 0.275578
0.836149 0.764797 0.273518
0.853025 0.761959 0.271992
0.87013 0.762707 0.269963
0.886687 0.763134 0.267994
0.90219 0.763317 0.266728
0.914794 0.765316 0.267018
0.927382 0.766796 0.26743
0.194629 0.721431 0.688212
0.217411 0.724865 0.690333
0.232883 0.729809 0.688319
0.248798 0.734585 0.6869
0.263188 0.739757 0.680797
0.276066 0.745312 0.673533
0.288853 0.751049 0.662684
0.301503 0.757916 0.639048
0.314168 0.764355 0.61854
0.330388 0.772305 0.577966
0.346395 0.780774 0.53341
0.362844 0.789136 0.487022
0.384176 0.798825 0.422095
0.402411 0.809003 0.35758
0.455894 0.812604 0.3196
0.527535 0.81326 0.29099
