LUT预设1/iPhone 专用lut-合集2/Apple 专用（709）/CINE中性冷白709.cube
TITLE "Generated by Resolve"
LUT_3D_SIZE 5
0.00550851 0.00479133 0.0103914
0.140505 0.0138247 0.0136721
0.411704 0.0415656 0.0249332
0.642634 0.0699016 0.0335088
0.853391 0.10837 0.0439765
0.0345006 0.167819 0.151873
0.179156 0.197787 0.063859
0.456947 0.223957 0.0370031
0.675563 0.256184 0.0390631
0.88275 0.291249 0.0453498
0.080766 0.437201 0.410437
0.226154 0.5019 0.260914
0.534752 0.493187 0.145495
0.728893 0.522164 0.116655
0.91194 0.556832 0.0874037
0.166445 0.671733 0.640375
0.285817 0.717144 0.545907
0.590417 0.762036 0.244388
0.79057 0.739971 0.260502
0.924758 0.748516 0.244862
0.296956 0.865309 0.829389
0.417044 0.902403 0.785428
0.559792 0.936355 0.386374
0.866163 0.933776 0.372213
0.941054 0.872618 0.356725
0.0226902 0.0492256 0.152422
0.118395 0.0229191 0.177417
0.412116 0.0217441 0.170199
0.667781 0.0382544 0.140368
0.869261 0.0614023 0.147784
0.0266575 0.212665 0.224338
0.179004 0.229374 0.245411
0.46865 0.240696 0.215763
0.691127 0.272953 0.218265
0.892882 0.318715 0.232044
0.0807507 0.489418 0.389075
0.285481 0.503365 0.473671
0.527184 0.528542 0.341299
0.727825 0.539971 0.299001
0.912902 0.559152 0.291341
0.131411 0.711513 0.604517
0.405768 0.718944 0.686488
0.55642 0.763607 0.519188
0.791012 0.765545 0.439704
0.931044 0.778378 0.426993
0.224933 0.901564 0.799542
0.538277 0.904448 0.874708
0.627955 0.93196 0.788388
0.838056 0.941207 0.548531
0.943358 0.899214 0.537942
0.0563058 0.142733 0.368612
0.136919 0.0888838 0.40502
0.417823 0.0148318 0.45034
0.674327 0.0255589 0.458534
0.874952 0.0406348 0.439002
0.0394903 0.317266 0.472328
0.168902 0.316808 0.456107
0.471321 0.250401 0.501579
0.714519 0.264424 0.498817
0.903685 0.290517 0.478492
0.0416724 0.534295 0.537102
0.241886 0.54725 0.548547
0.529183 0.560098 0.568521
0.733989 0.561273 0.541756
0.9187 0.588602 0.547295
0.0806287 0.754482 0.648096
0.323339 0.75639 0.673472
0.638834 0.758389 0.75111
0.786099 0.786114 0.632929
0.937621 0.798093 0.623102
0.15169 0.934462 0.772961
0.459617 0.932006 0.835294
0.707179 0.932845 0.911559
0.820859 0.946929 0.792035
0.946853 0.923095 0.705592
0.0786145 0.237293 0.574624
0.170703 0.176959 0.606516
0.410376 0.0291447 0.664851
0.680079 0.0227054 0.689525
0.879927 0.0322118 0.706386
0.0236057 0.408103 0.651972
0.14876 0.396338 0.607889
0.456428 0.285008 0.697765
0.71989 0.272633 0.728878
0.905196 0.296315 0.738476
0.0643473 0.593561 0.732937
0.265171 0.611536 0.742214
0.515694 0.605829 0.719112
0.749203 0.579248 0.75874
0.924987 0.594247 0.759335
0.0569619 0.782467 0.777264
0.308843 0.789837 0.787091
0.590845 0.799512 0.796674
0.786175 0.805356 0.80412
0.939696 0.815091 0.804929
0.0968338 0.954086 0.877211
0.391501 0.952346 0.882979
0.660273 0.950362 0.903471
0.852964 0.951156 0.931624
0.949828 0.94725 0.866651
0.0876173 0.319875 0.742763
0.209979 0.264958 0.782895
0.375189 0.0793774 0.837842
0.687343 0.0255131 0.87538
0.885878 0.0369573 0.895232
0.0170596 0.484001 0.790066
0.152651 0.465354 0.755611
0.421469 0.364096 0.851087
0.721126 0.283803 0.905562
0.908751 0.306981 0.917845
0.0981918 0.669947 0.921202
0.278447 0.668666 0.891661
0.494759 0.652613 0.833158
0.740032 0.598169 0.912428
0.928908 0.602487 0.936522
0.0938582 0.814618 0.929473
0.339986 0.826108 0.936034
0.59556 0.836347 0.933364
0.785687 0.831846 0.927443
0.940795 0.82179 0.945724
0.101488 0.959457 0.950134
0.393454 0.959411 0.953033
0.647074 0.960067 0.954589
0.836652 0.958709 0.956359
0.956222 0.960906 0.959167
