LUT预设1/iPhone 专用lut-合集2/Apple 专用（709）/CINE中性冷白709.cube
TITLE "Generated by Resolve"
LUT_3D_SIZE 9
0.00550851 0.00479133 0.0103914
0.0422675 0.00787366 0.0123903
0.140505 0.0138247 0.0136721
0.277043 0.0264744 0.0181125
0.411704 0.0415656 0.0249332
0.533227 0.0563363 0.0300603
0.642634 0.0699016 0.0335088
0.746548 0.0876631 0.0383917
0.853391 0.10837 0.0439765
0.0168765 0.0616464 0.0530709
0.0603037 0.0719158 0.0346532
0.167971 0.0852064 0.0244144
0.307561 0.103365 0.0222477
0.438178 0.121904 0.0263371
0.552041 0.140063 0.0318914
0.655909 0.157458 0.0361944
0.760723 0.175921 0.0388952
0.86923 0.196078 0.0444495
0.0345006 0.167819 0.151873
0.0869764 0.189807 0.108431
0.179156 0.197787 0.063859
0.31664 0.205875 0.0495918
0.456947 0.223957 0.0370031
0.574868 0.23978 0.0348058
0.675563 0.256184 0.0390631
0.778866 0.272831 0.0426032
0.88275 0.291249 0.0453498
0.0602426 0.298482 0.274266
0.111742 0.326741 0.23418
0.216114 0.35317 0.141802
0.355032 0.350423 0.102312
0.486809 0.351507 0.0873884
0.603571 0.373327 0.0705882
0.702449 0.389914 0.0606851
0.802014 0.401144 0.0576791
0.897749 0.411597 0.0602426
0.080766 0.437201 0.410437
0.134493 0.46392 0.383856
0.226154 0.5019 0.260914
0.394507 0.510323 0.168856
0.534752 0.493187 0.145495
0.631937 0.497673 0.135943
0.728893 0.522164 0.116655
0.826429 0.544366 0.0972
0.91194 0.556832 0.0874037
0.112688 0.564782 0.53489
0.171038 0.587396 0.521035
0.237827 0.620142 0.396139
0.402914 0.645792 0.225696
0.58616 0.643915 0.194934
0.670207 0.621332 0.202106
0.750042 0.620783 0.19292
0.843565 0.649042 0.167544
0.923308 0.674434 0.145937
0.166445 0.671733 0.640375
0.228428 0.690852 0.632532
0.285817 0.717144 0.545907
0.377371 0.749859 0.356451
0.590417 0.762036 0.244388
0.719921 0.757275 0.256062
0.79057 0.739971 0.260502
0.861967 0.735561 0.251011
0.924758 0.748516 0.244862
0.232303 0.768826 0.73814
0.29601 0.788464 0.728908
0.348562 0.812451 0.671031
0.378973 0.849683 0.49189
0.560098 0.867231 0.299748
0.745907 0.872297 0.284138
0.835584 0.8636 0.315251
0.894774 0.840116 0.32372
0.933944 0.824292 0.323568
0.296956 0.865309 0.829389
0.36965 0.882185 0.82269
0.417044 0.902403 0.785428
0.435813 0.926253 0.63328
0.559792 0.936355 0.386374
0.753536 0.942092 0.326162
0.866163 0.933776 0.372213
0.913527 0.895994 0.366827
0.941054 0.872618 0.356725
0.0109407 0.0193637 0.063798
0.044358 0.0205234 0.0695811
0.124987 0.0141451 0.0754253
0.26154 0.0186923 0.0732891
0.410483 0.0293584 0.0695811
0.543679 0.0407263 0.0737926
0.656992 0.0512093 0.0784314
0.759045 0.0714733 0.0830243
0.861189 0.0941482 0.0880751
0.019028 0.0826429 0.0978103
0.0601053 0.0870832 0.0994888
0.162341 0.0898604 0.0944839
0.302831 0.100771 0.0897078
0.442161 0.120119 0.0851301
0.561486 0.144137 0.0868696
0.667506 0.160464 0.0907912
0.770825 0.181018 0.097261
0.876326 0.20589 0.106828
0.0317388 0.187823 0.161242
0.0853742 0.198611 0.186511
0.180499 0.208698 0.145098
0.325139 0.218402 0.118257
0.463554 0.232929 0.109972
0.577569 0.250309 0.109987
0.678614 0.267124 0.113344
0.783795 0.286091 0.120226
0.886931 0.307332 0.127977
0.0585794 0.320287 0.267689
0.119219 0.332509 0.308324
0.208469 0.35555 0.259281
0.346075 0.365469 0.173922
0.48957 0.368078 0.160952
0.603464 0.382284 0.149279
0.700938 0.394232 0.142519
0.80209 0.405432 0.141711
0.899184 0.420203 0.148745
0.0839857 0.459953 0.399023
0.160067 0.471641 0.438193
0.241138 0.497841 0.391653
0.373938 0.518227 0.262257
0.534386 0.513649 0.224353
0.634287 0.515587 0.216068
0.729 0.532708 0.198749
0.826337 0.547234 0.181582
0.912154 0.555627 0.177447
0.114015 0.584054 0.527153
0.217456 0.592782 0.560906
0.301228 0.612634 0.533944
0.399863 0.639841 0.392737
0.573983 0.651408 0.266361
0.671687 0.637797 0.285435
0.753017 0.638422 0.277546
0.84651 0.66276 0.252018
0.92604 0.68072 0.233738
0.156329 0.68806 0.635981
0.28748 0.694408 0.666987
0.359503 0.713558 0.647883
0.420569 0.740475 0.535653
0.567346 0.763348 0.35111
0.710445 0.764721 0.335851
0.791135 0.752911 0.343786
0.864485 0.751019 0.335882
0.927733 0.764248 0.330037
0.217563 0.785046 0.735271
0.351919 0.792386 0.758846
0.428107 0.810178 0.750668
0.475517 0.833188 0.684703
0.558328 0.862974 0.466804
0.725124 0.874098 0.368475
0.829709 0.870344 0.394156
0.895949 0.852049 0.406455
0.935805 0.838376 0.408667
0.289174 0.878965 0.831037
0.421164 0.886 0.850645
0.492897 0.901122 0.845441
0.535149 0.917693 0.801129
0.571984 0.936034 0.61059
0.724956 0.941787 0.452186
0.855116 0.937606 0.453819
0.914092 0.907973 0.454475
0.941756 0.885756 0.445548
0.0226902 0.0492256 0.152422
0.0557259 0.0448768 0.163333
0.118395 0.0229191 0.177417
0.257343 0.0149386 0.181125
0.412116 0.0217441 0.170199
0.551995 0.0294347 0.155215
0.667781 0.0382544 0.140368
0.770321 0.0498207 0.14522
0.869261 0.0614023 0.147784
0.0176852 0.119539 0.185382
0.0567025 0.119478 0.187579
0.147768 0.101076 0.202197
0.291127 0.0954604 0.204181
0.443793 0.104906 0.191455
0.574105 0.119524 0.182086
0.683375 0.13637 0.17673
0.784085 0.15758 0.17641
0.882887 0.180652 0.185061
0.0266575 0.212665 0.224338
0.0749371 0.223468 0.238956
0.179004 0.229374 0.245411
0.32195 0.230182 0.228183
0.46865 0.240696 0.215763
0.588373 0.256199 0.216205
0.691127 0.272953 0.218265
0.79382 0.294362 0.223102
0.892882 0.318715 0.232044
0.0483864 0.349874 0.293111
0.110063 0.356725 0.320027
0.225315 0.369512 0.34403
0.355093 0.378988 0.301137
0.491844 0.3823 0.265202
0.604685 0.390112 0.249256
0.703105 0.403281 0.248539
0.805524 0.420203 0.254398
0.901869 0.439734 0.264057
0.0807507 0.489418 0.389075
0.148821 0.493324 0.431693
0.285481 0.503365 0.473671
0.403738 0.520943 0.422431
0.527184 0.528542 0.341299
0.633585 0.528649 0.316518
0.727825 0.539971 0.299001
0.825513 0.548836 0.288228
0.912902 0.559152 0.291341
0.104005 0.609476 0.49865
0.198535 0.611307 0.549935
0.35111 0.617761 0.590692
0.445441 0.63801 0.547692
0.552331 0.65713 0.410758
0.670253 0.65275 0.385885
0.755901 0.654704 0.376715
0.848875 0.672465 0.353216
0.926345 0.683162 0.343084
0.131411 0.711513 0.604517
0.260349 0.711604 0.656718
0.405768 0.718944 0.686488
0.489845 0.735607 0.666072
0.55642 0.763607 0.519188
0.697108 0.77116 0.440467
0.791012 0.765545 0.439704
0.867933 0.766918 0.432258
0.931044 0.778378 0.426993
0.170916 0.809522 0.703075
0.334874 0.807919 0.755535
0.471 0.815045 0.781338
0.540658 0.830854 0.774121
0.583535 0.856992 0.660502
0.702068 0.875135 0.498421
0.820951 0.876936 0.486717
0.896147 0.864042 0.497475
0.937758 0.85304 0.500969
0.224933 0.901564 0.799542
0.410391 0.898985 0.85185
0.538277 0.904448 0.874708
0.593179 0.91783 0.86862
0.627955 0.93196 0.788388
0.708919 0.941756 0.612879
0.838056 0.941207 0.548531
0.914 0.918349 0.545266
0.943358 0.899214 0.537942
0.0392157 0.0917983 0.254932
0.0718395 0.0787671 0.269169
0.122744 0.0496223 0.289647
0.257389 0.0186618 0.30988
0.416068 0.0159152 0.314824
0.556924 0.0218509 0.306065
0.671916 0.0320745 0.292714
0.775448 0.0406958 0.279072
0.873533 0.0466468 0.266239
0.0130007 0.169711 0.282002
0.0649271 0.164294 0.295598
0.145785 0.133776 0.316487
0.288273 0.103899 0.337499
0.447303 0.101579 0.340932
0.58117 0.108751 0.330694
0.692088 0.119936 0.318608
0.79321 0.133181 0.308843
0.888197 0.145571 0.299825
0.0352483 0.261357 0.34815
0.0782635 0.269688 0.352041
0.170565 0.266392 0.350881
0.313191 0.251011 0.358877
0.470268 0.243824 0.362631
0.60029 0.252613 0.356954
0.706508 0.266407 0.347417
0.806332 0.283986 0.343572
0.900038 0.303288 0.344381
0.0404364 0.380713 0.387945
0.0975052 0.389181 0.39733
0.21239 0.396628 0.41033
0.35584 0.400916 0.414893
0.491508 0.399039 0.398016
0.611154 0.402502 0.382528
0.713039 0.416602 0.379049
0.814191 0.438651 0.384634
0.906996 0.455039 0.391043
0.0551308 0.513466 0.448402
0.118715 0.517937 0.463203
0.258091 0.523919 0.491951
0.422309 0.533288 0.515435
0.529809 0.54078 0.47805
0.633005 0.541421 0.432914
0.727413 0.547341 0.416724
0.827359 0.558419 0.414588
0.914397 0.572106 0.422187
0.0826734 0.63212 0.520928
0.156252 0.63444 0.544823
0.315068 0.636088 0.584421
0.474815 0.643427 0.614069
0.568566 0.657267 0.584588
0.665721 0.66508 0.50132
0.756588 0.667506 0.481422
0.848875 0.676661 0.464714
0.926497 0.685893 0.462608
0.111589 0.734051 0.601236
0.204334 0.734585 0.631067
0.380423 0.734874 0.680446
0.520806 0.741833 0.709804
0.590295 0.758328 0.687358
0.682536 0.776928 0.570764
0.790158 0.777127 0.536812
0.870481 0.780011 0.530282
0.934371 0.789227 0.527886
0.146242 0.83238 0.681163
0.266056 0.831144 0.722591
0.448829 0.830198 0.776104
0.584207 0.833967 0.809842
0.633753 0.851209 0.789441
0.693645 0.875227 0.661097
0.811948 0.882414 0.586618
0.895949 0.875334 0.585733
0.939864 0.867033 0.590539
0.180453 0.92105 0.762341
0.341665 0.919066 0.81651
0.515877 0.917235 0.869322
0.638346 0.918746 0.899351
0.68098 0.929442 0.886549
0.714504 0.941848 0.77702
0.823514 0.944076 0.665782
0.912566 0.927275 0.631937
0.945495 0.911345 0.62443
0.0563058 0.142733 0.368612
0.0920577 0.123537 0.383749
0.136919 0.0888838 0.40502
0.254566 0.0324254 0.434043
0.417823 0.0148318 0.45034
0.560464 0.0168612 0.457572
0.674327 0.0255589 0.458534
0.777813 0.0339513 0.450172
0.874952 0.0406348 0.439002
0.0118257 0.220172 0.383139
0.068513 0.215091 0.399313
0.155612 0.185672 0.428305
0.281331 0.12372 0.459617
0.448676 0.105104 0.479316
0.584894 0.111757 0.48336
0.695506 0.120211 0.480751
0.797131 0.129335 0.472175
0.889418 0.140124 0.458885
0.0394903 0.317266 0.472328
0.0785687 0.321447 0.461646
0.168902 0.316808 0.456107
0.310445 0.279973 0.475715
0.471321 0.250401 0.501579
0.605051 0.254429 0.504982
0.714519 0.264424 0.498817
0.814145 0.276387 0.487541
0.903685 0.290517 0.478492
0.0442969 0.418372 0.504311
0.102022 0.42707 0.509224
0.211109 0.433738 0.508812
0.344564 0.430304 0.508186
0.483101 0.4206 0.518929
0.614115 0.416876 0.523827
0.726467 0.424369 0.516732
0.825879 0.438209 0.511498
0.911955 0.452415 0.509987
0.0416724 0.534295 0.537102
0.110369 0.540658 0.541787
0.241886 0.54725 0.548547
0.407202 0.554925 0.566247
0.529183 0.560098 0.568521
0.633127 0.558312 0.553719
0.733989 0.561273 0.541756
0.834638 0.574289 0.541588
0.9187 0.588602 0.547295
0.0506447 0.650233 0.589227
0.127871 0.653758 0.594415
0.269444 0.656962 0.605158
0.448157 0.659419 0.625772
0.584329 0.665568 0.653635
0.667231 0.674403 0.61387
0.754025 0.676036 0.582742
0.849226 0.683528 0.576425
0.927077 0.695689 0.580041
0.0806287 0.754482 0.648096
0.167483 0.755398 0.655344
0.323339 0.75639 0.673472
0.491295 0.757458 0.703212
0.638834 0.758389 0.75111
0.69662 0.777005 0.698344
0.786099 0.786114 0.632929
0.871717 0.790082 0.622599
0.937621 0.798093 0.623102
0.121767 0.853941 0.7066
0.216709 0.85304 0.71722
0.388342 0.852399 0.751049
0.55227 0.851225 0.796033
0.665339 0.856077 0.831083
0.720851 0.872496 0.795682
0.802655 0.887282 0.694743
0.8934 0.884581 0.667704
0.941955 0.879347 0.672648
0.15169 0.934462 0.772961
0.286778 0.933761 0.7935
0.459617 0.932006 0.835294
0.613306 0.930175 0.888777
0.707179 0.932845 0.911559
0.75964 0.940414 0.895979
0.820859 0.946929 0.792035
0.910353 0.936278 0.717556
0.946853 0.923095 0.705592
0.0699779 0.192874 0.477592
0.111162 0.172061 0.492805
0.152972 0.132265 0.511315
0.245609 0.055314 0.543572
0.41651 0.0186465 0.566644
0.562753 0.0167086 0.579293
0.677226 0.0224918 0.5879
0.780606 0.0280766 0.592142
0.877211 0.0343633 0.591867
0.0106508 0.265461 0.475151
0.0712749 0.261738 0.494835
0.17377 0.23917 0.532769
0.275593 0.15938 0.562585
0.442802 0.114641 0.589426
0.587701 0.115541 0.603006
0.698054 0.123751 0.611215
0.799878 0.132616 0.612192
0.890837 0.144106 0.607309
0.033051 0.366354 0.571191
0.0737316 0.367849 0.554498
0.161822 0.362356 0.541894
0.307164 0.314641 0.575402
0.468071 0.263066 0.607645
0.60798 0.258625 0.622736
0.71725 0.267826 0.629694
0.816922 0.279255 0.627344
0.904234 0.292424 0.620157
0.0528572 0.463386 0.617945
0.11426 0.472099 0.620127
0.214359 0.47631 0.609552
0.338628 0.46334 0.596841
0.483421 0.43859 0.61532
0.617075 0.425284 0.6365
0.733104 0.429389 0.644434
0.832166 0.439689 0.639078
0.914946 0.451255 0.631632
0.0507057 0.559014 0.634607
0.124178 0.566888 0.639384
0.25182 0.576852 0.645609
0.398611 0.583413 0.644999
0.519936 0.57998 0.641672
0.630915 0.576959 0.655558
0.744701 0.574014 0.657938
0.844648 0.580972 0.65272
0.923003 0.59295 0.651591
0.0376745 0.663584 0.660594
0.126848 0.667323 0.661692
0.270314 0.672602 0.670253
0.431769 0.678325 0.679484
0.56669 0.683543 0.690105
0.663539 0.689387 0.691264
0.757565 0.689097 0.682567
0.855268 0.695918 0.679377
0.928939 0.706386 0.681773
0.0584878 0.769558 0.7093
0.152316 0.771695 0.712932
0.29778 0.774762 0.718471
0.459373 0.777386 0.727291
0.599023 0.77969 0.745327
0.700191 0.786267 0.757992
0.786328 0.793652 0.727825
0.872816 0.79968 0.713527
0.93904 0.807431 0.714611
0.0932479 0.871611 0.764431
0.190005 0.871702 0.768475
0.349462 0.8719 0.776654
0.507118 0.871855 0.790509
0.639429 0.872465 0.821164
0.737972 0.878676 0.842603
0.812909 0.889143 0.800946
0.890455 0.892546 0.758602
0.943923 0.890944 0.752895
0.11725 0.945937 0.821744
0.248768 0.944839 0.826993
0.417945 0.943404 0.841306
0.569039 0.942275 0.866011
0.689479 0.941329 0.90248
0.784451 0.943328 0.926513
0.84123 0.94847 0.888014
0.90483 0.944549 0.817884
0.948211 0.935042 0.785687
0.0786145 0.237293 0.574624
0.127733 0.217136 0.590433
0.170703 0.176959 0.606516
0.228092 0.0874189 0.635477
0.410376 0.0291447 0.664851
0.56582 0.0193332 0.679774
0.680079 0.0227054 0.689525
0.783536 0.0252232 0.699809
0.879927 0.0322118 0.706386
0.0104067 0.306249 0.556954
0.074342 0.302754 0.578912
0.187915 0.285008 0.62359
0.270726 0.201129 0.651469
0.433036 0.130648 0.683574
0.591333 0.119188 0.701274
0.700923 0.127535 0.710307
0.802625 0.136645 0.719036
0.892958 0.147494 0.725322
0.0236057 0.408103 0.651972
0.0667887 0.405447 0.631342
0.14876 0.396338 0.607889
0.300786 0.353384 0.658503
0.456428 0.285008 0.697765
0.609201 0.263706 0.71931
0.71989 0.272633 0.728878
0.819394 0.283589 0.735515
0.905196 0.296315 0.738476
0.0586404 0.508141 0.718807
0.125978 0.515145 0.718685
0.212634 0.511604 0.690517
0.334585 0.497063 0.676799
0.480522 0.465003 0.702327
0.620966 0.432883 0.732067
0.7364 0.433295 0.745998
0.834638 0.443732 0.748638
0.917449 0.455451 0.748119
0.0643473 0.593561 0.732937
0.141772 0.60209 0.737819
0.265171 0.611536 0.742214
0.396612 0.614542 0.730831
0.515694 0.605829 0.719112
0.638346 0.590555 0.742016
0.749203 0.579248 0.75874
0.849195 0.584634 0.761334
0.924987 0.594247 0.759335
0.0590829 0.681224 0.750195
0.150378 0.687221 0.754101
0.287907 0.695201 0.759503
0.437415 0.703471 0.76524
0.562524 0.708537 0.763592
0.654719 0.709865 0.758221
0.761074 0.701137 0.772412
0.86154 0.70071 0.776745
0.930968 0.709438 0.779339
0.0569619 0.782467 0.777264
0.162676 0.785565 0.781567
0.308843 0.789837 0.787091
0.461936 0.794766 0.792111
0.590845 0.799512 0.796674
0.69337 0.803769 0.800839
0.786175 0.805356 0.80412
0.875563 0.808301 0.80177
0.939696 0.815091 0.804929
0.076112 0.885939 0.824353
0.185016 0.885679 0.827054
0.340154 0.886809 0.831403
0.492927 0.887922 0.836225
0.618647 0.889982 0.844739
0.725078 0.892836 0.859617
0.81883 0.896269 0.867201
0.894041 0.900282 0.844923
0.945922 0.902373 0.833692
0.0968338 0.954086 0.877211
0.229252 0.953063 0.879377
0.391501 0.952346 0.882979
0.539879 0.951431 0.887785
0.660273 0.950362 0.903471
0.766644 0.950515 0.92549
0.852964 0.951156 0.931624
0.913832 0.950881 0.905806
0.949828 0.94725 0.866651
0.0834821 0.277913 0.660151
0.142779 0.25948 0.680446
0.190799 0.222614 0.694911
0.232074 0.135317 0.716487
0.397513 0.0480507 0.753735
0.567468 0.0227512 0.774594
0.683818 0.0242618 0.784039
0.786496 0.0258183 0.793957
0.883055 0.0335851 0.804303
0.0100557 0.346792 0.634516
0.0761578 0.342443 0.657176
0.200534 0.329152 0.708705
0.266773 0.250507 0.733379
0.418097 0.156497 0.76939
0.592401 0.123903 0.795163
0.703731 0.131518 0.804074
0.804974 0.140871 0.81297
0.895399 0.151751 0.822568
0.0226139 0.447364 0.725048
0.0543526 0.439109 0.693874
0.146838 0.429618 0.680354
0.293065 0.397543 0.734218
0.436133 0.321172 0.778698
0.597879 0.274311 0.808347
0.721859 0.277546 0.821759
0.822187 0.289174 0.830396
0.906844 0.301518 0.838514
0.0697337 0.551492 0.814481
0.133455 0.55288 0.802045
0.203204 0.539315 0.752117
0.32636 0.528511 0.742443
0.476585 0.507607 0.780575
0.609567 0.452689 0.81709
0.736278 0.43949 0.836515
0.836667 0.448463 0.844419
0.918059 0.459709 0.851774
0.0809644 0.634073 0.831785
0.163333 0.642481 0.837263
0.27631 0.645502 0.827832
0.38819 0.639765 0.797543
0.50428 0.633005 0.783169
0.635889 0.618067 0.823072
0.746761 0.58764 0.847074
0.849912 0.588998 0.856672
0.92694 0.598108 0.862196
0.0854658 0.71104 0.843153
0.17792 0.719066 0.847684
0.309728 0.728481 0.853758
0.447456 0.73521 0.85359
0.558267 0.736294 0.840314
0.649638 0.733394 0.823667
0.76109 0.715755 0.854109
0.863493 0.706111 0.870085
0.932158 0.711864 0.874739
0.0770886 0.798856 0.861326
0.184863 0.803586 0.864332
0.327535 0.809506 0.868269
0.473838 0.815778 0.872312
0.595712 0.821012 0.873411
0.692378 0.824872 0.870542
0.784237 0.820279 0.873152
0.877394 0.815763 0.883116
0.940139 0.818555 0.891081
0.0767071 0.895888 0.888731
0.196521 0.8963 0.890288
0.349691 0.897795 0.892866
0.497337 0.900587 0.895918
0.618708 0.903929 0.898573
0.718517 0.906676 0.901534
0.813703 0.907591 0.908675
0.894896 0.908232 0.908446
0.948211 0.911467 0.906355
0.0938582 0.958129 0.923232
0.22771 0.95787 0.92578
0.386069 0.957595 0.927169
0.5308 0.957076 0.92845
0.646265 0.95668 0.930404
0.747356 0.956466 0.935943
0.844968 0.955596 0.944121
0.918776 0.956039 0.944793
0.954131 0.956725 0.928237
0.0876173 0.319875 0.742763
0.158236 0.30222 0.768643
0.209979 0.264958 0.782895
0.249607 0.191714 0.80029
0.375189 0.0793774 0.837842
0.559869 0.0299382 0.864454
0.687343 0.0255131 0.87538
0.789502 0.0290074 0.884459
0.885878 0.0369573 0.895232
0.0106813 0.388724 0.712627
0.0776837 0.38526 0.73518
0.214511 0.373846 0.792447
0.275196 0.305882 0.813672
0.390707 0.191928 0.848219
0.576211 0.13315 0.882902
0.706447 0.136187 0.891997
0.807797 0.145769 0.89865
0.897841 0.156191 0.90721
0.0170596 0.484001 0.790066
0.0441138 0.472618 0.751995
0.152651 0.465354 0.755611
0.296422 0.44242 0.806561
0.421469 0.364096 0.851087
0.578042 0.287617 0.886152
0.721126 0.283803 0.905562
0.824796 0.294743 0.911833
0.908751 0.306981 0.917845
0.07953 0.587549 0.894728
0.12987 0.580423 0.861036
0.19266 0.561395 0.802808
0.321004 0.555627 0.800031
0.476478 0.542702 0.848661
0.595132 0.474876 0.886824
0.732723 0.44712 0.911604
0.838697 0.453864 0.922301
0.918624 0.464958 0.926665
0.0981918 0.669947 0.921202
0.183154 0.675105 0.921172
0.278447 0.668666 0.891661
0.37348 0.6542 0.843885
0.494759 0.652613 0.833158
0.630747 0.640879 0.884642
0.740032 0.598169 0.912428
0.84976 0.593973 0.927764
0.928908 0.602487 0.936522
0.102937 0.739559 0.924056
0.19646 0.746792 0.926818
0.324025 0.754498 0.928603
0.448447 0.75668 0.917723
0.538674 0.747417 0.883238
0.647425 0.74931 0.880903
0.760143 0.728145 0.912673
0.863859 0.712215 0.931655
0.933272 0.715114 0.938872
0.0938582 0.814618 0.929473
0.201511 0.819974 0.932769
0.339986 0.826108 0.936034
0.48072 0.831876 0.936446
0.59556 0.836347 0.933364
0.688212 0.837537 0.923781
0.785687 0.831846 0.927443
0.880079 0.822095 0.939406
0.940795 0.82179 0.945724
0.0823224 0.901259 0.937957
0.206012 0.90248 0.938933
0.359045 0.904295 0.941833
0.504204 0.907942 0.945312
0.62295 0.911177 0.945785
0.720531 0.913771 0.94728
0.812543 0.914565 0.946426
0.893736 0.913863 0.948028
0.948455 0.916655 0.951995
0.101488 0.959457 0.950134
0.236973 0.959396 0.951614
0.393454 0.959411 0.953033
0.535058 0.959289 0.954009
0.647074 0.960067 0.954589
0.744579 0.959274 0.955016
0.836652 0.958709 0.956359
0.913115 0.959213 0.958816
0.956222 0.960906 0.959167
