LUT预设1/iPhone 专用lut-合集2/Apple 专用（709）/cinematic709.cube
TITLE "Generated by Resolve"
LUT_3D_SIZE 33
0.0327306 0.0486305 0.0547799
0.0378271 0.0499123 0.0555276
0.0428931 0.0512245 0.0563821
0.0498817 0.0528267 0.0570687
0.05832 0.0547341 0.0577707
0.0667887 0.056611 0.0585031
0.0790417 0.0590982 0.0588388
0.0926528 0.0617227 0.0589914
0.106783 0.0643168 0.0590829
0.130632 0.0665599 0.0572061
0.155657 0.0687572 0.0550393
0.180423 0.0710307 0.0529641
0.213489 0.0709087 0.046067
0.247272 0.0708171 0.038941
0.280629 0.0710307 0.0322576
0.3234 0.0651408 0.024033
0.367315 0.0588083 0.0147707
0.411185 0.0526589 0.00460822
0.451087 0.0392462 0.00228885
0.490074 0.0247807 0.0019379
0.528756 0.0115358 0.0030518
0.559167 0.00849927 0.00419623
0.587686 0.00653086 0.004654
0.616709 0.00354009 0.0043183
0.635554 0.00271611 0.00381476
0.651118 0.00268559 0.00303655
0.666728 0.00259403 0.00205997
0.678508 0.00263981 0.00175479
0.687404 0.0027924 0.00201419
0.6963 0.00292973 0.00234989
0.703838 0.0030518 0.00271611
0.709209 0.00320439 0.00302129
0.714641 0.00335698 0.00335698
0.0306096 0.0540627 0.0578775
0.0358129 0.0553292 0.058732
0.04094 0.0566262 0.0596475
0.0498054 0.0584573 0.0603037
0.0587167 0.0603189 0.0609903
0.0686198 0.062211 0.0615091
0.0839704 0.064683 0.061387
0.0993668 0.0670787 0.0612039
0.117586 0.0694438 0.0603952
0.141573 0.0717327 0.0581369
0.165316 0.0744793 0.055848
0.192477 0.0768444 0.0519875
0.226566 0.0781262 0.0451209
0.26041 0.0793164 0.0387274
0.298222 0.0783703 0.0315557
0.341604 0.0733959 0.0223697
0.38526 0.0684367 0.0126345
0.427054 0.0611124 0.00775158
0.466331 0.0489052 0.00817884
0.506325 0.0368963 0.00770581
0.543526 0.0267643 0.00680552
0.572549 0.0204929 0.00639353
0.601755 0.0135958 0.00563058
0.629572 0.00712596 0.00457771
0.645685 0.00654612 0.00419623
0.661845 0.00595102 0.00387579
0.678126 0.0053254 0.00366217
0.687388 0.00535592 0.00418097
0.69633 0.0053254 0.0047303
0.70544 0.0052491 0.00537118
0.711543 0.00529488 0.00579843
0.716945 0.00688182 0.00576791
0.722332 0.00810254 0.00560006
0.0279698 0.0598611 0.0612955
0.0327764 0.061387 0.0621653
0.0392309 0.0631113 0.0628977
0.0488746 0.0652323 0.063386
0.0588083 0.0673533 0.063798
0.0723735 0.0698558 0.0637675
0.088716 0.0727855 0.0632639
0.105119 0.0756542 0.0627756
0.126665 0.078706 0.0609751
0.150835 0.0818494 0.0586404
0.174548 0.0849928 0.0564736
0.206622 0.0867781 0.0512245
0.241505 0.0881056 0.0451209
0.276143 0.0894179 0.0393378
0.316854 0.0868696 0.0323033
0.35938 0.0829328 0.0248264
0.401099 0.0790417 0.0177005
0.441978 0.0700999 0.0147402
0.482322 0.0594492 0.0124819
0.522896 0.0485389 0.00900282
0.556741 0.0378882 0.00679026
0.586603 0.0277562 0.00575265
0.616983 0.0200198 0.00503548
0.640238 0.01738 0.00486763
0.657145 0.0185855 0.00523384
0.673808 0.0188296 0.00550851
0.687587 0.0189517 0.00575265
0.696605 0.0196994 0.00593576
0.705562 0.0198367 0.00601205
0.713924 0.0197299 0.00593576
0.71928 0.0204318 0.0055848
0.724636 0.0207523 0.00508125
0.729931 0.0208591 0.00447089
0.0218967 0.0682078 0.0647593
0.0259556 0.0697032 0.0653239
0.0356451 0.0717479 0.0655985
0.0472267 0.0738842 0.0657359
0.0592966 0.076173 0.0657969
0.0762036 0.0792248 0.065156
0.0935378 0.0823529 0.0644236
0.111345 0.0855116 0.0636149
0.135775 0.0888838 0.0613107
0.160021 0.0922103 0.059266
0.185931 0.0953689 0.0567636
0.221393 0.096849 0.0517281
0.25713 0.0984665 0.0471046
0.293767 0.0997482 0.0419928
0.336355 0.0976577 0.0348058
0.378805 0.0957656 0.0276646
0.421454 0.0931258 0.0209506
0.463676 0.0851759 0.0175479
0.505394 0.0777142 0.0135805
0.546532 0.0705882 0.009308
0.576242 0.0631571 0.00886549
0.606149 0.0559701 0.00831617
0.635218 0.0492561 0.00766003
0.652857 0.0466011 0.00769055
0.669398 0.0436561 0.00761425
0.685985 0.0402075 0.00732433
0.696681 0.0382391 0.00709544
0.705592 0.0366064 0.00677501
0.714626 0.0346227 0.0062562
0.721355 0.0334783 0.00560006
0.72668 0.0329442 0.00476081
0.732082 0.0323186 0.00370794
0.736721 0.031754 0.00337224
0.0152743 0.0765545 0.0676432
0.0201114 0.078172 0.0677043
0.0332799 0.0807355 0.0677195
0.0463417 0.0831617 0.0677195
0.0607309 0.0860151 0.0676127
0.0783398 0.0895399 0.0672313
0.0962844 0.0930648 0.0669413
0.117876 0.0966812 0.0660563
0.143648 0.100572 0.0653086
0.169741 0.104387 0.0645762
0.201541 0.107424 0.0611734
0.238163 0.110048 0.0556649
0.274998 0.112718 0.0499733
0.315877 0.113832 0.0433967
0.359808 0.113649 0.0359808
0.40415 0.113939 0.0283055
0.447486 0.111635 0.022858
0.489555 0.106874 0.0191653
0.531151 0.102876 0.0152132
0.566705 0.0978408 0.0129702
0.595758 0.090837 0.0125582
0.624277 0.083711 0.0119478
0.648615 0.0768292 0.0113069
0.665019 0.0706493 0.0107729
0.68159 0.0644083 0.00961318
0.697078 0.0598764 0.00814832
0.706462 0.0586099 0.0071107
0.715755 0.0572061 0.00605783
0.725063 0.0555734 0.00495918
0.7308 0.0563211 0.00424201
0.7364 0.0567483 0.00459297
0.742077 0.0572213 0.00469978
0.746273 0.0581979 0.00489815
0.0106508 0.0878004 0.0706188
0.0184787 0.0897688 0.0709239
0.0299535 0.0921645 0.0712596
0.0410925 0.0944381 0.0717327
0.0580148 0.0977493 0.0720531
0.0774395 0.101427 0.0727092
0.096849 0.104967 0.0735332
0.123964 0.108965 0.0727855
0.152255 0.113024 0.0718853
0.181094 0.117266 0.0711528
0.218143 0.120668 0.0648661
0.255787 0.124224 0.0583352
0.293187 0.127916 0.0519417
0.338949 0.129915 0.0441749
0.385229 0.132174 0.0360418
0.430961 0.135241 0.0281529
0.472343 0.133669 0.0246281
0.514076 0.13193 0.0211795
0.555352 0.129992 0.0173495
0.585443 0.124178 0.0156863
0.614008 0.11783 0.0138705
0.642649 0.111391 0.011429
0.66276 0.106096 0.00961318
0.679774 0.10135 0.00798047
0.69691 0.0968032 0.00613413
0.709392 0.0932479 0.00482185
0.718624 0.0905623 0.00395209
0.727779 0.0872511 0.00436408
0.735485 0.0848707 0.00479133
0.741085 0.0843977 0.00500496
0.746593 0.0836652 0.00489815
0.751751 0.0829328 0.00451667
0.755306 0.083238 0.00430304
0.00601205 0.0991684 0.0737926
0.0157321 0.10135 0.0750591
0.0249332 0.103517 0.0764477
0.0354772 0.105882 0.0777295
0.0563821 0.110002 0.0785534
0.0773175 0.114382 0.0791638
0.100633 0.119112 0.0789654
0.13051 0.124453 0.0775311
0.160266 0.129915 0.0761883
0.19295 0.135302 0.072694
0.23151 0.140459 0.0653697
0.270573 0.145754 0.0582284
0.312612 0.150378 0.0511177
0.359838 0.153811 0.0437018
0.40676 0.157244 0.0366827
0.452216 0.159411 0.030808
0.494392 0.15845 0.0268406
0.536126 0.157519 0.0225528
0.574166 0.155795 0.0182803
0.603494 0.150683 0.015259
0.632685 0.146212 0.0115206
0.660014 0.141604 0.00759899
0.677302 0.137682 0.00570687
0.694713 0.133761 0.00364691
0.712123 0.129412 0.00270085
0.721279 0.124819 0.00383001
0.730266 0.119753 0.00450141
0.739239 0.114595 0.00479133
0.745678 0.113771 0.00482185
0.751431 0.113436 0.00469978
0.757153 0.11249 0.00430304
0.761852 0.112688 0.0040589
0.765789 0.113527 0.0039826
0.00674449 0.115587 0.0799725
0.0143893 0.118578 0.0809796
0.0215457 0.121614 0.0818799
0.0360723 0.12549 0.0822461
0.0563363 0.130175 0.0822156
0.0761425 0.134691 0.0821088
0.10338 0.140322 0.0810864
0.133883 0.146227 0.0797894
0.164599 0.152438 0.0785229
0.203357 0.158404 0.0723888
0.244007 0.164279 0.0652018
0.28571 0.170123 0.0581826
0.332723 0.174563 0.0515908
0.38088 0.178805 0.0452888
0.429847 0.182879 0.0390784
0.473411 0.183948 0.034165
0.516136 0.184115 0.0288548
0.558175 0.184512 0.0227665
0.590829 0.183291 0.0171969
0.619898 0.180682 0.0123751
0.649302 0.178164 0.00753796
0.672312 0.175601 0.00576791
0.690044 0.17203 0.00621042
0.708019 0.16846 0.00631724
0.722667 0.164263 0.0061799
0.732296 0.160266 0.00627146
0.742046 0.155871 0.00579843
0.751232 0.152682 0.00495918
0.757198 0.151308 0.00483711
0.763317 0.150286 0.00460822
0.769497 0.148974 0.00447089
0.77348 0.148791 0.004654
0.777646 0.148959 0.00483711
0.00708019 0.134508 0.08542
0.0127565 0.13785 0.0859388
0.0180056 0.141222 0.0864271
0.0367895 0.145846 0.0859541
0.0552071 0.1505 0.08542
0.074342 0.155322 0.0847791
0.105959 0.161913 0.0836042
0.137484 0.169039 0.0823682
0.170108 0.176196 0.0800336
0.213138 0.183383 0.0720989
0.255818 0.190616 0.0648508
0.300679 0.19762 0.0578775
0.34902 0.202716 0.0510719
0.396643 0.208133 0.0437171
0.443397 0.212985 0.036286
0.486442 0.214801 0.0294347
0.529305 0.216754 0.022034
0.571283 0.218448 0.0145113
0.601755 0.217411 0.012253
0.632517 0.216159 0.0111696
0.663539 0.214969 0.00993362
0.682612 0.211658 0.00988785
0.701869 0.208362 0.00923171
0.720913 0.204837 0.00769055
0.733043 0.200992 0.0065919
0.743664 0.197574 0.00537118
0.754467 0.193881 0.00378424
0.762478 0.191257 0.00318914
0.768887 0.1897 0.00343328
0.775357 0.187427 0.00399786
0.781079 0.186282 0.004654
0.785565 0.185626 0.00512703
0.790326 0.185473 0.00544747
0.00628672 0.155993 0.0896315
0.0101015 0.160174 0.0898756
0.0184176 0.16492 0.0898299
0.0340887 0.170352 0.089128
0.0486915 0.176074 0.0884871
0.0713817 0.182742 0.0870985
0.102358 0.190585 0.0848707
0.133013 0.198169 0.0826581
0.17258 0.205829 0.0773785
0.218494 0.213733 0.0699931
0.264683 0.221454 0.0632334
0.312764 0.228397 0.0554055
0.360189 0.234577 0.0467689
0.407645 0.240543 0.0373083
0.453483 0.244907 0.0285496
0.498451 0.248066 0.0219883
0.543175 0.251408 0.0163882
0.581292 0.252964 0.013611
0.613672 0.252644 0.0137789
0.645853 0.252369 0.0137026
0.673243 0.251118 0.0128328
0.692912 0.247532 0.0112917
0.712886 0.244114 0.00900282
0.73109 0.241108 0.0065919
0.742763 0.237446 0.00556954
0.754757 0.23389 0.00445563
0.767056 0.230549 0.00321965
0.774319 0.228763 0.00373846
0.781781 0.22652 0.0041352
0.789441 0.224445 0.00434882
0.795087 0.224125 0.0043183
0.800092 0.223758 0.00418097
0.805447 0.223804 0.00381476
0.00424201 0.181262 0.0933547
0.00611887 0.185657 0.0939193
0.0160983 0.191501 0.0934157
0.0278782 0.197559 0.0927901
0.0385748 0.203861 0.0922866
0.0677653 0.211704 0.0893721
0.0977951 0.219608 0.0862898
0.12752 0.227558 0.0831617
0.176547 0.236133 0.0758373
0.226154 0.24448 0.0688487
0.275746 0.252796 0.0623026
0.322255 0.259495 0.0512245
0.369528 0.266209 0.0415351
0.41677 0.273259 0.032639
0.461967 0.277134 0.0284276
0.506737 0.280674 0.0244907
0.5514 0.284504 0.0205997
0.585138 0.284871 0.0198672
0.618738 0.284886 0.0187076
0.651957 0.285023 0.0167086
0.676478 0.282918 0.0147097
0.698772 0.280415 0.0124971
0.721645 0.27805 0.00993362
0.73875 0.275319 0.00840772
0.752667 0.272526 0.00747692
0.767056 0.269856 0.00640879
0.778851 0.267521 0.00572213
0.787182 0.265705 0.00537118
0.795865 0.264317 0.00469978
0.803922 0.262898 0.00378424
0.809445 0.262684 0.00302129
0.815 0.26247 0.00207523
0.820859 0.262623 0.000808728
0.00122072 0.206912 0.0975967
0.00329595 0.211948 0.0978103
0.0122072 0.218296 0.0966964
0.0201419 0.224811 0.0956588
0.0344701 0.231556 0.093431
0.0630961 0.23949 0.0890669
0.0910201 0.247425 0.0846876
0.126864 0.255604 0.0787976
0.175021 0.264256 0.0708019
0.222919 0.273075 0.0635538
0.270893 0.281544 0.0560922
0.320836 0.289082 0.0489357
0.370855 0.29662 0.0421302
0.419333 0.303151 0.0371252
0.465141 0.307408 0.0335393
0.510323 0.311971 0.029984
0.552407 0.315343 0.0264744
0.587793 0.315892 0.0239261
0.62356 0.316884 0.0206455
0.657389 0.317418 0.0172122
0.682017 0.315877 0.0154116
0.707256 0.314199 0.013489
0.732525 0.312993 0.0117494
0.748486 0.310826 0.0110323
0.764614 0.308812 0.0099794
0.78114 0.306798 0.00839246
0.791363 0.305043 0.00686656
0.800961 0.303273 0.00526436
0.810864 0.301991 0.00363165
0.818387 0.301106 0.00250248
0.824552 0.30074 0.00163272
0.8309 0.300359 0.000793469
0.836576 0.300618 0.000915541
0.000686656 0.232609 0.0999313
0.00363165 0.238315 0.0990005
0.00796521 0.244541 0.0971847
0.01149 0.250706 0.0953231
0.0313115 0.25832 0.0910353
0.0569009 0.266163 0.0862898
0.0812543 0.27422 0.0819715
0.124071 0.283345 0.0747539
0.170703 0.292683 0.067155
0.21709 0.302098 0.0598154
0.268605 0.310536 0.0540932
0.321187 0.318761 0.0489509
0.374838 0.327367 0.0441901
0.422583 0.332982 0.0405432
0.468193 0.337957 0.0366217
0.513497 0.343206 0.0320134
0.553384 0.345617 0.0276493
0.591043 0.347555 0.0234226
0.629435 0.349767 0.0187533
0.660761 0.349981 0.0156252
0.688319 0.349432 0.0134585
0.716136 0.349111 0.0110323
0.739406 0.348257 0.00895705
0.757824 0.346166 0.00770581
0.776577 0.344579 0.00636301
0.793301 0.34313 0.00508125
0.804166 0.341619 0.00387579
0.815213 0.3402 0.00274662
0.826413 0.338872 0.00169375
0.833265 0.338445 0.00163272
0.840146 0.338018 0.00228885
0.847272 0.337499 0.00267033
0.852461 0.338689 0.00314336
0.000122072 0.258183 0.101778
0.000717174 0.264332 0.0997635
0.000640879 0.270527 0.0978561
0.00299077 0.276799 0.0955825
0.0264744 0.28481 0.0903639
0.0478218 0.292592 0.0857557
0.0723583 0.300801 0.0805371
0.116854 0.310384 0.0733654
0.160464 0.319677 0.066804
0.205509 0.328908 0.0610056
0.260273 0.337652 0.0560769
0.31577 0.346471 0.0507973
0.369528 0.354681 0.0454871
0.416983 0.360967 0.0405737
0.464561 0.367163 0.0352483
0.511482 0.373022 0.0298009
0.552087 0.376287 0.0250706
0.594018 0.379492 0.0199283
0.635187 0.383154 0.014313
0.665202 0.383154 0.0116274
0.695338 0.383703 0.00849927
0.726009 0.38407 0.00508125
0.747738 0.383078 0.00370794
0.768994 0.381888 0.00270085
0.790494 0.380804 0.00180056
0.805478 0.379309 0.00111391
0.817914 0.378119 0.00114443
0.830549 0.377081 0.00190738
0.840879 0.376532 0.00259403
0.84831 0.376638 0.00303655
0.856107 0.376684 0.00314336
0.863508 0.377203 0.00308232
0.868711 0.379416 0.00321965
1.5259e-05 0.282002 0.102037
6.10361e-05 0.288075 0.100237
0.000106813 0.294118 0.0986343
0.00761425 0.30106 0.0953841
0.0206302 0.308812 0.0907759
0.0318761 0.316579 0.0866865
0.0609751 0.325643 0.0810559
0.10161 0.335225 0.0749828
0.141039 0.344991 0.0690623
0.192462 0.354696 0.0628824
0.250889 0.364401 0.0566415
0.309499 0.374136 0.0500038
0.362936 0.382391 0.0439765
0.413138 0.389853 0.0382696
0.463157 0.397467 0.0323491
0.51017 0.403311 0.0268101
0.554498 0.407782 0.0210269
0.599374 0.412772 0.0146029
0.638865 0.415854 0.00935378
0.670649 0.417319 0.00601205
0.703212 0.418784 0.00263981
0.733379 0.420218 0.000167849
0.75613 0.419699 0.000122072
0.779706 0.419791 0.000732433
0.802243 0.41973 0.00210575
0.816159 0.419455 0.00300603
0.830457 0.419348 0.00334173
0.845228 0.419272 0.0033875
0.854627 0.418967 0.0034638
0.863416 0.419226 0.0033875
0.872557 0.419394 0.00332647
0.879652 0.420691 0.00331121
0.885435 0.422629 0.00331121
1.5259e-05 0.305135 0.102358
3.0518e-05 0.311299 0.101076
3.0518e-05 0.317372 0.100008
0.00436408 0.325017 0.0959487
0.00747692 0.332738 0.0919661
0.00936904 0.34049 0.088304
0.0471656 0.350423 0.082063
0.0831922 0.360449 0.0760662
0.120165 0.370062 0.0695659
0.181933 0.380362 0.0622416
0.24416 0.390753 0.0546578
0.306386 0.401175 0.0467231
0.357794 0.409369 0.0410163
0.409979 0.418112 0.0347448
0.461921 0.427024 0.0280766
0.508293 0.433234 0.021973
0.554391 0.439323 0.015671
0.600885 0.445731 0.00888075
0.637568 0.449119 0.00569161
0.673625 0.452644 0.00315862
0.709987 0.456214 0.00180056
0.73846 0.457801 0.00236515
0.763943 0.459007 0.00314336
0.790021 0.460075 0.00328069
0.811292 0.460975 0.00314336
0.827756 0.460838 0.00288396
0.844556 0.461219 0.00244144
0.859754 0.461677 0.00196841
0.869459 0.461601 0.00209049
0.879683 0.461921 0.00231937
0.890059 0.462364 0.00273136
0.896147 0.463661 0.00276188
0.902434 0.465385 0.0027924
0 0.32723 0.102983
0 0.333196 0.101488
0.000457771 0.339559 0.0992447
0.00181582 0.347143 0.0950332
0.00308232 0.354726 0.0909895
0.0164797 0.363256 0.0860151
0.0457618 0.373037 0.0796216
0.0725872 0.382864 0.0732891
0.115389 0.393118 0.066743
0.178073 0.404227 0.0591897
0.240131 0.415106 0.0518654
0.29897 0.425864 0.0446021
0.352224 0.43595 0.0373388
0.406638 0.446387 0.0294652
0.458717 0.455558 0.0220035
0.506386 0.463294 0.0157015
0.555032 0.471427 0.00895705
0.600183 0.479179 0.00502022
0.63946 0.484108 0.00502022
0.678889 0.489296 0.00456245
0.717662 0.494362 0.00343328
0.745464 0.496666 0.00299077
0.7738 0.498756 0.00215152
0.80264 0.500908 0.00117494
0.82208 0.501732 0.000915541
0.840772 0.502235 0.000701915
0.86009 0.503456 0.000427253
0.873793 0.503914 0.000686656
0.885191 0.504723 0.00123598
0.896635 0.505241 0.00178531
0.906355 0.506691 0.00209049
0.913344 0.508736 0.00205997
0.920226 0.510353 0.00202945
0 0.347631 0.102953
0 0.353735 0.101137
0.000885023 0.36083 0.0971847
0.00204471 0.368475 0.0926986
0.00315862 0.37612 0.0882582
0.0200809 0.385626 0.0823987
0.0387884 0.395377 0.0764324
0.0561227 0.405203 0.0704967
0.112215 0.416541 0.0635538
0.174136 0.428382 0.0565194
0.235813 0.440055 0.0492866
0.292256 0.451698 0.0410315
0.347921 0.46302 0.031693
0.404547 0.474723 0.0220951
0.455863 0.484596 0.0173648
0.505684 0.494057 0.0133822
0.556146 0.503777 0.00917067
0.60119 0.511208 0.00750744
0.643275 0.517647 0.00663767
0.685893 0.524407 0.00518807
0.722576 0.529381 0.00401312
0.753384 0.532708 0.00328069
0.784772 0.536339 0.00233463
0.813092 0.539864 0.00149538
0.83418 0.541512 0.00123598
0.855497 0.54345 0.000915541
0.876402 0.545907 0.000595102
0.888991 0.546853 0.000839246
0.901823 0.548379 0.0010071
0.91487 0.549615 0.00109865
0.9234 0.551705 0.0010071
0.930953 0.553475 0.000885023
0.938674 0.555718 0.000747692
0 0.367987 0.102266
0.000106813 0.374136 0.0995956
0.00117494 0.381552 0.094377
0.00209049 0.389059 0.0895399
0.0055848 0.397009 0.0844434
0.0188144 0.40676 0.0786755
0.0313725 0.416495 0.0728618
0.0551766 0.426734 0.0665293
0.112016 0.438621 0.0585031
0.167117 0.450492 0.0496681
0.221607 0.462837 0.0412909
0.280873 0.475471 0.0342412
0.340093 0.488304 0.0268559
0.399695 0.500801 0.020325
0.452308 0.511849 0.0168765
0.506416 0.523278 0.0128634
0.559747 0.534585 0.00898756
0.604379 0.542443 0.0078584
0.649439 0.550927 0.00643931
0.695079 0.559792 0.00486763
0.729824 0.564965 0.00407416
0.763836 0.57052 0.00326543
0.798505 0.576059 0.00239567
0.824842 0.579644 0.00195315
0.848249 0.582727 0.00158694
0.87216 0.586084 0.00115969
0.891325 0.589059 0.000823987
0.905211 0.590341 0.000549325
0.919005 0.591485 0.000259403
0.931563 0.593149 3.0518e-05
0.939208 0.594507 1.5259e-05
0.947127 0.596353 1.5259e-05
0.954986 0.597894 0
0 0.386633 0.0992752
0.000289921 0.393332 0.0956588
0.000823987 0.400656 0.0912184
0.00125124 0.408072 0.0872511
0.00724804 0.4168 0.0819104
0.0162203 0.426566 0.075761
0.0242313 0.436286 0.06981
0.0591135 0.447883 0.0618448
0.107286 0.460472 0.0525521
0.153216 0.472969 0.0432441
0.209247 0.486397 0.0356451
0.272419 0.500237 0.0290074
0.335424 0.514031 0.0217136
0.394553 0.527382 0.0167086
0.451759 0.540475 0.0130007
0.509239 0.553475 0.00907912
0.562188 0.565301 0.00633249
0.609674 0.575265 0.00560006
0.658381 0.585565 0.00485237
0.702403 0.594171 0.00408942
0.739071 0.600351 0.00344854
0.775708 0.60679 0.00276188
0.81091 0.612985 0.00207523
0.836011 0.616724 0.00164797
0.861189 0.62031 0.00120546
0.886717 0.624063 0.000762951
0.902464 0.625879 0.000518807
0.91751 0.627695 0.00030518
0.93312 0.630014 9.15541e-05
0.943893 0.631861 1.5259e-05
0.952331 0.633722 1.5259e-05
0.961181 0.636042 0
0.968292 0.638392 0.000198367
0 0.405097 0.0966964
0.000122072 0.412268 0.0930648
0.000183108 0.419715 0.0895857
0.000183108 0.426963 0.0864271
0.00534066 0.436973 0.0800488
0.00961318 0.446693 0.0736095
0.0157778 0.456611 0.0671092
0.0572671 0.469535 0.0572671
0.0963149 0.482338 0.0480049
0.135195 0.495232 0.039292
0.201495 0.509834 0.032929
0.268376 0.524498 0.0261234
0.334997 0.539239 0.018555
0.39469 0.553216 0.0153048
0.453803 0.567452 0.0116732
0.514382 0.581857 0.00741588
0.565499 0.593576 0.00608835
0.617151 0.605173 0.00488289
0.668742 0.617273 0.00340276
0.710124 0.62594 0.00259403
0.74905 0.633753 0.00204471
0.78793 0.641794 0.00149538
0.820142 0.647776 0.00109865
0.846906 0.65214 0.000793469
0.874052 0.656672 0.000503548
0.897841 0.660609 0.000289921
0.914336 0.663096 0.000167849
0.931136 0.665721 7.62951e-05
0.947448 0.668452 0
0.956603 0.670619 0.000137331
0.965957 0.673274 0.000244144
0.97554 0.675639 0.000228885
0.980911 0.678264 0.000198367
0 0.423575 0.093431
0 0.430854 0.0891585
0 0.438132 0.0848249
0.00122072 0.446418 0.0798505
0.00395209 0.456046 0.0742657
0.00624094 0.465797 0.0691234
0.0218814 0.47689 0.0626841
0.0523079 0.490135 0.0547646
0.0802014 0.503243 0.0470283
0.12694 0.517464 0.0396429
0.197589 0.532906 0.0324254
0.268208 0.548257 0.0248264
0.336034 0.563989 0.018616
0.396841 0.579278 0.0147555
0.458762 0.594965 0.0104829
0.517769 0.610071 0.00688182
0.57232 0.623255 0.00505074
0.626673 0.636866 0.00294499
0.679316 0.649989 0.000839246
0.719646 0.658763 0.000518807
0.760784 0.668147 0.000244144
0.801831 0.677745 3.0518e-05
0.830076 0.682353 0
0.858747 0.687022 0
0.88751 0.691691 0
0.908003 0.695003 0
0.92549 0.697749 0.000137331
0.943679 0.70106 0.000244144
0.957504 0.703639 0.000335698
0.966735 0.705638 0.000381476
0.975937 0.707729 0.000411994
0.984192 0.709895 0.000411994
0.987533 0.712093 0.000381476
0 0.441428 0.0889754
0 0.448829 0.0838178
0 0.456153 0.0787976
0.000869764 0.465278 0.0742504
0.00169375 0.474784 0.0703441
0.00218204 0.484337 0.0662699
0.0199435 0.497139 0.0598611
0.0386511 0.510704 0.0523232
0.0547341 0.524132 0.0448157
0.12079 0.539971 0.0374914
0.197314 0.556527 0.0297704
0.272007 0.572519 0.0218967
0.336248 0.588632 0.0171206
0.399451 0.604944 0.0128328
0.462898 0.621378 0.00827039
0.521721 0.635966 0.0053254
0.578317 0.649973 0.00315862
0.634333 0.664225 0.000976577
0.682826 0.675746 3.0518e-05
0.725185 0.685588 1.5259e-05
0.768688 0.695842 0
0.80708 0.704219 0
0.837339 0.710231 0
0.867872 0.716442 0.000213626
0.897078 0.722499 0.000244144
0.916503 0.726284 0.000320439
0.936355 0.730312 0.000411994
0.956374 0.734569 0.000503548
0.966873 0.737087 0.000549325
0.976394 0.739437 0.000595102
0.985931 0.741894 0.000640879
0.991424 0.743999 0.00062562
0.994018 0.7458 0.000549325
0 0.459052 0.0847791
0 0.466209 0.0799878
1.5259e-05 0.473716 0.0758068
9.15541e-05 0.483024 0.0724804
0.000167849 0.492287 0.0691081
0.00384527 0.502495 0.0648051
0.0180667 0.51574 0.057847
0.0314183 0.52903 0.050248
0.0588388 0.542855 0.0427253
0.126925 0.559121 0.0347906
0.193072 0.575372 0.0262913
0.258549 0.591836 0.0182956
0.328008 0.608972 0.0137789
0.397879 0.626062 0.00895705
0.468238 0.643198 0.00419623
0.524941 0.658213 0.00270085
0.582788 0.673426 0.00132753
0.640208 0.688685 6.10361e-05
0.685985 0.700206 3.0518e-05
0.731594 0.711589 0.000244144
0.777569 0.723476 0.000411994
0.813077 0.731868 0.000396735
0.846082 0.739254 0.000350958
0.879133 0.747158 0.000213626
0.905638 0.753445 0.000167849
0.927184 0.758495 0.000274662
0.948791 0.763439 0.000442512
0.966781 0.767407 0.000595102
0.976043 0.768795 0.000671397
0.985382 0.770245 0.000732433
0.994598 0.77174 0.000793469
0.996139 0.772076 0.000671397
0.99765 0.772412 0.000549325
0 0.474418 0.0837568
0 0.481666 0.079881
6.10361e-05 0.490105 0.0761883
0.00015259 0.499352 0.072282
0.000259403 0.508492 0.0682383
0.0075227 0.520119 0.0622568
0.0183413 0.53315 0.055314
0.0285496 0.546227 0.0479438
0.0706493 0.561502 0.0398108
0.126955 0.577966 0.0305791
0.180926 0.594415 0.0209049
0.247532 0.611734 0.0141146
0.324559 0.629831 0.00901808
0.402884 0.648051 0.00358587
0.470924 0.665095 0.000610361
0.529824 0.681331 0.000198367
0.588083 0.69749 0.000854505
0.642756 0.711833 0.000946059
0.691478 0.72398 0.000946059
0.73991 0.736202 0.000717174
0.785809 0.747814 0.000320439
0.820554 0.755489 0.000289921
0.855283 0.7635 0.000198367
0.890394 0.771725 7.62951e-05
0.913329 0.776318 0.000183108
0.936248 0.781186 0.000320439
0.959136 0.786145 0.000442512
0.972229 0.788693 0.000503548
0.98146 0.790082 0.000534066
0.99086 0.79176 0.000549325
0.996704 0.792889 0.000503548
0.997818 0.793149 0.000411994
0.998856 0.793393 0.00030518
0 0.489723 0.0833906
0 0.496986 0.0799725
0.000122072 0.506142 0.0750744
0.000244144 0.515404 0.0700694
0.000671397 0.524697 0.0647593
0.00932326 0.537194 0.0585794
0.0176089 0.549538 0.05243
0.027985 0.56199 0.045655
0.0767834 0.578012 0.0361486
0.125582 0.594079 0.0258488
0.172778 0.609796 0.0154116
0.253483 0.628031 0.0106661
0.332494 0.646204 0.00680552
0.409842 0.664195 0.00335698
0.472114 0.680766 0.00350958
