LUT预设1/iPhone 专用lut-合集2/Apple 专用（709）/cinematic709.cube
TITLE "Generated by Resolve"
LUT_3D_SIZE 5
0.0327306 0.0486305 0.0547799
0.106783 0.0643168 0.0590829
0.367315 0.0588083 0.0147707
0.635554 0.00271611 0.00381476
0.714641 0.00335698 0.00335698
0.00708019 0.134508 0.08542
0.170108 0.176196 0.0800336
0.529305 0.216754 0.022034
0.733043 0.200992 0.0065919
0.790326 0.185473 0.00544747
0 0.32723 0.102983
0.115389 0.393118 0.066743
0.555032 0.471427 0.00895705
0.82208 0.501732 0.000915541
0.920226 0.510353 0.00202945
0 0.474418 0.0837568
0.0706493 0.561502 0.0398108
0.588083 0.69749 0.000854505
0.913329 0.776318 0.000183108
0.998856 0.793393 0.00030518
0 0.552789 0.126055
0.0980697 0.642222 0.0776532
0.637018 0.778714 0.00953689
0.940612 0.855985 0.00610361
0.999435 0.864439 0.000869764
0.0148165 0.0503395 0.130083
0.111131 0.0647746 0.151476
0.38291 0.0328374 0.167437
0.648203 0.00155642 0.167544
0.724224 0 0.158907
0.00173953 0.158007 0.221805
0.144183 0.204135 0.246555
0.53463 0.232532 0.253758
0.730816 0.197543 0.22678
0.789227 0.177295 0.209201
0 0.365362 0.271153
0.0790875 0.428351 0.276921
0.539818 0.494057 0.257877
0.809339 0.51194 0.231571
0.906096 0.516686 0.216602
0 0.515312 0.284367
0.0441596 0.598703 0.287663
0.557 0.713878 0.252445
0.882155 0.775937 0.223468
0.987381 0.797543 0.211398
0 0.595666 0.355825
0.0602121 0.681788 0.363851
0.602213 0.80061 0.34992
0.907912 0.862028 0.335576
0.995453 0.8766 0.333028
0.00205997 0.00935378 0.305623
0.110521 0.0162051 0.350301
0.407355 0.00581369 0.398932
0.668818 0.000823987 0.415534
0.744152 0 0.3953
3.0518e-05 0.158801 0.430182
0.118486 0.222339 0.484886
0.530877 0.246311 0.510628
0.734249 0.212497 0.482719
0.800763 0.190143 0.459907
0 0.399969 0.501045
0.0484016 0.46482 0.519905
0.516182 0.530571 0.530556
0.806577 0.548409 0.530556
0.907469 0.554498 0.53373
0 0.565377 0.526619
0.0229038 0.648234 0.550088
0.521508 0.758816 0.567254
0.865675 0.81886 0.577859
0.976303 0.839445 0.587213
0 0.640742 0.591363
0.0174563 0.726177 0.614862
0.565286 0.840803 0.633417
0.887358 0.900038 0.643793
0.988403 0.917357 0.652415
1.5259e-05 0 0.464851
0.0922255 3.0518e-05 0.50634
0.423774 0.00323491 0.565423
0.682307 1.5259e-05 0.585489
0.762051 0 0.571603
0 0.141146 0.56289
0.104433 0.224063 0.620264
0.510323 0.248066 0.655177
0.731319 0.210941 0.646586
0.808408 0.172091 0.635996
0 0.408011 0.653651
0.0108492 0.477287 0.677073
0.463096 0.543664 0.700908
0.800793 0.566537 0.720302
0.907088 0.575769 0.727962
0 0.592309 0.7019
0.00138857 0.673899 0.728405
0.472633 0.782712 0.752194
0.852003 0.843259 0.775433
0.96817 0.864805 0.787808
0 0.664088 0.744854
0.000885023 0.748837 0.769009
0.53019 0.860533 0.791318
0.873259 0.919951 0.810239
0.980926 0.937972 0.8206
0 1.5259e-05 0.542611
0.0798962 0.0589303 0.579736
0.429023 0.0745861 0.638285
0.683299 0.0103151 0.658808
0.772259 0.000198367 0.656519
0 0.18674 0.625055
0.0805676 0.269062 0.66952
0.48983 0.291127 0.707622
0.730983 0.246571 0.716808
0.81825 0.221592 0.71603
0 0.413993 0.710506
0.00296025 0.480354 0.735988
0.418235 0.553109 0.770443
0.797208 0.578973 0.798138
0.908339 0.592554 0.805936
0 0.60148 0.772473
1.5259e-05 0.681193 0.796948
0.404654 0.788846 0.819425
0.838682 0.851743 0.848707
0.964843 0.872511 0.857755
0 0.671901 0.798337
0 0.755566 0.819669
0.510628 0.865507 0.842863
0.867918 0.925841 0.865705
0.976806 0.94287 0.872236
