LUT预设1/iPhone 专用lut-合集2/Apple 专用（709）/N-CINE1复古暖调709.cube
TITLE "Generated by Resolve"
LUT_3D_SIZE 5
0.0400702 0.0786908 0.0616464
0.138643 0.0891127 0.047364
0.316533 0.0962081 0.0204471
0.541604 0.0921187 0.00874342
0.720272 0.0824903 0.00602731
0.0417945 0.159854 0.0793317
0.22594 0.19266 0.0535439
0.478492 0.224613 0.0274052
0.701411 0.251804 0.0184329
0.853407 0.282368 0.0174868
0.0386358 0.361868 0.0923018
0.310964 0.418601 0.0416724
0.619486 0.476524 0.0245823
0.8168 0.522911 0.0223239
0.945159 0.557885 0.0248875
0.0840162 0.605051 0.127459
0.456107 0.658076 0.0669413
0.728267 0.697795 0.0537423
0.889357 0.726818 0.0600595
0.989639 0.747341 0.0718547
0.127977 0.737499 0.201572
0.537148 0.786221 0.146731
0.775601 0.82472 0.15584
0.925383 0.853895 0.186206
0.997208 0.871138 0.228138
0.029984 0.0850538 0.114916
0.139498 0.0951553 0.116777
0.332586 0.103151 0.111894
0.561166 0.0957961 0.107118
0.738125 0.0814527 0.125093
0.0253758 0.182315 0.184665
0.221653 0.212268 0.183322
0.485588 0.243076 0.179522
0.70779 0.270832 0.190204
0.8551 0.304936 0.219974
0.0236362 0.411017 0.277089
0.284489 0.456825 0.246448
0.606531 0.510109 0.241505
0.802777 0.557198 0.261769
0.928588 0.589273 0.285283
0.0463722 0.659083 0.395102
0.402777 0.695888 0.349493
0.695201 0.733196 0.346746
0.855161 0.760006 0.36466
0.967453 0.781109 0.389136
0.0822614 0.784955 0.485588
0.487541 0.824063 0.447135
0.737148 0.861662 0.465568
0.890303 0.888258 0.49575
0.98323 0.903624 0.52137
0.0146334 0.101091 0.229557
0.129259 0.102495 0.250858
0.343328 0.108827 0.273014
0.574701 0.100923 0.299611
0.749111 0.0919203 0.343832
0.0125887 0.224994 0.364569
0.199557 0.236988 0.380255
0.484627 0.26807 0.402182
0.707347 0.296315 0.433143
0.850004 0.331853 0.470665
0.0105745 0.474601 0.507256
0.24445 0.502312 0.492485
0.585306 0.548119 0.501396
0.781781 0.591546 0.522225
0.909743 0.621256 0.540948
0.0169375 0.710216 0.630686
0.356497 0.732372 0.58938
0.66331 0.76492 0.585412
0.830579 0.791684 0.599283
0.948058 0.812726 0.614023
0.0631266 0.823423 0.693584
0.4477 0.856641 0.656794
0.710689 0.891005 0.668086
0.869413 0.913985 0.685191
0.967941 0.929046 0.703044
0.00480659 0.14789 0.40174
0.118929 0.110613 0.430426
0.354116 0.109102 0.46746
0.587671 0.100832 0.504646
0.758999 0.0962387 0.553048
0.0059205 0.281849 0.553643
0.179019 0.264103 0.575418
0.488594 0.292088 0.601816
0.708186 0.321187 0.630335
0.85069 0.358038 0.662791
0.00593576 0.531456 0.687724
0.206424 0.540352 0.681407
0.572534 0.580819 0.685374
0.769726 0.620554 0.699901
0.899336 0.64564 0.71075
0.014023 0.742138 0.78294
0.327764 0.758511 0.750362
0.642924 0.788037 0.743816
0.817655 0.815656 0.755261
0.934966 0.835569 0.765774
0.0426947 0.851453 0.83003
0.423835 0.88246 0.804456
0.693523 0.913252 0.81207
0.855772 0.933883 0.824521
0.954604 0.948135 0.839734
0.00296025 0.211627 0.54902
0.116487 0.117906 0.586282
0.370871 0.10309 0.628687
0.606806 0.0989853 0.664988
0.775647 0.0967117 0.706615
0.00520333 0.325261 0.683772
0.172488 0.288991 0.719234
0.498314 0.31162 0.745449
0.71519 0.344152 0.771206
0.85449 0.382788 0.798108
0.00360113 0.56556 0.800855
0.201053 0.569757 0.815106
0.568704 0.607446 0.819165
0.763149 0.642161 0.832181
0.89131 0.663584 0.841123
0.0152895 0.762539 0.88629
0.302419 0.779355 0.874174
0.627131 0.808255 0.87158
0.805783 0.834195 0.882094
0.922438 0.853071 0.889662
0.0276341 0.870954 0.933989
0.401083 0.902739 0.921309
0.680568 0.929625 0.922728
0.846052 0.949233 0.928908
0.943801 0.961791 0.936584
