LUT预设1/iPhone 专用lut-合集2/Apple 专用（709）/N-CINE1复古暖调709.cube
TITLE "Generated by Resolve"
LUT_3D_SIZE 9
0.0400702 0.0786908 0.0616464
0.0813001 0.0833753 0.0566415
0.138643 0.0891127 0.047364
0.216464 0.0939193 0.0345464
0.316533 0.0962081 0.0204471
0.428687 0.0961471 0.0116426
0.541604 0.0921187 0.00874342
0.638743 0.0868849 0.00665293
0.720272 0.0824903 0.00602731
0.0441596 0.109133 0.0707408
0.100832 0.118166 0.0629282
0.181491 0.128893 0.0524453
0.282445 0.13962 0.0389563
0.399268 0.147723 0.0252995
0.5205 0.152285 0.0174563
0.629587 0.155947 0.0140688
0.718776 0.160739 0.0128023
0.792889 0.165637 0.0133822
0.0417945 0.159854 0.0793317
0.119203 0.174899 0.0677501
0.22594 0.19266 0.0535439
0.34934 0.210025 0.0393225
0.478492 0.224613 0.0274052
0.600626 0.238117 0.0200809
0.701411 0.251804 0.0184329
0.7841 0.266468 0.0166629
0.853407 0.282368 0.0174868
0.0383154 0.24416 0.0862745
0.130831 0.265553 0.0660105
0.264408 0.289952 0.0477607
0.410224 0.315038 0.0350195
0.549233 0.338094 0.0251011
0.667506 0.358602 0.018265
0.7626 0.379965 0.0198215
0.839811 0.402625 0.0229648
0.903899 0.423148 0.0244907
0.0386358 0.361868 0.0923018
0.146029 0.387762 0.0618448
0.310964 0.418601 0.0416724
0.477363 0.44889 0.0303349
0.619486 0.476524 0.0245823
0.730007 0.50045 0.0221866
0.8168 0.522911 0.0223239
0.887541 0.543038 0.0243992
0.945159 0.557885 0.0248875
0.0511177 0.493141 0.105196
0.187671 0.52076 0.0657206
0.382437 0.552239 0.0432288
0.552895 0.581048 0.0364385
0.68304 0.60354 0.0306554
0.782116 0.622873 0.0278172
0.859739 0.639658 0.0273136
0.924086 0.653025 0.0374609
0.974121 0.662181 0.043122
0.0840162 0.605051 0.127459
0.257786 0.631968 0.0893721
0.456107 0.658076 0.0669413
0.612802 0.679622 0.0507973
0.728267 0.697795 0.0537423
0.816831 0.713771 0.0593576
0.889357 0.726818 0.0600595
0.949416 0.737743 0.0622721
0.989639 0.747341 0.0718547
0.112291 0.683131 0.162387
0.305715 0.706645 0.123186
0.504067 0.730419 0.10071
0.647868 0.750591 0.0913558
0.754986 0.768261 0.0930495
0.838056 0.783825 0.0980545
0.909621 0.797528 0.102678
0.965438 0.808988 0.114733
0.995361 0.818677 0.135271
0.127977 0.737499 0.201572
0.337911 0.761593 0.163195
0.537148 0.786221 0.146731
0.672969 0.806729 0.147021
0.775601 0.82472 0.15584
0.856825 0.840665 0.170336
0.925383 0.853895 0.186206
0.976257 0.863264 0.206027
0.997208 0.871138 0.228138
0.0358892 0.0813764 0.0832074
0.078294 0.086305 0.0808728
0.140261 0.0920577 0.0757153
0.222293 0.096849 0.0679484
0.325216 0.0993973 0.0562448
0.439002 0.0984207 0.045182
0.552209 0.0927291 0.0413062
0.649393 0.0845045 0.0396124
0.730999 0.0777752 0.0405432
0.0376745 0.114626 0.101793
0.0963912 0.123827 0.0987716
0.182895 0.134691 0.0935225
0.288975 0.145434 0.0850843
0.408667 0.15317 0.0742046
0.530053 0.157366 0.0645762
0.637293 0.160189 0.0605173
0.72549 0.16379 0.0635538
0.799191 0.168902 0.0698863
0.0346838 0.169451 0.123796
0.113848 0.18468 0.117678
0.225879 0.201892 0.108034
0.353964 0.218784 0.0973373
0.484108 0.233234 0.0874037
0.605631 0.246342 0.0789654
0.705791 0.259663 0.0746166
0.787182 0.274998 0.0806897
0.856016 0.292073 0.0935073
0.030869 0.260243 0.146685
0.120226 0.280156 0.132082
0.25803 0.303304 0.116487
0.408896 0.327382 0.101793
0.549187 0.349737 0.0920882
0.668193 0.370764 0.0895399
0.763058 0.393027 0.0939193
0.839887 0.41593 0.104646
0.902724 0.436362 0.114931
0.0316167 0.3841 0.1729
0.132342 0.407584 0.146639
0.300023 0.43592 0.126131
0.471015 0.464637 0.111009
0.614984 0.4916 0.106538
0.725719 0.515663 0.11043
0.811673 0.538857 0.117403
0.881941 0.558282 0.126421
0.938537 0.572396 0.135821
0.0418097 0.518013 0.210483
0.170977 0.542535 0.176318
0.364965 0.57145 0.15671
0.54049 0.597604 0.145571
0.672389 0.619501 0.143053
0.77142 0.638834 0.148531
0.847944 0.655711 0.156634
0.912245 0.667887 0.164126
0.964111 0.676799 0.172595
0.0649577 0.630564 0.258488
0.228473 0.652918 0.223545
0.430625 0.675929 0.203937
0.595529 0.697154 0.192676
0.712291 0.714672 0.192569
0.800534 0.729885 0.198505
0.872496 0.742596 0.206043
0.933135 0.753216 0.216327
0.979843 0.762997 0.229206
0.0845655 0.707469 0.304692
0.267445 0.72697 0.267796
0.478355 0.748638 0.248478
0.627054 0.768948 0.242451
0.735546 0.786145 0.246586
0.819562 0.801373 0.257877
0.891218 0.814679 0.271763
0.949004 0.826383 0.288945
0.98819 0.836164 0.307317
0.0971084 0.761593 0.349279
0.300465 0.782071 0.315145
0.511513 0.804623 0.302083
0.651118 0.825299 0.307668
0.755261 0.843381 0.323354
0.837705 0.859052 0.341665
0.90663 0.871748 0.358343
0.96144 0.880659 0.37525
0.991272 0.88809 0.394324
0.029984 0.0850538 0.114916
0.0719158 0.0894484 0.116869
0.139498 0.0951553 0.116777
0.226627 0.100191 0.115526
0.332586 0.103151 0.111894
0.448203 0.10193 0.108064
0.561166 0.0957961 0.107118
0.657908 0.0874037 0.112886
0.738125 0.0814527 0.125093
0.0298009 0.121874 0.147127
0.0895857 0.130449 0.149569
0.181506 0.141283 0.150576
0.293141 0.151812 0.149096
0.415183 0.159167 0.147173
0.536858 0.163088 0.146624
0.64332 0.166384 0.149813
0.730434 0.170764 0.160983
0.80322 0.176867 0.17818
0.0253758 0.182315 0.184665
0.10547 0.196033 0.18471
0.221653 0.212268 0.183322
0.354376 0.228382 0.180957
0.485588 0.243076 0.179522
0.607263 0.256596 0.181628
0.70779 0.270832 0.190204
0.787717 0.287465 0.203647
0.8551 0.304936 0.219974
0.0224308 0.28011 0.227146
0.107286 0.2972 0.219898
0.248157 0.319097 0.213413
0.403174 0.342565 0.208042
0.545769 0.364675 0.206516
0.66566 0.386435 0.213077
0.75967 0.410147 0.22501
0.835142 0.433295 0.238331
0.897231 0.453498 0.25182
0.0236362 0.411017 0.277089
0.115343 0.430289 0.258564
0.284489 0.456825 0.246448
0.459541 0.484245 0.240711
0.606531 0.510109 0.241505
0.717998 0.534157 0.250111
0.802777 0.557198 0.261769
0.872053 0.576364 0.27396
0.928588 0.589273 0.285283
0.0312505 0.546929 0.334737
0.148791 0.567391 0.308751
0.341161 0.59321 0.294774
0.5243 0.617563 0.290181
0.65919 0.638285 0.292622
0.757992 0.65684 0.299809
0.833494 0.67277 0.309865
0.897673 0.684611 0.320531
0.950835 0.693675 0.332876
0.0463722 0.659083 0.395102
0.193576 0.676005 0.365393
0.402777 0.695888 0.349493
0.576135 0.716121 0.343771
0.695201 0.733196 0.346746
0.78294 0.747448 0.355093
0.855161 0.760006 0.36466
0.916259 0.770718 0.376272
0.967453 0.781109 0.389136
0.0596323 0.732784 0.443259
0.232898 0.748562 0.412421
0.450752 0.768109 0.396414
0.606622 0.787869 0.392859
0.71667 0.804746 0.399329
0.801328 0.819913 0.413153
0.873701 0.833036 0.426444
0.933608 0.84445 0.437751
0.977386 0.853788 0.451682
0.0822614 0.784955 0.485588
0.27155 0.80296 0.456397
0.487541 0.824063 0.447135
0.63093 0.844266 0.452354
0.737148 0.861662 0.465568
0.820737 0.8766 0.481041
0.890303 0.888258 0.49575
0.947234 0.896422 0.507774
0.98323 0.903624 0.52137
0.0222934 0.0901808 0.161486
0.0630503 0.0932784 0.16846
0.13579 0.0986496 0.174365
0.228794 0.103716 0.179492
0.338628 0.106523 0.184039
0.455955 0.105104 0.189899
0.568627 0.0989548 0.198108
0.664576 0.0916152 0.211597
0.744167 0.0870832 0.232212
0.022385 0.132052 0.210941
0.0798505 0.138415 0.218601
0.176699 0.148257 0.226215
0.293339 0.157809 0.232715
0.41828 0.164889 0.238865
0.540917 0.169635 0.246906
0.647242 0.173434 0.258564
0.734401 0.179049 0.27657
0.806424 0.185916 0.299001
0.0182193 0.200015 0.267369
0.0926528 0.209689 0.271458
0.212146 0.223926 0.277287
0.349905 0.239902 0.282979
0.484901 0.254917 0.288853
0.607813 0.268589 0.298589
0.708217 0.283238 0.313451
0.787137 0.300725 0.330785
0.852644 0.318517 0.349737
0.0160525 0.306416 0.328328
0.0942702 0.317372 0.324163
0.235279 0.337774 0.323796
0.395666 0.360342 0.326101
0.541238 0.381964 0.331991
0.661051 0.403586 0.343435
0.754818 0.427192 0.358007
0.829236 0.450477 0.373541
0.890394 0.471397 0.389395
0.0162509 0.441901 0.392752
0.097612 0.455863 0.378317
0.266331 0.4795 0.372152
0.446387 0.505486 0.372381
0.596109 0.529717 0.378866
0.70782 0.552956 0.390036
0.791989 0.574823 0.402335
0.861128 0.593713 0.414359
0.917876 0.606455 0.426337
0.0216068 0.578088 0.46099
0.121675 0.594064 0.440024
0.313863 0.615381 0.429923
0.506874 0.636912 0.427466
0.643442 0.656474 0.431373
0.743389 0.674296 0.438788
0.818998 0.689296 0.449622
0.884184 0.701091 0.458305
0.93846 0.710216 0.467658
0.0266575 0.686931 0.52256
0.16112 0.698924 0.495415
0.376379 0.715602 0.481987
0.556451 0.733883 0.476799
0.678737 0.750164 0.478523
0.766796 0.764157 0.485496
0.84033 0.776883 0.496025
0.903532 0.7879 0.504768
0.956542 0.798032 0.51368
0.0463874 0.755688 0.565576
0.210437 0.768765 0.535973
0.425238 0.786465 0.52047
0.586999 0.805005 0.518288
0.700038 0.821469 0.523796
0.786801 0.836255 0.534463
0.860838 0.849683 0.545388
0.921935 0.860197 0.555062
0.967712 0.869078 0.565072
0.0726635 0.805661 0.600458
0.248386 0.822019 0.572839
0.465202 0.841672 0.562524
0.614176 0.861036 0.568002
0.721706 0.877623 0.578241
0.807279 0.891539 0.589807
0.87805 0.902144 0.600793
0.936019 0.910246 0.611643
0.97557 0.91722 0.621866
0.0146334 0.101091 0.229557
0.0516518 0.0995804 0.239658
0.129259 0.102495 0.250858
0.229084 0.106569 0.262135
0.343328 0.108827 0.273014
0.462486 0.107103 0.284947
0.574701 0.100923 0.299611
0.669841 0.0947127 0.318959
0.749111 0.0919203 0.343832
0.014786 0.149813 0.296269
0.0688945 0.149691 0.305867
0.168383 0.155566 0.317266
0.291981 0.16405 0.32958
0.420706 0.171054 0.34165
0.543984 0.176761 0.354833
0.650141 0.181338 0.371435
0.736843 0.187961 0.393164
0.807965 0.196033 0.417121
0.0125887 0.224994 0.364569
0.076524 0.226734 0.371359
0.199557 0.236988 0.380255
0.345296 0.252964 0.390829
0.484627 0.26807 0.402182
0.608133 0.281727 0.415778
0.707347 0.296315 0.433143
0.785611 0.314107 0.451957
0.850004 0.331853 0.470665
0.0120089 0.337346 0.436164
0.0775311 0.341192 0.434272
0.2206 0.357534 0.437415
0.388205 0.378897 0.444358
0.537346 0.399817 0.45417
0.656062 0.420951 0.466361
0.749172 0.443473 0.481712
0.823606 0.466987 0.495705
0.884611 0.487984 0.509911
0.0105745 0.474601 0.507256
0.0796063 0.482689 0.495766
0.24445 0.502312 0.492485
0.432364 0.525856 0.495262
0.585306 0.548119 0.501396
0.697063 0.570214 0.510033
0.781781 0.591546 0.522225
0.851896 0.609308 0.532464
0.909743 0.621256 0.540948
0.0124361 0.60853 0.576791
0.0957198 0.619165 0.557214
0.29073 0.635447 0.546654
0.490013 0.65478 0.544442
0.628733 0.67306 0.54612
0.730404 0.68986 0.551461
0.807568 0.704509 0.561212
0.874449 0.715862 0.56994
0.930144 0.724743 0.575479
0.0169375 0.710216 0.630686
0.145754 0.718471 0.604608
0.356497 0.732372 0.58938
0.538705 0.749584 0.584085
0.66331 0.76492 0.585412
0.754208 0.778714 0.591257
0.830579 0.791684 0.599283
0.895338 0.80293 0.607004
0.948058 0.812726 0.614023
0.0418708 0.774884 0.665843
0.192813 0.785992 0.63769
0.403449 0.802289 0.621256
0.570306 0.819608 0.618189
0.686976 0.83592 0.623728
0.775631 0.850599 0.631479
0.851606 0.863508 0.63949
0.913802 0.873411 0.647135
0.959915 0.882185 0.655573
0.0631266 0.823423 0.693584
0.228855 0.838651 0.668147
0.4477 0.856641 0.656794
0.601602 0.874922 0.659785
0.710689 0.891005 0.668086
0.79733 0.903685 0.676936
0.869413 0.913985 0.685191
0.927672 0.921904 0.693706
0.967941 0.929046 0.703044
0.00886549 0.120745 0.312779
0.0420233 0.109743 0.325154
0.123369 0.106416 0.339025
0.229282 0.108461 0.354147
0.348394 0.10988 0.369924
0.469398 0.107317 0.386908
0.580423 0.101656 0.405356
0.674525 0.0970321 0.42742
0.753017 0.0950637 0.453925
0.00950637 0.174868 0.389532
0.0590829 0.164233 0.400885
0.159609 0.163653 0.414725
0.290745 0.170565 0.430655
0.423972 0.177813 0.445762
0.547814 0.183932 0.461616
0.65301 0.188998 0.480751
0.73875 0.196506 0.50312
0.809796 0.205402 0.525185
0.00784314 0.254078 0.464668
0.0652934 0.245686 0.472343
0.18735 0.250538 0.483146
0.341283 0.266026 0.496681
0.485725 0.281056 0.509758
0.609003 0.294499 0.523537
0.706752 0.309239 0.540185
0.784863 0.327184 0.558648
0.849363 0.345327 0.575143
0.00859083 0.3691 0.539025
0.0638743 0.365957 0.53843
0.205585 0.376547 0.542382
0.380652 0.396078 0.550805
0.534066 0.416495 0.561135
0.652827 0.437125 0.57116
0.745159 0.459251 0.58439
0.820081 0.482856 0.598779
0.881102 0.502129 0.610208
0.00810254 0.505745 0.60798
0.0598459 0.508278 0.599847
0.22182 0.522759 0.595682
0.421561 0.543801 0.597314
0.576944 0.565072 0.603326
0.688975 0.586465 0.609705
0.77409 0.607202 0.619287
0.845335 0.623041 0.62829
0.903838 0.634394 0.634882
0.00643931 0.634119 0.671077
0.0809491 0.639872 0.654521
0.276097 0.652598 0.64271
0.476967 0.670008 0.638544
0.617411 0.687678 0.639811
0.72018 0.703487 0.644617
0.799634 0.717922 0.65156
0.868009 0.728847 0.657603
0.924254 0.73753 0.662104
0.0147097 0.728313 0.715862
0.136217 0.734661 0.694011
0.340749 0.746517 0.678004
0.524895 0.762463 0.670924
0.651759 0.777127 0.671321
0.745266 0.791394 0.677119
0.823682 0.804425 0.683131
0.889067 0.815702 0.68893
0.941421 0.82504 0.694026
0.0373388 0.790372 0.744274
0.177356 0.800809 0.719783
0.38703 0.8159 0.703685
0.557748 0.832227 0.699519
0.677089 0.848234 0.703456
0.767178 0.863157 0.710124
0.844327 0.87538 0.717418
0.906996 0.885069 0.723812
0.952941 0.893568 0.731258
0.0532845 0.83856 0.767361
0.213153 0.853315 0.744564
0.435172 0.869886 0.735088
0.591745 0.887266 0.736828
0.701885 0.9028 0.74342
0.789227 0.91458 0.750683
0.861906 0.924392 0.757977
0.920607 0.93228 0.766033
0.96112 0.939239 0.774609
0.00480659 0.14789 0.40174
0.0362554 0.123033 0.414618
0.118929 0.110613 0.430426
0.230426 0.108843 0.448493
0.354116 0.109102 0.46746
0.477409 0.105791 0.485603
0.587671 0.100832 0.504646
0.680232 0.0978714 0.527489
0.758999 0.0962387 0.553048
0.00598154 0.20441 0.481071
0.0498054 0.180194 0.493263
0.151537 0.171664 0.508171
0.290929 0.176379 0.525338
0.429206 0.183749 0.542336
0.554101 0.189761 0.557626
0.657679 0.195361 0.575448
0.742596 0.203601 0.596765
0.813138 0.213474 0.617624
0.0059205 0.281849 0.553643
0.0593729 0.263828 0.563699
0.179019 0.264103 0.575418
0.339757 0.277409 0.58851
0.488594 0.292088 0.601816
0.611521 0.30576 0.61561
0.708186 0.321187 0.630335
0.786313 0.339529 0.646784
0.85069 0.358038 0.662791
0.00680552 0.397284 0.622721
0.0562448 0.389212 0.627802
0.192874 0.393698 0.632227
0.374823 0.41117 0.639429
0.533104 0.431968 0.64863
0.651453 0.45243 0.659159
0.743511 0.474983 0.670604
0.818601 0.498024 0.68278
0.879072 0.515099 0.692134
0.00593576 0.531456 0.687724
0.0480659 0.530587 0.685313
0.206424 0.540352 0.681407
0.415122 0.559396 0.681483
0.572534 0.580819 0.685374
0.684611 0.60177 0.691829
0.769726 0.620554 0.699901
0.841001 0.635126 0.706554
0.899336 0.64564 0.71075
0.00576791 0.653162 0.743786
0.0758221 0.656138 0.73228
0.266499 0.66688 0.721889
0.468071 0.683253 0.716243
0.610391 0.700481 0.716289
0.713359 0.71545 0.720623
0.794141 0.729168 0.726787
0.862684 0.739681 0.73106
0.91902 0.748028 0.7346
0.014023 0.742138 0.78294
0.127565 0.747646 0.764691
0.327764 0.758511 0.750362
0.513939 0.773297 0.743343
0.642924 0.788037 0.743816
0.737896 0.802228 0.749142
0.817655 0.815656 0.755261
0.883085 0.826383 0.760784
0.934966 0.835569 0.765774
0.0319829 0.803311 0.807813
0.161608 0.813718 0.787533
0.374014 0.827863 0.773648
0.547616 0.843992 0.770535
0.668116 0.8598 0.774197
0.759793 0.874311 0.780545
0.837369 0.885832 0.78732
0.900191 0.895506 0.794171
0.945647 0.904067 0.800885
0.0426947 0.851453 0.83003
0.19794 0.866163 0.812467
0.423835 0.88246 0.804456
0.582666 0.899168 0.806378
0.693523 0.913252 0.81207
0.782467 0.924773 0.81767
0.855772 0.933883 0.824521
0.914382 0.941924 0.832044
0.954604 0.948135 0.839734
0.00344854 0.179309 0.482353
0.0347295 0.13901 0.496895
0.11696 0.114183 0.514336
0.232959 0.107271 0.5337
0.361822 0.106355 0.553765
0.487388 0.103258 0.572961
0.59678 0.0995651 0.591134
0.688594 0.098146 0.612711
0.767178 0.0962692 0.637232
0.00334173 0.233143 0.557107
0.0439918 0.196521 0.57261
0.147524 0.179355 0.590265
0.293034 0.181842 0.607614
0.435935 0.18851 0.623972
0.561547 0.1944 0.639429
0.664164 0.200946 0.656474
0.747768 0.210559 0.675044
0.817243 0.221393 0.693187
0.00543221 0.305211 0.62533
0.0555734 0.280735 0.639551
0.174243 0.276799 0.654093
0.340063 0.287907 0.666835
0.492988 0.302358 0.679286
0.615717 0.316274 0.691951
0.711543 0.332876 0.706615
0.789242 0.351781 0.721157
0.852461 0.370703 0.734859
0.00573739 0.420768 0.690684
0.0513008 0.409384 0.700359
0.184619 0.409751 0.706966
0.372137 0.425055 0.714046
0.534722 0.445884 0.722011
0.652827 0.466987 0.731517
0.74435 0.489769 0.742702
0.817929 0.511452 0.753063
0.877623 0.527108 0.760555
0.00444038 0.5514 0.750729
0.0447242 0.548714 0.753918
0.201633 0.555718 0.75227
0.412894 0.573877 0.751873
0.570367 0.595026 0.755383
0.682918 0.615076 0.761547
0.767132 0.632349 0.768612
0.83772 0.645518 0.774823
0.895445 0.655268 0.778256
0.00631724 0.667155 0.801724
0.0764019 0.669947 0.797009
0.258915 0.679362 0.788113
0.461967 0.695048 0.783215
0.604974 0.711498 0.784009
0.707408 0.726101 0.788312
0.78851 0.738827 0.794232
0.857313 0.749157 0.798795
0.913664 0.756466 0.802396
0.0154116 0.753338 0.8383
0.116838 0.759075 0.826215
0.314824 0.769482 0.814603
0.50454 0.783566 0.809323
0.634852 0.798566 0.810697
0.730556 0.812726 0.815763
0.811582 0.825696 0.822171
0.877012 0.835859 0.827131
0.928145 0.844678 0.83209
0.0253758 0.813977 0.862684
0.143832 0.824765 0.849149
0.362417 0.838651 0.83859
0.538537 0.854795 0.83653
0.660182 0.870436 0.839979
0.75256 0.884138 0.845808
0.830869 0.895338 0.851164
0.894194 0.904585 0.856733
0.93933 0.913237 0.862974
0.033402 0.862165 0.886
0.183078 0.877638 0.875074
0.412451 0.893843 0.867658
0.574258 0.909514 0.868238
0.686458 0.922499 0.87277
0.777096 0.933791 0.877623
0.850462 0.942489 0.883009
0.908965 0.950149 0.888655
0.94876 0.955825 0.894728
0.00296025 0.211627 0.54902
0.0335699 0.157473 0.565454
0.116487 0.117906 0.586282
0.237888 0.105028 0.608377
0.370871 0.10309 0.628687
0.497688 0.100572 0.646799
0.606806 0.0989853 0.664988
0.698146 0.0983749 0.684855
0.775647 0.0967117 0.706615
0.00184634 0.257816 0.618921
0.0416876 0.211002 0.638437
0.147265 0.186816 0.658686
0.296529 0.187213 0.677501
0.442649 0.192981 0.693645
0.569467 0.198901 0.707881
0.671168 0.206241 0.72398
0.75314 0.217227 0.741344
0.821164 0.229175 0.758022
0.00520333 0.325261 0.683772
0.0531472 0.297719 0.702876
0.172488 0.288991 0.719234
0.341573 0.297704 0.732952
0.498314 0.31162 0.745449
0.620081 0.326543 0.75758
0.71519 0.344152 0.771206
0.792477 0.363699 0.785382
0.85449 0.382788 0.798108
0.00489815 0.439033 0.745144
0.047013 0.42562 0.760906
0.178683 0.423865 0.771115
0.37055 0.438331 0.778378
0.536721 0.458869 0.78645
0.654536 0.480507 0.795895
0.745113 0.502815 0.806683
0.817151 0.523308 0.816159
0.876143 0.538231 0.823026
0.00360113 0.56556 0.800855
0.0444495 0.563394 0.81268
0.201053 0.569757 0.815106
0.411627 0.586816 0.815549
0.568704 0.607446 0.819165
0.679866 0.626352 0.825284
0.763149 0.642161 0.832181
0.833555 0.654414 0.83743
0.89131 0.663584 0.841123
0.00668345 0.678355 0.850996
0.0768139 0.682216 0.854047
0.25127 0.690547 0.849012
0.456718 0.705577 0.84538
0.598444 0.721065 0.846815
0.700481 0.735439 0.851225
0.782467 0.747524 0.856367
0.851926 0.757183 0.860487
0.908125 0.764141 0.863996
0.0152895 0.762539 0.88629
0.107866 0.769436 0.882078
0.302419 0.779355 0.874174
0.495644 0.793301 0.870497
0.627131 0.808255 0.87158
0.724086 0.821973 0.876341
0.805783 0.834195 0.882094
0.871275 0.844221 0.885557
0.922438 0.853071 0.889662
0.0205386 0.822461 0.910353
0.126055 0.834546 0.90483
0.3514 0.84889 0.8972
0.530861 0.864698 0.895247
0.654047 0.879728 0.897398
0.747524 0.892607 0.90161
0.826001 0.903563 0.906157
0.889418 0.912688 0.909026
0.934356 0.920699 0.913558
0.0276341 0.870954 0.933989
0.167056 0.887205 0.928359
0.401083 0.902739 0.921309
0.567071 0.917281 0.920592
0.680568 0.929625 0.922728
0.771847 0.940444 0.925322
0.846052 0.949233 0.928908
0.904524 0.955947 0.932677
0.943801 0.961791 0.936584
