LUT预设1/iPhone 专用lut-合集2/Apple 专用（709）/N-CINE1复古暖调709.cube
TITLE "Generated by Resolve"
LUT_3D_SIZE 33
0.0400702 0.0786908 0.0616464
0.0491798 0.0797131 0.0606394
0.0590829 0.0807813 0.0594949
0.0697948 0.0820325 0.0581826
0.0813001 0.0833753 0.0566415
0.0937057 0.0847944 0.0548257
0.107576 0.0862287 0.052491
0.122271 0.0877089 0.0500954
0.138643 0.0891127 0.047364
0.155612 0.0904707 0.0445106
0.174838 0.0917067 0.0413367
0.194156 0.0929885 0.0382086
0.216464 0.0939193 0.0345464
0.238865 0.0949264 0.0309453
0.263828 0.0955062 0.027451
0.289723 0.0960555 0.0237888
0.316533 0.0962081 0.0204471
0.343923 0.0965286 0.0176547
0.371633 0.0966659 0.0153506
0.400198 0.0965133 0.0134279
0.428687 0.0961471 0.0116426
0.457542 0.0954147 0.0106508
0.486442 0.094667 0.00955215
0.514076 0.09337 0.00921645
0.541604 0.0921187 0.00874342
0.566949 0.0907149 0.00827039
0.592233 0.0893416 0.00772107
0.615793 0.0881056 0.007187
0.638743 0.0868849 0.00665293
0.660761 0.0855726 0.00607309
0.681468 0.0843824 0.00573739
0.701671 0.0835279 0.00584421
0.720272 0.0824903 0.00602731
0.0412909 0.0846876 0.0640421
0.0512551 0.0859083 0.0630045
0.0612497 0.087129 0.0619669
0.0734112 0.0885176 0.0603952
0.0855573 0.0899672 0.0588388
0.0999771 0.0915084 0.0565652
0.114672 0.0930953 0.0543374
0.131395 0.0946365 0.0516365
0.148592 0.0963149 0.0488289
0.16762 0.098085 0.0457618
0.187716 0.099794 0.0425422
0.209232 0.101457 0.0390478
0.232242 0.102953 0.0353552
0.256474 0.104387 0.0315557
0.282521 0.10544 0.0282597
0.30901 0.106523 0.0249332
0.33695 0.107164 0.0222019
0.365057 0.10779 0.0193179
0.393896 0.107881 0.0172274
0.423178 0.107973 0.0150454
0.452399 0.107546 0.0135805
0.481865 0.107057 0.0122988
0.510338 0.106432 0.0113222
0.537972 0.105776 0.0106203
0.564828 0.10515 0.00984207
0.590036 0.104372 0.00907912
0.614862 0.103761 0.00819409
0.63772 0.103243 0.00767529
0.660334 0.10277 0.00756847
0.681254 0.102327 0.00767529
0.701717 0.101793 0.00775158
0.721157 0.101259 0.00788891
0.739757 0.100679 0.00813306
0.0430762 0.0913252 0.0666514
0.0529641 0.0928054 0.0654765
0.0642863 0.0944076 0.0640269
0.0769513 0.0961318 0.0623331
0.0907759 0.0979629 0.0603494
0.106065 0.0999313 0.0580453
0.122286 0.101976 0.0555428
0.140414 0.10399 0.0526741
0.159014 0.10602 0.0498054
0.179858 0.107958 0.0465705
0.200809 0.110002 0.0433509
0.224491 0.111772 0.0399786
0.248463 0.11368 0.0367285
0.274754 0.11519 0.0332952
0.301427 0.116747 0.0298924
0.32929 0.118074 0.0267185
0.357855 0.119158 0.0237278
0.386954 0.120073 0.0209506
0.416312 0.120592 0.0186465
0.445853 0.12108 0.0163882
0.475471 0.12105 0.0149081
0.505165 0.121141 0.0132143
0.533104 0.12076 0.0123445
0.561425 0.120516 0.0112459
0.587076 0.120195 0.0104982
0.612268 0.120104 0.010132
0.636027 0.119966 0.00993362
0.658885 0.12015 0.00970474
0.680674 0.120272 0.00959792
0.701305 0.12047 0.00962844
0.721477 0.120546 0.00967422
0.73991 0.120607 0.0099031
0.758328 0.120546 0.010132
0.0440833 0.0996414 0.0688029
0.0539101 0.101198 0.0675669
0.0671702 0.103044 0.0658274
0.0804608 0.104906 0.0641489
0.0963455 0.107118 0.0617685
0.112459 0.109483 0.0593423
0.130739 0.11191 0.0565347
0.149645 0.114382 0.0537423
0.17026 0.116823 0.0508583
0.191775 0.119265 0.0478981
0.215 0.121706 0.0447852
0.239551 0.123995 0.0413825
0.264973 0.126177 0.0380102
0.292576 0.128038 0.0345006
0.320394 0.129961 0.0310979
0.349493 0.131289 0.0279545
0.378744 0.132677 0.0246586
0.408621 0.133593 0.0222019
0.438605 0.134524 0.0195468
0.468452 0.135149 0.0175021
0.498421 0.135775 0.0155947
0.52752 0.136172 0.0142367
0.555779 0.136645 0.0137331
0.583276 0.137057 0.0130465
0.608484 0.137438 0.0125277
0.63357 0.138003 0.0119478
0.656443 0.138521 0.0116884
0.679179 0.139086 0.0113832
0.700175 0.139712 0.0113527
0.720653 0.140261 0.0113527
0.739879 0.140856 0.0115206
0.758236 0.141283 0.0117494
0.77612 0.141802 0.0119173
0.0441596 0.109133 0.0707408
0.0555886 0.111131 0.0691386
0.0690776 0.113329 0.0673228
0.0839551 0.115618 0.0652628
0.100832 0.118166 0.0629282
0.118639 0.120775 0.0606394
0.138552 0.123476 0.0580148
0.158923 0.126192 0.0554055
0.181491 0.128893 0.0524453
0.204135 0.131685 0.0495308
0.229267 0.134401 0.0460517
0.254749 0.137194 0.0425574
0.282445 0.13962 0.0389563
0.310536 0.142031 0.0353704
0.339605 0.144076 0.0318914
0.36936 0.146059 0.0284581
0.399268 0.147723 0.0252995
0.429877 0.149065 0.022446
0.460258 0.150332 0.0201724
0.490455 0.151217 0.0188907
0.5205 0.152285 0.0174563
0.549325 0.153063 0.0166171
0.577996 0.153933 0.0156252
0.604227 0.154757 0.0148623
0.629587 0.155947 0.0140688
0.653269 0.157076 0.0135195
0.676204 0.158251 0.0131685
0.69836 0.159579 0.0128481
0.718776 0.160739 0.0128023
0.73901 0.161929 0.0127413
0.757351 0.16318 0.0128786
0.775708 0.16434 0.0129549
0.792889 0.165637 0.0133822
0.0433967 0.119524 0.0726635
0.0569162 0.121981 0.0709392
0.0702373 0.124468 0.069337
0.0873884 0.127352 0.0670481
0.105043 0.130205 0.0648203
0.125078 0.133242 0.0621347
0.146044 0.136339 0.0594492
0.168551 0.139452 0.0565347
0.191989 0.14258 0.0534981
0.217075 0.145617 0.0502174
0.243473 0.148699 0.0466926
0.270573 0.15169 0.0431373
0.299504 0.154406 0.039353
0.328557 0.157107 0.0355688
0.358938 0.159335 0.0320745
0.38938 0.161944 0.028809
0.419959 0.163882 0.0265354
0.45069 0.165866 0.0242008
0.481224 0.167514 0.0224155
0.511788 0.1691 0.0206912
0.541558 0.170626 0.0192111
0.570336 0.172061 0.0179294
0.598169 0.173526 0.0167697
0.623789 0.175067 0.0159609
0.649241 0.176547 0.0150912
0.672312 0.178119 0.0146639
0.695445 0.179767 0.0141604
0.716335 0.181353 0.0139773
0.73695 0.183124 0.0138399
0.756176 0.185046 0.0142824
0.774365 0.187121 0.015198
0.792096 0.189288 0.016022
0.80885 0.191516 0.0168765
0.0437476 0.131792 0.0749523
0.0568704 0.134401 0.0731823
0.0721447 0.137209 0.0711376
0.0904707 0.140291 0.0687724
0.10985 0.143374 0.066392
0.131777 0.146654 0.0635691
0.153903 0.150072 0.0607309
0.178271 0.153674 0.0574502
0.203021 0.157321 0.0540475
0.230106 0.160906 0.0503395
0.257618 0.164477 0.04654
0.286748 0.167849 0.0425879
0.316152 0.171191 0.0391394
0.346456 0.174228 0.0360418
0.377356 0.177111 0.0330663
0.40827 0.179751 0.0302739
0.43975 0.182071 0.027863
0.471 0.184344 0.0255283
0.502007 0.186297 0.0236057
0.532845 0.188327 0.0215152
0.562066 0.190295 0.0200504
0.591058 0.192493 0.0184787
0.617411 0.194659 0.0174563
0.643137 0.196872 0.0165408
0.667353 0.199161 0.0157931
0.690455 0.201511 0.0151522
0.712535 0.203922 0.0152132
0.733181 0.206455 0.0157168
0.753445 0.208881 0.016144
0.771786 0.211353 0.0168612
0.790204 0.213916 0.0174868
0.807416 0.216495 0.0182498
0.824323 0.219135 0.0189212
0.0433814 0.145205 0.0772106
0.0557259 0.148196 0.0751965
0.0738384 0.151522 0.072694
0.0927138 0.154894 0.0701457
0.114641 0.158556 0.0672465
0.137392 0.162188 0.0641947
0.161944 0.165896 0.0609293
0.187747 0.169787 0.0573434
0.214679 0.173693 0.053727
0.243336 0.1776 0.0502632
0.272251 0.181491 0.0467842
0.302617 0.185351 0.0433204
0.332982 0.189258 0.0398566
0.364233 0.192798 0.0367437
0.395697 0.196429 0.0334478
0.427268 0.199496 0.0308385
0.459037 0.202609 0.0281224
0.490486 0.205432 0.0257877
0.521874 0.208194 0.0234684
0.5523 0.210727 0.0215
0.581582 0.213291 0.019852
0.609903 0.215869 0.0183719
0.635843 0.218448 0.0174868
0.661601 0.221164 0.01738
0.684779 0.223911 0.0175479
0.708003 0.226734 0.0175174
0.728893 0.229801 0.0175326
0.749462 0.232959 0.0174411
0.768795 0.23621 0.0175479
0.787274 0.239582 0.0178073
0.80528 0.24303 0.0180667
0.8224 0.24654 0.0184329
0.839246 0.250111 0.0187533
0.0417945 0.159854 0.0793317
0.0561074 0.163119 0.0768749
0.0754864 0.166827 0.0740826
0.0956588 0.170748 0.0711833
0.119203 0.174899 0.0677501
0.143206 0.179232 0.0643626
0.169787 0.183612 0.0608377
0.196735 0.188037 0.0573739
0.22594 0.19266 0.0535439
0.255619 0.197223 0.0498054
0.286244 0.201617 0.0461585
0.317647 0.206027 0.0425727
0.34934 0.210025 0.0393225
0.38143 0.213962 0.0360418
0.41352 0.217731 0.033051
0.446143 0.221134 0.0302281
0.478492 0.224613 0.0274052
0.510124 0.228077 0.0249485
0.541863 0.231662 0.0224308
0.571267 0.234928 0.020798
0.600626 0.238117 0.0200809
0.627543 0.241489 0.0198215
0.653376 0.244907 0.0195468
0.677943 0.248341 0.0191196
0.701411 0.251804 0.0184329
0.723873 0.255329 0.0177768
0.744854 0.258946 0.017258
0.765515 0.262638 0.0166476
0.7841 0.266468 0.0166629
0.802731 0.270405 0.0165713
0.820233 0.274434 0.0167086
0.837385 0.278431 0.0170443
0.853407 0.282368 0.0174868
0.0381018 0.177218 0.081117
0.0560769 0.181018 0.0778973
0.075288 0.185061 0.0749218
0.0981765 0.189364 0.0716564
0.122545 0.19382 0.0683452
0.149218 0.198505 0.0646372
0.177157 0.203159 0.060853
0.206683 0.207919 0.0569009
0.237095 0.213245 0.0528878
0.268162 0.218387 0.0488746
0.300175 0.223499 0.045182
0.332387 0.228443 0.041413
0.365087 0.233112 0.0381323
0.398138 0.23772 0.0346227
0.43093 0.242008 0.0316777
0.46389 0.246159 0.0286259
0.496254 0.250156 0.0261845
0.528389 0.254139 0.0247196
0.559442 0.257969 0.0235904
0.589151 0.261479 0.0226596
0.618189 0.265232 0.0217746
0.644556 0.268956 0.0210727
0.670588 0.272862 0.0201267
0.694255 0.276783 0.0190585
0.718013 0.280964 0.0178988
0.739376 0.285222 0.0171817
0.760357 0.28954 0.0164797
0.779995 0.293965 0.0162356
0.798688 0.298482 0.0162814
0.816968 0.302831 0.0163729
0.834485 0.307424 0.0166476
0.851637 0.312123 0.0179599
0.866728 0.316289 0.01944
0.0370642 0.196475 0.0831311
0.0559548 0.201068 0.0795605
0.0759594 0.205646 0.0759747
0.100343 0.210636 0.0721141
0.125078 0.215671 0.0681468
0.153643 0.22092 0.0639811
0.182422 0.226215 0.0597391
0.21387 0.231754 0.0556191
0.245975 0.237186 0.0513161
0.279149 0.242481 0.047303
0.312901 0.247929 0.0433051
0.346731 0.252979 0.0395361
0.38085 0.258091 0.0359197
0.414557 0.262959 0.0329137
0.448157 0.267933 0.0307927
0.481498 0.272709 0.0286717
0.514015 0.277348 0.0271611
0.54667 0.281865 0.025391
0.57673 0.286168 0.0242161
0.607217 0.290562 0.0227512
0.634592 0.294697 0.0215763
0.661326 0.299046 0.0204471
0.686275 0.303456 0.0193332
0.710201 0.307713 0.0181888
0.733333 0.312261 0.0171969
0.754559 0.316945 0.0164797
0.775662 0.321721 0.0157931
0.794507 0.32636 0.0157321
0.81326 0.331548 0.0170596
0.830961 0.336751 0.0185397
0.848386 0.34197 0.0199741
0.864546 0.346807 0.0211643
0.879545 0.351171 0.022385
0.0380407 0.219425 0.0847944
0.0553292 0.223926 0.0806287
0.0775311 0.228885 0.0763409
0.101442 0.233936 0.071931
0.128283 0.239353 0.0674754
0.157748 0.244953 0.0628519
0.188296 0.250904 0.0582437
0.221637 0.256855 0.0536049
0.255375 0.26276 0.0490425
0.289998 0.268589 0.0448463
0.325261 0.27451 0.0413214
0.360204 0.280262 0.038407
0.39556 0.285908 0.0354009
0.429908 0.291142 0.0331884
0.464439 0.296574 0.0307164
0.498009 0.301518 0.0287938
0.531289 0.306508 0.0267338
0.563409 0.311177 0.0248722
0.594095 0.315831 0.0229496
0.624048 0.320745 0.0211948
0.651057 0.325475 0.0200504
0.678004 0.330434 0.0188754
0.70193 0.335225 0.0180514
0.726223 0.340246 0.0171054
0.748043 0.345464 0.016846
0.769512 0.350652 0.0174868
0.78938 0.356054 0.0185092
0.808286 0.361486 0.0196536
0.826612 0.36669 0.020798
0.844327 0.372076 0.0218357
0.861875 0.377447 0.022858
0.877028 0.382254 0.0237278
0.892195 0.386862 0.0244144
0.0383154 0.24416 0.0862745
0.0552834 0.248997 0.0813001
0.0781872 0.254398 0.0763256
0.101289 0.259831 0.0710765
0.130831 0.265553 0.0660105
0.160052 0.271397 0.0607767
0.19411 0.277562 0.0559243
0.228458 0.283757 0.0515297
0.264408 0.289952 0.0477607
0.300893 0.29633 0.0440833
0.337697 0.302647 0.0407874
0.374212 0.308934 0.0378576
0.410224 0.315038 0.0350195
0.44596 0.321126 0.0323949
0.48127 0.32697 0.0298924
0.515145 0.332403 0.0276341
0.549233 0.338094 0.0251011
0.580301 0.343145 0.0231022
0.611826 0.34847 0.020737
0.640024 0.35346 0.0194247
0.667506 0.358602 0.018265
0.693294 0.363668 0.0179446
0.717586 0.369055 0.0183413
0.741176 0.37435 0.018967
0.7626 0.379965 0.0198215
0.783856 0.38555 0.0205844
0.802853 0.391333 0.0215
0.821881 0.397147 0.0221866
0.839811 0.402625 0.0229648
0.857435 0.408286 0.023621
0.873808 0.413581 0.0240177
0.889052 0.418341 0.0243534
0.903899 0.423148 0.0244907
0.0368811 0.270054 0.0872206
0.0561227 0.275486 0.081529
0.077821 0.28127 0.0755016
0.103716 0.287175 0.0700847
0.132784 0.293416 0.0647593
0.164401 0.299855 0.0597696
0.199863 0.306584 0.0550851
0.23595 0.313161 0.0506752
0.274235 0.320027 0.0469368
0.312551 0.327047 0.0431067
0.350378 0.333593 0.0399481
0.388632 0.3402 0.0365759
0.425574 0.346456 0.0337835
0.462364 0.352697 0.0307469
0.497673 0.358816 0.027924
0.532448 0.364645 0.0251011
0.565881 0.370504 0.0226291
0.597574 0.376135 0.0203708
0.628489 0.38201 0.0191958
0.656168 0.387533 0.0195773
0.683848 0.393347 0.0197299
0.708553 0.398917 0.020325
0.733181 0.404715 0.0206912
0.755474 0.410391 0.0213474
0.777111 0.416281 0.0218662
0.797223 0.421988 0.022446
0.816281 0.42797 0.0228275
0.834897 0.433646 0.023209
0.852567 0.439353 0.0234379
0.870222 0.444785 0.023621
0.885649 0.449821 0.0234684
0.901122 0.454719 0.0230716
0.915282 0.458824 0.0229191
0.0362097 0.299092 0.0885023
0.0566262 0.304738 0.0821241
0.0767834 0.310521 0.0757763
0.105791 0.316686 0.0699168
0.134264 0.323003 0.0640269
0.169772 0.32987 0.0588235
0.206226 0.33669 0.0536965
0.245167 0.343999 0.0495155
0.285451 0.35137 0.0454719
0.325124 0.358572 0.0418097
0.364736 0.365682 0.0382849
0.403922 0.372671 0.0348363
0.441825 0.379431 0.0316625
0.47982 0.386374 0.028336
0.515267 0.392752 0.0256352
0.550896 0.399237 0.0236973
0.58294 0.405234 0.0226749
0.615396 0.411536 0.0215
0.644343 0.417411 0.0214237
0.67245 0.423285 0.0214542
0.698909 0.429297 0.021561
0.723751 0.435019 0.0218662
0.747906 0.440757 0.0220798
0.769696 0.446708 0.0223392
0.791287 0.45243 0.0225834
0.810361 0.458427 0.0225986
0.829465 0.464164 0.0225681
0.847562 0.469825 0.0223239
0.865446 0.475196 0.0220035
0.881865 0.480369 0.021912
0.897139 0.4851 0.0229648
0.912093 0.489784 0.023621
0.925795 0.493797 0.0242924
0.0375067 0.329641 0.0905165
0.0561837 0.335409 0.0832227
0.0800488 0.341711 0.076112
0.108049 0.348135 0.0694438
0.139635 0.355047 0.0631571
0.176196 0.362066 0.0575265
0.214252 0.369421 0.0520943
0.256046 0.377035 0.047837
0.297841 0.384649 0.0434272
0.339193 0.392081 0.0396277
0.380636 0.399298 0.0355993
0.419852 0.406409 0.032578
0.459449 0.41384 0.0300145
0.496666 0.420783 0.0280003
0.533074 0.427634 0.0261234
0.567895 0.434256 0.0246738
0.60061 0.44062 0.0237736
0.632563 0.446937 0.0230106
0.661021 0.453239 0.0229648
0.689433 0.459312 0.0226902
0.714626 0.465171 0.0225834
0.739651 0.471046 0.0223087
0.762249 0.477073 0.0221866
0.78407 0.482811 0.0219272
0.804349 0.488533 0.021622
0.82356 0.494423 0.0211337
0.842298 0.500084 0.0213169
0.859922 0.505653 0.0221561
0.877485 0.510704 0.0228275
0.892683 0.514931 0.023621
0.908095 0.51928 0.024094
0.922011 0.522942 0.0246281
0.935683 0.526665 0.0249027
0.0386358 0.361868 0.0923018
0.0556954 0.367361 0.0834669
0.0831617 0.373861 0.0758679
0.109957 0.38056 0.068101
0.146029 0.387762 0.0618448
0.182544 0.395148 0.0554055
0.224369 0.402808 0.050309
0.267597 0.410742 0.0454871
0.310964 0.418601 0.0416724
0.353933 0.426383 0.038468
0.396292 0.43389 0.0354467
0.437156 0.441428 0.0328832
0.477363 0.44889 0.0303349
0.51458 0.45597 0.0285191
0.552071 0.463066 0.026566
0.585718 0.469688 0.0256352
0.619486 0.476524 0.0245823
0.649317 0.482811 0.0239719
0.678065 0.48893 0.0234531
0.704952 0.494743 0.0228275
0.730007 0.50045 0.0221866
0.75433 0.506325 0.0214542
0.776104 0.511803 0.0209354
0.797848 0.517433 0.0214694
0.8168 0.522911 0.0223239
0.835782 0.528557 0.0229648
0.853513 0.533578 0.0236515
0.871229 0.538445 0.0240787
0.887541 0.543038 0.0243992
0.902998 0.547082 0.0247654
0.917861 0.55108 0.0248569
0.931533 0.554513 0.024979
0.945159 0.557885 0.0248875
0.0391852 0.394766 0.094377
0.0596933 0.400778 0.0849317
0.0851759 0.407507 0.0760357
0.114488 0.414298 0.0676585
0.151217 0.421683 0.0607614
0.189639 0.429404 0.0545663
0.23473 0.437308 0.0502785
0.280201 0.44538 0.0454566
0.325368 0.453223 0.0418555
0.370703 0.461189 0.0380407
0.413413 0.468894 0.0354009
0.455711 0.476509 0.0327459
0.495613 0.483803 0.0305943
0.533852 0.490898 0.0287938
0.570184 0.497719 0.0272679
0.604044 0.504204 0.0260929
0.636988 0.510552 0.0248264
0.665919 0.516503 0.0238346
0.694789 0.522438 0.0226902
0.720134 0.528191 0.0218662
0.745251 0.534051 0.0221866
0.767803 0.539788 0.0225986
0.789532 0.545663 0.0228428
0.809644 0.551171 0.0231479
0.828473 0.556329 0.0237278
0.846937 0.56109 0.0242008
0.864591 0.565576 0.0246128
0.881987 0.569818 0.0249485
0.897475 0.573388 0.0253147
0.912902 0.576867 0.0254673
0.92697 0.580163 0.0254673
0.940749 0.583169 0.025452
0.953445 0.586053 0.0252842
0.038529 0.427848 0.0955673
0.0629435 0.434318 0.0862745
0.0868391 0.440696 0.0769055
0.121828 0.448112 0.0695201
0.158556 0.455467 0.0623178
0.202655 0.463218 0.0565347
0.249577 0.471321 0.0513924
0.296513 0.47921 0.0467079
0.343008 0.487297 0.0427253
0.388647 0.495262 0.03888
0.43241 0.502861 0.035996
0.475639 0.510552 0.033051
0.514504 0.517769 0.0310979
0.553628 0.524971 0.0289158
0.588296 0.531518 0.0272374
0.622583 0.537804 0.0254978
0.653178 0.543633 0.0246738
0.6822 0.549386 0.0246891
0.709285 0.555016 0.0246586
0.734386 0.56051 0.0246281
0.758694 0.565942 0.0246433
0.780346 0.571191 0.0247654
0.80206 0.576394 0.0247349
0.820844 0.581247 0.0250706
0.839673 0.586053 0.0252689
0.857404 0.590555 0.025452
0.87509 0.594766 0.0256809
0.891478 0.598535 0.0257267
0.907134 0.601938 0.0256657
0.922194 0.605341 0.0254673
0.936065 0.608072 0.02533
0.949767 0.610742 0.0266117
0.961105 0.613001 0.0291142
0.0448157 0.461006 0.100618
0.0677348 0.467353 0.0900435
0.0950179 0.473991 0.0801709
0.131411 0.481315 0.071809
0.169924 0.488746 0.0635996
0.218173 0.497032 0.0577401
0.266453 0.504829 0.051545
0.314183 0.512825 0.0473945
0.362661 0.520623 0.04271
0.407965 0.528298 0.0394446
0.452674 0.535668 0.0361334
0.494285 0.54287 0.0335699
0.533822 0.549813 0.0312505
0.571115 0.556512 0.0304723
0.605768 0.562646 0.0299229
0.638972 0.568765 0.0289464
0.668452 0.574502 0.0283513
0.697658 0.580179 0.0274205
0.723064 0.585626 0.026978
0.748333 0.591028 0.0262913
0.770993 0.596216 0.0259556
0.792706 0.601083 0.0257572
0.812757 0.60557 0.0258335
0.83151 0.609873 0.0260319
0.849943 0.614176 0.0262303
0.867628 0.617929 0.0263371
0.885115 0.621607 0.0263218
0.900832 0.624643 0.0261997
0.916274 0.627817 0.0283055
0.930297 0.630686 0.0308537
0.943969 0.633631 0.0333562
0.956436 0.636133 0.0353399
0.967834 0.638407 0.0370184
0.0511177 0.493141 0.105196
0.0728771 0.498939 0.0931563
0.106813 0.505867 0.0832685
0.14287 0.512947 0.0734569
0.187671 0.52076 0.0657206
0.236316 0.528603 0.0588388
0.285176 0.536492 0.0529793
0.334524 0.544518 0.0478218
0.382437 0.552239 0.0432288
0.428199 0.559945 0.040177
0.473136 0.567437 0.0386816
0.512947 0.574487 0.0376745
0.552895 0.581048 0.0364385
0.588006 0.586999 0.035172
0.622965 0.592889 0.0334173
0.653696 0.598291 0.0319829
0.68304 0.60354 0.0306554
0.710399 0.608652 0.0295567
0.735866 0.613443 0.0287938
0.760372 0.61828 0.0280613
0.782116 0.622873 0.0278172
0.803998 0.627436 0.0274357
0.822843 0.631662 0.0274357
0.841764 0.635859 0.0273136
0.859739 0.639658 0.0273136
0.877195 0.643656 0.0301366
0.89369 0.647181 0.0327764
0.909133 0.650233 0.0352636
0.924086 0.653025 0.0374609
0.937728 0.655482 0.0395361
0.951385 0.657908 0.0410773
0.962707 0.659968 0.0422675
0.974121 0.662181 0.043122
0.0576028 0.523888 0.109087
0.0827192 0.529931 0.096437
0.118608 0.53698 0.0853895
0.156695 0.543877 0.0745861
0.205722 0.551492 0.0671092
0.255146 0.559258 0.0590219
0.305058 0.566873 0.0550546
0.35462 0.574426 0.0513313
0.401343 0.581933 0.0493629
0.447822 0.589166 0.0470893
0.490562 0.596094 0.0452735
0.53106 0.602518 0.0431678
0.569238 0.608804 0.0409247
0.604364 0.614527 0.0384375
0.638361 0.620233 0.0356451
0.667842 0.625467 0.0339208
0.697368 0.630671 0.0318761
0.722942 0.635538 0.0308995
0.748516 0.639963 0.0298619
0.771252 0.644144 0.0294347
0.793103 0.648234 0.0289921
0.813291 0.652216 0.0298924
0.832074 0.656184 0.0328832
0.850523 0.659998 0.0356146
0.868101 0.663523 0.0380713
0.885496 0.667033 0.0402533
0.901183 0.669978 0.0422065
0.916762 0.672953 0.0441291
0.930907 0.675547 0.0454261
0.944701 0.67805 0.0464179
0.957259 0.680522 0.0470436
0.968673 0.682719 0.0473945
0.979232 0.68484 0.0474861
0.0639353 0.552224 0.11249
0.0959793 0.558495 0.0995193
0.13109 0.56524 0.0872969
0.175113 0.57261 0.0791333
0.224353 0.580285 0.0724041
0.273823 0.5879 0.0669871
0.324193 0.595514 0.0627909
0.37319 0.603143 0.0591592
0.420737 0.610391 0.0562753
0.466789 0.61706 0.0531472
0.507942 0.623255 0.0504768
0.549004 0.629236 0.0470893
0.584649 0.634745 0.0438849
0.620035 0.640162 0.0401923
0.651453 0.644968 0.0375525
0.681056 0.649714 0.0354009
0.708675 0.654307 0.0337377
0.73434 0.658595 0.0326543
0.759014 0.663035 0.033875
0.780774 0.667277 0.0366674
0.802502 0.671504 0.0392157
0.821622 0.675456 0.0417639
0.84062 0.679393 0.0440528
0.858412 0.683009 0.0459754
0.876097 0.686397 0.0475471
0.892729 0.689281 0.0488746
0.908431 0.692058 0.0499123
0.923644 0.694759 0.0506142
0.937484 0.697307 0.0509804
0.951339 0.699748 0.0511025
0.962753 0.7019 0.0510109
0.974289 0.704097 0.0506752
0.983063 0.706081 0.0503243
0.073106 0.579797 0.118334
0.107561 0.586221 0.106416
0.142901 0.59263 0.0952316
0.192309 0.599786 0.0879835
0.240757 0.606928 0.0805829
0.291356 0.614115 0.0757916
0.34226 0.621241 0.070573
0.390921 0.628229 0.0665446
0.438911 0.634943 0.0624094
0.483024 0.641245 0.0585794
0.524544 0.647364 0.0543984
0.563699 0.653025 0.0499733
0.599435 0.658396 0.0455787
0.634073 0.663462 0.0412757
0.66389 0.668193 0.0391852
0.693767 0.672862 0.0399481
0.71931 0.677012 0.0418708
0.744915 0.6813 0.0438087
0.767514 0.685344 0.0461128
0.789578 0.689204 0.0482948
0.809964 0.693034 0.0500343
0.829007 0.696773 0.0518044
0.847715 0.700404 0.0532082
0.865553 0.703746 0.0541848
0.883238 0.707073 0.0548409
0.899321 0.709972 0.0551003
0.915389 0.712901 0.0550088
0.929824 0.715572 0.0548257
0.943954 0.718044 0.0544289
0.956573 0.720531 0.0538949
0.968017 0.722866 0.0555886
0.978592 0.725185 0.057557
0.986435 0.72723 0.0599069
0.0840162 0.605051 0.127459
0.116609 0.611124 0.11487
0.159167 0.617868 0.104753
0.207797 0.624857 0.0965591
0.257786 0.631968 0.0893721
0.309178 0.639002 0.0833753
0.359304 0.645502 0.0775158
0.408118 0.651911 0.0724346
0.456107 0.658076 0.0669413
0.498268 0.663783 0.0621042
0.540413 0.669429 0.0565042
0.576852 0.674556 0.052903
0.612802 0.679622 0.0507973
0.644617 0.684413 0.0504616
0.674464 0.68896 0.0512551
0.702403 0.693446 0.0521553
0.728267 0.697795 0.0537423
0.753262 0.701961 0.0552224
0.775555 0.706004 0.056672
0.797604 0.710079 0.0581064
0.816831 0.713771 0.0593576
0.836042 0.717449 0.0602731
0.854261 0.720653 0.0604562
0.872251 0.723827 0.0604715
0.889357 0.726818 0.0600595
0.905592 0.729671 0.0592813
0.921263 0.732372 0.0589303
0.935378 0.735042 0.0606088
0.949416 0.737743 0.0622721
0.960845 0.7402 0.0644388
0.972519 0.742687 0.0665904
0.981506 0.745022 0.0691386
0.989639 0.747341 0.0718547
0.0924239 0.62797 0.136309
0.124743 0.633524 0.123003
0.172717 0.640162 0.114015
0.220615 0.646586 0.104311
0.272358 0.653284 0.0971542
0.324117 0.659907 0.0896773
0.374258 0.6663 0.0831617
0.423743 0.672557 0.0766461
0.469291 0.678614 0.0724804
0.512428 0.684611 0.0690623
0.552819 0.69015 0.0658427
0.589212 0.695277 0.0634012
0.624262 0.700191 0.0617533
0.654246 0.704479 0.062089
0.684581 0.708949 0.0623941
0.710735 0.712947 0.0632639
0.736889 0.717113 0.0640726
0.76025 0.720958 0.0648356
0.782498 0.724849 0.0657054
0.803418 0.728649 0.0663157
0.822797 0.732204 0.0665446
0.841871 0.73579 0.0665599
0.860151 0.739162 0.0659037
0.878264 0.742596 0.0661631
0.894835 0.745586 0.066804
0.911284 0.74873 0.0677043
0.92604 0.751659 0.0691997
0.940444 0.754452 0.0709087
0.953414 0.757061 0.073167
0.965118 0.759548 0.0758526
0.976181 0.76202 0.0786297
0.984588 0.764324 0.0814679
0.993118 0.766567 0.084596
0.0980392 0.648569 0.144381
0.137667 0.654627 0.132113
