LUT预设1/LUT全系打包/2024-VINTAGE系列lut/vintage709正常色彩使用/coolstyle清新-709.cube
TITLE "Generated by Resolve"
LUT_3D_SIZE 5
0.0381781 0.0624399 0.104677
0.381628 0.0450599 0.0894484
0.726116 0.0322576 0.0864576
0.861936 0.026566 0.0844282
0.859236 0.0229801 0.0738537
0.0552529 0.314305 0.112581
0.448066 0.357763 0.11043
0.787045 0.331518 0.0805219
0.931411 0.290517 0.0732433
0.923186 0.240528 0.0718547
0.204105 0.695994 0.183093
0.515862 0.696468 0.179187
0.797147 0.684688 0.183398
0.957061 0.668803 0.16936
0.95845 0.645548 0.159487
0.32401 0.882445 0.230396
0.525628 0.877379 0.223728
0.786862 0.865309 0.223957
0.946944 0.855177 0.232944
0.972198 0.841413 0.231708
0.329351 0.891524 0.232807
0.432502 0.89131 0.229541
0.739178 0.890089 0.228977
0.918105 0.890379 0.239994
0.976364 0.891279 0.246403
0.0383612 0.0653697 0.352087
0.285435 0.0689708 0.363729
0.633829 0.0822309 0.389563
0.786374 0.0762951 0.38204
0.794003 0.0552987 0.341543
0.0393683 0.329366 0.404746
0.321798 0.411582 0.456657
0.735836 0.412146 0.437095
0.906386 0.370947 0.404685
0.901534 0.305898 0.344182
0.133349 0.707973 0.48159
0.428382 0.722118 0.465904
0.768231 0.710536 0.430823
0.952026 0.690394 0.376333
0.958495 0.663645 0.329992
0.267796 0.893202 0.440955
0.462242 0.888975 0.413413
0.766918 0.873396 0.378408
0.943832 0.860945 0.356817
0.973068 0.845212 0.326741
0.297063 0.89984 0.339071
0.398154 0.898482 0.317769
0.72752 0.895033 0.292287
0.914107 0.893431 0.279469
0.976761 0.893462 0.275044
0.0430762 0.0692149 0.637491
0.266499 0.0744793 0.66363
0.628 0.0933394 0.704112
0.778698 0.0951247 0.710842
0.774823 0.0836347 0.687999
0.0455634 0.350271 0.71548
0.279423 0.423865 0.761395
0.681788 0.447379 0.778775
0.857313 0.430106 0.772076
0.848417 0.383719 0.743923
0.123842 0.709072 0.774578
0.373312 0.725414 0.7776
0.710857 0.732616 0.778073
0.913283 0.720577 0.764782
0.924758 0.700206 0.74287
0.252216 0.895628 0.761227
0.399329 0.894438 0.754238
0.706188 0.891539 0.746838
0.912367 0.879057 0.72781
0.95555 0.866346 0.70634
0.261036 0.90811 0.704356
0.327657 0.911269 0.692836
0.656428 0.919768 0.685618
0.886793 0.916243 0.662455
0.970886 0.915343 0.643153
0.0419776 0.0675517 0.745846
0.258137 0.0739452 0.781888
0.629267 0.0943313 0.834775
0.784115 0.0967269 0.854688
0.782742 0.0920119 0.852781
0.048127 0.354543 0.856184
0.271794 0.42266 0.901839
0.677226 0.445579 0.927611
0.859098 0.425406 0.931441
0.852491 0.383139 0.921904
0.132555 0.710491 0.940703
0.36643 0.724773 0.951064
0.704448 0.732341 0.958038
0.89485 0.721065 0.950072
0.908064 0.702464 0.943542
0.261814 0.894865 0.948043
0.391257 0.891005 0.944778
0.692744 0.891005 0.941848
0.890929 0.884611 0.937606
0.938216 0.873304 0.926879
0.265949 0.911086 0.914214
0.32137 0.913619 0.906691
0.640269 0.923735 0.907271
0.860807 0.927443 0.90045
0.955398 0.926284 0.888045
0.0370947 0.0608072 0.742611
0.242054 0.0661784 0.77673
0.616556 0.0854658 0.830365
0.782864 0.0922408 0.853452
0.781872 0.0889143 0.852445
0.0450599 0.335225 0.84892
0.247776 0.397772 0.893721
0.662989 0.425772 0.923934
0.853361 0.407141 0.930022
0.849393 0.365591 0.923323
0.125521 0.701213 0.94287
0.344579 0.715221 0.952865
0.693553 0.72398 0.962753
0.89189 0.712932 0.964111
0.906874 0.694469 0.96289
0.261463 0.890135 0.96524
0.379156 0.885756 0.967758
0.683894 0.886107 0.975433
0.884321 0.880858 0.981704
0.935195 0.870741 0.983642
0.27332 0.912016 0.96762
0.318685 0.914031 0.969192
0.63389 0.923827 0.97763
0.854719 0.929839 0.984329
0.950698 0.93051 0.988571
