LUT预设1/LUT全系打包/2024-VINTAGE系列lut/vintage709正常色彩使用/coolstyle清新-709.cube
TITLE "Generated by Resolve"
LUT_3D_SIZE 9
0.0381781 0.0624399 0.104677
0.165347 0.0572824 0.0980087
0.381628 0.0450599 0.0894484
0.575845 0.0365759 0.0857099
0.726116 0.0322576 0.0864576
0.841108 0.0288701 0.0886854
0.861936 0.026566 0.0844282
0.860578 0.0245518 0.0792096
0.859236 0.0229801 0.0738537
0.0341192 0.145663 0.0961471
0.165545 0.147677 0.0900282
0.388647 0.137926 0.0803693
0.587869 0.127047 0.0789654
0.737148 0.115511 0.0802014
0.851514 0.100389 0.0819409
0.884962 0.0875563 0.07953
0.881392 0.075761 0.0775769
0.877821 0.0645304 0.0758373
0.0552529 0.314305 0.112581
0.20676 0.34313 0.116091
0.448066 0.357763 0.11043
0.648508 0.348577 0.0919814
0.787045 0.331518 0.0805219
0.890837 0.313024 0.075227
0.931411 0.290517 0.0732433
0.927947 0.264134 0.0710307
0.923186 0.240528 0.0718547
0.11751 0.5337 0.150301
0.271015 0.553582 0.154757
0.492561 0.564187 0.157458
0.669871 0.56173 0.154406
0.798535 0.550576 0.137972
0.895674 0.536385 0.121492
0.948608 0.521035 0.110887
0.949752 0.502892 0.104616
0.948653 0.483894 0.0983444
0.204105 0.695994 0.183093
0.313893 0.696864 0.180896
0.515862 0.696468 0.179187
0.677699 0.69073 0.181628
0.797147 0.684688 0.183398
0.890898 0.67657 0.177401
0.957061 0.668803 0.16936
0.959243 0.657465 0.164446
0.95845 0.645548 0.159487
0.273426 0.804929 0.209308
0.341558 0.800534 0.206119
0.526925 0.797726 0.202426
0.679728 0.789975 0.202243
0.794217 0.78436 0.205524
0.884871 0.77879 0.209384
0.95375 0.771572 0.208698
0.966476 0.763363 0.206027
0.965942 0.754955 0.202884
0.32401 0.882445 0.230396
0.350607 0.879042 0.228305
0.525628 0.877379 0.223728
0.675166 0.872236 0.222492
0.786862 0.865309 0.223957
0.877455 0.860166 0.228351
0.946944 0.855177 0.232944
0.972503 0.848402 0.233753
0.972198 0.841413 0.231708
0.329351 0.891524 0.232807
0.341085 0.891508 0.232334
0.483589 0.891112 0.228244
0.648692 0.890913 0.227314
0.766491 0.889784 0.229816
0.8607 0.889479 0.234485
0.934737 0.890013 0.241566
0.974914 0.890669 0.246067
0.976318 0.890883 0.246281
0.329351 0.891524 0.232807
0.330388 0.891524 0.232761
0.432502 0.89131 0.229541
0.6103 0.890929 0.227207
0.739178 0.890089 0.228977
0.839521 0.889342 0.232883
0.918105 0.890379 0.239994
0.970565 0.891173 0.245747
0.976364 0.891279 0.246403
0.0359808 0.0638285 0.207187
0.128634 0.062623 0.203037
0.323629 0.0614176 0.200885
0.533913 0.0543832 0.200275
0.699062 0.0472572 0.199863
0.824689 0.0399634 0.197086
0.851911 0.0324254 0.183566
0.855131 0.0269017 0.168231
0.856458 0.0243839 0.15613
0.0313268 0.147845 0.202701
0.12845 0.156008 0.20235
0.348623 0.156573 0.19585
0.56437 0.146136 0.19147
0.726619 0.131899 0.186603
0.846281 0.116838 0.182422
0.882658 0.101564 0.173037
0.879759 0.0852979 0.158862
0.877379 0.0690623 0.14493
0.0415808 0.319081 0.229862
0.152621 0.355337 0.237858
0.42034 0.379812 0.228931
0.63801 0.369635 0.199496
0.782025 0.350454 0.177646
0.887755 0.32961 0.162203
0.931411 0.302373 0.149142
0.927321 0.272999 0.136614
0.92163 0.245823 0.126909
0.0823529 0.54255 0.269123
0.221454 0.565332 0.269368
0.468986 0.578988 0.260456
0.659663 0.575021 0.244984
0.792432 0.560891 0.215183
0.894087 0.545174 0.187015
0.949523 0.527626 0.165698
0.950912 0.507637 0.149508
0.949569 0.486473 0.13344
0.171862 0.702846 0.27837
0.27985 0.703716 0.266621
0.49836 0.703014 0.253712
0.668269 0.696422 0.244404
0.792004 0.689464 0.237369
0.888304 0.679881 0.221424
0.956451 0.669978 0.20177
0.959609 0.656855 0.186847
0.958724 0.64448 0.176516
0.253208 0.809018 0.273548
0.319295 0.803677 0.262776
0.513512 0.799527 0.247776
0.672984 0.791074 0.235462
0.790143 0.784405 0.228733
0.882063 0.77821 0.229129
0.952743 0.770489 0.223606
0.966598 0.761975 0.217411
0.965911 0.752667 0.209796
0.313542 0.883482 0.261006
0.341115 0.880339 0.252628
0.515938 0.877546 0.242283
0.669642 0.871351 0.237491
0.783017 0.864149 0.235416
0.875029 0.858366 0.234958
0.945205 0.852903 0.233509
0.972152 0.84593 0.233051
0.972061 0.839078 0.232731
0.325475 0.892699 0.246204
0.336217 0.892348 0.241901
0.477821 0.891417 0.232181
0.644846 0.89099 0.228534
0.763455 0.889891 0.23064
0.858366 0.889464 0.236255
0.93286 0.890028 0.242512
0.974624 0.890806 0.246189
0.976272 0.890272 0.246098
0.329335 0.891524 0.232883
0.330495 0.891676 0.23444
0.427405 0.891432 0.231159
0.606256 0.890959 0.227512
0.735988 0.89015 0.22887
0.837018 0.889296 0.232715
0.916106 0.890349 0.239796
0.969955 0.891173 0.24567
0.976364 0.891279 0.246403
0.0383612 0.0653697 0.352087
0.112398 0.0638895 0.351522
0.285435 0.0689708 0.363729
0.472786 0.0771496 0.378271
0.633829 0.0822309 0.389563
0.760632 0.0847334 0.397009
0.786374 0.0762951 0.38204
0.789624 0.0664378 0.362097
0.794003 0.0552987 0.341543
0.0337377 0.153719 0.357458
0.107347 0.162493 0.364843
0.284138 0.182223 0.388067
0.493645 0.194537 0.404395
0.655741 0.19736 0.411734
0.78555 0.193652 0.410544
0.831144 0.17734 0.392462
0.830854 0.155871 0.365652
0.831342 0.135454 0.339818
0.0393683 0.329366 0.404746
0.11751 0.362875 0.425681
0.321798 0.411582 0.456657
0.574319 0.422339 0.452155
0.735836 0.412146 0.437095
0.853773 0.396277 0.424506
0.906386 0.370947 0.404685
0.904921 0.338415 0.37438
0.901534 0.305898 0.344182
0.0637217 0.54995 0.462562
0.155993 0.574517 0.473732
0.383871 0.602701 0.480934
0.614435 0.605188 0.465537
0.766537 0.592828 0.429297
0.87985 0.577752 0.396399
0.944839 0.560876 0.369192
0.947967 0.541222 0.341558
0.948272 0.520012 0.311788
0.133349 0.707973 0.48159
0.216419 0.713771 0.475746
0.428382 0.722118 0.465904
0.631052 0.717815 0.44686
0.768231 0.710536 0.430823
0.874266 0.700786 0.406485
0.952026 0.690394 0.376333
0.958862 0.677638 0.352728
0.958495 0.663645 0.329992
0.215412 0.816831 0.468894
0.264942 0.814496 0.456657
0.453361 0.814679 0.44239
0.641871 0.806729 0.420157
0.769726 0.799344 0.405631
0.870634 0.792355 0.394354
0.949859 0.784497 0.37847
0.966766 0.775082 0.358724
0.966339 0.765072 0.338369
0.267796 0.893202 0.440955
0.290715 0.891615 0.427497
0.462242 0.888975 0.413413
0.641855 0.881514 0.394903
0.766918 0.873396 0.378408
0.865278 0.866987 0.366934
0.943832 0.860945 0.356817
0.972992 0.853223 0.343404
0.973068 0.845212 0.326741
0.284916 0.902693 0.391318
0.293904 0.902296 0.378882
0.434333 0.902113 0.36524
0.62327 0.899931 0.348547
0.751492 0.897826 0.335988
0.85153 0.896071 0.328191
0.93109 0.896162 0.323873
0.975387 0.896361 0.317143
0.976959 0.893599 0.302831
0.297063 0.89984 0.339071
0.302083 0.899016 0.328786
0.398154 0.898482 0.317769
0.58883 0.896849 0.304356
0.72752 0.895033 0.292287
0.831891 0.893278 0.283299
0.914107 0.893431 0.279469
0.969299 0.893782 0.280247
0.976761 0.893462 0.275044
0.0408026 0.0671855 0.501732
0.110903 0.0654154 0.504509
0.272435 0.0715038 0.524865
0.46714 0.0805219 0.546105
0.626352 0.0897993 0.565393
0.749828 0.096849 0.579263
0.773404 0.0908522 0.56968
0.770809 0.0830549 0.553338
0.769024 0.0763714 0.537606
0.0370794 0.159884 0.517617
0.106233 0.166476 0.527367
0.264942 0.187472 0.557794
0.484794 0.206378 0.583673
0.645274 0.21619 0.598611
0.766842 0.221225 0.606439
0.807172 0.210498 0.595529
0.802106 0.191577 0.574746
0.796857 0.174044 0.553552
0.0424811 0.341588 0.57879
0.114763 0.370962 0.597894
0.285878 0.420035 0.634226
0.526909 0.442435 0.651606
0.68806 0.44567 0.654536
0.804242 0.441184 0.653773
0.858991 0.425635 0.644434
0.856092 0.399802 0.623987
0.852659 0.373434 0.60148
0.061738 0.556695 0.632898
0.140307 0.576654 0.642725
0.338262 0.607309 0.66006
0.562646 0.619989 0.664515
0.721202 0.614862 0.654047
0.840726 0.607385 0.64239
0.912612 0.596002 0.630396
0.915572 0.580743 0.615183
0.914931 0.56463 0.599527
0.124331 0.708186 0.649317
0.195377 0.712245 0.647913
0.384314 0.726818 0.653742
0.583627 0.731609 0.650233
0.73341 0.726421 0.638926
0.850477 0.71812 0.619287
0.936065 0.708888 0.598947
0.947143 0.697902 0.579828
0.947219 0.68603 0.560647
0.206256 0.816739 0.645045
0.245548 0.814862 0.639612
0.408316 0.820661 0.641718
0.59234 0.819608 0.63006
0.736873 0.812787 0.615244
0.84622 0.805936 0.603143
0.934691 0.798795 0.58761
0.956298 0.790677 0.570657
0.957107 0.781872 0.552056
0.255009 0.894713 0.629496
0.270298 0.893568 0.620325
0.413779 0.895338 0.616175
0.591394 0.893065 0.605112
0.736156 0.88539 0.589426
0.843336 0.878141 0.576608
0.929259 0.872282 0.565194
0.966964 0.865568 0.550347
0.96788 0.858183 0.532799
0.263722 0.907134 0.592752
0.267185 0.907195 0.582834
0.380392 0.912016 0.576684
0.568139 0.914122 0.563439
0.72076 0.911452 0.547814
0.832502 0.909102 0.534707
0.920501 0.908721 0.525429
0.973312 0.908354 0.515007
0.976104 0.90547 0.499123
0.266072 0.906828 0.546273
0.26807 0.906691 0.533959
0.345098 0.909163 0.524132
0.533074 0.911208 0.511177
0.697871 0.908782 0.49572
0.813794 0.906828 0.48159
0.904265 0.906096 0.47097
0.967285 0.905776 0.461738
0.977081 0.904921 0.447364
0.0430762 0.0692149 0.637491
0.112718 0.0675822 0.641794
0.266499 0.0744793 0.66363
0.466941 0.0837415 0.685802
0.628 0.0933394 0.704112
0.751781 0.0997482 0.717128
0.778698 0.0951247 0.710842
0.775876 0.0863813 0.698451
0.774823 0.0836347 0.687999
0.040238 0.165576 0.657603
0.107652 0.17145 0.666346
0.258824 0.191974 0.694072
0.481743 0.211673 0.719173
0.646464 0.222431 0.732372
0.769696 0.227924 0.741482
0.812345 0.217899 0.735378
0.80737 0.19881 0.719921
0.801923 0.180133 0.703517
0.0455634 0.350271 0.71548
0.115404 0.377707 0.732235
0.279423 0.423865 0.761395
0.520409 0.445716 0.776364
0.681788 0.447379 0.778775
0.800107 0.444221 0.778943
0.857313 0.430106 0.772076
0.853117 0.407324 0.75845
0.848417 0.383719 0.743923
0.0637217 0.562417 0.764523
0.135973 0.578988 0.771328
0.327169 0.608621 0.784695
0.551034 0.621592 0.78999
0.699779 0.618616 0.786908
0.816342 0.615625 0.784009
0.89015 0.608133 0.778592
0.890913 0.595102 0.768597
0.887678 0.58146 0.758236
0.123842 0.709072 0.774578
0.190539 0.711803 0.772839
0.373312 0.725414 0.7776
0.567178 0.733135 0.780346
0.710857 0.732616 0.778073
0.827619 0.726635 0.771084
0.913283 0.720577 0.764782
0.925536 0.710826 0.754086
0.924758 0.700206 0.74287
0.205005 0.815915 0.771984
0.238605 0.813138 0.767086
0.39556 0.818936 0.7682
0.573007 0.820829 0.76791
0.71162 0.819135 0.763119
0.826123 0.813092 0.754238
0.919127 0.806806 0.743252
0.943603 0.799344 0.731441
0.943816 0.790814 0.719432
0.252216 0.895628 0.761227
0.264424 0.892866 0.754437
0.399329 0.894438 0.754238
0.568902 0.894881 0.753246
0.706188 0.891539 0.746838
0.821988 0.885161 0.736065
0.912367 0.879057 0.72781
0.954116 0.873075 0.717708
0.95555 0.866346 0.70634
0.260136 0.908476 0.736309
0.261814 0.908522 0.72903
0.366171 0.913405 0.727062
0.541024 0.918959 0.726665
0.687556 0.920287 0.719066
0.81059 0.918791 0.708995
0.904707 0.917693 0.700984
0.963623 0.916594 0.693339
0.967727 0.914122 0.681834
0.261036 0.90811 0.704356
0.261738 0.90808 0.696574
0.327657 0.911269 0.692836
0.499077 0.917372 0.693034
0.656428 0.919768 0.685618
0.789151 0.917784 0.672816
0.886793 0.916243 0.662455
0.957809 0.915846 0.654368
0.970886 0.915343 0.643153
0.0442512 0.0705272 0.734798
0.11371 0.069276 0.743236
0.265095 0.076997 0.767468
0.469032 0.0875563 0.791791
0.63238 0.0972305 0.813916
0.75378 0.102007 0.824948
0.783383 0.0983291 0.8206
0.780789 0.090135 0.811658
0.780606 0.0898756 0.806775
0.0429236 0.170382 0.765682
0.108949 0.176303 0.776287
0.258045 0.197299 0.80174
0.482887 0.218311 0.82652
0.649393 0.229175 0.839994
0.772045 0.233036 0.848402
0.816968 0.22295 0.845319
0.812146 0.203891 0.833371
0.806973 0.184863 0.819196
0.0484016 0.358114 0.823804
0.11664 0.383474 0.837842
0.277073 0.428138 0.86389
0.519707 0.449699 0.878279
0.681041 0.448936 0.879591
0.798352 0.442649 0.877684
0.859312 0.429709 0.872526
0.855329 0.407614 0.861936
0.851026 0.385122 0.850675
0.0661021 0.566857 0.870436
0.134096 0.581277 0.874662
0.322927 0.609735 0.884871
0.548577 0.621607 0.889128
0.695827 0.618982 0.885939
0.810162 0.613794 0.882551
0.888609 0.606683 0.877913
0.888716 0.594034 0.869825
0.886091 0.579965 0.861463
0.130144 0.710918 0.878431
0.190616 0.712688 0.876951
0.369329 0.725521 0.88011
0.563058 0.733257 0.882185
0.705882 0.732906 0.880674
0.813001 0.728145 0.876356
0.89807 0.723354 0.872572
0.911696 0.714397 0.8654
0.910353 0.704524 0.857374
0.208408 0.816297 0.8748
0.237598 0.812497 0.869734
0.389532 0.816434 0.868467
0.566491 0.81915 0.86807
0.70341 0.819471 0.867781
0.812192 0.815671 0.864088
0.904356 0.811124 0.860975
0.930816 0.804395 0.85449
0.930388 0.796124 0.844892
0.254688 0.895796 0.86453
0.264942 0.891859 0.858946
0.391852 0.892805 0.858442
0.561166 0.893416 0.858381
0.696239 0.89221 0.856565
0.805158 0.888624 0.851118
0.89955 0.882445 0.84361
0.944976 0.87718 0.836835
0.946242 0.870756 0.828305
0.260563 0.910018 0.844755
0.261418 0.909987 0.838712
0.359304 0.914275 0.837629
0.53257 0.919814 0.838392
0.676646 0.923247 0.837812
0.792706 0.92488 0.832883
0.891234 0.923537 0.824918
0.953109 0.92166 0.818845
0.958267 0.919768 0.810407
0.259907 0.909636 0.820401
0.259968 0.90956 0.814084
0.320256 0.912383 0.811627
0.489433 0.918471 0.812787
0.644083 0.92253 0.811978
0.767391 0.924239 0.806409
0.871534 0.922667 0.797421
0.946426 0.922271 0.791012
0.961166 0.922133 0.783291
0.0419776 0.0675517 0.745846
0.110643 0.0665599 0.755566
0.258137 0.0739452 0.781888
0.464149 0.0852979 0.810727
0.629267 0.0943313 0.834775
0.750866 0.100252 0.851453
0.784115 0.0967269 0.854688
0.782864 0.092256 0.853407
0.782742 0.0920119 0.852781
0.0417945 0.166171 0.784314
0.105821 0.170718 0.796399
0.24976 0.191012 0.825452
0.477394 0.214603 0.856199
0.646616 0.226459 0.876066
0.77084 0.230671 0.888945
0.819104 0.221363 0.891661
0.814694 0.203067 0.886931
0.810285 0.185412 0.881926
0.048127 0.354543 0.856184
0.114122 0.378424 0.873564
0.271794 0.42266 0.901839
0.515038 0.445731 0.920272
0.677226 0.445579 0.927611
0.795239 0.438575 0.931701
0.859098 0.425406 0.931441
0.856352 0.404486 0.925765
0.852491 0.383139 0.921904
0.066743 0.565499 0.91751
0.129839 0.579278 0.926619
0.318746 0.607141 0.939879
0.545037 0.619547 0.947051
0.694667 0.617304 0.947387
0.807126 0.611307 0.948562
0.88925 0.603998 0.952483
0.889128 0.591455 0.947997
0.886503 0.576761 0.93991
0.132555 0.710491 0.940703
0.187823 0.711849 0.942733
0.36643 0.724773 0.951064
0.561685 0.732921 0.958892
0.704448 0.732341 0.958038
0.81059 0.726879 0.952209
0.89485 0.721065 0.950072
0.909636 0.712306 0.948104
0.908064 0.702464 0.943542
0.217365 0.816571 0.952926
0.241535 0.812314 0.948089
0.388327 0.815778 0.947768
0.563195 0.818372 0.950134
0.701503 0.819379 0.953902
0.808789 0.815778 0.952697
0.895857 0.812039 0.949615
0.923964 0.805798 0.943542
0.922927 0.797833 0.937438
0.261814 0.894865 0.948043
0.271122 0.890898 0.945708
0.391257 0.891005 0.944778
0.557244 0.890974 0.942504
0.692744 0.891005 0.941848
0.800092 0.888823 0.93991
0.890929 0.884611 0.937606
0.937484 0.879454 0.933257
0.938216 0.873304 0.926879
0.268223 0.911391 0.933516
0.268254 0.911345 0.928878
0.360388 0.915267 0.927657
0.528786 0.91989 0.927611
0.674037 0.924376 0.9281
0.788083 0.927932 0.926696
0.882414 0.927169 0.921935
0.946868 0.92462 0.91603
0.952895 0.923278 0.909438
0.265949 0.911086 0.914214
0.265354 0.911009 0.909102
0.32137 0.913619 0.906691
0.484718 0.918746 0.906661
0.640269 0.923735 0.907271
0.761547 0.927474 0.905837
0.860807 0.927443 0.90045
0.939071 0.926314 0.894301
0.955398 0.926284 0.888045
0.0393378 0.0640421 0.744137
0.106767 0.0631113 0.753674
0.250202 0.0697795 0.779232
0.456504 0.0813458 0.808484
0.622675 0.0894026 0.832364
0.74609 0.0966964 0.849836
0.783154 0.0933089 0.853727
0.78294 0.092546 0.853529
0.782422 0.0907912 0.852979
0.0393225 0.159365 0.781262
0.101381 0.162554 0.792416
0.240558 0.179995 0.819974
0.466682 0.204944 0.851957
0.639063 0.217472 0.872786
0.765698 0.222171 0.886549
0.81738 0.213809 0.889845
0.812848 0.19559 0.884871
0.808454 0.178119 0.87985
0.0466926 0.344869 0.852537
0.108995 0.366064 0.868971
0.260227 0.410376 0.898039
0.50518 0.435309 0.917906
0.670268 0.436103 0.925948
0.790021 0.429145 0.930159
0.856092 0.41622 0.931502
0.854841 0.395636 0.928298
0.851072 0.374899 0.924834
0.0647288 0.558495 0.915969
0.12343 0.570153 0.924208
0.304555 0.599664 0.938781
0.535668 0.613428 0.947753
0.689113 0.611749 0.950301
0.802762 0.605524 0.951461
0.887282 0.598535 0.953811
0.888319 0.586084 0.952865
0.885527 0.570199 0.951186
0.129107 0.706111 0.943587
0.179782 0.706798 0.946151
0.355901 0.720317 0.953597
0.554437 0.728725 0.960266
0.699184 0.728298 0.963226
0.806928 0.723323 0.963333
0.893568 0.71722 0.964508
0.909178 0.708568 0.964202
0.907561 0.698512 0.963195
0.215702 0.81326 0.957092
0.235996 0.808804 0.957366
0.381613 0.812787 0.961212
0.557183 0.815793 0.965911
0.697734 0.816907 0.971496
0.806073 0.81355 0.973785
0.892943 0.809339 0.974701
0.923552 0.803174 0.974517
0.922683 0.795361 0.973022
0.262898 0.892775 0.965454
0.270817 0.888701 0.965438
0.386664 0.888685 0.968124
0.552254 0.888838 0.971389
0.688869 0.888899 0.975341
0.796857 0.887205 0.977646
0.887617 0.883528 0.980377
0.935622 0.879271 0.982971
0.935699 0.873137 0.981704
0.273289 0.912016 0.967361
0.273442 0.912016 0.966766
0.359442 0.915434 0.968978
0.525582 0.919921 0.972854
0.671626 0.924697 0.976883
0.785534 0.928664 0.97969
0.879271 0.928298 0.980636
0.943114 0.926925 0.981277
0.94966 0.925841 0.979339
0.273045 0.911971 0.965667
0.272984 0.911971 0.965042
0.323445 0.914199 0.965682
0.483131 0.919295 0.968032
0.638331 0.92398 0.970504
0.758984 0.9281 0.972015
0.857557 0.929656 0.971725
0.935012 0.929732 0.972
0.951217 0.929778 0.97116
0.0370947 0.0608072 0.742611
0.102815 0.059678 0.751705
0.242054 0.0661784 0.77673
0.44828 0.0770275 0.805982
0.616556 0.0854658 0.830365
0.741405 0.0926223 0.848066
0.782864 0.0922408 0.853452
0.782864 0.0923171 0.853437
0.781872 0.0889143 0.852445
0.0370031 0.152636 0.778302
0.0968185 0.153918 0.788251
0.232059 0.171481 0.815427
0.456382 0.195941 0.847974
0.631281 0.208301 0.869322
0.760082 0.213642 0.883803
0.815427 0.205982 0.887724
0.811032 0.188388 0.882811
0.806683 0.172 0.877943
0.0450599 0.335225 0.84892
0.104158 0.353414 0.864042
0.247776 0.397772 0.893721
0.495171 0.424552 0.91545
0.662989 0.425772 0.923934
0.784649 0.419486 0.928435
0.853361 0.407141 0.930022
0.853254 0.386786 0.926879
0.849393 0.365591 0.923323
0.0626993 0.550896 0.914214
0.116716 0.560723 0.921675
0.290486 0.591623 0.937087
0.525856 0.607004 0.94667
0.682826 0.605936 0.949569
0.798199 0.599786 0.950744
0.884581 0.592874 0.953277
0.887205 0.579538 0.952239
0.884321 0.563424 0.950393
0.125521 0.701213 0.94287
0.170947 0.701305 0.945296
0.344579 0.715221 0.952865
0.546227 0.724376 0.959564
0.693553 0.72398 0.962753
0.802716 0.71899 0.962829
0.89189 0.712932 0.964111
0.908461 0.704372 0.963897
0.906874 0.694469 0.96289
0.213214 0.809598 0.956527
0.229999 0.80499 0.956847
0.37293 0.808957 0.960739
0.550225 0.812238 0.965515
0.692668 0.813626 0.971237
0.802365 0.810391 0.973526
0.889616 0.80592 0.974212
0.922911 0.799893 0.974472
0.92221 0.79205 0.973556
0.261463 0.890135 0.96524
0.26804 0.886091 0.965316
0.379156 0.885756 0.967758
0.54609 0.885954 0.971023
0.683894 0.886107 0.975433
0.792981 0.884581 0.978637
0.884321 0.880858 0.981704
0.93521 0.876768 0.984222
0.935195 0.870741 0.983642
0.27332 0.912016 0.96762
0.274052 0.912047 0.967651
0.35462 0.915053 0.970245
0.520195 0.919676 0.974304
0.667628 0.924727 0.978653
0.781903 0.928222 0.981979
0.876081 0.927504 0.984924
0.941833 0.926741 0.988037
0.949157 0.925338 0.988342
0.27332 0.912016 0.96762
0.27332 0.912016 0.96762
0.318685 0.914031 0.969192
0.477791 0.919234 0.97351
0.63389 0.923827 0.97763
0.755611 0.9281 0.981399
0.854719 0.929839 0.984329
0.933883 0.930312 0.987671
0.950698 0.93051 0.988571
