LUT预设1/LUT全系打包/2024-VINTAGE系列lut/vintage709正常色彩使用/coolstyle清新-709.cube
TITLE "Generated by Resolve"
LUT_3D_SIZE 33
0.0381781 0.0624399 0.104677
0.0548409 0.061738 0.103624
0.0839704 0.0607309 0.102022
0.119692 0.0592508 0.100145
0.165347 0.0572824 0.0980087
0.216663 0.0545663 0.0957656
0.27068 0.0513771 0.09337
0.326421 0.0482185 0.091371
0.381628 0.0450599 0.0894484
0.43473 0.0425116 0.0881056
0.485359 0.0401007 0.0869001
0.532616 0.0381323 0.0861067
0.575845 0.0365759 0.0857099
0.616907 0.0353094 0.0857862
0.654795 0.0342718 0.085832
0.691783 0.0331426 0.0858778
0.726116 0.0322576 0.0864576
0.760037 0.0312657 0.0870832
0.791806 0.030396 0.0879225
0.818753 0.0295872 0.0884718
0.841108 0.0288701 0.0886854
0.853544 0.0282292 0.0881819
0.861646 0.0276036 0.0872816
0.862303 0.0270848 0.0859236
0.861936 0.026566 0.0844282
0.861616 0.0260319 0.0831006
0.861265 0.0254826 0.0817273
0.860914 0.024979 0.0804608
0.860578 0.0245518 0.0792096
0.860258 0.0242008 0.0779583
0.859907 0.0238499 0.0766766
0.859525 0.0234531 0.075288
0.859236 0.0229801 0.0738537
0.0361791 0.0776226 0.101869
0.0544137 0.076936 0.100816
0.0806287 0.0760204 0.0991531
0.118303 0.0746166 0.0969711
0.161639 0.0728161 0.0943313
0.214221 0.0699321 0.0918593
0.267781 0.066804 0.0893568
0.323583 0.0634165 0.0874647
0.378408 0.0602731 0.0857252
0.431785 0.0574655 0.0849622
0.482185 0.0552224 0.0848554
0.530556 0.0531472 0.0849012
0.573831 0.0511025 0.0849928
0.616144 0.0488441 0.0849317
0.654185 0.0464637 0.0849928
0.691096 0.0440528 0.0851301
0.725536 0.0417487 0.0854963
0.758679 0.0396429 0.0859846
0.790509 0.0378119 0.0865949
0.817472 0.0362707 0.0869306
0.842847 0.035172 0.0871595
0.855314 0.0344396 0.0864424
0.865675 0.0336156 0.0855421
0.865339 0.033051 0.0841077
0.865019 0.0323644 0.0827039
0.864591 0.031632 0.0814527
0.864134 0.030869 0.0801709
0.863676 0.0301518 0.0788739
0.863203 0.0294957 0.0775464
0.862699 0.0287785 0.0760815
0.862211 0.0281682 0.0745403
0.861723 0.0275425 0.0729076
0.861402 0.0270085 0.0718242
0.0345159 0.0959029 0.0992447
0.0538491 0.0950332 0.0977951
0.0775769 0.0940414 0.096025
0.117632 0.0924392 0.0929732
0.160891 0.0906996 0.0897383
0.213672 0.087953 0.0870527
0.26685 0.0852674 0.0852216
0.321752 0.082063 0.0843977
0.376425 0.0791943 0.083711
0.431037 0.0763867 0.0833753
0.481361 0.0741741 0.0834974
0.530983 0.0721294 0.0835126
0.574609 0.0702068 0.0836957
0.616678 0.0679332 0.0839094
0.655665 0.0652628 0.0839399
0.692424 0.0625467 0.0841993
0.727321 0.059678 0.084535
0.760143 0.0571298 0.0849317
0.792233 0.0544747 0.0853285
0.819883 0.0521096 0.0855573
0.845502 0.0496681 0.0855268
0.86038 0.047425 0.0850385
0.870298 0.045243 0.0842451
0.870314 0.0433356 0.082887
0.869932 0.0414588 0.0815137
0.869108 0.0395819 0.0801099
0.868315 0.0381323 0.078645
0.867506 0.03682 0.0771038
0.866835 0.035996 0.0755016
0.866209 0.0351873 0.0739605
0.865751 0.0346227 0.073228
0.865309 0.0339818 0.0727092
0.864973 0.0333257 0.0726635
0.0336309 0.118929 0.0972915
0.0539864 0.1187 0.0956436
0.0779889 0.118303 0.0937667
0.117815 0.117464 0.0912642
0.162127 0.115999 0.0886091
0.214481 0.113573 0.0857404
0.26865 0.110323 0.0835279
0.324147 0.106645 0.0818494
0.379126 0.103334 0.0812695
0.433677 0.100099 0.0810407
0.483848 0.0978714 0.0813153
0.532265 0.0957504 0.0816663
0.576974 0.0937514 0.0818952
0.619394 0.0916609 0.0821546
0.659159 0.0890211 0.0823529
0.695674 0.0859388 0.0825818
0.731304 0.0829175 0.0828565
0.7635 0.0801862 0.0831464
0.794751 0.0774243 0.0834211
0.823575 0.074403 0.0836957
0.848066 0.0716411 0.0838331
0.86598 0.0689708 0.0837262
0.874723 0.066392 0.0830091
0.876966 0.0637369 0.0818036
0.876875 0.0611582 0.0803845
0.87599 0.0584573 0.0787976
0.875151 0.05626 0.0771496
0.874388 0.0540475 0.0763867
0.873594 0.0515908 0.0759899
0.872801 0.0492409 0.0755169
0.872023 0.0473182 0.0750134
0.871244 0.045304 0.0746777
0.870451 0.0431373 0.0744182
0.0341192 0.145663 0.0961471
0.0542763 0.146319 0.0953841
0.0808423 0.147051 0.0942397
0.1187 0.14789 0.0924697
0.165545 0.147677 0.0900282
0.218357 0.146868 0.0871901
0.274693 0.144411 0.0844434
0.33193 0.141329 0.0816205
0.388647 0.137926 0.0803693
0.44361 0.134539 0.0792248
0.495537 0.131701 0.0790723
0.543343 0.12929 0.0789044
0.587869 0.127047 0.0789654
0.628244 0.1243 0.0790875
0.667735 0.12163 0.0792706
0.702815 0.118517 0.0798047
0.737148 0.115511 0.0802014
0.768566 0.112093 0.080705
0.798795 0.108263 0.0812238
0.827848 0.104204 0.0816663
0.851514 0.100389 0.0819409
0.872282 0.0973678 0.0820172
0.880308 0.0939345 0.0812085
0.885847 0.0905928 0.0802472
0.884962 0.0875563 0.07953
0.884062 0.0844739 0.0788586
0.883223 0.0818647 0.0782025
0.882353 0.0790417 0.0777447
0.881392 0.075761 0.0775769
0.880522 0.0730449 0.0772717
0.879652 0.0705119 0.0767681
0.878767 0.0676738 0.0763561
0.877821 0.0645304 0.0758373
0.03682 0.17821 0.0974899
0.0558633 0.179568 0.0969558
0.0849928 0.181704 0.0963455
0.120806 0.184573 0.0955978
0.171115 0.185809 0.0934157
0.224979 0.187091 0.0908217
0.284016 0.185016 0.0868849
0.343053 0.182681 0.08336
0.401785 0.179583 0.0807355
0.457237 0.176547 0.0788434
0.510491 0.173968 0.0775464
0.557366 0.171405 0.0769207
0.602533 0.16875 0.0762493
0.642145 0.166384 0.0761273
0.680522 0.163836 0.0759289
0.715328 0.160708 0.0762036
0.748409 0.15758 0.076463
0.779095 0.153964 0.0768444
0.808118 0.150408 0.077348
0.835874 0.146792 0.0778821
0.858564 0.143053 0.0783551
0.880034 0.139574 0.0795911
0.889036 0.135271 0.0801709
0.89601 0.130602 0.0804456
0.89482 0.126116 0.0801709
0.893645 0.121675 0.0798352
0.8925 0.117311 0.079469
0.891325 0.112657 0.0791791
0.890074 0.107576 0.0789502
0.889235 0.104173 0.0784161
0.888365 0.100694 0.0777295
0.887373 0.0968795 0.0770123
0.886381 0.0931258 0.0762341
0.0416724 0.218418 0.101411
0.060029 0.221317 0.101442
0.0922255 0.225818 0.101549
0.128756 0.230762 0.101579
0.181186 0.235004 0.100603
0.236515 0.238163 0.0988479
0.297017 0.238712 0.0953994
0.357748 0.237385 0.0911879
0.418708 0.23476 0.0861982
0.475074 0.231098 0.0820783
0.530419 0.227115 0.0778821
0.576333 0.223194 0.0757305
0.620691 0.218845 0.0736095
0.659449 0.215854 0.0729381
0.696056 0.212528 0.0725414
0.730083 0.209049 0.0723888
0.76144 0.205875 0.0724956
0.791424 0.20264 0.0728771
0.819013 0.199145 0.0742046
0.845762 0.195895 0.0754864
0.868772 0.192309 0.0766918
0.889006 0.188724 0.0777752
0.90161 0.184573 0.0787213
0.90808 0.179843 0.0791485
0.907301 0.175128 0.0790417
0.906233 0.170352 0.0788586
0.904875 0.165057 0.0785382
0.903593 0.159991 0.0782177
0.902281 0.154772 0.0777447
0.900984 0.149767 0.0771954
0.89955 0.144305 0.0766003
0.898131 0.138964 0.0762341
0.896773 0.133928 0.0758221
0.0476539 0.263294 0.106355
0.0661936 0.267185 0.1066
0.100923 0.274006 0.107393
0.140932 0.280858 0.108019
0.193271 0.287709 0.108324
0.250233 0.292592 0.107408
0.311238 0.296101 0.105653
0.372793 0.296239 0.101808
0.434028 0.29572 0.0974746
0.490776 0.293095 0.0926528
0.545022 0.290791 0.0879835
0.592416 0.287449 0.0840925
0.635966 0.283803 0.0805524
0.675731 0.280018 0.0773327
0.711681 0.275532 0.0749676
0.74609 0.27126 0.0732433
0.776593 0.266407 0.0725567
0.806165 0.26183 0.0719768
0.832883 0.257053 0.0723583
0.858473 0.252628 0.0727855
0.88191 0.247974 0.0735637
0.901198 0.243732 0.0747387
0.916045 0.239445 0.0761883
0.920287 0.234699 0.0766613
0.920165 0.22948 0.0766766
0.918791 0.223667 0.0764477
0.917372 0.218006 0.076051
0.91606 0.212497 0.0755169
0.914717 0.206592 0.0749523
0.913512 0.201083 0.0744488
0.912337 0.19556 0.0740978
0.911086 0.1897 0.073991
0.909911 0.184665 0.0738689
0.0552529 0.314305 0.112581
0.0768444 0.318898 0.112749
0.11136 0.326482 0.113817
0.1552 0.334646 0.114931
0.20676 0.34313 0.116091
0.265354 0.349599 0.116701
0.325933 0.355474 0.117037
0.387808 0.356939 0.11397
0.448066 0.357763 0.11043
0.505409 0.356313 0.105058
0.558114 0.354635 0.100053
0.606073 0.352087 0.0956588
0.648508 0.348577 0.0919814
0.688197 0.345144 0.0885481
0.722957 0.340627 0.0855573
0.756817 0.336034 0.0825055
0.787045 0.331518 0.0805219
0.816129 0.326619 0.0785229
0.842588 0.32221 0.0772412
0.867369 0.317449 0.0760967
0.890837 0.313024 0.075227
0.908995 0.308034 0.0749218
0.925414 0.303319 0.0747387
0.928939 0.296849 0.0740673
0.931411 0.290517 0.0732433
0.93048 0.283757 0.0725414
0.929656 0.277317 0.0718395
0.928817 0.270863 0.0713512
0.927947 0.264134 0.0710307
0.927153 0.257786 0.0708782
0.925978 0.252064 0.0711986
0.924758 0.246067 0.071519
0.923186 0.240528 0.0718547
0.0656596 0.369757 0.120836
0.090135 0.374975 0.121355
0.123919 0.382773 0.122454
0.171023 0.390967 0.123674
0.222156 0.399649 0.124865
0.281758 0.406195 0.125719
0.34165 0.411826 0.12604
0.402426 0.414786 0.124987
0.460716 0.416876 0.123888
0.517021 0.417807 0.121538
0.567727 0.417655 0.118013
0.616236 0.416587 0.113802
0.657038 0.413779 0.109117
0.69688 0.410697 0.104143
0.731395 0.406409 0.0997482
0.764492 0.401572 0.0954452
0.795071 0.396323 0.0913252
0.823133 0.391455 0.087892
0.849546 0.38616 0.0846571
0.873487 0.380957 0.0822461
0.896483 0.376257 0.0799878
0.913939 0.370886 0.0788739
0.929366 0.365682 0.0775921
0.93518 0.359152 0.0762188
0.938994 0.352987 0.0748913
0.938308 0.346593 0.0738842
0.937682 0.340658 0.0731518
0.937041 0.334813 0.0726329
0.9364 0.328527 0.0721752
0.935882 0.322835 0.0717021
0.93518 0.316609 0.0713664
0.934524 0.310643 0.0710155
0.933532 0.304219 0.0709239
0.0778363 0.42594 0.129351
0.105165 0.431342 0.129885
0.137621 0.438071 0.130724
0.18732 0.446235 0.131823
0.239429 0.454261 0.133349
0.297566 0.46096 0.135393
0.356435 0.466026 0.136843
0.416052 0.46949 0.137774
0.47248 0.471366 0.137453
0.52781 0.472663 0.136782
0.575967 0.472068 0.134081
0.6224 0.471107 0.131121
0.662333 0.468589 0.127047
0.700145 0.466072 0.122866
0.734676 0.462577 0.118029
0.766903 0.458686 0.112963
0.797574 0.454551 0.107622
0.824964 0.450538 0.1028
0.851835 0.446082 0.097673
0.875029 0.441718 0.0937819
0.897292 0.43772 0.0899214
0.915908 0.432853 0.0868238
0.930907 0.427649 0.0840314
0.940612 0.421317 0.0817121
0.944533 0.415351 0.0801556
0.944289 0.409216 0.0789807
0.943893 0.403418 0.0784772
0.943404 0.39736 0.0779889
0.942946 0.391684 0.0775464
0.942458 0.385718 0.0770428
0.941878 0.379904 0.0766461
0.941192 0.373495 0.076051
0.940429 0.367163 0.0755627
0.0942092 0.481041 0.138155
0.122087 0.48629 0.139239
0.15491 0.491859 0.14052
0.203387 0.50016 0.14255
0.255909 0.507454 0.144259
0.312795 0.513787 0.145846
0.370748 0.517327 0.147158
0.429099 0.520287 0.148287
0.483406 0.521508 0.149035
0.536156 0.522301 0.149279
0.583124 0.521798 0.147951
0.626886 0.520607 0.1458
0.666712 0.51841 0.142443
0.702937 0.515877 0.138399
0.737209 0.512749 0.133791
0.768414 0.508934 0.128496
0.798672 0.505089 0.123064
0.825559 0.501106 0.117983
0.851484 0.496986 0.1131
0.8748 0.492973 0.109102
0.896468 0.48925 0.105562
0.916121 0.4851 0.102358
0.931319 0.480583 0.099321
0.944106 0.476356 0.0964828
0.946944 0.471458 0.0944839
0.947723 0.467033 0.0927596
0.947402 0.461967 0.0916609
0.947112 0.457343 0.0904555
0.946807 0.452171 0.0889448
0.946532 0.447272 0.0873121
0.946242 0.441718 0.0855116
0.945891 0.435782 0.0843214
0.94551 0.429313 0.0831311
0.11751 0.5337 0.150301
0.140139 0.536522 0.150881
0.173571 0.541375 0.151904
0.218555 0.547829 0.153521
0.271015 0.553582 0.154757
0.326268 0.558968 0.15581
0.383322 0.561593 0.156451
0.439246 0.563485 0.156909
0.492561 0.564187 0.157458
0.542733 0.564401 0.15761
0.589197 0.563989 0.157336
0.630793 0.562997 0.1561
0.669871 0.56173 0.154406
0.704845 0.559594 0.151171
0.738338 0.557671 0.147799
0.768933 0.554131 0.14284
0.798535 0.550576 0.137972
0.82533 0.546822 0.133135
0.850614 0.543175 0.128771
0.874327 0.539864 0.124941
0.895674 0.536385 0.121492
0.916197 0.532906 0.118242
0.931838 0.529259 0.115297
0.946136 0.525444 0.112642
0.948608 0.521035 0.110887
0.950622 0.516915 0.109224
0.950332 0.512078 0.107713
0.950057 0.507607 0.106218
0.949752 0.502892 0.104616
0.949477 0.49839 0.103105
0.949187 0.493645 0.101503
0.948928 0.488869 0.0999771
0.948653 0.483894 0.0983444
0.140963 0.582376 0.16112
0.157809 0.583413 0.161196
0.191745 0.58703 0.161929
0.232029 0.591836 0.162951
0.284871 0.595941 0.163424
0.33846 0.599649 0.163745
0.394049 0.601328 0.163592
0.447822 0.602029 0.16347
0.50016 0.601938 0.163455
0.548257 0.601328 0.163439
0.594064 0.600458 0.163394
0.634195 0.599237 0.162799
0.672724 0.597971 0.162112
0.706416 0.596124 0.160403
0.739071 0.594079 0.158373
0.769314 0.59147 0.155245
0.797757 0.588693 0.151766
0.824872 0.585901 0.147921
0.849622 0.583047 0.144259
0.873503 0.580316 0.140719
0.894804 0.577783 0.138064
0.915297 0.57557 0.135454
0.932021 0.572686 0.132692
0.945342 0.56968 0.130068
0.950515 0.56611 0.12784
0.953231 0.562036 0.12575
0.952972 0.557641 0.123919
0.952712 0.553597 0.122301
0.952453 0.549416 0.120668
0.952209 0.545113 0.119051
0.95198 0.541176 0.117571
0.95172 0.536522 0.115892
0.951492 0.532296 0.114382
0.164706 0.624582 0.170718
0.174929 0.624414 0.17023
0.208438 0.627237 0.170306
0.245914 0.630121 0.170275
0.296666 0.633433 0.170077
0.348837 0.635859 0.169589
0.403098 0.636988 0.168688
0.455161 0.637003 0.168154
0.506416 0.636393 0.167758
0.552926 0.635294 0.167956
0.598108 0.634134 0.1682
0.637186 0.632807 0.168597
0.674708 0.63154 0.168841
0.708263 0.630121 0.16878
0.739879 0.62829 0.167926
0.769558 0.626383 0.166522
0.797375 0.623789 0.164096
0.824262 0.621134 0.161593
0.848447 0.618524 0.158572
0.872114 0.615946 0.155489
0.893492 0.613504 0.152605
0.913619 0.611215 0.149813
0.931243 0.608606 0.147143
0.944198 0.605753 0.144671
0.953079 0.602808 0.142382
0.95555 0.599695 0.14078
0.955337 0.596246 0.139345
0.955123 0.592798 0.137942
0.954925 0.589685 0.136675
0.954711 0.586282 0.135317
0.954528 0.583185 0.134066
0.954299 0.579583 0.132601
0.954086 0.57583 0.13109
0.185489 0.661891 0.177783
0.194644 0.660929 0.176944
0.222766 0.66244 0.176455
0.259037 0.664027 0.175952
0.306249 0.666255 0.175601
0.357168 0.667369 0.174838
0.409918 0.668254 0.173907
0.461234 0.667765 0.17348
0.511711 0.667247 0.173236
0.557427 0.665995 0.173556
0.600977 0.664744 0.173968
0.640162 0.663554 0.174548
0.676295 0.662455 0.17528
0.710018 0.661509 0.176471
0.740581 0.660075 0.176989
0.770184 0.658534 0.177356
0.796918 0.656245 0.175753
0.823148 0.65388 0.173892
0.847318 0.651408 0.171084
0.870542 0.649012 0.168307
0.89218 0.646693 0.165499
0.912062 0.644343 0.16289
0.93051 0.642222 0.160525
0.94403 0.639643 0.158267
0.956176 0.637079 0.156115
0.957122 0.633936 0.154757
0.957549 0.630991 0.153552
0.957336 0.627817 0.152255
0.957137 0.624659 0.150958
0.956954 0.621698 0.149767
0.956741 0.618402 0.148425
0.956527 0.615076 0.147051
0.956329 0.611933 0.145754
0.204105 0.695994 0.183093
0.213519 0.694774 0.182223
0.234745 0.694743 0.181506
0.270832 0.695521 0.181109
0.313893 0.696864 0.180896
0.364538 0.697353 0.180163
0.415854 0.697826 0.179492
0.466819 0.697414 0.179278
0.515862 0.696468 0.179187
0.561456 0.694987 0.179477
0.603189 0.693523 0.180133
0.642618 0.691966 0.180758
0.677699 0.69073 0.181628
0.711772 0.689555 0.182467
0.741588 0.68806 0.183139
0.770581 0.686366 0.183581
0.797147 0.684688 0.183398
0.822599 0.682765 0.182742
0.846708 0.680659 0.181415
0.869337 0.678584 0.179568
0.890898 0.67657 0.177401
0.910567 0.674632 0.175174
0.929808 0.672786 0.172946
0.944503 0.67071 0.171038
0.957061 0.668803 0.16936
0.958572 0.66601 0.168109
0.959625 0.663127 0.166827
0.959442 0.660227 0.165606
0.959243 0.657465 0.164446
0.959045 0.654536 0.163241
0.958831 0.651453 0.161959
0.958648 0.648615 0.160769
0.95845 0.645548 0.159487
0.221836 0.725856 0.18883
0.231144 0.724804 0.188266
0.244907 0.724147 0.187808
0.28101 0.724743 0.187594
0.320592 0.725185 0.187304
0.370809 0.72578 0.186709
0.421286 0.725917 0.186343
0.471931 0.725689 0.186191
0.519585 0.724483 0.186069
0.565209 0.722835 0.185962
0.605371 0.720943 0.186023
0.644282 0.71902 0.186069
0.678676 0.717464 0.186648
0.712016 0.716075 0.187304
0.742107 0.714763 0.188373
0.770642 0.713344 0.189288
0.79704 0.711818 0.190097
0.821973 0.710063 0.190234
0.846113 0.708186 0.190112
0.868223 0.706218 0.188983
0.889876 0.70425 0.187762
0.909072 0.702342 0.185763
0.927596 0.700557 0.183886
0.943542 0.698589 0.182132
0.954787 0.696422 0.180621
0.959594 0.69398 0.1794
0.961517 0.691478 0.178302
0.961364 0.689143 0.177371
0.961166 0.686595 0.176364
0.960967 0.684108 0.175387
0.960784 0.681483 0.174334
0.960632 0.679133 0.173388
0.960479 0.676555 0.172335
0.239368 0.75404 0.195148
0.246372 0.752728 0.194781
0.257298 0.751629 0.194491
0.289891 0.751675 0.194415
0.327947 0.751629 0.194049
0.376059 0.751766 0.193454
0.425223 0.751736 0.192828
0.475776 0.751293 0.192111
0.522362 0.74995 0.191745
0.56762 0.748379 0.191455
0.606943 0.746181 0.191409
0.644755 0.744289 0.191501
0.679225 0.742779 0.191852
0.711833 0.741421 0.192493
0.742428 0.740261 0.193484
0.770275 0.739086 0.194644
0.796963 0.737926 0.195956
0.821607 0.736431 0.196979
0.845563 0.734813 0.197833
0.867155 0.732891 0.19762
0.888258 0.730968 0.197024
0.907607 0.728985 0.195407
0.925673 0.727062 0.193881
0.942504 0.725155 0.192355
0.953552 0.722972 0.191043
0.961883 0.720653 0.189837
0.963211 0.718257 0.188846
0.96318 0.716045 0.187976
0.962997 0.713619 0.187015
0.962844 0.711223 0.186084
0.962676 0.708766 0.185107
0.962524 0.70631 0.184131
0.962386 0.703944 0.1832
0.257282 0.780926 0.202548
0.259403 0.779217 0.202136
0.27068 0.77789 0.201572
0.297124 0.777173 0.200809
0.334981 0.776928 0.200015
0.38024 0.776745 0.199115
0.429084 0.776471 0.198245
0.478477 0.775906 0.19733
0.52459 0.774411 0.196994
0.568887 0.772595 0.196719
0.608118 0.770489 0.19675
0.645243 0.768566 0.196887
0.679683 0.766674 0.197055
0.711192 0.76527 0.197635
0.741863 0.763973 0.198352
0.769268 0.762768 0.199573
0.795911 0.761563 0.200793
0.82034 0.760235 0.202014
0.844038 0.758846 0.203021
0.866072 0.757259 0.203555
0.886595 0.755596 0.203616
0.905959 0.753811 0.203281
0.923827 0.751995 0.202487
0.941192 0.750164 0.20148
0.95346 0.748058 0.200458
0.964645 0.745937 0.199466
0.964813 0.743786 0.198642
0.96492 0.741558 0.197787
0.964782 0.739284 0.196918
0.964675 0.737179 0.196109
0.964523 0.73492 0.195254
0.964355 0.732509 0.194339
0.964202 0.730114 0.193423
0.273426 0.804929 0.209308
0.273335 0.803357 0.208774
0.285039 0.80209 0.208042
0.303777 0.801022 0.207187
0.341558 0.800534 0.206119
0.383139 0.800259 0.20502
0.432242 0.799725 0.20383
0.480446 0.799084 0.202884
0.526925 0.797726 0.202426
0.56997 0.796109 0.202243
0.609689 0.793912 0.202228
0.645426 0.791928 0.202243
0.679728 0.789975 0.202243
0.710674 0.788342 0.202655
0.740841 0.786877 0.203204
0.767956 0.785626 0.204334
0.794217 0.78436 0.205524
0.818952 0.783139 0.206867
0.842359 0.781781 0.207996
0.864652 0.780377 0.208942
0.884871 0.77879 0.209384
0.90425 0.777203 0.209689
0.921981 0.775433 0.209415
0.939315 0.773602 0.209171
0.95375 0.771572 0.208698
0.964263 0.769543 0.208209
0.965652 0.767514 0.207538
0.966445 0.765454 0.206806
0.966476 0.763363 0.206027
0.966384 0.761273 0.205234
0.966247 0.759182 0.204456
0.966094 0.757122 0.203693
0.965942 0.754955 0.202884
0.288548 0.827817 0.215381
0.287495 0.826276 0.214939
0.297398 0.824887 0.214252
0.310506 0.823575 0.213504
0.3467 0.822995 0.212329
0.386236 0.822278 0.211048
0.434073 0.821561 0.209613
0.481376 0.820661 0.208667
0.528466 0.819333 0.208057
0.570382 0.81767 0.207767
0.611154 0.815717 0.207523
0.645701 0.813764 0.207355
0.679408 0.811841 0.207263
0.710124 0.810025 0.207523
0.739284 0.808499 0.208042
0.766415 0.807233 0.208911
0.792493 0.806027 0.210056
0.817563 0.804883 0.211398
0.840742 0.803601 0.212619
0.863218 0.802441 0.21384
0.883009 0.801038 0.214588
0.902342 0.799588 0.215305
0.920272 0.797879 0.215808
0.937514 0.796109 0.216175
0.953765 0.794171 0.216266
0.962936 0.792203 0.216068
0.966552 0.790234 0.215656
0.967819 0.78819 0.21503
0.968124 0.786297 0.214374
0.968002 0.784253 0.213657
0.967849 0.782223 0.21297
0.967681 0.780102 0.212207
0.967529 0.778012 0.21146
0.303426 0.849897 0.221683
0.302846 0.848371 0.221256
0.307301 0.846922 0.220661
0.319631 0.845457 0.219806
0.349874 0.844388 0.218463
0.388449 0.843427 0.216953
0.434821 0.842527 0.21529
0.481926 0.841443 0.214328
0.529549 0.840177 0.213489
0.570703 0.83856 0.213123
0.610666 0.836759 0.212726
0.645243 0.834806 0.212451
0.678279 0.832929 0.21236
0.709133 0.830991 0.212482
0.737911 0.829374 0.21297
0.765332 0.827878 0.213657
0.790707 0.826368 0.214603
0.815534 0.82504 0.21561
0.838544 0.823865 0.216938
0.86099 0.82269 0.218189
0.881117 0.821469 0.219226
0.900313 0.820203 0.220203
0.918181 0.81886 0.221073
0.93518 0.817304 0.221836
0.951705 0.815625 0.222553
0.96083 0.813809 0.222858
0.968246 0.811994 0.223102
0.969177 0.810117 0.22266
0.969726 0.808225 0.222156
0.969558 0.806271 0.221515
0.96939 0.804334 0.220844
0.969253 0.802365 0.220127
0.969116 0.800366 0.219409
0.315175 0.86833 0.226627
0.315068 0.867155 0.226291
0.316045 0.865919 0.22591
0.329213 0.864805 0.225086
0.352117 0.863783 0.22388
0.390539 0.862852 0.22237
0.433234 0.861936 0.220752
0.481239 0.861021 0.21973
0.52813 0.859907 0.218769
0.570626 0.858595 0.218326
0.609766 0.857008 0.217899
0.6448 0.855283 0.217578
0.677241 0.8533 0.217441
0.708217 0.851423 0.217456
0.736339 0.849668 0.217914
0.763989 0.847807 0.218418
0.788724 0.846281 0.219165
0.813123 0.844831 0.220035
0.836393 0.843626 0.221317
0.858579 0.842283 0.222538
0.87924 0.841077 0.223804
0.898238 0.839857 0.224948
0.916091 0.838651 0.226032
0.932982 0.837201 0.226978
0.949584 0.835737 0.227909
0.960433 0.833982 0.228519
0.96968 0.832227 0.228977
0.970672 0.830442 0.22855
0.971283 0.828641 0.228077
0.97113 0.826856 0.227543
0.970977 0.825055 0.226993
0.97084 0.82327 0.226459
0.970718 0.821454 0.22594
0.32401 0.882445 0.230396
0.3234 0.881422 0.230137
0.322789 0.880415 0.229892
0.335241 0.879683 0.229145
0.350607 0.879042 0.228305
0.389685 0.878569 0.226932
0.430457 0.878218 0.225666
0.479194 0.877852 0.224537
0.525628 0.877379 0.223728
0.569299 0.876478 0.223194
0.607858 0.875288 0.222827
0.643671 0.873823 0.222522
0.675166 0.872236 0.222492
0.706203 0.870481 0.222492
0.734508 0.868727 0.222919
0.76173 0.867018 0.223377
0.786862 0.865309 0.223957
0.811048 0.863859 0.224704
0.834272 0.862562 0.225605
0.856046 0.861341 0.226871
0.877455 0.860166 0.228351
0.895964 0.858885 0.229572
0.914015 0.857755 0.230793
0.930831 0.856519 0.231876
0.946944 0.855177 0.232944
0.960937 0.853513 0.233967
0.969711 0.851835 0.234424
0.971649 0.850156 0.23415
0.972503 0.848402 0.233753
0.97258 0.846662 0.233249
0.972473 0.844907 0.232731
0.97232 0.843168 0.232212
0.972198 0.841413 0.231708
0.328542 0.890135 0.232441
0.328679 0.890379 0.232502
0.328984 0.890806 0.232609
0.33756 0.891371 0.23241
0.351751 0.891508 0.231937
0.385779 0.891478 0.230854
0.426184 0.89131 0.229664
0.474617 0.890974 0.228351
0.520562 0.890043 0.227375
0.565225 0.888945 0.226551
0.602823 0.887358 0.226108
0.639261 0.885847 0.225772
0.671061 0.884138 0.225696
0.701885 0.882551 0.225803
0.730541 0.880919 0.226123
0.757641 0.879545 0.226627
0.783459 0.878386 0.227314
0.807767 0.877516 0.228183
0.831464 0.876951 0.229175
0.853239 0.876768 0.230671
0.874723 0.876722 0.232242
0.893416 0.876295 0.233829
0.911635 0.875776 0.23534
0.928634 0.874601 0.236561
0.944793 0.873304 0.237766
0.960128 0.871885 0.238972
0.968017 0.87042 0.239399
0.972351 0.868925 0.239445
0.973495 0.867353 0.239078
0.97406 0.865797 0.238666
0.973892 0.864057 0.238102
0.973739 0.862211 0.237537
0.973617 0.860517 0.237079
0.329351 0.891524 0.232807
0.329351 0.891524 0.232807
0.330159 0.891524 0.232776
0.33312 0.891524 0.232654
0.347814 0.891493 0.23212
0.375158 0.891463 0.231159
0.415717 0.891279 0.229938
0.461372 0.891051 0.228626
0.507836 0.890654 0.227741
0.554086 0.890303 0.226993
0.594095 0.890059 0.226886
0.631785 0.889906 0.226963
0.665095 0.889769 0.227298
0.696117 0.889662 0.227802
0.725505 0.889097 0.228244
0.753017 0.888548 0.228992
0.779782 0.888045 0.229816
0.803861 0.887739 0.230777
0.82768 0.88748 0.231815
0.849775 0.88748 0.233173
0.870787 0.887282 0.234607
0.89012 0.886748 0.23624
