LUT预设1/LUT全系打包/2024-VINTAGE系列lut/vintage709正常色彩使用/gentle暖调-709.cube
TITLE "Generated by Resolve"
LUT_3D_SIZE 33
0.0434272 0.0818036 0.0615396
0.0555581 0.0842908 0.0598917
0.0751965 0.0873274 0.0581369
0.0975357 0.0902876 0.0557107
0.124102 0.0934005 0.0525216
0.154971 0.0962997 0.0486
0.187747 0.0989853 0.0442969
0.224643 0.101961 0.0389563
0.261769 0.10515 0.0339361
0.299245 0.109209 0.0305943
0.336034 0.113252 0.0282292
0.372457 0.11751 0.0275731
0.407263 0.121691 0.0278019
0.441382 0.125902 0.0285496
0.474586 0.129961 0.0292668
0.507301 0.133974 0.0300298
0.537865 0.137987 0.0308537
0.568032 0.141802 0.0317082
0.596185 0.144991 0.0327611
0.624689 0.147021 0.0328679
0.653925 0.14786 0.0318608
0.682704 0.148394 0.0306706
0.711162 0.14876 0.0293278
0.739483 0.147433 0.0279088
0.767834 0.1458 0.0264744
0.79585 0.143145 0.0247959
0.823163 0.140307 0.0231327
0.848615 0.137057 0.0216831
0.872511 0.133791 0.020798
0.895277 0.130541 0.0206607
0.914702 0.128283 0.0211337
0.932326 0.126818 0.0218204
0.948287 0.125017 0.0210117
0.0479286 0.0932174 0.068101
0.0628061 0.096376 0.0661021
0.0814984 0.0999161 0.0629129
0.105959 0.103532 0.0594492
0.133471 0.107057 0.055787
0.167544 0.110262 0.0511177
0.202731 0.113405 0.0462043
0.241672 0.11696 0.040589
0.280507 0.120806 0.035935
0.319112 0.125017 0.0330968
0.357061 0.129595 0.0320745
0.394186 0.13434 0.0321202
0.429786 0.139132 0.0332494
0.465141 0.143801 0.0344549
0.499031 0.148318 0.0356298
0.532097 0.152758 0.0368505
0.563439 0.157 0.0381781
0.593942 0.160586 0.0393378
0.623636 0.1635 0.0404059
0.653834 0.165148 0.0396429
0.684153 0.166506 0.0379492
0.713191 0.167514 0.0356909
0.742184 0.168307 0.0334936
0.770581 0.167926 0.0318761
0.798581 0.16733 0.0301823
0.825849 0.166171 0.028275
0.851789 0.164813 0.0264439
0.876204 0.163333 0.0246891
0.898909 0.161852 0.0236057
0.921157 0.160388 0.0224155
0.938399 0.160586 0.0206912
0.954757 0.161151 0.0183108
0.969085 0.161593 0.0157321
0.0551461 0.105409 0.0752728
0.0697795 0.109453 0.071931
0.0854963 0.113649 0.0669261
0.113191 0.117647 0.0627756
0.143175 0.121553 0.0584268
0.179644 0.12517 0.053193
0.217456 0.129122 0.0478981
0.25771 0.133242 0.0424964
0.297856 0.137789 0.0387884
0.337926 0.142565 0.0362554
0.376242 0.147784 0.0363012
0.41471 0.153262 0.03682
0.451164 0.158724 0.0386206
0.486885 0.163928 0.0403296
0.52166 0.169146 0.0416724
0.55491 0.174166 0.0429389
0.58706 0.179049 0.0439155
0.617716 0.183154 0.0445411
0.647791 0.186862 0.0450446
0.678279 0.189136 0.0435645
0.708553 0.191226 0.0418402
0.738338 0.192706 0.0398108
0.767529 0.193927 0.0379797
0.795773 0.194766 0.0364691
0.823499 0.195178 0.0345312
0.850782 0.195285 0.0322728
0.875853 0.195087 0.0300908
0.899931 0.194903 0.027863
0.921904 0.194781 0.0248569
0.943084 0.195041 0.0211185
0.958999 0.196796 0.0183871
0.973724 0.19881 0.0170901
0.985702 0.201312 0.0178988
0.0627451 0.119692 0.082826
0.0770275 0.124727 0.078233
0.0930495 0.129747 0.0728466
0.119661 0.134249 0.0660868
0.150317 0.138796 0.0597238
0.188495 0.143511 0.05449
0.229068 0.148013 0.0493629
0.271351 0.152483 0.0445258
0.312825 0.157534 0.0415351
0.354147 0.162814 0.039353
0.394293 0.168643 0.0402991
0.433783 0.174563 0.0418402
0.471382 0.18027 0.0440986
0.507805 0.186038 0.0459907
0.543145 0.191699 0.0474708
0.576455 0.197162 0.048127
0.609522 0.202747 0.0486458
0.639902 0.207584 0.0487831
0.670115 0.212177 0.0486915
0.700542 0.215412 0.0472114
0.730571 0.218555 0.0458534
0.76022 0.221271 0.0444343
0.788907 0.223789 0.0430915
0.817105 0.226169 0.0417334
0.844358 0.228092 0.0394446
0.871168 0.229999 0.0369573
0.89543 0.230915 0.0328679
0.919234 0.231891 0.0291752
0.940703 0.23299 0.0247959
0.959915 0.234592 0.0219883
0.975296 0.236973 0.0221561
0.987335 0.239918 0.0240482
0.996216 0.243412 0.0272221
0.0706188 0.135378 0.0898909
0.0844739 0.141314 0.0847639
0.102159 0.147051 0.0784619
0.125734 0.152224 0.06981
0.158038 0.157412 0.0625162
0.19585 0.162585 0.0559701
0.238636 0.167819 0.0508888
0.282414 0.173037 0.0464485
0.324895 0.178698 0.0443275
0.366903 0.18436 0.0431373
0.408453 0.190265 0.0440223
0.448585 0.19649 0.0454108
0.487846 0.202976 0.0474556
0.524987 0.209415 0.0488899
0.562036 0.216098 0.050248
0.5953 0.222202 0.0513008
0.628214 0.228351 0.0520333
0.659007 0.234211 0.0522316
0.689555 0.23946 0.0519722
0.720363 0.244266 0.0508888
0.750164 0.248631 0.0501717
0.779385 0.25304 0.0496223
0.807843 0.25684 0.0483253
0.836469 0.260822 0.0467079
0.863432 0.264195 0.0435035
0.890242 0.267353 0.0399481
0.9149 0.269474 0.0348821
0.937835 0.271809 0.0304723
0.958206 0.274098 0.0271458
0.974624 0.277211 0.0269169
0.987671 0.280888 0.0285801
0.994873 0.285359 0.0308843
0.999741 0.290288 0.0329747
0.0796216 0.152987 0.095964
0.0928511 0.159655 0.0911574
0.110842 0.165774 0.0838636
0.131624 0.171603 0.0748455
0.165377 0.177111 0.06598
0.201953 0.182712 0.0572366
0.247074 0.188647 0.0526131
0.291707 0.194598 0.0487831
0.335836 0.200855 0.0469368
0.379156 0.207004 0.0462654
0.422034 0.213336 0.0466316
0.462852 0.220417 0.0479896
0.503059 0.227741 0.0494087
0.54052 0.235477 0.0508278
0.577005 0.243091 0.0521096
0.610666 0.250156 0.0536202
0.643229 0.25742 0.0547951
0.674113 0.264607 0.0554971
0.704677 0.271458 0.0558938
0.734874 0.278111 0.0561379
0.764309 0.283909 0.0555123
0.794202 0.289631 0.0547341
0.823972 0.294926 0.052018
0.853315 0.299931 0.048661
0.881285 0.304524 0.0442206
0.908141 0.308446 0.039292
0.933135 0.311513 0.0339971
0.955001 0.315007 0.0313268
0.974594 0.318471 0.0309148
0.986755 0.322789 0.0325322
0.996719 0.327428 0.0344701
0.998672 0.332998 0.0351568
1 0.338872 0.035996
0.0880293 0.172549 0.102419
0.102205 0.180026 0.0981308
0.121294 0.186923 0.0901503
0.14229 0.193805 0.0814374
0.174166 0.199619 0.0710918
0.209567 0.205493 0.0618448
0.252811 0.211353 0.0552071
0.297902 0.217777 0.0507362
0.344839 0.224948 0.0482338
0.390311 0.231876 0.0478218
0.435569 0.238819 0.0479591
0.476417 0.247105 0.049073
0.516533 0.255253 0.0501869
0.553933 0.263661 0.0519265
0.589929 0.271824 0.0539559
0.624186 0.279911 0.0560006
0.656321 0.288411 0.0578164
0.687434 0.297093 0.0594949
0.717861 0.305013 0.0607767
0.748302 0.312886 0.0619516
0.778378 0.319844 0.0613413
0.808743 0.326833 0.0600748
0.839124 0.333318 0.0565805
0.868528 0.339147 0.0519417
0.896925 0.34464 0.0463417
0.923033 0.349386 0.0405432
0.947906 0.353765 0.0347143
0.967269 0.358511 0.0332799
0.984939 0.36347 0.0326543
0.992767 0.368811 0.033463
0.998642 0.374166 0.0340124
0.999557 0.38024 0.0347906
1 0.386648 0.0360418
0.0970932 0.193606 0.109621
0.112856 0.201785 0.105135
0.13196 0.209888 0.096788
0.154162 0.217472 0.0879377
0.183673 0.223728 0.077348
0.219181 0.229801 0.0680247
0.259342 0.235676 0.0592508
0.304341 0.242512 0.0542458
0.350179 0.249546 0.0501564
0.397528 0.257542 0.049546
0.443565 0.265995 0.0491646
0.486183 0.275166 0.0502632
0.526726 0.284291 0.0520485
0.565484 0.293599 0.0542153
0.601267 0.302708 0.0567788
0.635904 0.312032 0.0597696
0.667369 0.321584 0.0621347
0.698375 0.331273 0.0645914
0.729168 0.340154 0.0666972
0.760052 0.349004 0.0681621
0.791012 0.357275 0.0678416
0.822263 0.365332 0.0655985
0.852964 0.372625 0.0612345
0.882353 0.379522 0.0548104
0.911299 0.386099 0.0476997
0.936492 0.39173 0.0408637
0.960739 0.397543 0.0347448
0.977508 0.403098 0.0328222
0.990967 0.408469 0.0311437
0.996475 0.414099 0.0311284
0.999496 0.419837 0.0316777
0.999893 0.425376 0.0330968
1 0.431556 0.0344701
0.106981 0.21709 0.117617
0.124041 0.226123 0.11165
0.142168 0.234974 0.103868
0.166217 0.242618 0.095201
0.194995 0.249119 0.0857862
0.229725 0.255207 0.0752575
0.265904 0.26125 0.0643778
0.310399 0.268086 0.0583047
0.355474 0.275349 0.0531014
0.404257 0.284169 0.051133
0.450599 0.29369 0.05066
0.494759 0.303716 0.0517739
0.536034 0.313954 0.0540017
0.575753 0.324437 0.0569162
0.611109 0.335088 0.0603647
0.645716 0.345892 0.0638895
0.677226 0.356878 0.0672618
0.708568 0.367529 0.0704662
0.739208 0.378012 0.0736248
0.769772 0.388052 0.0749676
0.800549 0.398199 0.0749523
0.831434 0.40705 0.0706188
0.862516 0.415732 0.064622
0.89247 0.423056 0.0561379
0.922057 0.430442 0.0475166
0.947463 0.436347 0.0393378
0.969894 0.442329 0.0325628
0.985245 0.447944 0.028397
0.994705 0.4533 0.0261234
0.998581 0.458854 0.0261234
0.999832 0.463996 0.027451
0.999985 0.468864 0.0290684
1 0.474647 0.0297398
0.117571 0.242313 0.126406
0.135622 0.252171 0.119997
0.155688 0.261387 0.113222
0.181384 0.269108 0.10425
0.208591 0.276677 0.0947433
0.241871 0.283162 0.0835126
0.277028 0.289662 0.0729839
0.318502 0.295995 0.0641947
0.362356 0.303395 0.0578012
0.40914 0.311849 0.0536812
0.455512 0.322042 0.0526284
0.502007 0.332753 0.0530251
0.543832 0.344488 0.0562142
0.584848 0.356527 0.0598459
0.620401 0.369192 0.0640879
0.65478 0.381445 0.068574
0.686854 0.393362 0.0728923
0.717906 0.405295 0.0770581
0.748348 0.416892 0.0812085
0.778866 0.427955 0.0821851
0.809323 0.438956 0.0823377
0.840604 0.447929 0.0755932
0.871977 0.456748 0.0681163
0.901823 0.46421 0.0589303
0.930297 0.471366 0.0496681
0.955428 0.477363 0.0401923
0.975143 0.483162 0.0327153
0.990036 0.488624 0.0263371
0.996551 0.493538 0.0232853
0.999634 0.498512 0.0211337
0.999954 0.503212 0.0201877
1 0.508186 0.0189822
1 0.513771 0.0185092
0.127993 0.269184 0.136614
0.148592 0.278996 0.130709
0.171679 0.28838 0.124865
0.197559 0.296788 0.11519
0.225055 0.305241 0.105318
0.256062 0.312932 0.0939956
0.291035 0.320302 0.083238
0.32987 0.327245 0.072755
0.372808 0.335073 0.0654917
0.417166 0.343084 0.0590829
0.462837 0.353277 0.0571756
0.507912 0.363912 0.0559548
0.550515 0.376867 0.0578927
0.591089 0.390219 0.0612497
0.628489 0.403769 0.0668956
0.663218 0.417243 0.0727092
0.696162 0.430671 0.078706
0.726787 0.443763 0.0841993
0.757092 0.456641 0.0894179
0.787472 0.467781 0.0898909
0.818158 0.478721 0.0885481
0.8495 0.487755 0.0809491
0.880385 0.49633 0.0725109
0.909895 0.503761 0.0630808
0.936919 0.510658 0.0527352
0.961807 0.516838 0.0416114
0.979385 0.522316 0.0326848
0.994598 0.527337 0.0238193
0.997879 0.531853 0.0188144
0.999985 0.536171 0.0146792
1 0.540825 0.0150301
1 0.545556 0.0159457
1 0.550927 0.0183719
0.139376 0.296666 0.153262
0.164523 0.306371 0.146777
0.190036 0.316167 0.139437
0.215763 0.326146 0.129549
0.243168 0.335698 0.118502
0.272419 0.344915 0.106432
0.306981 0.352987 0.0947738
0.343282 0.360815 0.0832685
0.385061 0.368368 0.0747845
0.427222 0.376181 0.0669718
0.471427 0.385595 0.0630045
0.514824 0.396353 0.0606241
0.558114 0.409308 0.0606699
0.598306 0.422934 0.0641031
0.636973 0.436866 0.0696727
0.671641 0.451392 0.0764782
0.705242 0.466041 0.08336
0.735851 0.47982 0.0895705
0.766247 0.492912 0.0946822
0.796506 0.50454 0.0959793
0.826932 0.515419 0.0935988
0.857633 0.524804 0.0865797
0.887297 0.533043 0.0780346
0.916167 0.540764 0.0687724
0.942061 0.547326 0.05626
0.96698 0.553903 0.0428931
0.983124 0.558679 0.0332647
0.996246 0.563531 0.0243992
0.998566 0.567681 0.0179904
0.999954 0.572229 0.0140688
0.999985 0.576867 0.0151675
1 0.581857 0.017792
1 0.586984 0.0218051
0.158099 0.328847 0.168078
0.181537 0.340597 0.160433
0.206332 0.351995 0.151843
0.233219 0.362493 0.142657
0.262196 0.37232 0.131121
0.291936 0.381872 0.119036
0.326863 0.389746 0.1084
0.36231 0.397162 0.0979934
0.401526 0.404318 0.0878462
0.441367 0.41178 0.0790417
0.482612 0.419608 0.0720378
0.523995 0.429618 0.0677806
0.565591 0.440757 0.0648508
0.605966 0.454231 0.0678111
0.645426 0.468193 0.0719768
0.680232 0.484413 0.0796216
0.713909 0.499977 0.0870375
0.74461 0.514092 0.0946822
0.774914 0.52723 0.0996872
0.80499 0.539574 0.101884
0.834791 0.549889 0.0982986
0.865125 0.559411 0.0917372
0.894026 0.567193 0.0830854
0.922393 0.574365 0.0741131
0.94757 0.580377 0.0609751
0.970443 0.586206 0.0486458
0.986725 0.590951 0.0379492
0.996796 0.595697 0.0288548
0.999084 0.599954 0.0222782
0.999969 0.604746 0.0210117
1 0.609552 0.0225528
1 0.615076 0.0260166
1 0.620523 0.0296025
0.176654 0.364416 0.181445
0.197864 0.378042 0.173022
0.224247 0.389319 0.164401
0.252949 0.400046 0.156191
0.282979 0.409476 0.1449
0.314 0.418799 0.134371
0.348363 0.426795 0.124346
0.383505 0.434165 0.114015
0.420325 0.441215 0.102907
0.458381 0.448295 0.0934462
0.496681 0.455222 0.0844739
0.536675 0.464637 0.078584
0.576226 0.474418 0.0734874
0.614816 0.486595 0.0755474
0.652171 0.49955 0.0785229
0.686915 0.514992 0.0840772
0.719814 0.529854 0.0905318
0.751461 0.544625 0.098497
0.781888 0.557931 0.103288
0.811948 0.570764 0.106828
0.842405 0.580896 0.102373
0.872572 0.5906 0.0967269
0.900984 0.59823 0.0888075
0.928298 0.60531 0.0796368
0.953124 0.611231 0.0673686
0.973938 0.616632 0.0549783
0.990326 0.621607 0.0426795
0.997284 0.62652 0.0342107
0.999619 0.631266 0.0280766
0.999985 0.63621 0.0283818
1 0.641428 0.0294041
1 0.647257 0.033341
1 0.653437 0.0375219
0.19556 0.401694 0.194522
0.217685 0.415488 0.186343
0.246281 0.426352 0.178149
0.275502 0.436973 0.170047
0.305974 0.446723 0.161135
0.338003 0.455894 0.152041
0.371756 0.464118 0.141955
0.406104 0.471717 0.131441
0.440604 0.478904 0.120226
0.476707 0.485374 0.109712
0.512917 0.49189 0.099321
0.550469 0.499718 0.0912184
0.587793 0.508415 0.0854963
0.624384 0.518349 0.0851148
0.659617 0.530236 0.0864729
0.693507 0.543832 0.0892195
0.725643 0.557443 0.0948959
0.756863 0.570977 0.101534
0.787137 0.583978 0.106264
0.817487 0.596613 0.110063
0.847929 0.606744 0.107134
0.877745 0.616327 0.103059
0.906035 0.624369 0.0963149
0.933059 0.631632 0.0861219
0.958511 0.638071 0.0729076
0.977752 0.643839 0.0595254
0.994278 0.649165 0.0464027
0.99794 0.654978 0.0397498
0.999969 0.661097 0.0347753
0.999985 0.666545 0.0352026
1 0.672496 0.0361639
1 0.679118 0.0400397
1 0.685802 0.045655
0.214694 0.44007 0.207248
0.239307 0.453391 0.199222
0.267781 0.465278 0.191257
0.297902 0.47599 0.183673
0.33077 0.48539 0.177249
0.36463 0.493919 0.169467
0.398962 0.502342 0.161135
0.432273 0.509331 0.150301
0.465537 0.51635 0.139498
0.499229 0.522423 0.128191
0.533043 0.528618 0.117281
0.567117 0.534874 0.107317
0.600809 0.541939 0.100847
0.634165 0.549569 0.0971389
0.667109 0.559716 0.0962692
0.699886 0.570245 0.0959793
0.730556 0.582376 0.10013
0.760983 0.594583 0.104524
0.791394 0.607813 0.110323
0.821759 0.62002 0.113787
0.852155 0.630716 0.113481
0.881559 0.640299 0.110018
0.910155 0.649165 0.104143
0.93724 0.656718 0.0920424
0.963729 0.66392 0.0784314
0.981353 0.670115 0.0642863
0.996307 0.676616 0.051606
0.998505 0.683314 0.0462959
1 0.689799 0.0429084
1 0.695949 0.0428626
1 0.702632 0.0455634
1 0.709926 0.051545
1 0.717464 0.057847
0.234134 0.479347 0.220005
0.260563 0.4925 0.211902
0.288624 0.504814 0.203952
0.321584 0.514626 0.198108
0.357076 0.523262 0.193668
0.39147 0.530938 0.187015
0.425498 0.53843 0.180026
0.457877 0.544854 0.170077
0.48983 0.55079 0.15967
0.521111 0.556359 0.147845
0.552438 0.561624 0.136568
0.5841 0.566751 0.125704
0.615183 0.572473 0.118608
0.645884 0.578164 0.112062
0.676661 0.586587 0.109239
0.706584 0.594903 0.107164
0.73521 0.604974 0.109071
0.763989 0.615732 0.112276
0.793545 0.627894 0.117601
0.823575 0.63978 0.120333
0.853834 0.65156 0.121462
0.883589 0.661906 0.117403
0.913405 0.671916 0.111528
0.94107 0.6804 0.0978408
0.967086 0.688945 0.0840009
0.984741 0.696391 0.0692454
0.996628 0.703822 0.0584421
0.998932 0.711131 0.0538186
1 0.718105 0.0518959
1 0.724483 0.0518807
1 0.731777 0.0585184
1 0.739422 0.0675822
1 0.746532 0.07393
0.252186 0.519402 0.231785
0.2813 0.531777 0.224186
0.311421 0.543191 0.217639
0.347784 0.551659 0.213474
0.384161 0.559289 0.209522
0.417884 0.565866 0.204852
0.450797 0.571847 0.198779
0.482673 0.577523 0.191012
0.512871 0.582773 0.180758
0.541848 0.587869 0.168536
0.571191 0.592477 0.156954
0.600427 0.596933 0.145449
0.628946 0.601083 0.136553
0.657359 0.605814 0.128374
0.685725 0.611948 0.12282
0.713207 0.61883 0.119585
0.739559 0.626795 0.119356
0.767117 0.636591 0.121904
0.79527 0.647272 0.125811
0.825025 0.658869 0.12726
0.855161 0.670542 0.127825
0.884825 0.681056 0.122744
0.914488 0.691524 0.115862
0.94287 0.700984 0.104097
0.967453 0.710277 0.0911879
0.986542 0.719326 0.076585
0.996033 0.72813 0.0683909
0.999298 0.73695 0.064332
1 0.744167 0.0643931
1 0.750988 0.0657969
1 0.758572 0.0778363
1 0.76611 0.089662
1 0.772808 0.0979171
0.26949 0.55848 0.243473
0.301717 0.569177 0.237263
0.335195 0.578851 0.231678
0.371496 0.586404 0.227314
0.406516 0.592935 0.222995
0.440299 0.597818 0.219684
0.472786 0.602594 0.214191
0.504601 0.607095 0.207568
0.53312 0.611658 0.197421
0.560723 0.616129 0.187121
0.588525 0.619989 0.175662
0.615869 0.623926 0.164721
0.642786 0.627726 0.154269
0.66923 0.631861 0.145266
0.695048 0.636149 0.137407
0.719783 0.641932 0.133257
0.743969 0.648325 0.130648
0.770306 0.657145 0.13193
0.796918 0.666316 0.133486
0.826246 0.677409 0.13373
0.855802 0.68838 0.132555
0.885588 0.699351 0.128435
0.914794 0.709926 0.121614
0.943633 0.720287 0.111864
0.967208 0.730312 0.0991836
0.988006 0.740215 0.0854047
0.995285 0.749432 0.080415
1 0.758663 0.077821
1 0.765835 0.0819562
1 0.773068 0.0891585
1 0.780362 0.10486
1 0.787472 0.119219
1 0.794583 0.132326
0.287282 0.595941 0.256336
0.32221 0.604669 0.250507
0.357015 0.612863 0.244495
0.391836 0.619867 0.23888
0.426688 0.624994 0.234913
0.461799 0.628672 0.232288
0.493553 0.632502 0.226902
0.524239 0.636164 0.221286
0.551598 0.639887 0.212375
0.578653 0.643336 0.20351
0.604562 0.646738 0.193576
0.630365 0.65005 0.18323
0.655741 0.653223 0.172854
0.68014 0.656672 0.163348
0.704173 0.660121 0.15378
0.727108 0.665309 0.148547
0.749844 0.670787 0.144259
0.774609 0.678203 0.143557
0.800275 0.686061 0.142367
0.828183 0.695186 0.140581
0.856245 0.704768 0.138293
0.884916 0.715023 0.135698
0.913664 0.725994 0.129259
0.942687 0.737453 0.121233
0.966354 0.748043 0.10837
0.988296 0.758541 0.0965133
0.994949 0.76817 0.0952468
1 0.777218 0.0962539
1 0.785168 0.103746
1 0.792981 0.115389
1 0.800381 0.132067
1 0.807767 0.149096
1 0.815045 0.165957
0.303014 0.627848 0.266178
0.336873 0.637186 0.258259
0.372122 0.644678 0.252003
0.408377 0.650813 0.247105
0.445579 0.654597 0.243626
0.48278 0.658183 0.240406
0.512489 0.661219 0.236057
0.541588 0.664302 0.231281
0.569421 0.667063 0.225467
0.595682 0.669978 0.218845
0.619821 0.672587 0.211109
0.643961 0.675319 0.201633
0.667979 0.677974 0.191501
0.690913 0.680735 0.180224
0.713466 0.683818 0.169787
0.734401 0.687861 0.162799
0.756054 0.692439 0.15697
0.779339 0.698161 0.153536
0.804273 0.70486 0.150256
0.830564 0.712322 0.147173
0.857527 0.720943 0.145312
0.884443 0.729778 0.143847
0.912505 0.740566 0.139223
0.940444 0.751431 0.133364
0.965179 0.761791 0.119783
0.985153 0.772274 0.110033
0.994873 0.783001 0.107515
1 0.793042 0.110948
1 0.802319 0.120882
1 0.810895 0.136767
1 0.819226 0.155718
1 0.826703 0.176562
1 0.833768 0.197375
0.31577 0.65893 0.274662
0.348684 0.668666 0.264164
0.386465 0.674464 0.25922
0.425238 0.679271 0.255619
0.463294 0.682704 0.25243
0.498787 0.685786 0.249241
0.528542 0.688319 0.246448
0.557382 0.690639 0.24242
0.585229 0.692561 0.237644
0.610132 0.694697 0.231312
0.634226 0.696681 0.224948
0.657206 0.69894 0.214984
0.679942 0.701228 0.205051
0.70222 0.703624 0.193606
0.723217 0.706264 0.183291
0.742382 0.709026 0.173938
0.763272 0.712779 0.16672
0.785107 0.717098 0.160815
0.809033 0.722866 0.156847
0.833265 0.729 0.153506
0.858808 0.736446 0.152895
0.884382 0.744228 0.152026
0.911635 0.754376 0.149905
0.938262 0.764492 0.143557
0.96405 0.774899 0.130877
0.982834 0.786023 0.122683
0.996201 0.797711 0.117556
1 0.80763 0.124636
1 0.816815 0.137087
1 0.824994 0.155581
1 0.832944 0.175067
1 0.839384 0.197787
1 0.845518 0.220844
0.326009 0.689265 0.281727
0.359594 0.698695 0.269566
0.401236 0.702556 0.267506
0.441978 0.706081 0.265126
0.479408 0.709239 0.262486
0.513069 0.711757 0.259876
0.544366 0.713863 0.257374
0.572702 0.715572 0.252827
0.59997 0.717083 0.247639
0.624186 0.718715 0.241062
0.64799 0.720165 0.2336
0.669902 0.722072 0.223835
0.691661 0.72401 0.213428
0.713191 0.725856 0.201617
0.732967 0.727749 0.190982
0.751553 0.729534 0.180804
0.772076 0.732448 0.173159
0.792935 0.735546 0.165698
0.815946 0.740444 0.161807
0.838926 0.745495 0.158877
0.862181 0.751659 0.15996
0.886152 0.758907 0.160082
0.911498 0.76788 0.158755
0.93695 0.777508 0.151888
0.962554 0.787655 0.142092
0.981659 0.799527 0.132616
0.999237 0.811872 0.12343
1 0.820462 0.137148
1 0.828687 0.153109
1 0.836408 0.172045
1 0.843671 0.192828
1 0.849836 0.217639
1 0.856001 0.242725
0.337972 0.71426 0.292485
0.37612 0.721218 0.283909
0.418463 0.725093 0.280049
0.457816 0.728542 0.276692
0.494026 0.731548 0.273945
0.527489 0.733989 0.270466
0.560586 0.736339 0.266514
0.586892 0.738415 0.261097
0.612772 0.740246 0.254704
0.63801 0.741772 0.246448
0.661372 0.743206 0.237446
0.682445 0.744945 0.22829
0.703304 0.746395 0.217548
0.724147 0.747967 0.206287
0.74313 0.749142 0.195529
0.762005 0.750149 0.184558
0.781964 0.752361 0.176242
0.802289 0.754864 0.168826
0.82385 0.758465 0.164462
0.845457 0.762554 0.162524
0.86714 0.76759 0.16379
0.89012 0.774395 0.164096
0.913451 0.782025 0.164157
0.937881 0.790997 0.157778
0.962158 0.800137 0.151019
0.981384 0.810956 0.140093
0.997131 0.820951 0.135042
0.99881 0.828489 0.150744
1 0.836423 0.167376
1 0.845029 0.185183
1 0.852705 0.208118
1 0.859602 0.235309
1 0.866026 0.261433
0.351461 0.736996 0.305455
0.392737 0.742245 0.298802
0.435065 0.746105 0.293675
0.472709 0.749401 0.290089
0.508446 0.752377 0.286854
0.541772 0.754879 0.281468
0.573281 0.757321 0.275395
0.599649 0.759289 0.267353
0.625391 0.761227 0.258656
0.649989 0.762814 0.249012
0.672709 0.764828 0.23859
0.694362 0.766766 0.227604
0.714916 0.768246 0.21651
0.735348 0.769451 0.204822
0.75494 0.770382 0.194217
0.774487 0.771511 0.183917
0.793637 0.772793 0.174777
0.813382 0.774746 0.168093
0.833509 0.777142 0.164172
0.853697 0.78056 0.163409
0.874052 0.784344 0.163943
0.895323 0.790173 0.16553
0.916991 0.796338 0.166613
0.940139 0.804227 0.161746
0.962203 0.812222 0.156252
0.981811 0.821088 0.146853
0.994308 0.82919 0.148241
0.998306 0.836515 0.161089
1 0.844739 0.17731
1 0.85333 0.196414
1 0.8607 0.222431
1 0.867765 0.250217
1 0.873762 0.276967
0.3664 0.757168 0.320455
0.408728 0.761517 0.314427
0.450523 0.765652 0.308385
0.487098 0.768917 0.304204
0.522866 0.772045 0.299413
0.555169 0.774762 0.293126
0.584878 0.777203 0.285039
0.612085 0.779248 0.275166
0.63714 0.781369 0.26508
0.660975 0.783749 0.255467
0.683421 0.78616 0.243381
0.705623 0.788663 0.231312
0.726268 0.790082 0.217639
0.746822 0.791562 0.204501
0.766964 0.792432 0.192523
0.786801 0.793439 0.181888
0.806332 0.794278 0.172396
0.82591 0.795316 0.166186
0.845472 0.796368 0.160815
0.865217 0.798871 0.159075
0.885161 0.801511 0.157549
0.90602 0.80589 0.157122
0.926848 0.810636 0.156237
0.94757 0.816632 0.156054
0.96611 0.823117 0.155428
0.982223 0.830198 0.154833
0.991867 0.837537 0.159579
0.998856 0.845075 0.165713
1 0.852888 0.185214
1 0.860609 0.207324
1 0.867765 0.235065
1 0.874525 0.262669
1 0.880125 0.29015
0.382971 0.775113 0.336782
0.424247 0.779263 0.331243
0.464424 0.783276 0.326131
0.502388 0.786786 0.320912
0.537072 0.790082 0.314504
0.567559 0.793149 0.306935
0.596323 0.795987 0.297368
0.62417 0.798733 0.286763
0.647715 0.801801 0.276539
0.671016 0.804837 0.26569
0.694057 0.807874 0.251713
0.716487 0.81059 0.23624
0.737591 0.812543 0.218936
0.758373 0.814069 0.203754
0.778927 0.814801 0.191699
0.799176 0.814969 0.182254
0.819287 0.814923 0.172961
0.838529 0.814923 0.166461
0.858015 0.815167 0.15993
0.877485 0.816388 0.155291
0.897231 0.818219 0.150927
0.917601 0.821088 0.147662
0.937667 0.824903 0.146502
0.957046 0.829374 0.147875
0.972534 0.834699 0.149966
0.986404 0.840314 0.153704
0.993835 0.84715 0.159991
1 0.853956 0.168292
1 0.860365 0.192081
1 0.866529 0.2168
1 0.872465 0.244404
1 0.878401 0.271687
1 0.884489 0.298787
0.39852 0.792538 0.354101
0.439124 0.796658 0.348898
0.479057 0.800763 0.34342
0.51751 0.804669 0.337423
0.549798 0.808118 0.33048
0.579293 0.811383 0.323491
0.607034 0.814343 0.314107
0.633967 0.817426 0.304784
0.657801 0.820508 0.294621
