LUT预设1/LUT全系打包/2024-VINTAGE系列lut/vintage709正常色彩使用/gentle暖调-709.cube
TITLE "Generated by Resolve"
LUT_3D_SIZE 5
0.0434272 0.0818036 0.0615396
0.261769 0.10515 0.0339361
0.537865 0.137987 0.0308537
0.767834 0.1458 0.0264744
0.948287 0.125017 0.0210117
0.106981 0.21709 0.117617
0.355474 0.275349 0.0531014
0.677226 0.356878 0.0672618
0.922057 0.430442 0.0475166
1 0.474647 0.0297398
0.234134 0.479347 0.220005
0.48983 0.55079 0.15967
0.73521 0.604974 0.109071
0.967086 0.688945 0.0840009
1 0.746532 0.07393
0.351461 0.736996 0.305455
0.625391 0.761227 0.258656
0.793637 0.772793 0.174777
0.962203 0.812222 0.156252
1 0.873762 0.276967
0.480781 0.861006 0.461845
0.70631 0.886015 0.437858
0.870527 0.895689 0.336736
0.995651 0.894209 0.228794
1 0.905928 0.363134
0.0443122 0.102068 0.155261
0.195193 0.123415 0.146349
0.523537 0.145861 0.19173
0.784573 0.133608 0.247456
0.955993 0.0941787 0.304326
0.0686198 0.252888 0.263706
0.361242 0.311254 0.278981
0.710201 0.346288 0.282322
0.927626 0.395789 0.328664
1 0.448081 0.380163
0.243503 0.520119 0.417426
0.516472 0.605478 0.432425
0.736996 0.650523 0.386587
0.968521 0.704692 0.384802
1 0.754223 0.456733
0.322194 0.773648 0.559258
0.619898 0.811414 0.550027
0.78764 0.83592 0.506889
0.950408 0.858595 0.481086
1 0.910826 0.606332
0.450141 0.892531 0.677653
0.700786 0.920485 0.692744
0.850889 0.936034 0.680919
0.964157 0.938704 0.608637
1 0.94612 0.67039
0.0437324 0.149737 0.302373
0.213352 0.145663 0.308263
0.43743 0.177752 0.328176
0.699825 0.189715 0.441321
0.943435 0.120928 0.582635
0.0628519 0.324315 0.475608
0.348775 0.350088 0.558831
0.621958 0.392493 0.512963
0.883421 0.40589 0.619852
0.997467 0.42739 0.654887
0.119966 0.572381 0.614771
0.44181 0.652445 0.645548
0.716808 0.689357 0.650874
0.923247 0.707622 0.650767
0.999939 0.727993 0.671077
0.166766 0.767254 0.724941
0.553552 0.839414 0.714061
0.788525 0.866743 0.736919
0.929976 0.88777 0.713756
0.999557 0.92079 0.761227
0.267582 0.908629 0.809384
0.681651 0.938384 0.819348
0.852186 0.955505 0.836103
0.947814 0.963607 0.821271
0.997467 0.967697 0.82948
0.0175326 0.200793 0.441032
0.234791 0.168734 0.517555
0.467185 0.204349 0.497047
0.65272 0.23682 0.553719
0.860365 0.219913 0.67541
0.0260624 0.373007 0.612726
0.337484 0.376699 0.773007
0.647593 0.417044 0.713252
0.799863 0.476432 0.723751
0.954955 0.493553 0.785229
0.0942855 0.615274 0.742443
0.369177 0.693126 0.833021
0.699809 0.715312 0.830289
0.858457 0.739193 0.793652
0.990997 0.729809 0.833295
0.063859 0.757137 0.826627
0.334707 0.859251 0.878126
0.692531 0.89453 0.87219
0.911147 0.907362 0.866987
0.994965 0.919417 0.88011
0.00311284 0.886076 0.925765
0.513298 0.948013 0.919799
0.822675 0.967132 0.920974
0.945571 0.977325 0.932509
0.988525 0.981201 0.924117
0.000244144 0.234989 0.551431
0.261295 0.171069 0.699489
0.51696 0.206012 0.671138
0.687083 0.245365 0.691585
0.838209 0.262257 0.757549
0.000823987 0.408728 0.719371
0.32958 0.399619 0.920516
0.666423 0.439719 0.866438
0.809339 0.502434 0.843305
0.914168 0.549004 0.854978
0.0129397 0.648463 0.831464
0.235126 0.71902 0.985794
0.680903 0.729458 0.953689
0.856397 0.754116 0.906798
0.947021 0.780407 0.904555
0.0109712 0.767483 0.885908
0.24387 0.877424 0.983505
0.662913 0.908095 0.982162
0.898283 0.921065 0.963851
0.969284 0.935225 0.948699
0 0.850263 0.948104
0.250462 0.949706 0.998901
0.685847 0.972702 0.990066
0.904005 0.984833 0.981399
0.982223 0.988891 0.981308
