LUT预设1/LUT全系打包/2024-VINTAGE系列lut/vintage709正常色彩使用/gentle暖调-709.cube
TITLE "Generated by Resolve"
LUT_3D_SIZE 9
0.0434272 0.0818036 0.0615396
0.124102 0.0934005 0.0525216
0.261769 0.10515 0.0339361
0.407263 0.121691 0.0278019
0.537865 0.137987 0.0308537
0.653925 0.14786 0.0318608
0.767834 0.1458 0.0264744
0.872511 0.133791 0.020798
0.948287 0.125017 0.0210117
0.0706188 0.135378 0.0898909
0.158038 0.157412 0.0625162
0.324895 0.178698 0.0443275
0.487846 0.202976 0.0474556
0.628214 0.228351 0.0520333
0.750164 0.248631 0.0501717
0.863432 0.264195 0.0435035
0.958206 0.274098 0.0271458
0.999741 0.290288 0.0329747
0.106981 0.21709 0.117617
0.194995 0.249119 0.0857862
0.355474 0.275349 0.0531014
0.536034 0.313954 0.0540017
0.677226 0.356878 0.0672618
0.800549 0.398199 0.0749523
0.922057 0.430442 0.0475166
0.994705 0.4533 0.0261234
1 0.474647 0.0297398
0.158099 0.328847 0.168078
0.262196 0.37232 0.131121
0.401526 0.404318 0.0878462
0.565591 0.440757 0.0648508
0.713909 0.499977 0.0870375
0.834791 0.549889 0.0982986
0.94757 0.580377 0.0609751
0.999084 0.599954 0.0222782
1 0.620523 0.0296025
0.234134 0.479347 0.220005
0.357076 0.523262 0.193668
0.48983 0.55079 0.15967
0.615183 0.572473 0.118608
0.73521 0.604974 0.109071
0.853834 0.65156 0.121462
0.967086 0.688945 0.0840009
1 0.718105 0.0518959
1 0.746532 0.07393
0.303014 0.627848 0.266178
0.445579 0.654597 0.243626
0.569421 0.667063 0.225467
0.667979 0.677974 0.191501
0.756054 0.692439 0.15697
0.857527 0.720943 0.145312
0.965179 0.761791 0.119783
1 0.802319 0.120882
1 0.833768 0.197375
0.351461 0.736996 0.305455
0.508446 0.752377 0.286854
0.625391 0.761227 0.258656
0.714916 0.768246 0.21651
0.793637 0.772793 0.174777
0.874052 0.784344 0.163943
0.962203 0.812222 0.156252
1 0.844739 0.17731
1 0.873762 0.276967
0.412909 0.809659 0.371862
0.561257 0.826108 0.34818
0.668223 0.837537 0.316762
0.756283 0.844404 0.26659
0.84065 0.847822 0.203937
0.922774 0.850935 0.141115
0.988678 0.858488 0.138872
0.999985 0.871733 0.211872
1 0.892073 0.315419
0.480781 0.861006 0.461845
0.610697 0.875944 0.455375
0.70631 0.886015 0.437858
0.787396 0.892546 0.401999
0.870527 0.895689 0.336736
0.946624 0.895521 0.261082
0.995651 0.894209 0.228794
1 0.896803 0.275547
1 0.905928 0.363134
0.0456245 0.0892805 0.0995499
0.102373 0.0995193 0.0931716
0.248127 0.111574 0.0964218
0.404303 0.126253 0.0944686
0.541573 0.13637 0.0988327
0.66212 0.13904 0.107958
0.780957 0.129732 0.118227
0.884565 0.112062 0.129824
0.957885 0.0974136 0.149447
0.0586709 0.145327 0.138491
0.16173 0.167041 0.132784
0.320821 0.188037 0.128985
0.487114 0.205127 0.129427
0.64094 0.214221 0.130129
0.78294 0.21944 0.130709
0.893538 0.23122 0.143984
0.968383 0.248051 0.16405
0.998413 0.27306 0.192554
0.111879 0.227573 0.178241
0.222202 0.264088 0.179477
0.359579 0.292134 0.153918
0.53579 0.321584 0.156054
0.686915 0.352804 0.166171
0.831052 0.382788 0.164431
0.944671 0.411841 0.165743
0.998657 0.439963 0.18764
1 0.466148 0.211765
0.18114 0.345754 0.246342
0.294957 0.39382 0.242557
0.413794 0.428519 0.21503
0.565744 0.459434 0.183398
0.714504 0.509987 0.207156
0.852171 0.552773 0.201511
0.968338 0.579141 0.181582
0.999863 0.59939 0.197467
1 0.622003 0.228748
0.262333 0.498817 0.32546
0.375021 0.549111 0.311757
0.50193 0.578851 0.303685
0.617044 0.598337 0.264134
0.734157 0.626871 0.243626
0.862394 0.668208 0.245502
0.981949 0.699489 0.213321
1 0.725231 0.240467
1 0.754635 0.290425
0.307912 0.650523 0.392813
0.449317 0.683238 0.374182
0.577279 0.700298 0.365209
0.673808 0.711589 0.329885
0.756329 0.718624 0.303838
0.860517 0.743252 0.277592
0.972839 0.783917 0.263813
1 0.820188 0.318029
1 0.850935 0.388968
0.341619 0.7617 0.44564
0.506661 0.779339 0.432471
0.625681 0.792432 0.414862
0.714061 0.801343 0.382147
0.796338 0.808087 0.324193
0.880201 0.815412 0.290394
0.964157 0.838132 0.308232
0.999741 0.868284 0.371618
1 0.896544 0.467124
0.398337 0.829862 0.5075
0.554803 0.847379 0.500084
0.664271 0.860441 0.496086
0.747784 0.870512 0.473991
0.830884 0.876295 0.419532
0.911849 0.878859 0.354971
0.975387 0.883741 0.341299
0.99968 0.8934 0.411078
1 0.91577 0.502892
0.467643 0.879606 0.586938
0.604486 0.894484 0.59173
0.70132 0.90663 0.592706
0.781491 0.915328 0.580575
0.856474 0.919219 0.544472
0.926635 0.919646 0.48603
0.980941 0.918425 0.438727
0.999847 0.919051 0.463676
1 0.928313 0.534737
0.0443122 0.102068 0.155261
0.105806 0.109865 0.142016
0.195193 0.123415 0.146349
0.349966 0.136736 0.166735
0.523537 0.145861 0.19173
0.662608 0.145907 0.219547
0.784573 0.133608 0.247456
0.886015 0.111391 0.274617
0.955993 0.0941787 0.304326
0.0574044 0.167956 0.220218
0.163592 0.18352 0.217578
0.285786 0.201862 0.210559
0.473533 0.215106 0.237385
0.639292 0.217929 0.248875
0.778668 0.215824 0.267857
0.886427 0.220447 0.292515
0.955978 0.235187 0.320165
0.994629 0.257588 0.35137
0.0686198 0.252888 0.263706
0.193759 0.280934 0.275288
0.361242 0.311254 0.278981
0.540612 0.329686 0.280079
0.710201 0.346288 0.282322
0.834852 0.368856 0.301472
0.927626 0.395789 0.328664
0.98793 0.422461 0.356268
1 0.448081 0.380163
0.138399 0.369589 0.325414
0.294224 0.413138 0.342916
0.434546 0.450996 0.35259
0.563485 0.481956 0.325048
0.726146 0.519905 0.333425
0.860822 0.554543 0.332479
0.955276 0.577218 0.351827
0.998474 0.595102 0.377066
1 0.615259 0.404334
0.243503 0.520119 0.417426
0.37969 0.571054 0.424689
0.516472 0.605478 0.432425
0.621027 0.62826 0.421012
0.736996 0.650523 0.386587
0.870024 0.682429 0.374884
0.968521 0.704692 0.384802
0.999863 0.727611 0.41796
1 0.754223 0.456733
0.295705 0.66717 0.50074
0.446815 0.703105 0.495979
0.576654 0.724392 0.495705
0.672343 0.739986 0.484535
0.754711 0.750698 0.443061
0.853788 0.765438 0.429236
0.962936 0.800717 0.431312
0.999817 0.830564 0.480049
1 0.857389 0.534035
0.322194 0.773648 0.559258
0.494301 0.795743 0.551766
0.619898 0.811414 0.550027
0.709773 0.825071 0.541039
0.78764 0.83592 0.506889
0.868803 0.841138 0.469825
0.950408 0.858595 0.481086
0.997147 0.885237 0.534508
1 0.910826 0.606332
0.363928 0.846586 0.610117
0.544808 0.862715 0.612955
0.66006 0.876814 0.620386
0.744213 0.88896 0.620203
0.820981 0.898314 0.596521
0.894072 0.902403 0.549142
0.95642 0.904921 0.524742
0.993881 0.913405 0.56994
1 0.933211 0.646876
0.450141 0.892531 0.677653
0.599832 0.908202 0.685542
0.700786 0.920485 0.692744
0.78201 0.929915 0.693446
0.850889 0.936034 0.680919
0.914717 0.938598 0.647868
0.964157 0.938704 0.608637
0.996216 0.939681 0.613642
1 0.94612 0.67039
0.0447547 0.122713 0.224933
0.107912 0.120989 0.221836
0.202243 0.134112 0.214038
0.313527 0.149462 0.225711
0.454841 0.163699 0.259815
0.617472 0.16701 0.314549
0.758587 0.155993 0.374914
0.877714 0.122194 0.422644
0.959121 0.0923934 0.462943
0.0622721 0.198199 0.311376
0.155764 0.203403 0.335866
0.290929 0.21619 0.304616
0.408347 0.238773 0.308385
0.574731 0.248066 0.357229
0.747326 0.23917 0.412329
0.872709 0.228824 0.452598
0.948455 0.235065 0.483116
0.99025 0.252628 0.511452
0.0641794 0.290288 0.378164
0.190188 0.313542 0.402731
0.351736 0.333318 0.415183
0.50663 0.35201 0.392935
0.684627 0.359579 0.433524
0.816709 0.369543 0.463554
0.909087 0.38703 0.485847
0.974655 0.408545 0.508034
0.999908 0.430381 0.527214
0.090425 0.409064 0.438117
0.234363 0.444282 0.453727
0.394003 0.478599 0.470161
0.571084 0.503914 0.475349
0.723903 0.527871 0.476661
0.839796 0.553002 0.490883
0.929885 0.571557 0.507103
0.98822 0.583535 0.521798
1 0.599786 0.538109
0.171969 0.54284 0.512764
0.331502 0.591211 0.528862
0.492332 0.630747 0.531975
0.623148 0.653361 0.552193
0.727657 0.67068 0.532082
0.851438 0.694545 0.524086
0.944274 0.708949 0.536431
0.995056 0.723079 0.554162
1 0.744579 0.580194
0.238605 0.673289 0.595056
0.40589 0.718898 0.594995
0.562249 0.742473 0.592844
0.672358 0.75671 0.606592
0.751141 0.771832 0.589654
0.849577 0.786679 0.564157
0.948104 0.811627 0.573327
0.997223 0.8336 0.597925
1 0.856123 0.636011
0.256626 0.77792 0.651301
0.452384 0.81001 0.641993
0.60885 0.825589 0.645914
0.709087 0.840452 0.654368
0.785031 0.855329 0.650736
0.859525 0.86479 0.618647
0.938476 0.876112 0.616693
0.990692 0.897536 0.648081
0.999908 0.918471 0.695048
0.294713 0.853529 0.692912
0.518669 0.875471 0.693904
0.656275 0.88986 0.703426
0.746456 0.90164 0.711574
0.821973 0.911818 0.708202
0.88542 0.918334 0.68455
0.942992 0.923278 0.659281
0.986267 0.928695 0.679805
1 0.945296 0.737285
0.401175 0.901427 0.745678
0.585687 0.918318 0.752987
0.698665 0.930434 0.761837
0.785611 0.939788 0.768063
0.851865 0.946624 0.768688
0.908675 0.950683 0.756161
0.954101 0.953353 0.729473
0.988907 0.954162 0.723918
0.999741 0.958495 0.76112
0.0437324 0.149737 0.302373
0.106859 0.134798 0.326589
0.213352 0.145663 0.308263
0.323903 0.161563 0.308431
0.43743 0.177752 0.328176
0.558694 0.192004 0.368185
0.699825 0.189715 0.441321
0.839124 0.161807 0.521767
0.943435 0.120928 0.582635
0.0567941 0.227955 0.398871
0.136446 0.219776 0.465705
0.300237 0.233371 0.427436
0.419608 0.254948 0.404257
0.533654 0.274159 0.423987
0.672953 0.280324 0.480156
0.82182 0.267826 0.556725
0.929473 0.256748 0.612421
0.983307 0.261891 0.641718
0.0628519 0.324315 0.475608
0.182864 0.340139 0.517372
0.348775 0.350088 0.558831
0.505547 0.371862 0.508019
0.621958 0.392493 0.512963
0.761257 0.402029 0.573724
0.883421 0.40589 0.619852
0.961486 0.413458 0.6421
0.997467 0.42739 0.654887
0.0816052 0.445762 0.543908
0.225101 0.477943 0.563409
0.382147 0.508721 0.605081
0.560433 0.527855 0.610864
0.685405 0.551339 0.593591
0.807568 0.564599 0.621759
0.909957 0.569512 0.63711
0.973693 0.57525 0.64184
0.999588 0.584176 0.647761
0.119966 0.572381 0.614771
0.275929 0.614145 0.632959
0.44181 0.652445 0.645548
0.589197 0.675608 0.64828
0.716808 0.689357 0.650874
0.83093 0.700648 0.649744
0.923247 0.707622 0.650767
0.983444 0.71426 0.657237
0.999939 0.727993 0.671077
0.162799 0.679896 0.67895
0.310399 0.727657 0.688182
0.480079 0.760723 0.677363
0.65008 0.773053 0.680705
0.751995 0.787366 0.692424
0.840436 0.802609 0.677516
0.934127 0.818235 0.677974
0.989395 0.832273 0.691142
1 0.851148 0.71252
0.166766 0.767254 0.724941
0.355032 0.816556 0.720958
0.553552 0.839414 0.714061
0.699245 0.852064 0.724941
0.788525 0.866743 0.736919
0.855436 0.880095 0.725841
0.929976 0.88777 0.713756
0.982895 0.903792 0.733364
0.999557 0.92079 0.761227
0.168551 0.850813 0.766155
0.438727 0.883223 0.757839
0.629679 0.899031 0.763592
0.741039 0.911482 0.776455
0.822873 0.921798 0.783703
0.883436 0.929992 0.779004
0.935195 0.935744 0.755947
0.979095 0.939971 0.760967
0.998505 0.953277 0.805234
0.267582 0.908629 0.809384
0.536828 0.925856 0.808881
0.681651 0.938384 0.819348
0.782727 0.947372 0.828641
0.852186 0.955505 0.836103
0.906661 0.960174 0.837064
0.947814 0.963607 0.821271
0.980545 0.964401 0.807599
0.997467 0.967697 0.82948
0.0337377 0.178042 0.376577
0.0988022 0.150134 0.432746
0.224338 0.157336 0.416052
0.340932 0.173297 0.404044
0.450767 0.191485 0.412436
0.550057 0.208331 0.438499
0.657938 0.218448 0.489464
0.783597 0.206577 0.567315
0.90399 0.174212 0.644663
0.0380407 0.252949 0.477867
0.114 0.230289 0.589914
0.309438 0.242832 0.556405
0.44033 0.266865 0.516503
0.543191 0.290272 0.514748
0.648707 0.304234 0.54345
0.757977 0.311345 0.597726
0.877012 0.30454 0.668223
0.962295 0.296056 0.716365
0.0496071 0.350195 0.551858
0.166796 0.361669 0.615381
0.34313 0.363088 0.680644
0.517678 0.383139 0.637476
0.628077 0.408179 0.612421
0.725978 0.431434 0.63331
0.821302 0.450309 0.673548
0.924483 0.450202 0.717342
0.987884 0.448081 0.743725
0.0775464 0.471748 0.614466
0.21976 0.50544 0.646754
0.352224 0.532219 0.725795
0.557183 0.545785 0.724315
0.683818 0.569268 0.685618
0.76141 0.594354 0.686381
0.861082 0.602289 0.713069
0.954192 0.590234 0.73521
0.995895 0.58703 0.741527
0.102754 0.595666 0.686687
0.264576 0.637613 0.710018
0.413443 0.674342 0.741741
0.569665 0.691814 0.758694
0.710933 0.702953 0.744228
0.79617 0.71664 0.725582
0.897383 0.71603 0.740185
0.968536 0.712856 0.746822
0.998444 0.717525 0.753216
0.122545 0.689952 0.742214
0.263478 0.73579 0.763485
0.416724 0.771466 0.771588
0.569238 0.793515 0.770367
0.71194 0.804242 0.76936
0.825574 0.814008 0.765484
0.919036 0.820279 0.765408
0.977066 0.829206 0.772717
0.998856 0.842039 0.785595
0.0955367 0.758282 0.782071
0.229557 0.815503 0.798077
0.429175 0.851255 0.79266
0.627985 0.866682 0.788357
0.768338 0.878157 0.79649
0.854994 0.889281 0.805417
0.921691 0.898344 0.794247
0.974624 0.908354 0.806119
0.998322 0.920989 0.822599
0.0457465 0.83505 0.828931
0.274708 0.886687 0.832715
0.535302 0.907851 0.826474
0.700175 0.920928 0.831739
0.813565 0.930541 0.839719
0.886748 0.939849 0.849348
0.928222 0.946456 0.842496
0.971984 0.949325 0.835935
0.994125 0.958968 0.861662
0.062974 0.906966 0.878981
0.417624 0.930938 0.867628
0.629938 0.944167 0.867506
0.763348 0.953536 0.873854
0.850645 0.962097 0.885908
0.90782 0.968872 0.892302
0.944915 0.972732 0.890257
0.973587 0.973785 0.876295
0.992935 0.975769 0.882231
0.0175326 0.200793 0.441032
0.0838636 0.164874 0.528176
0.234791 0.168734 0.517555
0.359411 0.18471 0.498878
0.467185 0.204349 0.497047
0.562799 0.220874 0.518791
0.65272 0.23682 0.553719
0.753246 0.235187 0.610162
0.860365 0.219913 0.67541
0.0228122 0.27303 0.544106
0.09131 0.238621 0.690349
0.318029 0.245365 0.674983
0.463645 0.269093 0.632593
0.565667 0.295933 0.614572
0.654322 0.319341 0.622354
0.74197 0.333867 0.652583
0.838911 0.338491 0.702708
0.924117 0.342092 0.749737
0.0260624 0.373007 0.612726
0.142245 0.378973 0.702708
0.337484 0.376699 0.773007
0.530922 0.392508 0.740642
0.647593 0.417044 0.713252
0.730159 0.448218 0.711254
0.799863 0.476432 0.723751
0.877211 0.493904 0.749645
0.954955 0.493553 0.785229
0.0667582 0.493141 0.674037
0.188296 0.52958 0.728496
0.319432 0.549142 0.831281
0.551507 0.561975 0.811658
0.686198 0.581384 0.771939
0.761044 0.606668 0.75198
0.826993 0.628702 0.754757
0.903853 0.633646 0.77705
0.975219 0.620951 0.806317
0.0942855 0.615274 0.742443
0.236118 0.659998 0.781949
0.369177 0.693126 0.833021
0.540749 0.708415 0.851972
0.699809 0.715312 0.830289
0.791806 0.726116 0.795422
0.858457 0.739193 0.793652
0.933837 0.738491 0.814343
0.990997 0.729809 0.833295
0.109407 0.700542 0.79173
0.244587 0.747845 0.822644
0.386526 0.785061 0.85005
0.539101 0.806348 0.865873
0.68893 0.817761 0.862104
0.816098 0.824048 0.846052
0.886213 0.835935 0.829145
0.957595 0.834119 0.847868
0.994095 0.839704 0.856809
0.063859 0.757137 0.826627
0.180529 0.814435 0.859358
0.334707 0.859251 0.878126
0.533104 0.881621 0.876204
0.692531 0.89453 0.87219
0.821988 0.902556 0.870359
0.911147 0.907362 0.866987
0.964782 0.912657 0.87126
0.994965 0.919417 0.88011
0.0151675 0.817105 0.868986
0.110216 0.883558 0.901869
0.384466 0.915328 0.89987
0.600565 0.930617 0.892638
0.755047 0.940841 0.892226
0.871397 0.949035 0.896666
0.929351 0.953887 0.902983
0.96379 0.958846 0.895964
0.989029 0.963455 0.908858
0.00311284 0.886076 0.925765
0.204456 0.9308 0.931868
0.513298 0.948013 0.919799
0.693339 0.958389 0.919173
0.822675 0.967132 0.920974
0.902556 0.972534 0.926436
0.945571 0.977325 0.932509
0.969467 0.980407 0.928512
0.988525 0.981201 0.924117
0.00509651 0.217945 0.499992
0.0738537 0.17052 0.616999
0.246601 0.174395 0.61033
0.381643 0.189197 0.593927
0.490471 0.209323 0.586892
0.583612 0.228855 0.597803
0.666545 0.245396 0.622675
0.751064 0.250065 0.66276
0.839643 0.247242 0.711406
0.00563058 0.291295 0.604791
0.0710002 0.245182 0.777981
0.324941 0.246448 0.767926
0.483635 0.268421 0.730495
0.591211 0.295552 0.706523
0.673579 0.323308 0.702068
0.74934 0.344915 0.716945
0.832166 0.356161 0.75198
0.899519 0.372763 0.78378
0.00820935 0.391791 0.669047
0.108339 0.392676 0.7832
0.332631 0.38793 0.853742
0.536736 0.40441 0.823514
0.657206 0.429313 0.79324
0.735958 0.461189 0.781323
0.802106 0.489982 0.784421
0.863371 0.515206 0.794888
0.923552 0.530541 0.813519
0.045243 0.513848 0.727199
0.119432 0.548821 0.815076
0.299306 0.562234 0.908202
0.544762 0.573693 0.886687
0.684794 0.593515 0.851392
0.763363 0.617182 0.823529
0.826703 0.638544 0.814511
0.884871 0.653315 0.820172
0.943496 0.657542 0.83798
0.0634012 0.633555 0.791608
0.156695 0.680095 0.85452
0.299001 0.709407 0.919493
0.526436 0.716472 0.926513
0.690532 0.723384 0.900923
0.790997 0.734493 0.866911
0.855833 0.74789 0.849897
0.911803 0.759335 0.852598
0.961257 0.762982 0.872633
0.0693675 0.712077 0.8336
0.17084 0.763607 0.881895
0.318242 0.800977 0.926268
0.511116 0.817121 0.938201
0.680659 0.825589 0.929625
0.809308 0.83267 0.912062
0.887373 0.844114 0.885512
0.931273 0.854429 0.885695
0.976089 0.85771 0.903288
0.043473 0.75996 0.860029
0.153704 0.818723 0.903166
0.298314 0.867979 0.937331
0.492683 0.89218 0.945815
0.668238 0.904189 0.940902
0.806287 0.911101 0.935714
0.903044 0.915343 0.923858
0.950759 0.92282 0.91339
0.986099 0.92401 0.927855
0.00721752 0.809094 0.895506
0.0584421 0.876478 0.944564
0.274907 0.917739 0.95967
0.512779 0.936675 0.95375
0.682887 0.948318 0.948714
0.810544 0.957855 0.94609
0.906325 0.961852 0.942016
0.959106 0.963973 0.940307
0.985245 0.96669 0.944381
0 0.864546 0.944137
0.033814 0.929854 0.985794
0.35758 0.948409 0.971374
0.591043 0.961273 0.961563
0.747723 0.971038 0.958267
0.86453 0.977569 0.956268
0.93518 0.981247 0.957259
0.96759 0.984039 0.960235
0.983017 0.987686 0.958251
0.000244144 0.234989 0.551431
0.0786908 0.167849 0.703761
0.261295 0.171069 0.699489
0.404395 0.187182 0.680598
0.51696 0.206012 0.671138
0.609247 0.226993 0.675242
0.687083 0.245365 0.691585
0.760372 0.259068 0.718669
0.838209 0.262257 0.757549
0.000396735 0.306279 0.658961
0.0628367 0.250584 0.851225
0.329534 0.250751 0.844388
0.499321 0.267262 0.816236
0.614389 0.2934 0.79292
0.699718 0.32166 0.783688
0.770077 0.34583 0.791455
0.839231 0.366888 0.810208
0.894163 0.391455 0.827787
0.000823987 0.408728 0.719371
0.0644694 0.403189 0.855894
0.32958 0.399619 0.920516
0.540475 0.414252 0.893828
0.666423 0.439719 0.866438
0.745174 0.473136 0.84889
0.809339 0.502434 0.843305
0.864485 0.528237 0.847333
0.914168 0.549004 0.854978
0.0130922 0.531899 0.771801
0.0420081 0.564752 0.883223
0.283482 0.572503 0.966201
0.538125 0.582162 0.944717
0.68162 0.602213 0.917479
0.766888 0.625925 0.890074
0.831495 0.646525 0.874861
0.88542 0.662211 0.872251
0.931975 0.675013 0.878126
0.0129397 0.648463 0.831464
0.0718395 0.695064 0.911238
0.235126 0.71902 0.985794
0.516701 0.720867 0.976822
0.680903 0.729458 0.953689
0.787381 0.741192 0.927825
0.856397 0.754116 0.906798
0.910063 0.767178 0.900816
0.947021 0.780407 0.904555
0.011429 0.724193 0.868376
0.0634775 0.778653 0.932784
0.233799 0.812848 0.984161
0.492073 0.822614 0.985245
0.673655 0.830182 0.974914
0.804776 0.839292 0.96022
0.886625 0.849699 0.936965
0.929259 0.860761 0.925673
0.962646 0.872282 0.929015
0.0109712 0.767483 0.885908
0.087541 0.82916 0.942336
0.24387 0.877424 0.983505
0.475944 0.898405 0.98967
0.662913 0.908095 0.982162
0.802548 0.915129 0.974868
0.898283 0.921065 0.963851
0.947585 0.928435 0.949371
0.969284 0.935225 0.948699
0.000564584 0.807477 0.912032
0.0298772 0.874784 0.969268
0.227344 0.921111 0.995026
0.477791 0.940841 0.993347
0.658259 0.953414 0.98735
0.797177 0.962524 0.981231
0.897169 0.966293 0.977035
0.954391 0.967849 0.971527
0.978698 0.970871 0.969284
0 0.850263 0.948104
0.00621042 0.920256 0.996078
0.250462 0.949706 0.998901
0.52137 0.962585 0.994461
0.685847 0.972702 0.990066
0.814252 0.981186 0.98529
0.904005 0.984833 0.981399
0.954131 0.987274 0.982223
0.982223 0.988891 0.981308
