LUT预设1/LUT全系打包/2024-VINTAGE系列lut/vintage709正常色彩使用/light-lime橘调709.cube
TITLE "Generated by Resolve"
LUT_3D_SIZE 33
0.0644541 0.0620127 0.0533455
0.0834669 0.0656596 0.0540322
0.10248 0.0694285 0.0547799
0.123873 0.0734874 0.0554818
0.146502 0.0775006 0.0564279
0.17142 0.0815442 0.057969
0.197055 0.0852522 0.0596475
0.223926 0.0887007 0.0615549
0.250477 0.0918135 0.0635538
0.277104 0.094728 0.0656138
0.302831 0.0977188 0.0680095
0.328664 0.100786 0.070573
0.353079 0.10396 0.0731823
0.377493 0.107271 0.0758831
0.400793 0.110063 0.0778668
0.424125 0.112917 0.0798505
0.446113 0.114672 0.0809339
0.467811 0.116167 0.0817731
0.48777 0.116487 0.0818036
0.507195 0.116655 0.0817426
0.524636 0.11606 0.0811627
0.540963 0.11548 0.0805982
0.554391 0.114244 0.0794385
0.565469 0.112749 0.0781109
0.573404 0.111116 0.0767071
0.578225 0.109224 0.074876
0.580163 0.10724 0.0728618
0.580056 0.10515 0.0708324
0.578683 0.103273 0.0690013
0.57731 0.101762 0.0675669
0.576028 0.100557 0.0664073
0.575814 0.100389 0.0661631
0.575738 0.100343 0.066041
0.0678416 0.0768597 0.0581674
0.0847791 0.0814374 0.0568399
0.104295 0.0861219 0.0563668
0.127886 0.0911879 0.0570382
0.154299 0.0961776 0.0589303
0.182574 0.101137 0.0616159
0.21268 0.106172 0.0649729
0.24329 0.111284 0.0688182
0.273136 0.115846 0.0725719
0.302876 0.120165 0.0761425
0.330938 0.124193 0.0794232
0.359014 0.128267 0.0828107
0.385412 0.132387 0.0860456
0.411444 0.136309 0.089189
0.436133 0.13962 0.0914778
0.460243 0.142733 0.0936751
0.483284 0.144961 0.0950179
0.505669 0.146914 0.0961624
0.526635 0.148211 0.0968643
0.546426 0.149294 0.0974441
0.565164 0.150256 0.0979019
0.58114 0.150484 0.0979934
0.595071 0.150088 0.0975357
0.605173 0.148867 0.0965591
0.613214 0.147204 0.0952773
0.617166 0.145327 0.0937209
0.619226 0.143023 0.0919661
0.618402 0.140871 0.0901656
0.616938 0.138735 0.0883497
0.615976 0.137636 0.0873884
0.614725 0.136339 0.0864576
0.614496 0.136065 0.0863203
0.614588 0.136049 0.0863508
0.0709239 0.0924697 0.0630655
0.0856947 0.0978408 0.0612802
0.105837 0.103609 0.0598306
0.128161 0.109468 0.0583352
0.157031 0.115282 0.0594339
0.187137 0.121126 0.0607156
0.221912 0.126955 0.0651865
0.257008 0.132952 0.0697948
0.291707 0.138918 0.075288
0.326238 0.144945 0.0808576
0.357931 0.15053 0.0861219
0.388983 0.156008 0.091249
0.417044 0.160876 0.0956893
0.444541 0.165469 0.0996567
0.471015 0.169574 0.102876
0.496498 0.173236 0.105714
0.520836 0.176471 0.108171
0.543999 0.179263 0.110246
0.566201 0.18175 0.112062
0.586267 0.183612 0.113298
0.605478 0.18529 0.114397
0.620996 0.186099 0.114855
0.635279 0.186389 0.115236
0.644221 0.184924 0.114351
0.652583 0.183124 0.113252
0.654917 0.180636 0.111482
0.656947 0.178058 0.109636
0.655802 0.176211 0.107958
0.654475 0.174258 0.106386
0.653376 0.173129 0.105425
0.652491 0.172213 0.104631
0.652522 0.172244 0.104585
0.652308 0.172091 0.10457
0.073167 0.108797 0.068574
0.0865034 0.114748 0.0671855
0.106279 0.12137 0.0626383
0.127169 0.128161 0.0582284
0.158968 0.134768 0.0586404
0.191165 0.141573 0.0592966
0.230076 0.148501 0.064271
0.268956 0.155566 0.0696117
0.308766 0.162707 0.0766766
0.346914 0.169696 0.0834974
0.383291 0.176486 0.0901503
0.416403 0.182559 0.0961318
0.446769 0.188083 0.101472
0.475639 0.19295 0.105806
0.50367 0.197513 0.109621
0.530175 0.201694 0.11281
0.555795 0.205509 0.115816
0.57969 0.208942 0.118227
0.60322 0.212467 0.120623
0.623468 0.215656 0.123323
0.643519 0.218875 0.12607
0.658686 0.220233 0.127855
0.67332 0.221256 0.129381
0.682109 0.219837 0.12932
0.689845 0.218082 0.128817
0.692378 0.215702 0.12755
0.693858 0.21326 0.126177
0.692912 0.211551 0.124926
0.692058 0.210163 0.123888
0.691218 0.209293 0.123033
0.690639 0.208698 0.12256
0.69073 0.208789 0.122438
0.69073 0.208789 0.122347
0.0774548 0.125765 0.0737621
0.0916304 0.132265 0.0723125
0.109422 0.13962 0.0672007
0.129809 0.146975 0.0623026
0.156558 0.154925 0.0579843
0.189075 0.162692 0.0563973
0.230625 0.170596 0.0593118
0.274739 0.178378 0.0649424
0.321233 0.185885 0.0730297
0.365133 0.193668 0.0817273
0.407767 0.201694 0.0909285
0.443168 0.208453 0.0983444
0.476677 0.21503 0.105409
0.505989 0.21973 0.110185
0.535149 0.224231 0.114687
0.562036 0.228763 0.118349
0.589105 0.233509 0.122133
0.613794 0.238239 0.125475
0.637949 0.243061 0.129076
0.658701 0.247395 0.132967
0.678386 0.251255 0.136614
0.694514 0.253483 0.139361
0.708644 0.254643 0.141344
0.718639 0.253803 0.141909
0.725719 0.252323 0.14197
0.729015 0.250156 0.1411
0.730388 0.248203 0.140093
0.730037 0.246677 0.139055
0.729625 0.245686 0.138338
0.729152 0.24509 0.137865
0.729091 0.244968 0.137774
0.72929 0.245151 0.137911
0.729427 0.245289 0.138079
0.0826276 0.143206 0.0789502
0.097612 0.150561 0.0767529
0.113817 0.15848 0.0716869
0.133715 0.166827 0.065507
0.156573 0.175845 0.058381
0.189563 0.184482 0.0557107
0.227359 0.19324 0.0550393
0.273732 0.201068 0.0601358
0.322698 0.20882 0.0665599
0.371176 0.216373 0.0757916
0.419409 0.223743 0.0856947
0.458061 0.230243 0.0939193
0.496971 0.236973 0.102266
0.529305 0.24239 0.108171
0.561425 0.24802 0.114061
0.590616 0.253758 0.119005
0.618845 0.259739 0.124132
0.644999 0.26598 0.129473
0.669764 0.272114 0.134722
0.691905 0.277836 0.14023
0.71191 0.282551 0.145129
0.729671 0.286152 0.149371
0.743999 0.287846 0.152316
0.755505 0.287999 0.154025
0.762036 0.286854 0.154421
0.76611 0.285008 0.154131
0.767315 0.283528 0.153521
0.76759 0.282139 0.152605
0.767773 0.281804 0.152102
0.767727 0.281498 0.151659
0.76817 0.281849 0.15172
0.76878 0.282383 0.151873
0.76907 0.282567 0.151751
0.0898299 0.161425 0.0838941
0.105318 0.169619 0.0813458
0.121477 0.178058 0.0768597
0.139681 0.187579 0.0695201
0.158343 0.197452 0.0611734
0.188449 0.206989 0.0552987
0.219348 0.216419 0.0496071
0.269551 0.22388 0.054612
0.319432 0.23125 0.0598917
0.373342 0.238148 0.0698863
0.424811 0.245075 0.0792401
0.470283 0.252354 0.0889448
0.513191 0.259174 0.0979782
0.549737 0.2654 0.105348
0.584192 0.271672 0.112001
0.615228 0.278019 0.118059
0.644465 0.284916 0.124453
0.672267 0.292195 0.131151
0.697398 0.29929 0.137774
0.721202 0.306264 0.144411
0.741817 0.311955 0.150286
0.761654 0.31725 0.15581
0.77641 0.319844 0.159731
0.790143 0.321889 0.163317
0.79678 0.321401 0.164477
0.802792 0.320607 0.165377
0.804242 0.319448 0.164782
0.805676 0.318303 0.164141
0.806195 0.318303 0.163882
0.806851 0.31841 0.163684
0.808042 0.319371 0.164309
0.809171 0.320256 0.164752
0.809201 0.320302 0.164721
0.0987106 0.18024 0.0886244
0.115602 0.189441 0.0855421
0.13312 0.198657 0.0818341
0.148821 0.209216 0.0737163
0.165698 0.219883 0.0661479
0.190692 0.229816 0.0590677
0.219501 0.239353 0.053666
0.261173 0.246738 0.0532235
0.307439 0.253758 0.0550393
0.363058 0.25948 0.0614176
0.418875 0.266041 0.0696727
0.474693 0.273304 0.0802777
0.523308 0.280308 0.0900587
0.566384 0.287465 0.0995193
0.603815 0.29453 0.107759
0.638056 0.301366 0.11545
0.669017 0.309377 0.123293
0.698299 0.317647 0.131212
0.724178 0.326024 0.139132
0.749844 0.334462 0.147127
0.771557 0.341527 0.15433
0.793042 0.348516 0.161471
0.808118 0.351751 0.166201
0.822599 0.354894 0.170764
0.829831 0.354711 0.172305
0.836286 0.35436 0.17348
0.838499 0.353262 0.172839
0.840452 0.35256 0.17229
0.841184 0.352865 0.171984
0.841733 0.353368 0.172137
0.842313 0.354376 0.172946
0.842695 0.355138 0.173587
0.842725 0.355444 0.173892
0.109041 0.199741 0.0928511
0.126528 0.209705 0.0901961
0.143221 0.22002 0.0866255
0.157137 0.231357 0.0790112
0.173754 0.242634 0.0714122
0.194064 0.253391 0.0628824
0.221347 0.262867 0.0566567
0.255695 0.270649 0.0522774
0.300679 0.276951 0.0522774
0.352178 0.281971 0.0552682
0.408896 0.287846 0.0623331
0.468238 0.29369 0.0708629
0.520409 0.301167 0.0809796
0.571817 0.309194 0.0916609
0.612268 0.316579 0.100526
0.652537 0.324254 0.109483
0.685084 0.332921 0.1187
0.717571 0.341634 0.127855
0.745556 0.35108 0.137148
0.773129 0.360616 0.14641
0.797391 0.369497 0.155138
0.819883 0.377462 0.163348
0.837476 0.382681 0.169833
0.852201 0.386328 0.174899
0.861372 0.386831 0.1776
0.86836 0.38703 0.179156
0.871611 0.386404 0.1794
0.873075 0.386114 0.179538
0.873411 0.386618 0.179858
0.87396 0.387579 0.180652
0.874723 0.388922 0.181811
0.87509 0.389746 0.182559
0.875334 0.390326 0.183124
0.119493 0.220172 0.0967117
0.13698 0.231067 0.0950027
0.15317 0.242481 0.0907454
0.168048 0.25452 0.0835279
0.184878 0.266361 0.0758221
0.202426 0.277943 0.0671855
0.226902 0.287221 0.0602426
0.253651 0.295888 0.0537423
0.293919 0.30071 0.0513008
0.336477 0.304921 0.0492561
0.396826 0.308965 0.0540475
0.457496 0.313451 0.0596628
0.516548 0.321889 0.0710307
0.573175 0.330327 0.0818952
0.618723 0.338659 0.0920424
0.662272 0.347051 0.102205
0.698695 0.356268 0.112886
0.733333 0.365866 0.123461
0.764065 0.376242 0.133867
0.792798 0.38616 0.143862
0.819211 0.396094 0.153552
0.841993 0.404044 0.162005
0.86154 0.410178 0.16939
0.875731 0.413336 0.175021
0.886824 0.414633 0.178775
0.893294 0.414939 0.180926
0.897475 0.414694 0.182162
0.899351 0.415549 0.183398
0.900435 0.416846 0.184665
0.901747 0.418662 0.186297
0.903197 0.420706 0.188067
0.904097 0.422004 0.189258
0.905058 0.423316 0.190448
0.130632 0.24123 0.10071
0.148425 0.253025 0.0995041
0.164538 0.2654 0.094728
0.180316 0.278096 0.0886549
0.196704 0.290517 0.0806744
0.213169 0.303181 0.0718853
0.235676 0.31252 0.064744
0.259312 0.321645 0.0578012
0.294804 0.326192 0.0538949
0.332769 0.330358 0.0505531
0.38584 0.33315 0.0513771
0.440711 0.336843 0.0540017
0.502693 0.34374 0.0618906
0.561929 0.351324 0.0710613
0.615091 0.360449 0.0820783
0.663798 0.369863 0.0937819
0.706401 0.379568 0.105684
0.744488 0.389776 0.117189
0.779141 0.400351 0.128801
0.810056 0.410986 0.139712
0.838727 0.421622 0.15082
0.861631 0.429648 0.160464
0.882734 0.436683 0.169619
0.897566 0.439887 0.175372
0.911376 0.442206 0.18024
0.917723 0.442634 0.182681
0.923552 0.442863 0.184894
0.92517 0.444389 0.186572
0.926619 0.445853 0.188312
0.928283 0.448096 0.190143
0.929946 0.450355 0.191959
0.931151 0.451957 0.193256
0.932357 0.453498 0.194308
0.142657 0.262852 0.10454
0.160906 0.275456 0.103609
0.177005 0.288609 0.0988785
0.193439 0.30193 0.0939193
0.209354 0.315373 0.0852979
0.225864 0.328191 0.0767987
0.245258 0.338354 0.0693675
0.26746 0.347265 0.0623178
0.29659 0.352377 0.056611
0.332204 0.356115 0.0519265
0.377447 0.358022 0.0490578
0.430686 0.361486 0.0500191
0.491173 0.366674 0.0546731
0.549249 0.374014 0.0629129
0.605722 0.383017 0.0734417
0.65597 0.392401 0.0850538
0.704021 0.402289 0.0974441
0.745129 0.413016 0.110582
0.785092 0.423758 0.123812
0.817761 0.434684 0.135973
0.849714 0.445609 0.148119
0.874174 0.453346 0.157717
0.898344 0.461097 0.167346
0.915389 0.464302 0.173419
0.931746 0.467338 0.179294
0.939605 0.467918 0.182437
0.946715 0.469078 0.18558
0.949187 0.471153 0.187716
0.951659 0.473503 0.189899
0.953887 0.476402 0.192111
0.955947 0.479057 0.193957
0.95729 0.481117 0.19559
0.958618 0.483192 0.196948
0.155779 0.2851 0.108354
0.174594 0.298787 0.107439
0.191073 0.312703 0.103593
0.207538 0.326711 0.0986954
0.222629 0.340459 0.0911269
0.239017 0.353338 0.0832074
0.256825 0.364767 0.0750286
0.278584 0.373617 0.0677043
0.303914 0.380011 0.0612345
0.337713 0.383612 0.0556497
0.375692 0.385794 0.05037
0.424689 0.388205 0.0492409
0.476127 0.390494 0.0487831
0.533181 0.397421 0.05626
0.591165 0.405249 0.0647746
0.645777 0.415137 0.0776532
0.698955 0.42504 0.0902113
0.743969 0.435859 0.104356
0.788067 0.446784 0.118318
0.823133 0.457801 0.130999
0.85742 0.468345 0.143709
0.884779 0.476829 0.154116
0.910536 0.484016 0.163516
0.931548 0.487892 0.170809
0.948928 0.491005 0.176974
0.95964 0.492302 0.180972
0.966934 0.493996 0.18436
0.969711 0.496284 0.186511
0.972045 0.499031 0.188586
0.973892 0.50222 0.190616
0.975494 0.504997 0.192203
0.976944 0.507561 0.193927
0.9785 0.510185 0.195468
0.169863 0.30753 0.1122
0.188952 0.322301 0.111391
0.205737 0.337102 0.108431
0.221607 0.351705 0.103563
0.236408 0.366049 0.0969558
0.252522 0.379202 0.0896315
0.268864 0.391608 0.0816815
0.290303 0.400397 0.0743267
0.313054 0.408331 0.0671092
0.345892 0.411963 0.0608072
0.378927 0.41503 0.0548867
0.423682 0.41735 0.0526894
0.469017 0.419745 0.0508583
0.521721 0.42533 0.0562142
0.573877 0.430961 0.0621195
0.627558 0.438895 0.0718853
0.680659 0.447288 0.0826734
0.731884 0.457542 0.0962692
0.780072 0.468193 0.110262
0.821668 0.479744 0.124453
0.859571 0.490074 0.137484
0.891798 0.499184 0.148898
0.920806 0.50602 0.158633
0.946517 0.510811 0.167147
0.96524 0.514107 0.173632
0.979004 0.516152 0.178592
0.985153 0.518547 0.181735
0.987594 0.520989 0.184009
0.988968 0.524285 0.186023
0.989899 0.527794 0.187778
0.990784 0.530999 0.189487
0.991608 0.534081 0.191226
0.992493 0.537194 0.192828
0.186145 0.330678 0.116899
0.204303 0.346441 0.116075
0.220722 0.362112 0.113725
0.236027 0.377218 0.109041
0.251041 0.392218 0.1037
0.266224 0.405478 0.0971389
0.281178 0.418601 0.090486
0.302007 0.427665 0.0829786
0.323537 0.4365 0.075349
0.353002 0.440894 0.068452
0.384543 0.444923 0.0619059
0.423682 0.447166 0.0571145
0.465064 0.449943 0.0542763
0.511467 0.453239 0.0560922
0.559991 0.457618 0.0599222
0.612222 0.463798 0.0672313
0.664637 0.470893 0.0767071
0.717311 0.479179 0.0884108
0.766735 0.489036 0.101808
0.814099 0.50045 0.116762
0.854444 0.510536 0.129732
0.892546 0.520287 0.142443
0.924636 0.526802 0.152193
0.955337 0.532235 0.161059
0.973831 0.535637 0.167758
0.990066 0.53875 0.174243
0.993423 0.541588 0.177066
0.995438 0.544747 0.179736
0.996185 0.548791 0.181689
0.996826 0.552804 0.183474
0.997482 0.556344 0.185138
0.998138 0.560128 0.186755
0.998749 0.56376 0.188449
0.201495 0.353826 0.121828
0.218738 0.37055 0.120806
0.235676 0.387518 0.119478
0.250172 0.402747 0.115663
0.264836 0.417746 0.11194
0.279561 0.430961 0.106538
0.295506 0.443595 0.100725
0.314687 0.454124 0.0935378
0.336324 0.46305 0.0857862
0.363058 0.469169 0.0771344
0.393545 0.474144 0.0694896
0.428641 0.477775 0.0632944
0.466606 0.481056 0.059968
0.507088 0.484123 0.0589914
0.551049 0.487602 0.0613565
0.596597 0.490715 0.0651408
0.646479 0.49514 0.071809
0.697963 0.499519 0.0790417
0.750668 0.509361 0.092546
0.803891 0.520119 0.107454
0.847959 0.530541 0.121172
0.891585 0.540719 0.134752
0.926665 0.546853 0.143999
0.961257 0.552834 0.15314
0.979843 0.556832 0.160861
0.996445 0.560998 0.168215
0.998001 0.564523 0.171328
0.999207 0.568521 0.174365
0.999374 0.573068 0.176257
0.999527 0.577295 0.17792
0.99968 0.581506 0.180117
0.999786 0.585809 0.182834
0.999847 0.589914 0.18587
0.214115 0.376745 0.126055
0.2318 0.394873 0.126177
0.249027 0.412329 0.126223
0.263554 0.42797 0.12401
0.278355 0.442969 0.121096
0.29337 0.456687 0.116594
0.309758 0.469306 0.110842
0.327428 0.480568 0.103716
0.34934 0.489845 0.0952926
0.373709 0.497597 0.0856031
0.403326 0.503334 0.0774243
0.434913 0.508476 0.0697642
0.470451 0.512489 0.0664073
0.506172 0.516243 0.0638743
0.546502 0.518791 0.0653391
0.587167 0.520912 0.0670939
0.634302 0.523049 0.0720226
0.681361 0.52546 0.0771496
0.73341 0.532296 0.0883497
0.784085 0.539193 0.0992142
0.832898 0.549035 0.112581
0.879927 0.55819 0.124834
0.921218 0.564904 0.133822
0.957519 0.571511 0.142992
0.981247 0.57705 0.152468
0.997086 0.582315 0.160296
0.998947 0.586908 0.16434
0.999939 0.591913 0.16875
0.999969 0.597253 0.171908
1 0.602136 0.174441
1 0.606699 0.17705
1 0.611429 0.179965
1 0.616098 0.183001
0.225132 0.399466 0.131762
0.243641 0.418479 0.134173
0.260777 0.436286 0.135119
0.276524 0.453208 0.134035
0.292058 0.468559 0.131212
0.307469 0.482948 0.127092
0.324376 0.49546 0.120836
0.341772 0.507225 0.113695
0.36321 0.516579 0.104494
0.385382 0.525582 0.0946517
0.41384 0.532631 0.0860609
0.442603 0.539834 0.0771649
0.474662 0.544671 0.073579
0.507057 0.549203 0.0700999
0.543053 0.550759 0.0701915
0.580102 0.551781 0.0704814
0.623041 0.551522 0.0730755
0.667491 0.552361 0.0768292
0.716609 0.555138 0.0838026
0.766323 0.560052 0.092607
0.817319 0.56817 0.104585
0.86569 0.575662 0.115007
0.911925 0.582544 0.123964
0.94963 0.589395 0.133745
0.980423 0.596216 0.144991
0.994858 0.602701 0.15349
0.998672 0.608774 0.160418
0.999939 0.614588 0.164614
0.999985 0.620478 0.167987
1 0.62565 0.170413
1 0.631037 0.172824
1 0.636484 0.176684
1 0.642054 0.180652
0.237079 0.422507 0.13843
0.256046 0.442115 0.142473
0.273228 0.460456 0.143969
0.289998 0.478676 0.144594
0.305791 0.494209 0.141619
0.321508 0.509438 0.137972
0.338552 0.521721 0.130983
0.356023 0.533974 0.123522
0.376974 0.543664 0.113771
0.398733 0.553246 0.104021
0.425345 0.56144 0.0950484
0.452598 0.569207 0.0870375
0.481819 0.575555 0.0824292
0.512016 0.580362 0.0786603
0.544518 0.582422 0.0771191
0.579416 0.583337 0.0766155
0.617288 0.582177 0.0772106
0.658473 0.581262 0.0792859
0.702037 0.58053 0.0825208
0.749111 0.582788 0.0890059
0.798672 0.587182 0.0978103
0.849561 0.593088 0.107118
0.900877 0.599908 0.116884
0.942321 0.607507 0.127275
0.981003 0.615488 0.138399
0.992111 0.622782 0.146883
0.998978 0.630182 0.155367
0.999741 0.636393 0.159243
1 0.642924 0.163073
1 0.648539 0.165179
1 0.654551 0.167605
1 0.660838 0.172168
1 0.66685 0.176547
0.250095 0.44564 0.146212
0.2692 0.465705 0.151385
0.286229 0.484749 0.153658
0.303456 0.503944 0.155779
0.319295 0.519875 0.152514
0.335454 0.53547 0.14873
0.352407 0.548119 0.141253
0.370306 0.560342 0.133043
0.390188 0.570809 0.123186
0.411902 0.580941 0.113573
0.436408 0.590387 0.104448
0.461967 0.59881 0.0969711
0.48893 0.606287 0.0911116
0.517403 0.611048 0.0872206
0.546578 0.613977 0.0843366
0.579416 0.613947 0.0828412
0.613581 0.612528 0.0818494
0.652064 0.610834 0.0831159
0.691783 0.608621 0.0846876
0.73698 0.609323 0.0902419
0.782803 0.610285 0.0962692
0.83357 0.614557 0.104433
0.884398 0.619028 0.112779
0.9281 0.625772 0.121798
0.969726 0.632776 0.1308
0.984649 0.640742 0.139681
0.998291 0.648951 0.148287
0.999222 0.656062 0.152468
1 0.663386 0.156451
1 0.669856 0.158297
1 0.676738 0.161013
1 0.683864 0.165682
1 0.69041 0.170016
0.263661 0.4692 0.154604
0.282475 0.489876 0.160464
0.299748 0.509682 0.16379
0.316899 0.528878 0.165713
0.332891 0.545754 0.163775
0.349203 0.561288 0.159747
0.365942 0.574594 0.151751
0.3841 0.586816 0.142855
0.403616 0.598123 0.132616
0.425361 0.608698 0.123018
0.448417 0.618891 0.113787
0.473014 0.627863 0.106783
0.497841 0.636194 0.100465
0.524224 0.640757 0.0962539
0.550851 0.644694 0.0926528
0.581552 0.644633 0.090898
0.611963 0.64448 0.0887617
0.64802 0.641566 0.088838
0.683787 0.638666 0.0888685
0.725231 0.636378 0.0917983
0.767544 0.634516 0.0950332
0.817838 0.636347 0.101625
0.866926 0.638895 0.108125
0.914565 0.644175 0.115343
0.954376 0.650324 0.123125
0.978592 0.658289 0.132204
0.994904 0.666331 0.139742
0.997986 0.674556 0.145144
0.999832 0.682567 0.149126
0.999893 0.689967 0.151064
0.999893 0.697765 0.154253
0.999832 0.705715 0.158709
0.999771 0.713008 0.162615
0.277485 0.492836 0.163302
0.295964 0.514321 0.169696
0.313405 0.534798 0.174121
0.33022 0.553887 0.176013
0.346471 0.572076 0.17557
0.362997 0.587503 0.170672
0.379583 0.60145 0.163165
0.398138 0.61384 0.153399
0.41738 0.625864 0.142519
0.438849 0.636652 0.13257
0.460517 0.647227 0.122881
0.483833 0.655879 0.11696
0.507439 0.664408 0.110887
0.532692 0.669413 0.107134
0.558236 0.673945 0.10309
0.586206 0.674739 0.100267
0.615076 0.674769 0.0975662
0.647318 0.672328 0.0962387
0.681315 0.669688 0.0955978
0.718639 0.666545 0.0966201
0.759243 0.663813 0.0986191
0.804959 0.661952 0.102312
0.851118 0.661875 0.106447
0.898741 0.663767 0.111452
0.938552 0.667979 0.117189
0.97322 0.674067 0.123674
0.990524 0.682216 0.129992
0.99733 0.691737 0.136721
0.999619 0.700542 0.140291
0.999741 0.709194 0.142397
0.999619 0.71812 0.145937
0.999344 0.727214 0.150027
0.999115 0.735241 0.153979
0.291966 0.518517 0.174029
0.310063 0.540047 0.180652
0.327672 0.561151 0.185962
0.344427 0.580224 0.187549
0.360937 0.598749 0.187976
0.377279 0.61387 0.182239
0.393439 0.62858 0.175875
0.412299 0.640803 0.164828
0.431189 0.652934 0.15407
0.451926 0.663783 0.144106
0.472755 0.674296 0.134783
0.49482 0.683406 0.128359
0.517189 0.691661 0.122347
0.540856 0.697871 0.1178
0.565164 0.702464 0.11339
0.590539 0.704509 0.109545
0.617838 0.704784 0.106279
0.647059 0.702953 0.103517
0.679072 0.70013 0.102007
0.713314 0.696574 0.101472
0.752926 0.692576 0.10219
0.794842 0.688243 0.103456
0.839323 0.68658 0.10605
0.884398 0.685542 0.109102
0.923751 0.688273 0.113649
0.961486 0.691997 0.118502
0.97908 0.69958 0.124392
0.9944 0.707927 0.130556
0.997131 0.717556 0.133608
0.998947 0.727733 0.136568
0.998199 0.737408 0.13933
0.99736 0.747295 0.14197
0.996979 0.756283 0.146242
0.306432 0.544289 0.185153
0.324376 0.566339 0.192111
0.342336 0.588403 0.199115
0.358907 0.607019 0.199802
0.37557 0.625284 0.200122
0.39176 0.640192 0.1944
0.408423 0.654765 0.188022
0.426459 0.667155 0.177554
0.444968 0.679133 0.166979
0.464698 0.690074 0.156268
0.484962 0.700404 0.146899
0.505852 0.70988 0.139239
0.527657 0.71812 0.132876
0.549981 0.725216 0.128023
0.573205 0.729961 0.123476
0.596902 0.733379 0.119097
0.622461 0.73402 0.115343
0.648753 0.733227 0.111482
0.679179 0.730312 0.109117
0.710658 0.726741 0.106889
0.748226 0.721508 0.10605
0.786374 0.715602 0.105074
0.828138 0.711498 0.106065
0.869566 0.7075 0.106966
0.90866 0.708553 0.110323
0.946288 0.709926 0.113771
0.969131 0.71667 0.118822
0.9897 0.723735 0.123659
0.993454 0.734691 0.127382
0.996536 0.745418 0.130861
0.995224 0.755657 0.133028
0.99411 0.765972 0.136767
0.993164 0.775677 0.141909
0.319905 0.569894 0.195758
0.338491 0.593072 0.204349
0.356832 0.615198 0.21149
0.373495 0.633753 0.212497
0.390143 0.65127 0.21178
0.406424 0.666636 0.207141
0.423224 0.680766 0.2
0.440543 0.693462 0.190402
0.458656 0.705211 0.180041
0.477348 0.716182 0.168795
0.496941 0.726421 0.159274
0.516823 0.736278 0.150332
0.53756 0.744427 0.143923
0.558434 0.752194 0.137911
0.580682 0.757031 0.132952
0.60296 0.761486 0.127855
0.627634 0.761776 0.123217
0.65214 0.762036 0.118425
0.681804 0.75877 0.115084
0.711604 0.755261 0.11162
0.747555 0.749599 0.109682
0.783581 0.744244 0.108003
0.821881 0.739101 0.108125
0.85948 0.734813 0.108736
0.895964 0.733471 0.111025
0.929412 0.733364 0.113664
0.958114 0.736385 0.11725
0.978866 0.742168 0.120836
0.987579 0.752667 0.125185
0.992065 0.763287 0.129076
0.990982 0.774121 0.132128
0.98967 0.783993 0.135317
0.988098 0.793225 0.138628
0.333989 0.596139 0.206455
0.353124 0.61973 0.216358
0.371252 0.641169 0.22266
0.38854 0.660533 0.225223
0.405341 0.677729 0.224094
0.421622 0.693172 0.220096
0.438422 0.706844 0.21268
0.455222 0.7196 0.203815
0.472709 0.730907 0.19321
0.490303 0.741909 0.18204
0.508904 0.751919 0.172244
0.527626 0.761975 0.161883
0.547326 0.770245 0.154665
0.567102 0.778424 0.14725
0.588266 0.783505 0.141726
0.609689 0.787945 0.135897
0.632959 0.788998 0.130312
0.657328 0.78909 0.124727
0.684672 0.78613 0.119982
0.713939 0.782528 0.115709
0.747158 0.777249 0.112718
0.78085 0.77171 0.110643
0.815396 0.765835 0.110048
0.8495 0.761501 0.110552
0.883528 0.758526 0.112413
0.915816 0.757824 0.115038
0.947219 0.758801 0.118196
0.967651 0.763699 0.121767
0.98233 0.770565 0.125505
0.986542 0.779492 0.128649
0.985946 0.789288 0.131533
0.984878 0.797253 0.134386
0.98378 0.804608 0.13753
0.348547 0.622309 0.217441
0.368017 0.646296 0.228321
0.386084 0.667369 0.234195
0.40383 0.687602 0.238651
0.420493 0.704143 0.236606
0.436896 0.719738 0.233539
0.453208 0.732494 0.225284
0.469444 0.745083 0.216449
0.486107 0.75581 0.205417
0.502815 0.766323 0.194324
0.5205 0.776196 0.183825
0.538216 0.785733 0.173617
0.556619 0.794171 0.164767
0.575463 0.801694 0.156146
0.595422 0.807111 0.148501
0.616495 0.810987 0.141054
0.639353 0.812543 0.134371
0.663737 0.812436 0.128344
0.689815 0.810346 0.122957
0.718669 0.806989 0.118761
0.748974 0.802777 0.115511
0.779965 0.798321 0.114366
0.810819 0.793729 0.113985
0.841581 0.789868 0.1149
0.872358 0.786099 0.116167
0.903487 0.784115 0.118196
0.934936 0.782513 0.120394
0.957275 0.783871 0.122652
0.978973 0.785153 0.124743
0.980545 0.793179 0.127169
0.981155 0.801144 0.12961
0.980606 0.806638 0.132204
