LUT预设1/LUT全系打包/2024-VINTAGE系列lut/vintage709正常色彩使用/light-lime橘调709.cube
TITLE "Generated by Resolve"
LUT_3D_SIZE 5
0.0644541 0.0620127 0.0533455
0.250477 0.0918135 0.0635538
0.446113 0.114672 0.0809339
0.573404 0.111116 0.0767071
0.575738 0.100343 0.066041
0.109041 0.199741 0.0928511
0.300679 0.276951 0.0522774
0.685084 0.332921 0.1187
0.861372 0.386831 0.1776
0.875334 0.390326 0.183124
0.214115 0.376745 0.126055
0.34934 0.489845 0.0952926
0.634302 0.523049 0.0720226
0.981247 0.57705 0.152468
1 0.616098 0.183001
0.319905 0.569894 0.195758
0.458656 0.705211 0.180041
0.627634 0.761776 0.123217
0.895964 0.733471 0.111025
0.988098 0.793225 0.138628
0.419577 0.738903 0.27863
0.535149 0.834836 0.250004
0.672892 0.875639 0.160281
0.851682 0.848615 0.125673
0.976944 0.811582 0.12932
0.0475929 0.0696574 0.131182
0.187076 0.0805066 0.168963
0.379126 0.0834821 0.153979
0.522454 0.0890059 0.143984
0.534234 0.0754101 0.12636
0.0806287 0.220905 0.246921
0.243793 0.29926 0.30898
0.598321 0.373648 0.341924
0.775296 0.390936 0.353719
0.802808 0.380835 0.341863
0.130999 0.384222 0.330282
0.369482 0.508858 0.371191
0.685679 0.588754 0.328817
0.993667 0.693065 0.47361
1 0.737774 0.521645
0.233707 0.541421 0.360006
0.49688 0.695628 0.420706
0.68835 0.798627 0.376379
0.943557 0.825422 0.339391
1 0.90399 0.430808
0.3794 0.673655 0.373327
0.585611 0.831815 0.477394
0.730022 0.918334 0.451698
0.91931 0.93518 0.363516
1 0.913344 0.366369
0.0399481 0.0861067 0.212299
0.123064 0.1084 0.268894
0.327153 0.09691 0.287358
0.518441 0.0791638 0.245792
0.535592 0.0641947 0.21706
0.0710002 0.236286 0.32961
0.177661 0.315709 0.417456
0.437964 0.35024 0.472694
0.712047 0.35256 0.435462
0.749401 0.334874 0.415183
0.130617 0.4121 0.456718
0.31516 0.522927 0.543374
0.575814 0.617426 0.601816
0.908492 0.681285 0.644175
0.965927 0.695247 0.657679
0.18764 0.57528 0.539391
0.417014 0.695949 0.600015
0.698024 0.817807 0.647486
0.970962 0.885359 0.631342
1 0.963211 0.718868
0.258854 0.704036 0.566888
0.520806 0.81062 0.613367
0.766262 0.935027 0.691936
0.970932 0.997909 0.663371
1 0.987747 0.650919
0.0386206 0.106752 0.295766
0.092668 0.131975 0.355093
0.238727 0.145937 0.404288
0.444129 0.102815 0.403845
0.513375 0.0515908 0.363622
0.0669108 0.254017 0.407233
0.160678 0.338033 0.496941
0.312001 0.381109 0.583703
0.593469 0.368185 0.605707
0.721843 0.329854 0.569039
0.129702 0.424689 0.530083
0.28661 0.535592 0.624155
0.473274 0.625116 0.724651
0.721843 0.645106 0.776104
0.883772 0.636408 0.757046
0.203784 0.602625 0.649088
0.399939 0.719921 0.74403
0.665492 0.826749 0.828702
0.928985 0.912734 0.898589
1 0.95021 0.937591
0.247761 0.743023 0.730205
0.442359 0.847379 0.818189
0.729992 0.947463 0.899062
0.971908 0.999954 0.951888
1 1 0.956802
0.0392615 0.128878 0.381186
0.0764172 0.151751 0.435721
0.169085 0.168795 0.482185
0.358602 0.150423 0.484901
0.490822 0.0714427 0.417792
0.0667887 0.275364 0.484428
0.149248 0.355734 0.577081
0.256519 0.395743 0.648142
0.450462 0.398215 0.683299
0.676463 0.351858 0.640284
0.126329 0.435386 0.599084
0.256245 0.541573 0.694057
0.442206 0.636713 0.806638
0.593515 0.670695 0.864622
0.821363 0.638636 0.822843
0.20032 0.607446 0.719814
0.378622 0.725811 0.818311
0.635508 0.837674 0.919646
0.915908 0.927062 0.988327
1 0.942611 0.987701
0.282216 0.771313 0.815915
0.50782 0.879759 0.912032
0.802365 0.977462 0.986755
0.998978 1 1
1 1 1
