LUT预设1/LUT全系打包/2024-VINTAGE系列lut/vintage709正常色彩使用/light-lime橘调709.cube
TITLE "Generated by Resolve"
LUT_3D_SIZE 9
0.0644541 0.0620127 0.0533455
0.146502 0.0775006 0.0564279
0.250477 0.0918135 0.0635538
0.353079 0.10396 0.0731823
0.446113 0.114672 0.0809339
0.524636 0.11606 0.0811627
0.573404 0.111116 0.0767071
0.578683 0.103273 0.0690013
0.575738 0.100343 0.066041
0.0774548 0.125765 0.0737621
0.156558 0.154925 0.0579843
0.321233 0.185885 0.0730297
0.476677 0.21503 0.105409
0.589105 0.233509 0.122133
0.678386 0.251255 0.136614
0.725719 0.252323 0.14197
0.729625 0.245686 0.138338
0.729427 0.245289 0.138079
0.109041 0.199741 0.0928511
0.173754 0.242634 0.0714122
0.300679 0.276951 0.0522774
0.520409 0.301167 0.0809796
0.685084 0.332921 0.1187
0.797391 0.369497 0.155138
0.861372 0.386831 0.1776
0.873411 0.386618 0.179858
0.875334 0.390326 0.183124
0.155779 0.2851 0.108354
0.222629 0.340459 0.0911269
0.303914 0.380011 0.0612345
0.476127 0.390494 0.0487831
0.698955 0.42504 0.0902113
0.85742 0.468345 0.143709
0.948928 0.491005 0.176974
0.972045 0.499031 0.188586
0.9785 0.510185 0.195468
0.214115 0.376745 0.126055
0.278355 0.442969 0.121096
0.34934 0.489845 0.0952926
0.470451 0.512489 0.0664073
0.634302 0.523049 0.0720226
0.832898 0.549035 0.112581
0.981247 0.57705 0.152468
0.999969 0.597253 0.171908
1 0.616098 0.183001
0.263661 0.4692 0.154604
0.332891 0.545754 0.163775
0.403616 0.598123 0.132616
0.497841 0.636194 0.100465
0.611963 0.64448 0.0887617
0.767544 0.634516 0.0950332
0.954376 0.650324 0.123125
0.999832 0.682567 0.149126
0.999771 0.713008 0.162615
0.319905 0.569894 0.195758
0.390143 0.65127 0.21178
0.458656 0.705211 0.180041
0.53756 0.744427 0.143923
0.627634 0.761776 0.123217
0.747555 0.749599 0.109682
0.895964 0.733471 0.111025
0.987579 0.752667 0.125185
0.988098 0.793225 0.138628
0.381552 0.677729 0.243061
0.450263 0.753857 0.26041
0.509941 0.798932 0.225116
0.572 0.833021 0.179782
0.649592 0.850324 0.140444
0.749935 0.846403 0.124025
0.854704 0.831662 0.123003
0.96025 0.809476 0.125795
0.977401 0.814038 0.131685
0.419577 0.738903 0.27863
0.4822 0.800092 0.288533
0.535149 0.834836 0.250004
0.596155 0.862425 0.202045
0.672892 0.875639 0.160281
0.759762 0.868666 0.132189
0.851682 0.848615 0.125673
0.953201 0.815793 0.125704
0.976944 0.811582 0.12932
0.0559548 0.06421 0.0948348
0.122499 0.0720989 0.112215
0.215015 0.0813001 0.111543
0.311254 0.0874342 0.109957
0.403616 0.0968643 0.116075
0.483528 0.102937 0.116899
0.539178 0.0936751 0.104433
0.549859 0.0844892 0.0940414
0.547341 0.0818799 0.0914931
0.0712291 0.133364 0.141405
0.135271 0.15996 0.161776
0.274281 0.188312 0.16997
0.425071 0.216846 0.187625
0.541619 0.241459 0.20621
0.631388 0.256062 0.215198
0.686397 0.244175 0.201953
0.695766 0.230961 0.189868
0.697139 0.231891 0.19144
0.0873121 0.21059 0.185824
0.164965 0.250965 0.196735
0.303731 0.295171 0.175769
0.511269 0.336385 0.205051
0.661585 0.374395 0.248615
0.768994 0.40238 0.277211
0.83856 0.407324 0.285389
0.854276 0.401266 0.281163
0.858595 0.407858 0.2869
0.120134 0.291081 0.212299
0.220233 0.344884 0.221241
0.333761 0.406622 0.192126
0.505287 0.425834 0.161852
0.717784 0.46865 0.214511
0.865736 0.515602 0.278279
0.955489 0.544625 0.320745
0.978531 0.553597 0.334905
0.98584 0.57023 0.351843
0.171618 0.373022 0.228183
0.286015 0.441321 0.243488
0.384024 0.509728 0.227085
0.508583 0.540108 0.17908
0.675563 0.554131 0.166995
0.866606 0.596994 0.228
0.99202 0.641642 0.30518
1 0.664515 0.337865
1 0.689357 0.362371
0.233524 0.45623 0.242954
0.346197 0.535042 0.268986
0.43566 0.610925 0.26862
0.533547 0.653712 0.220645
0.656046 0.674372 0.179416
0.800076 0.67657 0.177813
0.969055 0.707515 0.238804
0.999969 0.748455 0.297337
1 0.783581 0.328328
0.301503 0.537591 0.25774
0.404639 0.628748 0.301869
0.485832 0.707561 0.314305
0.568231 0.755627 0.273793
0.667323 0.785809 0.224811
0.779278 0.786984 0.187015
0.914046 0.778119 0.180697
0.995819 0.808331 0.220005
0.999359 0.85922 0.264256
0.368215 0.633631 0.289891
0.463004 0.728359 0.344732
0.536416 0.800839 0.363775
0.604776 0.84303 0.321813
0.687053 0.877546 0.266239
0.776898 0.884352 0.21294
0.873381 0.866072 0.181964
0.971618 0.848753 0.180148
0.993729 0.866926 0.221408
0.415641 0.694286 0.316548
0.500771 0.784482 0.378546
0.565698 0.841688 0.390082
0.630091 0.876799 0.351766
0.70753 0.902647 0.298177
0.792584 0.91014 0.24538
0.87744 0.890394 0.199451
0.966217 0.856474 0.17995
0.991775 0.86125 0.204379
0.0475929 0.0696574 0.131182
0.0944228 0.0800183 0.157977
0.187076 0.0805066 0.168963
0.287221 0.0813153 0.159854
0.379126 0.0834821 0.153979
0.4598 0.0889601 0.153582
0.522454 0.0890059 0.143984
0.538003 0.078996 0.130053
0.534234 0.0754101 0.12636
0.0635843 0.139895 0.184817
0.110597 0.166888 0.21915
0.211704 0.184985 0.252171
0.35993 0.199084 0.242664
0.487251 0.214649 0.245701
0.582071 0.231296 0.254688
0.646189 0.226078 0.242893
0.661738 0.21004 0.225696
0.662379 0.209018 0.225818
0.0806287 0.220905 0.246921
0.144991 0.260945 0.282841
0.243793 0.29926 0.30898
0.434073 0.336553 0.317998
0.598321 0.373648 0.341924
0.704112 0.399588 0.365072
0.775296 0.390936 0.353719
0.797711 0.373648 0.334646
0.802808 0.380835 0.341863
0.100267 0.303044 0.297902
0.181201 0.352743 0.332662
0.300313 0.405188 0.350576
0.482444 0.457557 0.324315
0.692042 0.505257 0.372732
0.8271 0.545571 0.420279
0.911803 0.56051 0.442557
0.937774 0.55938 0.44535
0.946792 0.57525 0.461295
0.130999 0.384222 0.330282
0.238361 0.442374 0.356542
0.369482 0.508858 0.371191
0.50692 0.568399 0.347723
0.685679 0.588754 0.328817
0.879332 0.643198 0.396735
0.993667 0.693065 0.47361
0.999939 0.713466 0.499336
1 0.737774 0.521645
0.17702 0.464225 0.350484
0.300999 0.527703 0.373358
0.441459 0.605295 0.397238
0.547478 0.673365 0.386679
0.675868 0.69131 0.332097
0.834348 0.707256 0.326802
0.982345 0.762951 0.412665
1 0.804028 0.471824
1 0.834333 0.497917
0.233707 0.541421 0.360006
0.370947 0.611093 0.385901
0.49688 0.695628 0.420706
0.588144 0.764614 0.423514
0.68835 0.798627 0.376379
0.811643 0.81442 0.336294
0.943557 0.825422 0.339391
0.999435 0.861051 0.390875
1 0.90399 0.430808
0.314778 0.620111 0.364248
0.44947 0.69691 0.401602
0.553872 0.786389 0.453254
0.628962 0.851606 0.465415
0.707301 0.888533 0.420401
0.80415 0.913344 0.373083
0.909499 0.910292 0.333013
0.994125 0.901793 0.328878
1 0.918669 0.385962
0.3794 0.673655 0.373327
0.4972 0.751354 0.423468
0.585611 0.831815 0.477394
0.656703 0.887327 0.488106
0.730022 0.918334 0.451698
0.820783 0.937972 0.407752
0.91931 0.93518 0.363516
0.994324 0.910277 0.333181
1 0.913344 0.366369
0.042359 0.0775311 0.169421
0.0762036 0.0897841 0.201099
0.150027 0.0948501 0.222812
0.256626 0.0890822 0.227024
0.362493 0.0812695 0.211215
0.45124 0.0798657 0.200137
0.516228 0.0843671 0.188998
0.535637 0.0761425 0.172885
0.529335 0.0704509 0.167086
0.0567178 0.147372 0.225742
0.0924849 0.175677 0.2645
0.160662 0.198108 0.305837
0.298924 0.202411 0.318929
0.445548 0.204807 0.301152
0.555032 0.213214 0.295689
0.628305 0.216739 0.28751
0.651331 0.204913 0.271214
0.650904 0.201923 0.268849
0.075349 0.228763 0.289784
0.127565 0.2692 0.330007
0.200977 0.306477 0.374792
0.338201 0.331075 0.405158
0.524315 0.349294 0.393545
0.650355 0.365606 0.395758
0.731823 0.364752 0.390402
0.760708 0.346181 0.369284
0.764996 0.349859 0.37293
0.097261 0.314672 0.355154
0.169558 0.363729 0.396902
0.268376 0.41265 0.438132
0.386267 0.455879 0.467658
0.606714 0.497246 0.473899
0.759197 0.532891 0.4963
0.849348 0.539712 0.502159
0.883436 0.527276 0.491005
0.890883 0.538781 0.503105
0.126726 0.399649 0.405798
0.21323 0.454612 0.443336
0.331991 0.512428 0.477714
0.470466 0.569207 0.492256
0.656138 0.613626 0.483284
0.849287 0.662089 0.532631
0.975662 0.709651 0.587839
0.99411 0.718029 0.597543
0.995285 0.739208 0.617182
0.157107 0.479622 0.438865
0.255634 0.538827 0.469032
0.399695 0.603204 0.495918
0.547173 0.669398 0.513756
0.668635 0.718379 0.496452
0.840696 0.737682 0.487144
0.986725 0.798001 0.559777
1 0.838834 0.611704
1 0.865965 0.636255
0.194293 0.557488 0.460395
0.31043 0.618753 0.482063
0.461097 0.686976 0.508598
0.594629 0.760098 0.534752
0.696651 0.818769 0.527749
0.822782 0.837858 0.485481
0.960678 0.855467 0.487221
0.999969 0.901961 0.547951
1 0.936889 0.576196
0.251774 0.632883 0.463447
0.389181 0.693416 0.480598
0.538018 0.764141 0.514458
0.647303 0.845273 0.559411
0.727764 0.903914 0.558907
0.821057 0.933227 0.518212
0.934371 0.941604 0.483238
0.99939 0.942046 0.482185
1 0.959289 0.532738
0.307515 0.684977 0.46598
0.448051 0.741619 0.485939
0.577722 0.810697 0.532601
0.675761 0.88333 0.580407
0.754528 0.936416 0.58613
0.844114 0.962737 0.551431
0.948959 0.970123 0.515404
0.999298 0.953399 0.489296
1 0.954635 0.515236
0.0399481 0.0861067 0.212299
0.0661784 0.0995346 0.244129
0.123064 0.1084 0.268894
0.215335 0.11046 0.288014
0.327153 0.09691 0.287358
0.435187 0.0806592 0.266072
0.518441 0.0791638 0.245792
0.544366 0.0731365 0.225681
0.535592 0.0641947 0.21706
0.0529183 0.15642 0.266835
0.0819257 0.185504 0.307897
0.135042 0.209583 0.349477
0.237263 0.221241 0.378805
0.385199 0.217487 0.382254
0.528374 0.210483 0.361059
0.622431 0.210513 0.342535
0.653742 0.202579 0.32578
0.651545 0.196445 0.320134
0.0710002 0.236286 0.32961
0.114382 0.277089 0.369909
0.177661 0.315709 0.417456
0.274327 0.343694 0.462669
0.437964 0.35024 0.472694
0.610636 0.355093 0.449165
0.712047 0.35256 0.435462
0.747997 0.337377 0.416861
0.749401 0.334874 0.415183
0.0955062 0.322621 0.395666
0.161059 0.372076 0.438163
0.247547 0.420752 0.48368
0.339117 0.463752 0.529686
0.49369 0.488334 0.555291
0.687587 0.508263 0.544442
0.800336 0.511208 0.537652
0.84387 0.492912 0.520485
0.849867 0.494759 0.523171
0.130617 0.4121 0.456718
0.2103 0.467094 0.499565
0.31516 0.522927 0.543374
0.434623 0.575296 0.581003
0.575814 0.617426 0.601816
0.778058 0.652827 0.620951
0.908492 0.681285 0.644175
0.961059 0.681239 0.643687
0.965927 0.695247 0.657679
0.161883 0.496132 0.504265
0.248676 0.555413 0.543847
0.37116 0.616297 0.583032
0.51342 0.672129 0.613855
0.651118 0.722454 0.624781
0.821927 0.76109 0.626062
0.977142 0.81033 0.68188
0.999969 0.844388 0.72047
0.999954 0.868711 0.7458
0.18764 0.57528 0.539391
0.28307 0.63505 0.570581
0.417014 0.695949 0.600015
0.570138 0.757061 0.62884
0.698024 0.817807 0.647486
0.824353 0.866041 0.634379
0.970962 0.885359 0.631342
1 0.935515 0.693797
1 0.963211 0.718868
0.223789 0.651041 0.557595
0.329595 0.70869 0.579797
0.474845 0.767208 0.601953
0.626169 0.829679 0.633692
0.739696 0.901091 0.668132
0.836667 0.954543 0.661204
0.951049 0.972595 0.628016
0.999634 0.976822 0.62211
1 0.990173 0.665934
0.258854 0.704036 0.566888
0.379034 0.75697 0.585016
0.520806 0.81062 0.613367
0.658045 0.8701 0.653834
0.766262 0.935027 0.691936
0.863661 0.986099 0.695323
0.970932 0.997909 0.663371
0.999878 0.989258 0.632547
1 0.987747 0.650919
0.0389715 0.0960403 0.255283
0.0601816 0.109926 0.285328
0.10518 0.120455 0.312276
0.181262 0.128496 0.337209
0.281285 0.125063 0.356283
0.390829 0.102617 0.348302
0.498833 0.0787213 0.320089
0.55079 0.0676738 0.29514
0.540475 0.055375 0.285725
0.0512245 0.166415 0.309377
0.0771649 0.196216 0.352255
0.122118 0.22121 0.391287
0.200137 0.236591 0.422492
0.317266 0.241367 0.446479
0.464424 0.229175 0.444968
0.599496 0.210788 0.417121
0.658946 0.197726 0.393698
0.658061 0.188022 0.386847
0.0683757 0.244526 0.36907
0.10695 0.285832 0.408453
0.166018 0.326436 0.456992
0.245945 0.356085 0.505318
0.355764 0.367636 0.538476
0.528313 0.364218 0.539605
0.686641 0.353414 0.508522
0.747829 0.335073 0.482856
0.748012 0.327565 0.477684
0.0934005 0.329442 0.431083
0.15465 0.379629 0.473869
0.23386 0.429099 0.521111
0.31751 0.472694 0.574441
0.416083 0.497688 0.61706
0.585428 0.503273 0.623941
0.755062 0.502358 0.602152
0.826932 0.48397 0.577783
0.833021 0.478477 0.573404
0.131106 0.419409 0.49514
0.204654 0.474678 0.539895
0.300084 0.530251 0.587427
0.405875 0.581491 0.632609
0.512062 0.621271 0.670283
0.660273 0.641901 0.700038
0.842206 0.654719 0.691814
0.919951 0.649073 0.681529
0.928359 0.653025 0.686076
0.166964 0.507942 0.553338
0.250385 0.568002 0.598367
0.362768 0.626963 0.645502
0.490394 0.680613 0.687083
0.622309 0.726497 0.716533
0.760098 0.764599 0.740978
0.92871 0.796765 0.768902
0.993606 0.816709 0.788388
0.998077 0.830976 0.803815
0.197513 0.592325 0.601221
0.285176 0.651896 0.641627
0.404273 0.710323 0.68162
0.544747 0.766247 0.718471
0.682902 0.81886 0.750744
0.813291 0.867842 0.768902
0.971344 0.907759 0.77528
1 0.948226 0.82742
1 0.970275 0.853758
0.221088 0.669581 0.634745
0.31043 0.726406 0.669139
0.431189 0.782376 0.701915
0.577111 0.837583 0.73283
0.719356 0.893675 0.763867
0.838773 0.952621 0.785901
0.953506 0.988846 0.776715
0.999619 0.997208 0.772854
1 0.999847 0.812177
0.241627 0.72401 0.657649
0.331823 0.776425 0.689342
0.456519 0.827283 0.722438
0.603433 0.878019 0.756527
0.74461 0.930404 0.790906
0.86453 0.979873 0.815976
0.972747 0.99971 0.814008
1 1 0.790814
1 1 0.802441
0.0386206 0.106752 0.295766
0.0564279 0.120699 0.326833
0.092668 0.131975 0.355093
0.154589 0.14258 0.381964
0.238727 0.145937 0.404288
0.336477 0.135531 0.41976
0.444129 0.102815 0.403845
0.522423 0.068864 0.374914
0.513375 0.0515908 0.363622
0.0504616 0.176791 0.354803
0.0747234 0.207477 0.394934
0.114122 0.232898 0.430579
0.176638 0.249226 0.462135
0.266926 0.258824 0.4934
0.3832 0.254948 0.513268
0.525322 0.231403 0.505562
0.624887 0.200259 0.47744
0.628687 0.18352 0.468238
0.0669108 0.254017 0.407233
0.10396 0.295674 0.446952
0.160678 0.338033 0.496941
0.229801 0.367178 0.544747
0.312001 0.381109 0.583703
0.42594 0.383154 0.609674
0.593469 0.368185 0.605707
0.716213 0.342885 0.575265
0.721843 0.329854 0.569039
0.092546 0.337011 0.465995
0.149706 0.386908 0.509255
0.223011 0.437079 0.558358
0.30312 0.480507 0.613413
0.384314 0.506981 0.663661
0.486931 0.514092 0.694362
0.64889 0.505196 0.693568
0.782742 0.488899 0.670726
0.798169 0.480537 0.666499
0.129702 0.424689 0.530083
0.197421 0.479515 0.575036
0.28661 0.535592 0.624155
0.384466 0.585885 0.674495
0.473274 0.625116 0.724651
0.565835 0.64889 0.767895
0.721843 0.645106 0.776104
0.87129 0.640131 0.759701
0.883772 0.636408 0.757046
0.166995 0.513558 0.591623
0.245716 0.573266 0.638743
0.347692 0.630915 0.688991
0.463981 0.683772 0.736309
0.581094 0.730755 0.77557
0.695354 0.768505 0.814817
0.841535 0.786801 0.847044
0.962753 0.793301 0.846372
0.983978 0.797772 0.84831
0.203784 0.602625 0.649088
0.287892 0.662104 0.695338
0.399939 0.719921 0.74403
0.530205 0.775067 0.789242
0.665492 0.826749 0.828702
0.802136 0.873716 0.863523
0.928985 0.912734 0.898589
0.999954 0.936797 0.923156
1 0.95021 0.937591
0.231479 0.684672 0.695857
0.314397 0.742184 0.739528
0.42742 0.799008 0.785672
0.56321 0.853574 0.826825
0.704021 0.905959 0.863371
0.839872 0.955123 0.895109
0.950469 0.99028 0.914336
0.998428 0.99968 0.926497
1 1 0.956222
0.247761 0.743023 0.730205
0.329412 0.795438 0.77261
0.442359 0.847379 0.818189
0.582879 0.898833 0.862119
0.729992 0.947463 0.899062
0.872114 0.986175 0.9299
0.971908 0.999954 0.951888
1 1 0.959442
1 1 0.956802
0.0388342 0.117952 0.338277
0.0543984 0.131228 0.36878
0.0836347 0.142351 0.396155
0.132799 0.15375 0.424979
0.199664 0.159533 0.447364
0.282689 0.154955 0.462455
0.389258 0.134508 0.465705
0.483497 0.0884413 0.429496
0.485618 0.0605478 0.405295
0.050248 0.188113 0.397375
0.0731823 0.219348 0.434165
0.107607 0.243473 0.468894
0.15761 0.260075 0.500847
0.227451 0.270665 0.533761
0.315847 0.270344 0.557687
0.446097 0.255924 0.562615
0.575906 0.219715 0.537774
0.591409 0.194263 0.517128
0.0664378 0.264668 0.444709
0.102632 0.305913 0.486198
0.156207 0.348699 0.537957
0.214527 0.375891 0.583093
0.281651 0.390402 0.620142
0.366491 0.395361 0.652811
0.494697 0.386145 0.661875
0.648875 0.360235 0.644495
0.67744 0.339483 0.626764
0.0925154 0.345266 0.502129
0.145388 0.394049 0.5458
0.21239 0.444053 0.596277
0.286915 0.487419 0.651652
0.362768 0.514443 0.702266
0.442832 0.525124 0.740978
0.550439 0.519783 0.755749
0.70428 0.497948 0.737072
0.733516 0.481834 0.725811
0.128008 0.429847 0.564462
0.190234 0.483543 0.609445
0.271534 0.539178 0.65922
0.364675 0.589609 0.712871
0.452384 0.629938 0.770123
0.529809 0.655619 0.821561
0.615015 0.658503 0.840238
0.789075 0.639933 0.82298
0.820111 0.628092 0.813123
0.164141 0.516075 0.625971
0.236576 0.574563 0.673762
0.329442 0.631708 0.724712
0.440574 0.68574 0.77763
0.547677 0.734127 0.826856
0.650126 0.775097 0.873899
0.773632 0.79649 0.904982
0.920745 0.792386 0.904494
0.953674 0.785672 0.898131
0.202914 0.605844 0.68748
0.282216 0.66508 0.735637
0.388006 0.723064 0.787671
0.513771 0.779141 0.839246
0.64477 0.832181 0.883497
0.783444 0.880644 0.922332
0.917067 0.919738 0.958587
0.998688 0.93547 0.980774
1 0.936095 0.978653
0.238712 0.693706 0.742748
0.32282 0.752163 0.790234
0.438422 0.810162 0.842924
0.571832 0.865812 0.890929
0.713207 0.919387 0.932296
0.859174 0.966995 0.967758
0.965667 0.994904 0.989227
0.999283 0.999878 0.996902
1 0.999954 0.99913
0.266056 0.759487 0.784924
0.352499 0.813352 0.832029
0.474479 0.866621 0.883024
0.615656 0.918883 0.929793
0.764279 0.966842 0.967636
0.907027 0.995636 0.993072
0.996918 1 0.999573
1 1 1
1 1 1
0.0392615 0.128878 0.381186
0.0531777 0.141711 0.409293
0.0764172 0.151751 0.435721
0.114473 0.162799 0.462745
0.169085 0.168795 0.482185
0.247303 0.165515 0.48838
0.358602 0.150423 0.484901
0.471977 0.108202 0.452384
0.490822 0.0714427 0.417792
0.0504311 0.200397 0.43595
0.0717784 0.230457 0.472938
0.101396 0.251987 0.508186
0.141375 0.267445 0.538247
0.198138 0.27866 0.565194
0.278965 0.279347 0.582696
0.404303 0.270359 0.582147
0.555749 0.239475 0.561334
0.593271 0.207019 0.531518
0.0667887 0.275364 0.484428
0.101442 0.315389 0.527108
0.149248 0.355734 0.577081
0.197726 0.380774 0.618204
0.256519 0.395743 0.648142
0.337591 0.402945 0.675563
0.450462 0.398215 0.683299
0.619821 0.377066 0.666194
0.676463 0.351858 0.640284
0.0931563 0.353948 0.539742
0.141039 0.400473 0.582849
0.200809 0.449027 0.634165
0.268238 0.491814 0.687587
0.34284 0.520562 0.732372
0.426047 0.533379 0.766232
0.519203 0.532708 0.779919
0.671534 0.512688 0.758755
0.732479 0.492775 0.736355
0.126329 0.435386 0.599084
0.183017 0.486946 0.643915
0.256245 0.541573 0.694057
0.345739 0.593332 0.748882
0.442206 0.636713 0.806638
0.527657 0.662791 0.853361
0.593515 0.670695 0.864622
0.756024 0.655192 0.840757
0.821363 0.638636 0.822843
0.161135 0.518624 0.65951
0.228061 0.575875 0.70724
0.31577 0.634211 0.757961
0.425559 0.689494 0.813428
0.535897 0.73962 0.868376
0.635569 0.782681 0.913191
0.755627 0.806287 0.930205
0.909117 0.806409 0.925078
0.954726 0.794842 0.911925
0.20032 0.607446 0.719814
0.2757 0.666499 0.767056
0.378622 0.725811 0.818311
0.505974 0.783307 0.872541
0.635508 0.837674 0.919646
0.775586 0.887984 0.956619
0.915908 0.927062 0.988327
0.997162 0.944595 0.992599
1 0.942611 0.987701
0.242908 0.699031 0.773053
0.328099 0.757961 0.820554
0.444907 0.816403 0.872923
0.580728 0.873213 0.923323
0.72372 0.927749 0.963149
0.87042 0.9738 0.991211
0.972259 0.996796 0.999603
0.999603 0.999954 1
1 0.999908 1
0.282216 0.771313 0.815915
0.376791 0.825986 0.862898
0.50782 0.879759 0.912032
0.650645 0.932219 0.955261
0.802365 0.977462 0.986755
0.941543 0.999359 0.99971
0.998978 1 1
1 1 1
1 1 1
