LUT预设1/LUT全系打包/2024-VINTAGE系列lut/vintage709正常色彩使用/清新clean-709.cube
TITLE "Generated by Resolve"
LUT_3D_SIZE 9
0.0420996 0.103319 0.119387
0.121798 0.103136 0.120241
0.348318 0.0959335 0.125246
0.564218 0.0926223 0.125963
0.703166 0.0992599 0.138079
0.83209 0.108843 0.149737
0.951064 0.120562 0.160357
1 0.141283 0.179797
1 0.164034 0.202441
0.0411994 0.188205 0.156024
0.131456 0.187427 0.145739
0.317479 0.190677 0.136034
0.52781 0.193484 0.128786
0.677241 0.20119 0.133532
0.801801 0.211215 0.142077
0.926543 0.224079 0.152453
0.99913 0.240818 0.170687
1 0.265064 0.193317
0.00614939 0.361364 0.186221
0.0926223 0.352712 0.164294
0.317968 0.354559 0.135683
0.525429 0.362081 0.135271
0.677211 0.371481 0.140795
0.799573 0.381643 0.148455
0.923995 0.390127 0.153674
1 0.400809 0.164096
1 0.418784 0.183505
0.000503548 0.529 0.214664
0.067216 0.520272 0.182132
0.288808 0.524468 0.128496
0.531289 0.532219 0.133669
0.688243 0.534554 0.143893
0.807568 0.538125 0.151507
0.925917 0.539773 0.155535
0.999054 0.542199 0.161852
1 0.552697 0.175998
0.00247196 0.671077 0.25301
0.0709087 0.662333 0.215503
0.273915 0.663996 0.142275
0.524773 0.672038 0.135592
0.6916 0.669734 0.145602
0.812329 0.667079 0.152605
0.930663 0.663005 0.157809
1 0.659663 0.163348
1 0.665309 0.177081
0.00637827 0.78938 0.284001
0.0763104 0.779919 0.243793
0.259144 0.775921 0.162844
0.502525 0.779919 0.131136
0.68365 0.78085 0.139406
0.810681 0.778363 0.147433
0.932479 0.77319 0.156893
0.999725 0.769207 0.170031
1 0.77528 0.189639
0.0087892 0.890135 0.305409
0.0647593 0.882948 0.262592
0.233448 0.880217 0.173098
0.461769 0.881163 0.123796
0.656428 0.887617 0.128145
0.797635 0.891295 0.142657
0.929274 0.889952 0.157244
1 0.887633 0.175555
1 0.893523 0.199481
0.0442512 0.979141 0.348226
0.0891585 0.976593 0.30425
0.239002 0.977157 0.20798
0.454505 0.979248 0.143893
0.652537 0.986068 0.142565
0.801251 0.990127 0.15848
0.938918 0.991531 0.17763
1 0.992935 0.197299
1 0.998688 0.218982
0.0915694 1 0.398077
0.134691 1 0.356863
0.275959 1 0.262638
0.477836 1 0.192584
0.669779 1 0.180499
0.819028 1 0.192844
0.955261 1 0.208637
1 1 0.223728
1 1 0.236957
0.00561532 0.115969 0.202869
0.0939498 0.112169 0.225391
0.345296 0.0914473 0.26688
0.553719 0.0853742 0.289876
0.696391 0.0921798 0.307622
0.828412 0.101335 0.325795
0.95555 0.111162 0.342306
1 0.129931 0.365438
1 0.152209 0.391516
0.0243076 0.196612 0.236942
0.11397 0.192554 0.231266
0.304814 0.186908 0.245899
0.512795 0.185046 0.256138
0.670604 0.191852 0.2663
0.796719 0.203189 0.279362
0.925536 0.21442 0.291905
0.999496 0.229038 0.308171
1 0.250721 0.33193
0.0282444 0.350881 0.311528
0.116625 0.339742 0.286198
0.296498 0.342535 0.251896
0.493828 0.349096 0.250813
0.658259 0.360739 0.258061
0.789624 0.373754 0.271321
0.917464 0.381613 0.279118
1 0.390249 0.286809
1 0.4056 0.304143
0.016968 0.513466 0.357839
0.0904707 0.505226 0.322927
0.267369 0.506539 0.266239
0.499336 0.512795 0.249653
0.663951 0.521233 0.255222
0.78999 0.529946 0.264942
0.910994 0.532723 0.270039
0.997391 0.533822 0.273335
1 0.542489 0.284657
0.0299535 0.653391 0.407279
0.0900282 0.645655 0.358618
0.251057 0.647486 0.285374
0.485481 0.654307 0.246983
0.669001 0.659831 0.257328
0.795407 0.660777 0.26659
0.914061 0.656718 0.269184
0.999863 0.652064 0.266819
1 0.656413 0.275486
0.0334936 0.771145 0.438087
0.0938735 0.763165 0.393103
0.240726 0.760204 0.31104
0.457313 0.762875 0.242466
0.660014 0.77351 0.247578
0.792798 0.772442 0.258442
0.916564 0.767468 0.266377
0.998596 0.762524 0.273228
1 0.766674 0.285756
0.027985 0.873442 0.461036
0.0772259 0.867079 0.407523
0.217731 0.865293 0.32108
0.418112 0.864836 0.24506
0.623529 0.876417 0.235462
0.776593 0.885069 0.249271
0.912551 0.885054 0.259312
0.999924 0.881804 0.268605
1 0.886198 0.287373
0.0583505 0.965179 0.498543
0.0940871 0.963561 0.447852
0.219532 0.965438 0.351781
0.406943 0.967666 0.263249
0.60943 0.977859 0.239567
0.769741 0.987213 0.253758
0.915679 0.99115 0.269886
0.999344 0.99173 0.282246
1 0.992905 0.297322
0.104204 1 0.549905
0.137865 1 0.49749
0.25391 1 0.40061
0.430106 1 0.311574
0.621256 1 0.275425
0.78204 1 0.279377
0.929427 1 0.289952
1 1 0.297673
1 1 0.308904
0 0.132372 0.353765
0.0379034 0.129091 0.397711
0.337148 0.090959 0.472038
0.54432 0.0791028 0.485435
0.686992 0.0838178 0.502785
0.820951 0.0923781 0.521462
0.951644 0.102251 0.536385
1 0.120485 0.556542
1 0.142641 0.577585
0.000228885 0.220783 0.3682
0.0543069 0.213413 0.376425
0.279469 0.191485 0.424765
0.501778 0.175158 0.440742
0.65742 0.178088 0.455268
0.787289 0.192187 0.469703
0.919982 0.203845 0.482216
0.999268 0.217685 0.495979
1 0.237812 0.51696
0.0131838 0.364202 0.428931
0.0969253 0.353292 0.408896
0.277485 0.34818 0.401862
0.470603 0.340948 0.419959
0.631235 0.347158 0.435309
0.773724 0.360418 0.453452
0.910414 0.371054 0.465644
0.999832 0.378805 0.474159
1 0.393194 0.489204
0.0428931 0.510277 0.511116
0.119615 0.499199 0.486885
0.292073 0.49279 0.457053
0.463859 0.49192 0.424216
0.611093 0.49984 0.425879
0.748837 0.513207 0.436637
0.89131 0.52311 0.446403
0.997162 0.526345 0.450904
1 0.533806 0.460472
0.0675059 0.642634 0.577996
0.131136 0.632105 0.543908
0.279591 0.628702 0.497841
0.451499 0.624338 0.441291
0.619623 0.629099 0.428077
0.748547 0.637079 0.435523
0.882155 0.644984 0.438117
0.990509 0.646387 0.439307
1 0.650355 0.446494
0.0733654 0.755489 0.618799
0.132158 0.746029 0.582849
0.265263 0.740887 0.524086
0.42121 0.73492 0.450462
0.606027 0.742199 0.420676
0.753826 0.752728 0.431266
0.888182 0.757473 0.440208
0.997681 0.757763 0.445167
1 0.76202 0.452995
0.0662547 0.85658 0.645029
0.114427 0.848859 0.603067
0.240879 0.846098 0.537453
0.392294 0.843549 0.45687
0.567285 0.850904 0.407645
0.740047 0.8719 0.419562
0.890196 0.881361 0.437278
0.99649 0.879499 0.446601
1 0.883146 0.458366
0.0935988 0.949981 0.684199
0.126116 0.94728 0.640284
0.240024 0.948577 0.566873
0.387091 0.949203 0.483787
0.551949 0.955901 0.424857
0.72166 0.975738 0.422293
0.88719 0.990188 0.44062
0.999146 0.991745 0.450111
1 0.989197 0.459739
0.138323 1 0.735546
0.1673 1 0.692744
0.269902 0.999939 0.613413
0.410742 0.999924 0.527474
0.564843 1 0.460365
0.723583 1 0.443259
0.890715 1 0.454902
0.998764 1 0.461631
1 1 0.463432
0 0.146548 0.491829
0.00787366 0.145144 0.543725
0.285954 0.10898 0.636957
0.530419 0.0847334 0.656352
0.679637 0.0860151 0.670253
0.814603 0.092195 0.68661
0.946288 0.100542 0.697169
1 0.118212 0.710597
1 0.140063 0.724697
0 0.23975 0.498772
0.0186923 0.231617 0.518868
0.222446 0.211597 0.588693
0.487831 0.178256 0.625956
0.64741 0.176104 0.632212
0.777157 0.185489 0.644327
0.911345 0.195178 0.654917
0.999344 0.208392 0.66601
1 0.228016 0.684504
3.0518e-05 0.387839 0.52932
0.0488289 0.37734 0.523735
0.227832 0.370047 0.546563
0.446326 0.347601 0.592462
0.621973 0.338354 0.608774
0.756924 0.34374 0.625696
0.895567 0.353964 0.637781
0.996765 0.36463 0.64651
1 0.37995 0.659617
0.0278782 0.525444 0.609949
0.102953 0.514611 0.591287
0.268681 0.509987 0.570764
0.439902 0.500893 0.559899
0.590417 0.492149 0.581979
0.718441 0.49659 0.597131
0.8654 0.503883 0.612619
0.995102 0.511101 0.623255
1 0.520302 0.633753
0.0745251 0.648478 0.692088
0.142763 0.63592 0.668055
0.29723 0.628397 0.641886
0.465461 0.61445 0.606592
0.59028 0.610193 0.586053
0.692668 0.614572 0.587869
0.832181 0.622003 0.595163
0.972808 0.630823 0.604181
1 0.64062 0.616129
0.0954604 0.752865 0.746532
0.156924 0.741482 0.723659
0.298329 0.731228 0.69041
0.454383 0.717464 0.644251
0.581308 0.712077 0.604501
0.70103 0.717403 0.593057
0.828962 0.726299 0.597421
0.97116 0.739132 0.603052
1 0.753491 0.617044
0.0980087 0.849409 0.781445
0.147478 0.839704 0.753765
0.276722 0.832959 0.712032
0.421485 0.8262 0.659861
0.551141 0.822461 0.613062
0.682643 0.829908 0.587747
0.83711 0.847196 0.599756
0.973358 0.860227 0.609796
1 0.873381 0.623026
0.129198 0.942245 0.825833
0.162875 0.937011 0.796139
0.277577 0.93492 0.748012
0.416312 0.933227 0.688762
0.53962 0.933928 0.631785
0.667826 0.94197 0.59617
0.836652 0.964233 0.6009
0.989822 0.977874 0.616861
1 0.982254 0.629541
0.174334 1 0.878004
0.203571 0.999863 0.849134
0.305104 0.999329 0.793286
0.43682 0.999832 0.730343
0.55491 1 0.669032
0.668711 1 0.622293
0.833204 1 0.6112
0.983032 1 0.624659
1 1 0.628916
0 0.161242 0.598184
0.00724804 0.159289 0.653101
0.245884 0.127733 0.748745
0.504646 0.0971237 0.788022
0.670405 0.0933547 0.800717
0.808042 0.0982223 0.81294
0.937652 0.105913 0.822003
1 0.122194 0.834684
1 0.142535 0.847166
0 0.255634 0.599756
0.00393683 0.246937 0.625483
0.186587 0.230045 0.69778
0.447608 0.194965 0.759457
0.634516 0.184802 0.768978
0.770657 0.190143 0.778729
0.904952 0.196567 0.787884
1 0.206546 0.796078
1 0.224735 0.81033
0 0.406317 0.617487
0.0208591 0.395041 0.622873
0.195987 0.387869 0.663676
0.405875 0.366262 0.725567
0.610162 0.344457 0.756191
0.751492 0.344137 0.763958
0.88542 0.347402 0.771328
0.991684 0.354986 0.777569
1 0.369345 0.788968
0.00794995 0.543587 0.679545
0.0746929 0.533425 0.666133
0.233036 0.53109 0.66392
0.404593 0.518837 0.67892
0.567071 0.501289 0.716808
0.712978 0.491386 0.731792
0.84979 0.488746 0.741787
0.982147 0.493172 0.75053
1 0.504707 0.760845
0.0625467 0.661433 0.759686
0.128069 0.649744 0.740505
0.277333 0.644068 0.720592
0.438819 0.631128 0.69276
0.564431 0.62118 0.683482
0.684611 0.610849 0.705806
0.812528 0.607828 0.716243
0.953521 0.612573 0.730312
1 0.624277 0.745205
0.0982834 0.758877 0.821149
0.157153 0.74789 0.803677
0.300069 0.738079 0.778714
0.459098 0.723095 0.746075
0.590982 0.710491 0.717998
0.68687 0.709773 0.707912
0.793591 0.71281 0.711315
0.935225 0.721584 0.723491
1 0.737667 0.742687
0.114183 0.850752 0.864927
0.162921 0.841093 0.846265
0.295552 0.832944 0.819715
0.448478 0.822751 0.787366
0.582971 0.812482 0.757565
0.683406 0.814115 0.736736
0.797787 0.821286 0.723766
0.930022 0.833158 0.728618
0.999481 0.851026 0.741787
0.152422 0.942077 0.91606
0.186862 0.935958 0.894636
0.303349 0.932372 0.863584
0.448081 0.926818 0.825406
0.570291 0.922835 0.788464
0.672908 0.923415 0.759365
0.791592 0.92958 0.73135
0.943099 0.943175 0.738048
1 0.955718 0.748074
0.199954 0.999985 0.971374
0.230686 0.99942 0.951949
0.333028 0.9991 0.914137
0.467918 1 0.86952
0.58265 0.99968 0.824277
0.675944 0.998352 0.786297
0.789593 0.997665 0.748257
0.945632 0.998886 0.742931
1 0.999725 0.748943
0 0.174289 0.686839
0.00697337 0.17293 0.748257
0.209094 0.146197 0.849943
0.46276 0.115129 0.909499
0.644984 0.10547 0.929442
0.79234 0.107805 0.936156
0.923766 0.114931 0.939254
0.99826 0.130739 0.949111
1 0.149248 0.960662
0 0.27039 0.689845
0 0.261524 0.72166
0.156588 0.246082 0.798581
0.399695 0.215381 0.873106
0.604089 0.198611 0.900069
0.756329 0.198291 0.909819
0.895521 0.202167 0.915618
0.999741 0.210163 0.922972
1 0.226963 0.935363
0 0.422141 0.704646
0.00949111 0.410605 0.718212
0.168872 0.402991 0.767956
0.366979 0.384939 0.83563
0.568399 0.361135 0.887572
0.733577 0.35169 0.90016
0.875593 0.349889 0.902434
0.987442 0.352392 0.907179
1 0.363439 0.917174
0.000183108 0.560143 0.751949
0.0463417 0.550454 0.746273
0.202014 0.546746 0.760082
0.371054 0.534981 0.796063
0.527657 0.517617 0.842268
0.691066 0.497993 0.873335
0.8421 0.485557 0.875898
0.966873 0.481682 0.877791
1 0.488914 0.884321
0.0441596 0.675319 0.821042
0.103136 0.66508 0.806516
0.244785 0.660334 0.795468
0.398306 0.649821 0.790234
0.528679 0.636316 0.799969
0.651743 0.621408 0.831922
0.804227 0.602502 0.845335
0.936675 0.595895 0.852033
0.999619 0.60325 0.864439
0.0902571 0.768139 0.881422
0.14168 0.759014 0.866957
0.277272 0.75111 0.84593
0.428763 0.740429 0.821607
0.556283 0.728557 0.802335
0.657008 0.722774 0.805097
0.785657 0.709957 0.830335
0.91722 0.70602 0.839597
0.999695 0.718242 0.858305
0.120119 0.855726 0.932036
0.165118 0.847318 0.918135
0.293172 0.840604 0.898756
0.448966 0.831556 0.874708
0.583917 0.82153 0.849714
0.690211 0.817609 0.833417
0.787442 0.818952 0.826123
0.900359 0.820966 0.833341
0.99469 0.832807 0.849973
0.166308 0.945571 0.989456
0.200855 0.938842 0.973281
0.314794 0.936187 0.954314
0.464637 0.929503 0.928527
0.593408 0.922377 0.903975
0.700389 0.917067 0.884306
0.799771 0.915572 0.866072
0.905058 0.918151 0.847181
0.992462 0.92697 0.849393
0.217487 0.999969 1
0.250126 0.99942 0.999542
0.351019 0.99971 0.996048
0.490135 1 0.980636
0.610422 0.997879 0.948348
0.705272 0.992813 0.920195
0.798489 0.989502 0.888945
0.904799 0.98764 0.855985
0.996017 0.991348 0.852659
0 0.187655 0.755154
0.00509651 0.185519 0.815366
0.187152 0.163088 0.920714
0.43006 0.134142 0.989471
0.618769 0.121782 1
0.775753 0.12134 0.999985
0.913283 0.126635 0.999924
0.995544 0.141634 0.999908
1 0.158984 1
0 0.283299 0.760357
0 0.274662 0.798199
0.133944 0.261173 0.88336
0.361013 0.236027 0.962982
0.566506 0.216754 0.992828
0.732815 0.211307 0.997009
0.882399 0.211398 0.999268
0.995621 0.218051 1
1 0.234134 1
0 0.435477 0.77554
0.0052491 0.42443 0.800153
0.146838 0.417197 0.860243
0.33695 0.401404 0.929839
0.524681 0.380728 0.985718
0.700679 0.365652 0.998856
0.860929 0.357229 0.998093
0.984237 0.356283 0.996307
1 0.365362 0.998093
0 0.573465 0.814542
0.0283055 0.564569 0.820554
0.177432 0.559915 0.849607
0.345037 0.548211 0.892363
0.49514 0.53286 0.942489
0.649775 0.513588 0.983032
0.822309 0.491707 0.995758
0.957687 0.48249 0.989914
1 0.485725 0.990158
0.0339055 0.687053 0.872251
0.0841993 0.678386 0.867887
0.216449 0.673671 0.871077
0.367803 0.663172 0.882002
0.497902 0.649927 0.90692
0.61828 0.635233 0.941497
0.780453 0.609796 0.969543
0.930144 0.593423 0.971954
0.999115 0.595117 0.980102
0.0827497 0.778012 0.926696
0.126848 0.76997 0.918425
0.250263 0.764523 0.907744
0.396979 0.755306 0.896117
0.520562 0.7458 0.897124
0.625925 0.737835 0.911818
0.751415 0.722988 0.945312
0.912642 0.703883 0.959396
0.997879 0.705989 0.969833
0.120348 0.863722 0.978058
0.161318 0.856367 0.969772
0.277653 0.852461 0.9579
0.426886 0.846342 0.937758
0.553643 0.84123 0.921752
0.658076 0.83711 0.912535
0.762097 0.832639 0.917174
0.891157 0.820432 0.941176
0.990738 0.820752 0.955947
0.171862 0.952926 1
0.206317 0.945617 1
0.313252 0.944823 0.999023
0.460105 0.939605 0.992142
0.588403 0.934325 0.981064
0.693858 0.92903 0.965225
0.796674 0.92282 0.946868
0.893034 0.917754 0.933486
0.97409 0.91696 0.942687
0.226322 1 1
0.260197 0.999817 1
0.35671 1 1
0.493767 1 1
0.618082 0.999741 1
0.715007 0.99527 0.998489
0.812421 0.988586 0.985199
0.906233 0.976501 0.961944
0.976883 0.976226 0.950881
0 0.200015 0.803983
0.00422675 0.197513 0.862684
0.178134 0.17818 0.968566
0.40763 0.152468 1
0.593851 0.139727 1
0.757626 0.136767 1
0.900755 0.13962 1
0.993179 0.15314 1
1 0.169253 1
0 0.295705 0.806912
0 0.286885 0.845838
0.126665 0.274647 0.935225
0.342275 0.253513 0.997894
0.540871 0.234897 1
0.71281 0.226734 1
0.869856 0.223499 1
0.987335 0.228779 1
1 0.243397 1
0 0.447608 0.82414
0.00387579 0.436851 0.852277
0.139605 0.430228 0.919905
0.323491 0.415595 0.986786
0.501228 0.39733 1
0.674662 0.381155 1
0.845228 0.367956 1
0.981125 0.363668 1
1 0.371542 1
0 0.585122 0.859068
0.0251774 0.575921 0.870497
0.167575 0.57142 0.910613
0.331441 0.559579 0.957519
0.477409 0.545251 0.993759
0.62266 0.527886 0.999969
0.798795 0.502937 1
0.948211 0.488472 1
1 0.489158 1
0.0309758 0.697108 0.911818
0.0789502 0.688792 0.911574
0.203616 0.684306 0.924773
0.352819 0.672633 0.942916
0.482124 0.660014 0.973236
0.598459 0.646998 0.995758
0.753704 0.622248 0.999985
0.919738 0.599512 1
0.999313 0.598367 1
0.0789502 0.787137 0.961044
0.121294 0.778927 0.955077
0.236667 0.775128 0.954086
0.379538 0.765972 0.9523
0.50309 0.757427 0.963897
0.608377 0.750195 0.986328
0.732479 0.735973 0.999832
0.900252 0.711818 1
0.997711 0.708431 1
0.119371 0.872892 0.998962
0.159472 0.865736 0.997436
0.26833 0.863447 0.996124
0.411612 0.858885 0.982681
0.535821 0.855268 0.977127
0.637369 0.852598 0.979553
0.744884 0.846036 0.98677
0.873976 0.830808 0.997635
0.992096 0.822461 0.999802
0.17409 0.961898 1
0.208728 0.954345 1
0.310811 0.954726 1
0.450599 0.951202 1
0.57586 0.947601 0.999756
0.67538 0.9449 0.999878
0.776181 0.937865 0.995102
0.875639 0.927749 0.990997
0.968917 0.917891 0.997681
0.230503 1 1
0.265263 1 1
0.358038 1 1
0.488914 1 1
0.611276 1 1
0.704768 0.999161 1
0.799969 0.995117 1
0.894881 0.984009 0.998138
0.967498 0.980392 0.998123
0 0.21181 0.854627
0.00373846 0.209949 0.91252
0.168994 0.19321 0.995651
0.384207 0.171191 1
0.566369 0.159075 1
0.735271 0.153552 1
0.88481 0.15375 1
0.988281 0.165225 1
1 0.180011 1
0 0.307988 0.856779
0 0.298619 0.894392
0.121263 0.289464 0.980819
0.324254 0.271244 1
0.512108 0.254582 1
0.684764 0.244724 1
0.849256 0.23772 1
0.975433 0.241154 1
1 0.254444 1
0 0.459846 0.874769
0.00328069 0.448905 0.903502
0.133715 0.443 0.97554
0.309438 0.429511 1
0.477928 0.413565 1
0.64416 0.398108 1
0.821012 0.381292 1
0.969894 0.3729 1
1 0.378805 1
0 0.596429 0.906767
0.0227817 0.586267 0.920851
0.159106 0.582284 0.970184
0.316945 0.570733 0.99852
0.458412 0.557122 1
0.595514 0.54168 1
0.767117 0.516289 1
0.930602 0.49604 1
0.999619 0.494285 1
0.0267643 0.706752 0.954559
0.0744335 0.698161 0.957168
0.191882 0.693721 0.980224
0.335988 0.681834 0.999054
0.464042 0.669078 1
0.578119 0.657679 1
0.723964 0.635874 1
0.897169 0.609155 1
1 0.603967 1
0.073228 0.796323 0.994812
0.115648 0.787579 0.992325
0.224033 0.784802 0.996078
0.361318 0.775982 0.99794
0.484627 0.767391 0.999893
0.590173 0.761395 1
0.712795 0.748486 1
0.875792 0.723888 1
0.991974 0.714595 1
0.115389 0.882567 1
0.155398 0.875746 1
0.258183 0.874067 1
0.394324 0.870634 1
0.516747 0.867231 1
0.617288 0.866194 1
0.724987 0.859937 1
0.85156 0.843946 1
0.980209 0.829084 1
0.172839 0.971374 1
0.208011 0.964263 1
0.305959 0.965042 1
0.435477 0.963607 1
0.556756 0.960739 1
0.652949 0.959564 1
0.7523 0.952422 1
0.856245 0.93843 1
0.949401 0.925307 1
0.230198 1 1
0.265751 1 1
0.355581 1 1
0.477272 1 1
0.594629 1 1
0.684047 1 1
0.773281 0.999146 1
0.869368 0.995209 1
0.94992 0.987991 1
