LUT预设1/LUT全系打包/2024-VINTAGE系列lut/vintage709正常色彩使用/清新clean-709.cube
TITLE "Generated by Resolve"
LUT_3D_SIZE 5
0.0420996 0.103319 0.119387
0.348318 0.0959335 0.125246
0.703166 0.0992599 0.138079
0.951064 0.120562 0.160357
1 0.164034 0.202441
0.00614939 0.361364 0.186221
0.317968 0.354559 0.135683
0.677211 0.371481 0.140795
0.923995 0.390127 0.153674
1 0.418784 0.183505
0.00247196 0.671077 0.25301
0.273915 0.663996 0.142275
0.6916 0.669734 0.145602
0.930663 0.663005 0.157809
1 0.665309 0.177081
0.0087892 0.890135 0.305409
0.233448 0.880217 0.173098
0.656428 0.887617 0.128145
0.929274 0.889952 0.157244
1 0.893523 0.199481
0.0915694 1 0.398077
0.275959 1 0.262638
0.669779 1 0.180499
0.955261 1 0.208637
1 1 0.236957
0 0.132372 0.353765
0.337148 0.090959 0.472038
0.686992 0.0838178 0.502785
0.951644 0.102251 0.536385
1 0.142641 0.577585
0.0131838 0.364202 0.428931
0.277485 0.34818 0.401862
0.631235 0.347158 0.435309
0.910414 0.371054 0.465644
1 0.393194 0.489204
0.0675059 0.642634 0.577996
0.279591 0.628702 0.497841
0.619623 0.629099 0.428077
0.882155 0.644984 0.438117
1 0.650355 0.446494
0.0662547 0.85658 0.645029
0.240879 0.846098 0.537453
0.567285 0.850904 0.407645
0.890196 0.881361 0.437278
1 0.883146 0.458366
0.138323 1 0.735546
0.269902 0.999939 0.613413
0.564843 1 0.460365
0.890715 1 0.454902
1 1 0.463432
0 0.161242 0.598184
0.245884 0.127733 0.748745
0.670405 0.0933547 0.800717
0.937652 0.105913 0.822003
1 0.142535 0.847166
0 0.406317 0.617487
0.195987 0.387869 0.663676
0.610162 0.344457 0.756191
0.88542 0.347402 0.771328
1 0.369345 0.788968
0.0625467 0.661433 0.759686
0.277333 0.644068 0.720592
0.564431 0.62118 0.683482
0.812528 0.607828 0.716243
1 0.624277 0.745205
0.114183 0.850752 0.864927
0.295552 0.832944 0.819715
0.582971 0.812482 0.757565
0.797787 0.821286 0.723766
0.999481 0.851026 0.741787
0.199954 0.999985 0.971374
0.333028 0.9991 0.914137
0.58265 0.99968 0.824277
0.789593 0.997665 0.748257
1 0.999725 0.748943
0 0.187655 0.755154
0.187152 0.163088 0.920714
0.618769 0.121782 1
0.913283 0.126635 0.999924
1 0.158984 1
0 0.435477 0.77554
0.146838 0.417197 0.860243
0.524681 0.380728 0.985718
0.860929 0.357229 0.998093
1 0.365362 0.998093
0.0339055 0.687053 0.872251
0.216449 0.673671 0.871077
0.497902 0.649927 0.90692
0.780453 0.609796 0.969543
0.999115 0.595117 0.980102
0.120348 0.863722 0.978058
0.277653 0.852461 0.9579
0.553643 0.84123 0.921752
0.762097 0.832639 0.917174
0.990738 0.820752 0.955947
0.226322 1 1
0.35671 1 1
0.618082 0.999741 1
0.812421 0.988586 0.985199
0.976883 0.976226 0.950881
0 0.21181 0.854627
0.168994 0.19321 0.995651
0.566369 0.159075 1
0.88481 0.15375 1
1 0.180011 1
0 0.459846 0.874769
0.133715 0.443 0.97554
0.477928 0.413565 1
0.821012 0.381292 1
1 0.378805 1
0.0267643 0.706752 0.954559
0.191882 0.693721 0.980224
0.464042 0.669078 1
0.723964 0.635874 1
1 0.603967 1
0.115389 0.882567 1
0.258183 0.874067 1
0.516747 0.867231 1
0.724987 0.859937 1
0.980209 0.829084 1
0.230198 1 1
0.355581 1 1
0.594629 1 1
0.773281 0.999146 1
0.94992 0.987991 1
