LUT预设1/LUT全系打包/2024-VINTAGE系列lut/vintage709正常色彩使用/清新clean-709.cube
TITLE "Generated by Resolve"
LUT_3D_SIZE 33
0.0420996 0.103319 0.119387
0.0556802 0.103426 0.118486
0.0762798 0.102678 0.116747
0.0981613 0.102434 0.116945
0.121798 0.103136 0.120241
0.164935 0.102663 0.123171
0.217746 0.101717 0.126131
0.282765 0.0988174 0.125795
0.348318 0.0959335 0.125246
0.412161 0.0937972 0.124544
0.470314 0.0923171 0.124117
0.520912 0.0920577 0.124407
0.564218 0.0926223 0.125963
0.603128 0.0935836 0.128511
0.637476 0.0952316 0.131579
0.670832 0.0969863 0.134691
0.703166 0.0992599 0.138079
0.735698 0.101579 0.141344
0.767697 0.104051 0.144442
0.799664 0.106477 0.14725
0.83209 0.108843 0.149737
0.863844 0.11133 0.152163
0.895216 0.113848 0.154482
0.92343 0.117128 0.157366
0.951064 0.120562 0.160357
0.97467 0.125048 0.164584
0.993027 0.129839 0.169024
0.99762 0.135515 0.174319
1 0.141283 0.179797
1 0.147341 0.185779
1 0.153017 0.19144
1 0.158511 0.197009
1 0.164034 0.202441
0.0442512 0.115221 0.125017
0.0596933 0.116243 0.124498
0.0816358 0.116152 0.122347
0.104646 0.11725 0.1234
0.128389 0.118715 0.12575
0.173938 0.11928 0.128176
0.222293 0.119356 0.1299
0.284169 0.117098 0.128252
0.345296 0.115053 0.126635
0.406195 0.113146 0.125933
0.461112 0.112032 0.126452
0.512398 0.111315 0.127413
0.556252 0.111528 0.12958
0.598779 0.111818 0.131792
0.634226 0.11284 0.134707
0.669017 0.114061 0.137636
0.702144 0.115969 0.140673
0.73492 0.118135 0.143526
0.767346 0.120562 0.146151
0.800092 0.122896 0.148409
0.832319 0.125582 0.15021
0.863416 0.128374 0.152285
0.894163 0.131197 0.154421
0.922347 0.134615 0.15729
0.949233 0.138338 0.160327
0.973312 0.142824 0.163836
0.989197 0.147784 0.167941
0.997375 0.153155 0.172686
0.999985 0.158953 0.178332
1 0.16495 0.184451
1 0.17055 0.1906
1 0.176104 0.196826
1 0.181552 0.203021
0.0464485 0.132876 0.134447
0.0636149 0.134112 0.133776
0.0845197 0.134356 0.13164
0.108949 0.135546 0.131182
0.135134 0.136843 0.13077
0.169894 0.13846 0.131411
0.21355 0.138903 0.131365
0.271733 0.137331 0.129976
0.33167 0.136034 0.128954
0.392752 0.134768 0.128328
0.447517 0.134035 0.128588
0.500893 0.133654 0.128801
0.545617 0.13431 0.130404
0.587839 0.135012 0.132082
0.624292 0.1364 0.133867
0.658396 0.138247 0.135805
0.690318 0.140475 0.137667
0.721691 0.143099 0.13959
0.753002 0.145708 0.141527
0.784268 0.148409 0.143435
0.815305 0.151064 0.14522
0.846784 0.153521 0.147265
0.877546 0.156054 0.149432
0.907515 0.158785 0.151827
0.936034 0.161883 0.154696
0.963516 0.165225 0.157992
0.982345 0.169299 0.162676
0.998779 0.173526 0.167865
0.999954 0.179217 0.174426
1 0.185092 0.18117
1 0.190829 0.18938
1 0.196567 0.197116
1 0.202243 0.204059
0.0450294 0.157946 0.145251
0.0623941 0.15874 0.143709
0.0815747 0.158907 0.141649
0.106493 0.158907 0.13991
0.134768 0.159258 0.138582
0.168093 0.160571 0.13843
0.212757 0.160998 0.136645
0.263676 0.161105 0.134249
0.320882 0.160693 0.132067
0.378576 0.160235 0.130098
0.432883 0.15993 0.128939
0.484565 0.160082 0.128237
0.531365 0.160784 0.12842
0.573983 0.16231 0.129274
0.612482 0.164202 0.130495
0.646494 0.166232 0.131884
0.679149 0.168551 0.13341
0.710857 0.171389 0.135607
0.74229 0.174212 0.137804
0.773968 0.176867 0.140185
0.805524 0.179629 0.14255
0.837537 0.18233 0.144808
0.869062 0.185077 0.147158
0.90045 0.187808 0.149584
0.930007 0.190921 0.152605
0.958938 0.194064 0.155718
0.980331 0.197986 0.160037
0.99855 0.202014 0.165652
0.999405 0.207141 0.172076
1 0.212467 0.178424
1 0.218326 0.185046
1 0.224048 0.191104
1 0.229633 0.196597
0.0411994 0.188205 0.156024
0.0570535 0.188708 0.154528
0.0762646 0.188617 0.152331
0.101595 0.18732 0.148669
0.131456 0.187427 0.145739
0.164096 0.188464 0.143282
0.211231 0.189487 0.1411
0.261463 0.190204 0.139086
0.317479 0.190677 0.136034
0.372686 0.191012 0.133089
0.427817 0.191287 0.130861
0.479103 0.192218 0.129412
0.52781 0.193484 0.128786
0.570138 0.195056 0.129274
0.611078 0.196933 0.13019
0.644373 0.198932 0.131884
0.677241 0.20119 0.133532
0.70837 0.203632 0.135607
0.739361 0.205905 0.137774
0.770626 0.208438 0.13994
0.801801 0.211215 0.142077
0.833417 0.214679 0.144167
0.86511 0.217655 0.146441
0.896834 0.220783 0.148806
0.926543 0.224079 0.152453
0.955627 0.227466 0.156313
0.980957 0.231449 0.160784
0.997192 0.235889 0.165469
0.99913 0.240818 0.170687
1 0.246601 0.176318
1 0.252857 0.182071
1 0.258976 0.187762
1 0.265064 0.193317
0.0338445 0.226841 0.166491
0.0480354 0.22678 0.165316
0.068925 0.224689 0.162081
0.0944381 0.221057 0.157137
0.126162 0.220523 0.152346
0.160189 0.221134 0.147601
0.210742 0.222187 0.145678
0.26247 0.223331 0.142718
0.316457 0.224918 0.138903
0.370718 0.2262 0.135607
0.425147 0.227756 0.132631
0.475792 0.229572 0.130922
0.525475 0.231571 0.129274
0.568032 0.234165 0.129854
0.608774 0.236835 0.130465
0.643137 0.239414 0.132143
0.676173 0.242313 0.133883
0.707332 0.245045 0.135683
0.738598 0.248188 0.13785
0.769726 0.251438 0.140215
0.800916 0.254398 0.142397
0.831937 0.257374 0.14548
0.863615 0.259998 0.14847
0.895155 0.262425 0.151263
0.925994 0.265278 0.15436
0.955505 0.268345 0.157687
0.983169 0.271717 0.161349
0.995895 0.275776 0.165362
0.999313 0.279911 0.169711
1 0.28542 0.174838
1 0.291142 0.17998
1 0.2972 0.185657
1 0.303136 0.191257
0.0238651 0.270466 0.174807
0.0364385 0.271183 0.173846
0.0592355 0.267933 0.169207
0.0847486 0.264118 0.163622
0.115755 0.264439 0.157519
0.154223 0.264775 0.151431
0.20824 0.265202 0.145312
0.263111 0.265919 0.14168
0.318608 0.267109 0.140703
0.372274 0.268772 0.138384
0.425284 0.27068 0.135683
0.47451 0.273213 0.13312
0.522667 0.275532 0.130907
0.566781 0.278126 0.130617
0.607187 0.280537 0.131167
0.642939 0.283085 0.13254
0.675746 0.285924 0.134188
0.706935 0.288731 0.136187
0.738079 0.291432 0.139223
0.768917 0.294377 0.142351
0.799802 0.297002 0.145068
0.830839 0.299763 0.147768
0.86247 0.302235 0.150195
0.893996 0.304555 0.152483
0.925292 0.307179 0.154833
0.954803 0.31014 0.157626
0.983917 0.313024 0.160433
0.993561 0.316884 0.164157
1 0.320867 0.167956
1 0.32607 0.172976
1 0.331151 0.178027
1 0.337102 0.183734
1 0.342809 0.189319
0.0141909 0.31577 0.181735
0.0251011 0.316457 0.180438
0.0489052 0.311864 0.174563
0.0744335 0.308736 0.168338
0.104555 0.308614 0.161395
0.147585 0.308705 0.15317
0.200504 0.30898 0.143511
0.258991 0.309682 0.140505
0.319203 0.310491 0.139086
0.373953 0.312169 0.137743
0.427268 0.314244 0.136324
0.476936 0.316518 0.134417
0.523919 0.318837 0.133272
0.568658 0.321538 0.132601
0.60766 0.324025 0.133349
0.64419 0.326696 0.135149
0.675944 0.329137 0.137301
0.706889 0.331838 0.13962
0.737667 0.334401 0.141985
0.7682 0.337224 0.144381
0.798886 0.339849 0.146624
0.830198 0.342473 0.148806
0.861555 0.344594 0.15079
0.89308 0.346944 0.152514
0.924636 0.349233 0.154223
0.954452 0.351675 0.156497
0.982635 0.354406 0.158923
0.992462 0.357809 0.162387
1 0.361257 0.166049
1 0.365743 0.170733
1 0.370687 0.175753
1 0.375998 0.181292
1 0.381216 0.186542
0.00614939 0.361364 0.186221
0.0153658 0.361013 0.183642
0.03682 0.35613 0.177752
0.0627909 0.353597 0.171267
0.0926223 0.352712 0.164294
0.138354 0.352789 0.153307
0.188037 0.353155 0.14136
0.254353 0.353735 0.138338
0.317968 0.354559 0.135683
0.375448 0.355993 0.135897
0.429313 0.358053 0.135561
0.47895 0.360021 0.135103
0.525429 0.362081 0.135271
0.57023 0.364431 0.13576
0.60853 0.36669 0.137194
0.645685 0.368948 0.138735
0.677211 0.371481 0.140795
0.708507 0.373831 0.142702
0.738735 0.376501 0.144778
0.769055 0.378958 0.146639
0.799573 0.381643 0.148455
0.830442 0.383856 0.149828
0.861204 0.386221 0.151064
0.892683 0.388067 0.152316
0.923995 0.390127 0.153674
0.953994 0.392172 0.155505
0.978866 0.394644 0.157702
0.992874 0.397604 0.160662
1 0.400809 0.164096
1 0.404669 0.168109
1 0.409293 0.173037
1 0.414038 0.178225
1 0.418784 0.183505
0.00228885 0.405509 0.191546
0.0115053 0.404395 0.188098
0.0267033 0.400946 0.1823
0.05243 0.39852 0.174701
0.0813764 0.396628 0.166308
0.127047 0.396887 0.153567
0.178195 0.397284 0.142184
0.246586 0.398047 0.13431
0.311635 0.399023 0.131548
0.374533 0.400397 0.133654
0.429313 0.402014 0.134813
0.480888 0.403265 0.135897
0.527031 0.40502 0.137285
0.572229 0.406836 0.138735
0.611063 0.409094 0.140108
0.647547 0.411124 0.141711
0.679622 0.413275 0.143267
0.71046 0.415747 0.144884
0.740505 0.41799 0.146654
0.770764 0.420188 0.148119
0.800702 0.422583 0.149554
0.831281 0.424506 0.150546
0.861906 0.426566 0.151568
0.892912 0.428061 0.152544
0.923735 0.429801 0.153689
0.953872 0.431373 0.154955
0.977081 0.433509 0.156893
0.995056 0.435874 0.159228
1 0.438666 0.162585
1 0.44184 0.16611
1 0.446052 0.170794
1 0.450538 0.17557
1 0.454932 0.180728
0 0.448844 0.197498
0.00723278 0.447547 0.193149
0.0166934 0.44535 0.187823
0.0439307 0.442145 0.178439
0.0749523 0.439826 0.16846
0.116121 0.43978 0.156558
0.169833 0.440055 0.145006
0.236362 0.44062 0.13312
0.303349 0.442115 0.130495
0.371374 0.443992 0.130999
0.427161 0.445335 0.132906
0.481407 0.446693 0.134905
0.52842 0.448005 0.136568
0.572992 0.449668 0.138476
0.613825 0.451301 0.140597
0.650034 0.452979 0.142565
0.68307 0.454688 0.144411
0.713558 0.456779 0.146288
0.743725 0.458671 0.148058
0.773175 0.460517 0.149493
0.802701 0.462562 0.150698
0.83267 0.464271 0.151629
0.862882 0.46598 0.152468
0.893416 0.46717 0.152972
0.923873 0.468528 0.153674
0.953994 0.469657 0.15433
0.977157 0.471336 0.1561
0.998779 0.472862 0.157992
0.999756 0.475364 0.161105
1 0.477745 0.164645
1 0.481361 0.16968
1 0.484855 0.174594
1 0.488807 0.179797
0 0.490455 0.204364
0.00410468 0.489387 0.200641
0.0135195 0.487373 0.195499
0.0388647 0.483299 0.185687
0.0692912 0.481346 0.174472
0.104738 0.481514 0.162371
0.161196 0.481651 0.147585
0.224353 0.48217 0.131411
0.295918 0.484398 0.129168
0.365393 0.486519 0.127611
0.425376 0.488121 0.130571
0.480797 0.489509 0.133165
0.529885 0.490394 0.135317
0.574563 0.491676 0.137621
0.616892 0.492744 0.140032
0.652247 0.493858 0.142336
0.686046 0.495033 0.144503
0.716243 0.496681 0.146502
0.746166 0.498085 0.148409
0.775692 0.499458 0.150057
0.805249 0.500999 0.151369
0.834791 0.502235 0.152483
0.864866 0.503227 0.15317
0.894972 0.504311 0.153643
0.925048 0.505104 0.154192
0.954757 0.506096 0.154589
0.978637 0.507134 0.156542
0.998276 0.508431 0.158663
0.999268 0.509987 0.161685
1 0.512215 0.164874
1 0.514977 0.168963
1 0.518288 0.173236
1 0.521767 0.177935
0.000503548 0.529 0.214664
0.00271611 0.528359 0.211337
0.0148775 0.526055 0.20444
0.0372625 0.52137 0.194003
0.067216 0.520272 0.182132
0.0996414 0.520348 0.16997
0.156909 0.521187 0.15201
0.216754 0.522118 0.135897
0.288808 0.524468 0.128496
0.357534 0.52694 0.125063
0.42327 0.529763 0.127916
0.479713 0.53135 0.130739
0.531289 0.532219 0.133669
0.576211 0.532738 0.136202
0.618891 0.53344 0.138582
0.654169 0.533959 0.141314
0.688243 0.534554 0.143893
0.718471 0.535378 0.146304
0.748486 0.536217 0.148363
0.778378 0.537301 0.150149
0.807568 0.538125 0.151507
0.836774 0.538872 0.152743
0.866651 0.539513 0.153338
0.896254 0.539742 0.154437
0.925917 0.539773 0.155535
0.954543 0.540108 0.156527
0.980835 0.540444 0.158068
0.996796 0.541268 0.159731
0.999054 0.542199 0.161852
1 0.544121 0.164782
1 0.546319 0.167971
1 0.549508 0.171984
1 0.552697 0.175998
0.000518807 0.566598 0.224643
0.00175479 0.56672 0.221469
0.0163729 0.563302 0.212757
0.035996 0.558801 0.202136
0.0659037 0.558297 0.189746
0.100542 0.558328 0.176104
0.153658 0.559197 0.156802
0.213367 0.560327 0.140917
0.283085 0.56228 0.12874
0.351888 0.565087 0.12549
0.4206 0.568444 0.126619
0.477317 0.56994 0.129793
0.531426 0.571176 0.133196
0.57673 0.571267 0.135775
0.619532 0.571374 0.138247
0.65597 0.571374 0.140612
0.689403 0.571557 0.142855
0.720256 0.572061 0.145129
0.750439 0.57261 0.147311
0.780453 0.573251 0.149508
0.809476 0.573556 0.151904
0.838285 0.574029 0.153933
0.867796 0.573861 0.155184
0.897047 0.573571 0.156359
0.926619 0.573205 0.156939
0.955337 0.572824 0.157656
0.983337 0.572595 0.158633
0.995163 0.572992 0.159976
0.999329 0.573388 0.161532
1 0.574823 0.164279
1 0.576638 0.166995
1 0.579416 0.171038
1 0.582254 0.174853
0.000823987 0.602701 0.23447
0.00207523 0.603342 0.231205
0.0188754 0.599145 0.220966
0.038468 0.595453 0.210132
0.066331 0.594919 0.197681
0.103151 0.59498 0.182223
0.151522 0.595666 0.162554
0.211292 0.596963 0.145754
0.276738 0.598444 0.129732
0.347234 0.60177 0.126986
0.416953 0.605097 0.125963
0.475105 0.606683 0.129686
0.530312 0.607919 0.133043
0.577859 0.607828 0.135836
0.620233 0.607492 0.138262
0.657832 0.607111 0.140261
0.690791 0.606683 0.142535
0.721706 0.606241 0.145235
0.751629 0.606241 0.148043
0.781353 0.60621 0.150851
0.810452 0.606058 0.153017
0.839628 0.605966 0.154833
0.868803 0.605447 0.156085
0.898299 0.604746 0.157076
0.927764 0.603937 0.157534
0.956374 0.60351 0.158099
0.984695 0.60293 0.15877
0.993484 0.602899 0.160082
1 0.603174 0.161501
1 0.604273 0.164157
1 0.60589 0.166918
1 0.608408 0.170611
1 0.610758 0.174365
0.00140383 0.637385 0.243778
0.00567636 0.637201 0.239658
0.0214237 0.633814 0.230533
0.0419165 0.631083 0.21973
0.0685283 0.629465 0.206897
0.10724 0.629053 0.189883
0.151385 0.629557 0.170855
0.211887 0.630533 0.152438
0.274647 0.631983 0.135561
0.345022 0.635126 0.130419
0.412192 0.638041 0.127764
0.473411 0.640665 0.130678
0.528481 0.642008 0.133639
0.578515 0.642176 0.137224
0.620325 0.641428 0.139986
0.659937 0.640406 0.142412
0.691432 0.639612 0.144472
0.722637 0.638834 0.146563
0.752483 0.638361 0.148959
0.782147 0.637873 0.151202
0.811429 0.637385 0.153262
0.840757 0.636713 0.154894
0.869871 0.636103 0.156283
0.899565 0.635035 0.157076
0.929168 0.63389 0.157687
0.957839 0.632929 0.158404
0.983841 0.632181 0.159258
0.993286 0.631754 0.160662
1 0.631647 0.162371
1 0.63241 0.164904
1 0.633753 0.167987
1 0.635828 0.171679
1 0.638193 0.17557
0.00247196 0.671077 0.25301
0.00965896 0.67042 0.24828
0.0235904 0.667887 0.240604
0.0453956 0.665125 0.228992
0.0709087 0.662333 0.215503
0.110185 0.661982 0.197543
0.152987 0.662196 0.178988
0.211734 0.662913 0.158572
0.273915 0.663996 0.142275
0.34258 0.666255 0.133257
0.407233 0.668589 0.130694
0.47042 0.671183 0.132479
0.524773 0.672038 0.135592
0.57734 0.672602 0.13904
0.618952 0.67158 0.141482
0.658778 0.670466 0.143801
0.6916 0.669734 0.145602
0.723278 0.66894 0.147387
0.753338 0.668269 0.149111
0.783047 0.667643 0.150866
0.812329 0.667079 0.152605
0.841794 0.666255 0.154253
0.87129 0.66537 0.155718
0.901061 0.664103 0.156786
0.930663 0.663005 0.157809
0.959609 0.661677 0.158785
0.982254 0.660517 0.159991
0.994415 0.659724 0.161379
1 0.659663 0.163348
1 0.659907 0.165789
1 0.661204 0.169253
1 0.663066 0.172961
1 0.665309 0.177081
0.00389105 0.70277 0.261784
0.0131228 0.702037 0.256703
0.025391 0.700511 0.250477
0.0489357 0.697124 0.237278
0.0751965 0.693736 0.222827
0.112016 0.693584 0.205493
0.155734 0.693309 0.186892
0.210819 0.693339 0.165957
0.272358 0.693919 0.150225
0.338018 0.695079 0.137453
0.401984 0.697368 0.134691
0.465629 0.699886 0.133761
0.520577 0.70071 0.136767
0.573159 0.701381 0.139513
0.617319 0.700587 0.141909
0.657221 0.699733 0.143984
0.691341 0.698726 0.145663
0.723064 0.697795 0.147219
0.75346 0.69691 0.148684
0.783276 0.696132 0.150317
0.813016 0.695338 0.151934
0.842359 0.694331 0.153567
0.872023 0.693385 0.155077
0.901991 0.691981 0.156359
0.931746 0.690547 0.157626
0.961181 0.689052 0.158892
0.98172 0.687877 0.160525
0.996735 0.687083 0.162219
1 0.686854 0.164691
1 0.686824 0.167315
1 0.688197 0.171054
1 0.689891 0.174777
1 0.692134 0.17969
0.0047303 0.733318 0.269368
0.0150607 0.732464 0.264164
0.0278935 0.730953 0.257649
0.0510567 0.72665 0.244831
0.0780652 0.723491 0.230747
0.111589 0.722499 0.214908
0.156161 0.722011 0.195499
0.208301 0.721492 0.173587
0.269398 0.721798 0.156664
0.331502 0.722225 0.141054
0.396094 0.724147 0.137041
0.458335 0.726085 0.134249
0.515938 0.727779 0.13611
0.568521 0.728573 0.138247
0.615579 0.728374 0.140688
0.654932 0.727749 0.142748
0.690959 0.726925 0.14464
0.722667 0.725994 0.146227
0.753414 0.725063 0.147738
0.783169 0.724193 0.14931
0.813107 0.723247 0.150896
0.842725 0.722194 0.152575
0.87248 0.720974 0.154131
0.902663 0.719554 0.155612
0.932631 0.718029 0.157153
0.962524 0.716426 0.158801
0.982208 0.715267 0.160784
1 0.714366 0.162829
1 0.714122 0.165927
1 0.714076 0.169635
1 0.715114 0.174121
1 0.71667 0.178653
1 0.719249 0.183581
0.00593576 0.762295 0.277485
0.0162814 0.761501 0.273152
0.0306401 0.759289 0.26566
0.0517433 0.754696 0.253025
0.0786603 0.752255 0.238514
0.109239 0.750851 0.22295
0.155276 0.750164 0.201709
0.204639 0.749416 0.17969
0.264637 0.749172 0.160815
0.325521 0.749218 0.145098
0.389013 0.750622 0.13756
0.450675 0.752239 0.133761
0.509957 0.753979 0.134279
0.561852 0.754742 0.13608
0.611658 0.755108 0.13846
0.650858 0.754543 0.140398
0.688304 0.753918 0.142382
0.720012 0.753185 0.144167
0.751476 0.752453 0.145953
0.782254 0.751614 0.147723
0.812345 0.750713 0.149447
0.84213 0.749691 0.151125
0.872297 0.74844 0.15285
0.902739 0.747066 0.154604
0.933135 0.74548 0.156451
0.962814 0.743832 0.15874
0.983841 0.742535 0.161746
0.999924 0.741497 0.164874
0.999954 0.741085 0.168582
1 0.741436 0.172534
1 0.742382 0.176898
1 0.744274 0.181781
1 0.746822 0.186801
0.00637827 0.78938 0.284001
0.0154421 0.789014 0.27953
0.0305333 0.786252 0.270542
0.0492561 0.781994 0.258732
0.0763104 0.779919 0.243793
0.10602 0.778439 0.227909
0.152407 0.777478 0.205432
0.201801 0.776745 0.183536
0.259144 0.775921 0.162844
0.319219 0.775967 0.147265
0.381735 0.77644 0.136202
0.442359 0.777996 0.132479
0.502525 0.779919 0.131136
0.555138 0.780713 0.133074
0.605615 0.781491 0.13518
0.645853 0.781186 0.137301
0.68365 0.78085 0.139406
0.716457 0.780377 0.141466
0.748577 0.779797 0.143496
0.780133 0.779171 0.145525
0.810681 0.778363 0.147433
0.840742 0.777523 0.149279
0.871107 0.776211 0.15169
0.901762 0.774792 0.154208
0.932479 0.77319 0.156893
0.961242 0.77171 0.159686
0.985794 0.770504 0.162799
0.998993 0.769665 0.166247
0.999725 0.769207 0.170031
1 0.769619 0.174365
1 0.770428 0.178988
1 0.772808 0.184314
1 0.77528 0.189639
0.00628672 0.815824 0.288914
0.0140688 0.815747 0.28455
0.0288548 0.812772 0.275059
0.0453956 0.809476 0.264393
0.0724193 0.807263 0.248646
0.10457 0.805219 0.230777
0.147707 0.804166 0.208652
0.196994 0.803326 0.186511
0.251774 0.802289 0.164324
0.311131 0.802182 0.148501
0.372534 0.80206 0.13434
0.432929 0.803632 0.130373
0.492149 0.805173 0.127428
0.546517 0.806439 0.129015
0.596262 0.807431 0.130846
0.639384 0.807691 0.133181
0.677729 0.807675 0.135607
0.712245 0.807507 0.138003
0.74519 0.807019 0.14052
0.777279 0.806607 0.143572
0.807996 0.805859 0.146304
0.838605 0.805112 0.148943
0.869444 0.803922 0.151431
0.900328 0.802701 0.154009
0.931579 0.801312 0.156771
0.9608 0.800076 0.159823
0.988464 0.798978 0.163104
0.99762 0.798383 0.166949
0.999786 0.798154 0.170977
1 0.79881 0.175845
1 0.799695 0.180819
1 0.802121 0.186404
1 0.804471 0.19205
0.00567636 0.84181 0.292988
0.0125734 0.841749 0.288579
0.0253758 0.839597 0.280079
0.0423133 0.837003 0.2692
0.0682841 0.833692 0.252964
0.101808 0.831617 0.233722
0.141924 0.830579 0.211856
0.191546 0.829648 0.188922
0.243931 0.828534 0.165454
0.30341 0.828199 0.149081
0.363027 0.828016 0.134432
0.423117 0.829221 0.128222
0.481346 0.83061 0.124575
0.537316 0.832197 0.12491
0.586862 0.833356 0.126482
0.632364 0.834165 0.129183
0.669993 0.834195 0.132403
0.706081 0.834379 0.135439
0.739315 0.834363 0.13872
0.772335 0.834318 0.141909
0.803876 0.834043 0.1449
0.835431 0.833585 0.147738
0.867048 0.832822 0.150393
0.898665 0.831785 0.153124
0.930419 0.830564 0.155901
0.960937 0.82945 0.159335
0.99118 0.828397 0.16289
0.996292 0.827909 0.167315
1 0.827619 0.171908
1 0.828321 0.177203
1 0.829511 0.182605
1 0.831739 0.188357
1 0.834073 0.194324
0.00668345 0.866163 0.298848
0.0141604 0.866072 0.293935
0.0247959 0.864652 0.286275
0.0425116 0.86215 0.273716
0.065919 0.858671 0.25713
0.0994278 0.857267 0.237003
0.135454 0.856458 0.21593
0.18555 0.855619 0.191745
0.237324 0.854704 0.168505
0.295521 0.854124 0.149508
0.354101 0.853986 0.134783
0.413535 0.854719 0.125582
0.471199 0.855894 0.122347
0.527901 0.857633 0.121798
0.576837 0.859007 0.124117
0.624552 0.860227 0.126711
0.662425 0.860853 0.130007
0.699626 0.861509 0.133318
0.733974 0.861997 0.136843
0.767773 0.862211 0.140215
0.800427 0.862409 0.143618
0.832959 0.862257 0.146838
0.865034 0.861936 0.14992
0.897322 0.861097 0.153063
0.929702 0.860197 0.156222
0.961013 0.85919 0.15993
0.98764 0.858305 0.16379
0.995041 0.857862 0.168475
1 0.857755 0.173465
1 0.858259 0.178927
1 0.859556 0.184649
1 0.861494 0.1906
1 0.863981 0.196658
0.0087892 0.890135 0.305409
0.016495 0.890028 0.300084
0.0256962 0.889128 0.29308
0.0441596 0.886366 0.278782
0.0647593 0.882948 0.262592
0.0978103 0.882216 0.242145
0.133898 0.881514 0.220798
0.181888 0.880827 0.195697
0.233448 0.880217 0.173098
0.289128 0.879423 0.152911
0.346777 0.879423 0.138903
0.405005 0.879591 0.127398
0.461769 0.881163 0.123796
0.518517 0.88278 0.121111
0.569039 0.884703 0.122988
0.616373 0.886473 0.125124
0.656428 0.887617 0.128145
0.694163 0.888792 0.131472
0.729488 0.889815 0.135103
0.763607 0.890593 0.138827
0.797635 0.891295 0.142657
0.830564 0.891234 0.146273
0.863371 0.891264 0.149981
0.896422 0.890639 0.153582
0.929274 0.889952 0.157244
0.96144 0.888991 0.161059
0.98439 0.888228 0.165362
0.995483 0.887694 0.170214
1 0.887633 0.175555
1 0.887877 0.18117
1 0.889235 0.187198
1 0.890883 0.193317
1 0.893523 0.199481
0.0128176 0.913375 0.3131
0.0204623 0.913283 0.307195
0.0286564 0.9131 0.300404
0.0464027 0.90985 0.284566
0.0669108 0.907225 0.26807
0.0962844 0.906447 0.249393
0.133181 0.906004 0.227756
0.17882 0.905608 0.202701
0.230365 0.905074 0.179751
0.283787 0.904631 0.157885
0.340795 0.904646 0.14345
0.397864 0.905028 0.130648
0.455406 0.906554 0.125704
0.511116 0.908431 0.122591
0.563348 0.910628 0.123461
0.610071 0.912673 0.125444
0.652064 0.914504 0.128466
0.689982 0.915892 0.132021
0.726345 0.917403 0.135653
0.76112 0.918517 0.139757
0.796017 0.919585 0.143893
0.829465 0.919844 0.147936
0.862959 0.920104 0.151873
0.896529 0.919844 0.155825
0.929717 0.919341 0.159808
0.962509 0.918532 0.16379
0.982986 0.917845 0.168246
0.99765 0.91725 0.172885
1 0.917174 0.178317
1 0.917235 0.183825
1 0.918624 0.190051
1 0.920089 0.196597
1 0.922499 0.203174
0.0206912 0.935912 0.323018
0.0283665 0.935882 0.317449
0.0376593 0.93518 0.309941
0.0522927 0.932342 0.295857
0.0724041 0.930526 0.279301
0.0984054 0.929778 0.260121
0.136461 0.929671 0.236423
0.178943 0.929931 0.210819
0.229725 0.929946 0.187442
0.281941 0.929839 0.164904
0.337789 0.929961 0.148928
0.393927 0.930709 0.135836
0.451011 0.932113 0.128573
0.505684 0.934234 0.125063
0.559335 0.936599 0.124971
0.605844 0.938918 0.127153
0.649958 0.941222 0.129885
0.687221 0.942901 0.133639
0.72433 0.944717 0.13753
0.76025 0.946181 0.141909
0.795407 0.947433 0.146319
0.829587 0.948028 0.150744
0.86392 0.948363 0.155154
0.897963 0.948348 0.159503
0.931289 0.947845 0.163729
0.964706 0.947143 0.168032
0.983688 0.94641 0.172732
1 0.945724 0.177462
1 0.945327 0.183307
1 0.945281 0.189166
1 0.946197 0.195483
1 0.947707 0.201694
1 0.950057 0.207874
0.0309758 0.957732 0.335332
0.0380102 0.9579 0.329915
0.0474403 0.957061 0.321141
0.0591135 0.955016 0.308782
0.0796216 0.953719 0.291127
0.103395 0.952667 0.271275
0.142458 0.953216 0.246326
0.183749 0.953979 0.221347
0.233509 0.954208 0.197147
