LUT预设1/LUT全系打包/胶片lut系列/709胶片系列（正常色彩素材用这个）/3513蓝709.cube
TITLE "Generated by Resolve"
LUT_3D_SIZE 33
0.0331273 0.0855421 0.0849012
0.0408484 0.0879988 0.0857099
0.0515145 0.0905165 0.0869459
0.064271 0.092958 0.0885023
0.0823529 0.0958267 0.0880903
0.106706 0.0986954 0.0853742
0.13547 0.10193 0.0827344
0.162509 0.105409 0.0808423
0.193774 0.108385 0.0780041
0.224186 0.11162 0.0755779
0.25565 0.114595 0.0741741
0.287129 0.117464 0.0733349
0.318044 0.121202 0.0725414
0.348623 0.125353 0.0720226
0.379446 0.129122 0.0721447
0.410498 0.132662 0.0728923
0.440314 0.136004 0.0737316
0.467567 0.139254 0.0748913
0.494575 0.142489 0.0758984
0.521462 0.144549 0.076051
0.548806 0.146258 0.0764477
0.574334 0.147982 0.078172
0.598154 0.149645 0.0804913
0.622553 0.150683 0.0820935
0.647883 0.149783 0.0820783
0.673259 0.148699 0.0821393
0.696864 0.148775 0.0819409
0.7205 0.148867 0.0817884
0.743877 0.148272 0.0820325
0.766293 0.146944 0.0834363
0.78854 0.145937 0.0851453
0.811032 0.143999 0.0863813
0.833631 0.14197 0.0878309
0.0368658 0.0970626 0.0924697
0.0451972 0.0997635 0.0932937
0.0581216 0.10248 0.0945907
0.0718242 0.105394 0.0957198
0.0928206 0.108827 0.0945754
0.119265 0.1122 0.0921187
0.149493 0.115831 0.0897841
0.179538 0.119371 0.0874952
0.211475 0.123033 0.0845808
0.243565 0.12639 0.0823987
0.277165 0.129625 0.0805829
0.309667 0.133242 0.0793164
0.34049 0.137346 0.0796368
0.371298 0.141512 0.0801556
0.402762 0.144884 0.0811017
0.434211 0.148333 0.0822919
0.463081 0.152026 0.0836042
0.491066 0.155871 0.084535
0.51902 0.159152 0.0850843
0.546868 0.160906 0.0856489
0.574929 0.162676 0.0861982
0.599847 0.164508 0.0869612
0.625269 0.166079 0.08748
0.650706 0.166476 0.0879072
0.676097 0.166171 0.0887617
0.701259 0.165667 0.0894179
0.726482 0.164813 0.0884413
0.752056 0.163806 0.087541
0.775296 0.162844 0.0883192
0.797498 0.162097 0.0894026
0.819806 0.161013 0.0905165
0.842115 0.159548 0.0917678
0.863996 0.15848 0.0933852
0.0401312 0.10782 0.100649
0.0507515 0.110887 0.102098
0.0639658 0.114916 0.103105
0.0804303 0.119127 0.102892
0.100938 0.123461 0.100984
0.130861 0.126909 0.0983139
0.16289 0.129809 0.0965133
0.196246 0.133486 0.0938125
0.229068 0.137484 0.0910811
0.263508 0.141619 0.0889143
0.297734 0.145861 0.0869764
0.330068 0.150301 0.0870069
0.361898 0.154757 0.0878157
0.393545 0.159014 0.0886397
0.425498 0.163012 0.0895247
0.45655 0.167193 0.0903944
0.485496 0.171221 0.0914626
0.514656 0.175265 0.0925612
0.543023 0.17763 0.0924086
0.571206 0.179812 0.0918898
0.598489 0.181491 0.091783
0.625879 0.182467 0.092195
0.65333 0.183078 0.0928054
0.678813 0.18294 0.0939193
0.704372 0.182788 0.0946822
0.729778 0.182208 0.0940566
0.755245 0.181872 0.092958
0.780118 0.181765 0.0924697
0.801495 0.182086 0.0934768
0.822934 0.182422 0.0945754
0.844907 0.182055 0.0954299
0.866773 0.181643 0.0962539
0.887388 0.181582 0.0972763
0.0427405 0.11989 0.108858
0.0556649 0.124453 0.110201
0.0693828 0.128847 0.111666
0.087953 0.134295 0.110155
0.108522 0.140169 0.107851
0.141482 0.144121 0.10428
0.17467 0.148196 0.101442
0.211902 0.152255 0.0994278
0.248264 0.156344 0.097673
0.283268 0.160601 0.0954299
0.317556 0.164935 0.0937057
0.350286 0.169345 0.0946517
0.383185 0.173739 0.0959029
0.415518 0.177996 0.0963455
0.447089 0.182315 0.0962997
0.477729 0.186572 0.0971695
0.507378 0.190677 0.0985122
0.536629 0.194537 0.0993515
0.565164 0.19675 0.0986038
0.594186 0.198566 0.098024
0.621149 0.200214 0.098436
0.647547 0.202182 0.0987869
0.673899 0.203143 0.0988327
0.700984 0.202991 0.0984817
0.728313 0.202502 0.0975967
0.754192 0.202579 0.0968643
0.780438 0.202564 0.0963455
0.803937 0.20293 0.0964675
0.825681 0.203616 0.0972305
0.846845 0.20499 0.0979019
0.867842 0.205951 0.098085
0.888731 0.207355 0.0983139
0.905455 0.209659 0.100206
0.0459297 0.135653 0.11635
0.0598154 0.139452 0.118349
0.0750134 0.143725 0.119615
0.0943008 0.150958 0.117006
0.115999 0.157885 0.113939
0.149065 0.162982 0.108995
0.185702 0.167697 0.105714
0.225681 0.172137 0.104143
0.263218 0.176669 0.10219
0.29897 0.181186 0.10042
0.333669 0.185824 0.0999619
0.367514 0.190524 0.100374
0.400671 0.19501 0.100877
0.433616 0.198734 0.101381
0.466407 0.202243 0.101961
0.496498 0.206577 0.103441
0.526558 0.210895 0.105135
0.556237 0.21384 0.105455
0.585672 0.215778 0.10486
0.614603 0.217868 0.104417
0.640238 0.221073 0.104219
0.665721 0.224475 0.104051
0.692775 0.225574 0.102632
0.720409 0.226352 0.100725
0.747509 0.227131 0.0993057
0.772961 0.228412 0.0986496
0.798932 0.229847 0.0981308
0.820279 0.231388 0.0982376
0.841703 0.233173 0.0984817
0.862806 0.235126 0.0982071
0.882918 0.237415 0.0990463
0.902235 0.240375 0.10042
0.917189 0.243061 0.103075
0.0468757 0.151324 0.122347
0.0605783 0.155749 0.123995
0.0757153 0.161334 0.124025
0.0936599 0.168719 0.120775
0.115785 0.17583 0.117205
0.149416 0.183032 0.111009
0.188388 0.188922 0.106889
0.228962 0.194141 0.104372
0.267948 0.198932 0.103075
0.306676 0.203403 0.102815
0.342885 0.208072 0.102464
0.37702 0.213123 0.101961
0.411078 0.217716 0.101976
0.444465 0.221317 0.102754
0.477531 0.225391 0.103273
0.507362 0.230365 0.104601
0.537102 0.23505 0.105974
0.566339 0.23888 0.105791
0.59559 0.242237 0.105318
0.623163 0.245899 0.105058
0.648722 0.249729 0.105119
0.674235 0.253559 0.105058
0.701411 0.255192 0.102724
0.729351 0.256641 0.0998398
0.756359 0.258213 0.0980545
0.781491 0.26041 0.0975052
0.806073 0.262943 0.0970169
0.827451 0.265873 0.0962997
0.849058 0.268544 0.0952316
0.870115 0.271733 0.0940871
0.890043 0.275044 0.0945602
0.909407 0.278386 0.0949874
0.924331 0.28217 0.0973373
0.0487221 0.168353 0.129412
0.0625925 0.173785 0.130968
0.0779431 0.180545 0.129717
0.0950027 0.188449 0.126299
0.117708 0.196719 0.12137
0.148959 0.205951 0.112795
0.191546 0.21236 0.108629
0.233631 0.218219 0.106294
0.274067 0.223239 0.105318
0.313832 0.228092 0.104768
0.350835 0.233021 0.104433
0.387076 0.237781 0.104433
0.42179 0.242664 0.104295
0.455436 0.247456 0.103838
0.488212 0.252415 0.104326
0.518578 0.25684 0.105959
0.548974 0.261433 0.10753
0.577646 0.265995 0.107546
0.606302 0.27042 0.1075
0.632639 0.274998 0.107912
0.657481 0.279377 0.108324
0.682872 0.283665 0.108293
0.709987 0.286732 0.105852
0.737514 0.28954 0.103029
0.762676 0.292988 0.101717
0.787472 0.296742 0.100587
0.811612 0.300664 0.0986954
0.834669 0.303655 0.0952926
0.857481 0.306691 0.0925612
0.878538 0.309834 0.0915999
0.899138 0.313039 0.0914473
0.917433 0.31693 0.092256
0.932326 0.321141 0.0944228
0.0517128 0.188922 0.138582
0.0663005 0.194095 0.140017
0.0819409 0.202045 0.136889
0.0982528 0.210056 0.133074
0.120867 0.220066 0.125353
0.14934 0.230961 0.114687
0.198535 0.236973 0.112016
0.242222 0.243183 0.109895
0.283864 0.248402 0.108721
0.324422 0.25388 0.108248
0.362799 0.259098 0.108003
0.400626 0.264393 0.10808
0.435676 0.269856 0.108049
0.469978 0.275166 0.108171
0.501793 0.280278 0.109407
0.531487 0.28513 0.11078
0.560845 0.289921 0.111955
0.589212 0.295094 0.112627
0.617716 0.300542 0.113481
0.642573 0.305455 0.114412
0.667216 0.310384 0.115145
0.693187 0.315068 0.114199
0.720302 0.319188 0.111284
0.747677 0.3234 0.108202
0.772396 0.328099 0.106935
0.797513 0.33286 0.105547
0.821134 0.336629 0.103136
0.843946 0.340017 0.100816
0.866133 0.343557 0.0987564
0.887037 0.347189 0.0972763
0.907698 0.350912 0.0953994
0.925353 0.354894 0.0949721
0.941649 0.358968 0.0951247
0.0562448 0.211139 0.148608
0.0717632 0.217624 0.148821
0.0879835 0.225345 0.145815
0.10576 0.233707 0.141634
0.12639 0.245487 0.132204
0.159197 0.256321 0.121477
0.205753 0.263584 0.115023
0.249485 0.270085 0.112245
0.293523 0.275792 0.112551
0.335988 0.281712 0.11281
0.376104 0.287205 0.112779
0.414984 0.292943 0.11284
0.450431 0.298161 0.113497
0.485817 0.303807 0.114229
0.515145 0.30927 0.115496
0.544549 0.314611 0.116915
0.57348 0.320562 0.118059
0.60174 0.326665 0.119631
0.628794 0.332708 0.121263
0.653361 0.33875 0.122683
0.67776 0.345006 0.124514
0.704601 0.349447 0.121431
0.73225 0.353872 0.117327
0.758862 0.358373 0.114702
0.783291 0.363546 0.114763
0.807874 0.368551 0.114656
0.83061 0.37229 0.111635
0.85333 0.376425 0.108598
0.874769 0.380972 0.105531
0.895811 0.385443 0.101808
0.916732 0.389883 0.0982223
0.933791 0.394369 0.0967727
0.951202 0.398795 0.0948501
0.0620279 0.234806 0.159289
0.0782483 0.242039 0.157885
0.0955062 0.249317 0.155398
0.113252 0.259602 0.149706
0.13167 0.272221 0.140993
0.170291 0.28249 0.13019
0.214343 0.291264 0.121355
0.260029 0.298222 0.11957
0.304738 0.305303 0.118212
0.347234 0.311666 0.117617
0.3888 0.317922 0.11754
0.42681 0.323842 0.118181
0.463447 0.329763 0.119478
0.497276 0.335546 0.120714
0.527886 0.341253 0.122042
0.558267 0.347082 0.123522
0.586801 0.353491 0.125643
0.614984 0.359716 0.128405
0.639979 0.366522 0.130922
0.664042 0.37377 0.13344
0.689082 0.380224 0.1337
0.715862 0.385306 0.13022
0.742077 0.390723 0.127642
0.765377 0.396857 0.128557
0.788952 0.402747 0.129168
0.812284 0.408301 0.127016
0.835203 0.413001 0.122576
0.85861 0.41799 0.1178
0.880796 0.422568 0.112093
0.90309 0.426856 0.106416
0.923858 0.431327 0.101472
0.942443 0.435737 0.0974594
0.961517 0.44007 0.0928664
0.067155 0.260441 0.169436
0.0848249 0.268055 0.168765
0.103487 0.275578 0.168399
0.12079 0.287221 0.162722
0.139193 0.29897 0.156619
0.183276 0.309712 0.143267
0.226444 0.31989 0.132998
0.271626 0.328252 0.127504
0.315038 0.336049 0.123018
0.359167 0.342794 0.12282
0.402106 0.350057 0.123354
0.440253 0.356435 0.125261
0.478172 0.362799 0.127153
0.510964 0.369192 0.128466
0.542763 0.375982 0.129809
0.572702 0.382971 0.131823
0.60119 0.390295 0.134569
0.628611 0.397345 0.137163
0.651957 0.404471 0.140826
0.675242 0.411475 0.144915
0.699504 0.418189 0.145068
0.723522 0.425071 0.144671
0.746975 0.431891 0.144717
0.769818 0.43827 0.144671
0.793042 0.444633 0.143923
0.817411 0.449805 0.13785
0.842008 0.454124 0.131502
0.865904 0.458289 0.125139
0.888594 0.46247 0.118547
0.911345 0.466621 0.111681
0.931014 0.470192 0.105714
0.950851 0.473884 0.0992447
0.96878 0.477256 0.093492
0.0737621 0.288487 0.181186
0.0928969 0.296788 0.181796
0.111772 0.306523 0.180789
0.130083 0.31841 0.17673
0.154864 0.330617 0.169741
0.19411 0.343954 0.153765
0.238972 0.355032 0.142473
0.284382 0.36437 0.134783
0.32987 0.372381 0.132235
0.375326 0.379416 0.132158
0.417487 0.386343 0.132982
0.456962 0.392477 0.134615
0.494835 0.399222 0.136141
0.527184 0.406577 0.137865
0.559319 0.414466 0.139849
0.587701 0.42179 0.141634
0.616205 0.42916 0.143771
0.641184 0.435813 0.147707
0.664317 0.442588 0.152377
0.687541 0.44947 0.155962
0.711376 0.456794 0.156222
0.73521 0.463951 0.156268
0.758618 0.470283 0.155947
0.781781 0.476448 0.155459
0.804868 0.482109 0.153094
0.827863 0.486931 0.147997
0.850309 0.492103 0.143526
0.872831 0.49633 0.136034
0.895201 0.500389 0.127581
0.91725 0.504448 0.118791
0.938399 0.507668 0.109071
0.959243 0.511055 0.100801
0.973938 0.513375 0.0975967
0.0816815 0.321309 0.195651
0.102159 0.330159 0.197101
0.121447 0.341329 0.194919
0.141436 0.352834 0.192035
0.168399 0.367056 0.180514
0.201251 0.383017 0.161669
0.251896 0.392935 0.150622
0.29868 0.402472 0.142473
0.346349 0.409445 0.142321
0.393027 0.416938 0.142184
0.434546 0.423362 0.143404
0.475776 0.429847 0.144869
0.511208 0.437217 0.146334
0.54461 0.444923 0.147845
0.57612 0.452018 0.14992
0.604776 0.458961 0.152346
0.632975 0.465797 0.155276
0.656458 0.472724 0.159518
0.680125 0.479759 0.16347
0.70367 0.487022 0.164996
0.726818 0.494026 0.165576
0.749737 0.501137 0.165972
0.771542 0.507713 0.166598
0.792798 0.51429 0.167544
0.814588 0.519493 0.16405
0.836042 0.524407 0.159915
0.857771 0.528893 0.154116
0.880537 0.532479 0.143969
0.903349 0.536202 0.133852
0.925353 0.538994 0.123949
0.946426 0.541741 0.11519
0.965225 0.544594 0.107942
0.978744 0.54696 0.104707
0.0906844 0.353628 0.211444
0.111955 0.363577 0.212482
0.133089 0.375341 0.210163
0.155947 0.387747 0.206088
0.182513 0.404211 0.190768
0.219623 0.419577 0.172351
0.269856 0.429862 0.160372
0.317433 0.439048 0.154574
0.366186 0.44712 0.154086
0.411856 0.454841 0.154192
0.45388 0.462165 0.155261
0.493782 0.469337 0.156329
0.528725 0.476036 0.157382
0.56376 0.482643 0.158495
0.593164 0.489128 0.161608
0.622049 0.495674 0.164858
0.648051 0.502525 0.168582
0.67219 0.509575 0.172671
0.695979 0.516518 0.176303
0.718471 0.523507 0.176959
0.740734 0.530785 0.177462
0.762051 0.537163 0.178073
0.782956 0.543526 0.178943
0.803952 0.549447 0.178149
0.824781 0.554345 0.173907
0.846036 0.559167 0.169329
0.868666 0.562982 0.159503
0.891356 0.566552 0.148623
0.913512 0.569863 0.137942
0.93489 0.572671 0.127993
0.955962 0.575174 0.119097
0.97113 0.577462 0.114595
0.984207 0.579278 0.111727
0.101198 0.385779 0.228031
0.123827 0.397284 0.227359
0.147341 0.409644 0.225315
0.171206 0.424994 0.216159
0.195575 0.442679 0.199725
0.239033 0.456794 0.182574
0.287617 0.468254 0.169772
0.338582 0.477241 0.167361
0.388602 0.48574 0.166644
0.433051 0.493233 0.167224
0.475792 0.500481 0.16846
0.513771 0.507073 0.169879
0.549035 0.513741 0.171725
0.581949 0.520424 0.174136
0.610758 0.526848 0.177264
0.639384 0.533196 0.180392
0.66363 0.539712 0.18436
0.687984 0.546181 0.188418
0.710292 0.552956 0.190234
0.731441 0.559915 0.190539
0.752255 0.56669 0.190814
0.772656 0.572839 0.191653
0.793561 0.578302 0.191867
0.815244 0.582971 0.187976
0.837095 0.587289 0.18262
0.859419 0.591226 0.175418
0.881956 0.594064 0.164385
0.904418 0.597116 0.153689
0.925505 0.599878 0.143923
0.945632 0.60267 0.134844
0.963897 0.605493 0.127535
0.976944 0.606989 0.124865
0.989578 0.608301 0.123354
0.114855 0.421088 0.244694
0.137636 0.43386 0.243076
0.161273 0.446479 0.241428
0.183719 0.465064 0.224781
0.206882 0.484215 0.206455
0.257862 0.497078 0.191348
0.308019 0.508598 0.180911
0.361913 0.516625 0.179828
0.412024 0.524468 0.179477
0.456275 0.531106 0.180835
0.499275 0.537728 0.182544
0.534508 0.54432 0.184482
0.56875 0.550927 0.186709
0.599145 0.556786 0.189502
0.628275 0.56286 0.192477
0.655024 0.56849 0.19556
0.679271 0.574044 0.19913
0.702953 0.579889 0.202152
0.723827 0.586084 0.20238
0.744686 0.592172 0.202655
0.765545 0.597925 0.203342
0.786267 0.603693 0.203525
0.807248 0.608942 0.20209
0.829038 0.613169 0.19678
0.850706 0.617487 0.191135
0.87277 0.62089 0.181674
0.895216 0.623774 0.170764
0.917113 0.62681 0.159899
0.936492 0.629648 0.150088
0.956191 0.632242 0.140505
0.971084 0.633509 0.136278
0.983978 0.634302 0.134508
0.995117 0.635355 0.132433
0.128191 0.457603 0.260853
0.150561 0.470497 0.259098
0.172503 0.486046 0.25069
0.194064 0.505379 0.2327
0.224399 0.52282 0.216159
0.27451 0.536812 0.199496
0.330098 0.54641 0.192447
0.386236 0.553414 0.19147
0.434623 0.559426 0.192676
0.47924 0.564813 0.195239
0.518898 0.570306 0.197345
0.554192 0.576318 0.198917
0.5879 0.582437 0.200671
0.616968 0.588251 0.203281
0.645853 0.594354 0.205844
0.670253 0.600275 0.208957
0.694148 0.606119 0.212848
0.716258 0.612024 0.214786
0.737484 0.617594 0.215488
0.758389 0.623133 0.216007
0.778408 0.628153 0.216587
0.798505 0.633127 0.217136
0.819196 0.637201 0.213809
0.840513 0.640848 0.208927
0.86186 0.644358 0.202258
0.883772 0.647044 0.19144
0.905776 0.649943 0.17998
0.926162 0.652552 0.169543
0.946334 0.655268 0.159289
0.965347 0.657679 0.150225
0.978775 0.658869 0.146563
0.992126 0.660014 0.142901
0.997421 0.661952 0.137881
0.137987 0.493355 0.275837
0.159991 0.507195 0.273411
0.181308 0.525582 0.258396
0.202792 0.544884 0.241077
0.240497 0.560678 0.225315
0.288838 0.576013 0.205097
0.353185 0.581827 0.20351
0.411002 0.587762 0.203876
0.456992 0.592111 0.206928
0.501778 0.596429 0.210819
0.538521 0.601724 0.211353
0.574319 0.607156 0.2121
0.60528 0.612741 0.21387
0.634226 0.618616 0.21706
0.661082 0.624094 0.220584
0.684794 0.629175 0.224063
0.708354 0.634211 0.22739
0.728725 0.63888 0.229114
0.74902 0.643641 0.231434
0.768811 0.648356 0.233188
0.788617 0.65301 0.234516
0.808499 0.65742 0.234501
0.829358 0.661295 0.229404
0.850095 0.665248 0.224079
0.871565 0.668711 0.21413
0.893126 0.672236 0.20209
0.914611 0.675502 0.189792
0.935485 0.678264 0.17882
0.956542 0.681132 0.167803
0.971969 0.682795 0.162112
0.985199 0.684474 0.158434
0.996536 0.686381 0.154391
0.998077 0.688762 0.149203
0.144823 0.529305 0.290043
0.164904 0.545052 0.282094
0.184314 0.56376 0.265339
0.208087 0.581659 0.247944
0.248844 0.596811 0.228229
0.304875 0.608972 0.210559
0.371328 0.614221 0.208087
0.426642 0.618448 0.209293
0.476127 0.621302 0.213718
0.520088 0.62536 0.216754
0.556298 0.630472 0.218967
0.591226 0.635477 0.221851
0.621103 0.640696 0.226322
0.650996 0.645716 0.231846
0.675441 0.650492 0.234958
0.699351 0.655268 0.238025
0.72076 0.659876 0.241688
0.739879 0.664103 0.245777
0.758938 0.668376 0.249546
0.778622 0.67277 0.251209
0.798291 0.676982 0.252934
0.818662 0.681193 0.249638
0.839475 0.685374 0.244099
0.86041 0.689448 0.23682
0.881971 0.693278 0.224079
0.904005 0.697063 0.210498
0.924331 0.70016 0.200565
0.944533 0.703151 0.190875
0.963623 0.705913 0.182193
0.977569 0.708186 0.17702
0.991501 0.710628 0.172274
0.99736 0.713039 0.166888
0.998856 0.715694 0.161425
0.144884 0.563943 0.30341
0.163058 0.581598 0.288792
0.180896 0.600305 0.271321
0.21323 0.616434 0.251347
0.255268 0.631464 0.228824
0.3205 0.640177 0.21532
0.386801 0.646235 0.209766
0.442466 0.6486 0.21355
0.495964 0.650904 0.217884
0.535454 0.654597 0.221592
0.572763 0.658457 0.226184
0.605875 0.66273 0.232197
0.636378 0.667048 0.239109
0.664546 0.671321 0.244953
0.68864 0.676005 0.248478
0.712856 0.680659 0.252186
0.731838 0.684703 0.256641
0.750454 0.68864 0.261601
0.769635 0.692653 0.264897
0.78912 0.696925 0.267475
0.808438 0.701045 0.268986
0.828946 0.705348 0.263966
0.849439 0.709728 0.258915
0.870359 0.713832 0.248356
0.891371 0.717952 0.235874
0.91223 0.721691 0.224018
0.932464 0.724697 0.21416
0.952712 0.727794 0.204486
0.968658 0.730419 0.197971
0.982574 0.733089 0.193851
0.994522 0.735637 0.189487
0.996689 0.738643 0.183703
0.999008 0.741772 0.177646
0.142824 0.596094 0.312932
0.160388 0.614282 0.29543
0.180499 0.632624 0.277226
0.220096 0.647211 0.255787
0.262882 0.661936 0.232334
0.333913 0.668528 0.218479
0.398352 0.673884 0.210819
0.456382 0.675929 0.215198
0.508263 0.678477 0.220096
0.548791 0.681407 0.226719
0.588434 0.684474 0.233829
0.619837 0.688304 0.241901
0.650889 0.692103 0.250858
0.676768 0.696513 0.256138
0.702068 0.701228 0.26154
0.723888 0.705379 0.266758
0.742535 0.708934 0.271
0.761166 0.712428 0.274907
0.780545 0.716411 0.277394
0.799619 0.720333 0.27985
0.819425 0.724529 0.277409
0.839292 0.728679 0.273182
0.859037 0.732662 0.268284
0.87953 0.736645 0.257786
0.899687 0.740642 0.248295
0.919738 0.744244 0.238743
0.939941 0.74786 0.228626
0.958709 0.751598 0.219715
0.972503 0.754559 0.216281
0.986206 0.757549 0.213046
0.993088 0.761044 0.207324
0.996643 0.764553 0.199619
1 0.767788 0.19408
0.139956 0.626886 0.319341
0.158175 0.645441 0.302251
0.187106 0.662287 0.282643
0.226078 0.677333 0.259937
0.275196 0.688975 0.239811
0.344549 0.697093 0.21828
0.411017 0.700435 0.214176
0.471946 0.702281 0.216876
0.519799 0.70428 0.223102
0.563287 0.706279 0.230289
0.600458 0.709072 0.237964
0.632532 0.712184 0.246174
0.662806 0.715755 0.253498
0.68893 0.720058 0.258991
0.7149 0.724437 0.265034
0.734447 0.727932 0.269184
0.754055 0.731517 0.273213
0.77319 0.735348 0.277073
0.792126 0.73933 0.281071
0.810956 0.743236 0.284047
0.829923 0.747372 0.282856
0.84863 0.7514 0.282963
0.86807 0.755428 0.277394
0.887388 0.759365 0.270695
0.906813 0.763012 0.263722
0.926909 0.76672 0.253513
0.947173 0.770535 0.243198
0.962356 0.773617 0.238682
0.975631 0.776516 0.237018
0.987213 0.779431 0.234714
0.992325 0.782193 0.228565
0.997726 0.78468 0.223529
1 0.78735 0.22414
0.128695 0.653834 0.324987
0.145418 0.671824 0.308644
0.187274 0.685573 0.287877
0.231785 0.699397 0.266239
0.286961 0.709697 0.245991
0.354101 0.719814 0.22092
0.423972 0.721798 0.21886
0.484794 0.724468 0.218463
0.531487 0.72636 0.224872
0.577295 0.728511 0.230747
0.611643 0.731777 0.237873
0.645579 0.734966 0.244663
0.674083 0.738933 0.251774
0.700847 0.743236 0.2598
0.724636 0.747189 0.26569
0.745373 0.750591 0.269337
0.766003 0.754055 0.272969
0.785306 0.757763 0.275639
0.804791 0.761578 0.278935
0.823789 0.765316 0.280217
0.842283 0.768994 0.281575
0.860655 0.772686 0.282658
0.878431 0.775921 0.282032
0.895659 0.779126 0.283436
0.914687 0.782864 0.27744
0.934478 0.786694 0.268101
0.952895 0.79057 0.26067
0.965286 0.793851 0.259892
0.977691 0.797314 0.259327
0.986023 0.800046 0.257145
0.993103 0.802045 0.254139
1 0.804257 0.252735
1 0.807782 0.257267
0.11426 0.679225 0.330983
0.143618 0.694774 0.313787
0.190616 0.707607 0.294209
0.240116 0.720073 0.273716
0.29453 0.731304 0.25095
0.365621 0.739681 0.229801
0.437522 0.742657 0.222431
0.494575 0.745007 0.222156
0.543465 0.74696 0.226917
0.586236 0.74963 0.231083
0.622889 0.752972 0.234134
0.656962 0.756527 0.237385
0.684779 0.760616 0.244862
0.712306 0.764813 0.252659
0.73492 0.76817 0.25655
0.757595 0.771511 0.260182
0.778988 0.775265 0.263355
0.799588 0.779202 0.266117
0.819699 0.783108 0.268971
0.837781 0.786694 0.273701
0.855543 0.790234 0.279332
0.871748 0.793164 0.285908
0.887266 0.795956 0.293233
0.903914 0.79884 0.296208
0.923949 0.80296 0.28809
0.943542 0.806958 0.281987
0.957198 0.810468 0.281926
0.968887 0.813748 0.28307
0.979644 0.816953 0.28394
0.987915 0.819654 0.283223
0.996551 0.822446 0.28336
1 0.825345 0.286381
1 0.828122 0.290913
0.0990616 0.702525 0.337179
0.14139 0.715892 0.318761
0.186572 0.729 0.300175
0.240803 0.740581 0.279652
0.300938 0.751522 0.25713
0.378805 0.757107 0.239643
0.451331 0.760983 0.228305
0.504768 0.763348 0.230198
0.555947 0.766125 0.231983
0.595926 0.769497 0.23064
0.635187 0.773205 0.228214
0.666545 0.77731 0.233036
0.694865 0.781506 0.240909
0.721752 0.785595 0.24683
0.746273 0.789288 0.249668
0.770657 0.793042 0.25211
0.792142 0.797086 0.254276
0.813825 0.801022 0.25684
0.833585 0.804746 0.261402
0.85275 0.808331 0.267018
0.871336 0.811658 0.27303
0.887037 0.814084 0.280949
0.902449 0.816526 0.289418
0.91899 0.819745 0.293553
0.9355 0.823209 0.298299
0.950103 0.826429 0.304051
0.960906 0.829709 0.306157
0.971511 0.833127 0.308553
0.981155 0.836484 0.310216
0.991012 0.839887 0.311788
0.999908 0.842466 0.313619
0.999878 0.844007 0.3178
0.999939 0.845563 0.322103
0.0942092 0.723293 0.343389
0.137026 0.736614 0.325444
0.182849 0.749752 0.307134
0.244785 0.760006 0.286992
0.311223 0.769802 0.266178
0.39086 0.774334 0.24947
0.459846 0.778576 0.239414
0.51603 0.782208 0.236957
0.565408 0.78616 0.234028
0.606607 0.789868 0.230335
0.644968 0.794064 0.22884
0.675395 0.798901 0.233494
0.705791 0.803906 0.236881
0.731914 0.807721 0.238575
0.757626 0.811627 0.239872
0.781857 0.815473 0.241581
0.805112 0.819455 0.243839
0.828138 0.823148 0.246403
0.849241 0.82678 0.251514
0.870192 0.830274 0.257496
0.886793 0.832792 0.267094
0.901213 0.834363 0.279591
0.915694 0.836225 0.29099
0.930526 0.838666 0.302663
0.945113 0.840848 0.314473
0.955901 0.843336 0.321248
0.965042 0.845594 0.327459
0.973968 0.847944 0.334218
0.984421 0.850721 0.335851
0.995163 0.853529 0.337499
0.99913 0.855543 0.341054
0.999496 0.85713 0.345815
1 0.858824 0.350729
0.0905928 0.741054 0.351873
0.129458 0.756176 0.333349
0.185138 0.768032 0.314534
0.252201 0.778317 0.294606
0.321981 0.786053 0.277348
0.403235 0.791485 0.259449
0.470726 0.796353 0.248798
0.528969 0.801495 0.24155
0.574762 0.805737 0.237446
0.617166 0.81004 0.234318
0.653132 0.81529 0.232517
0.685771 0.82089 0.231647
0.715877 0.82533 0.232288
0.742443 0.828412 0.235019
0.768902 0.831632 0.237629
0.792935 0.834638 0.243046
0.816724 0.837598 0.249271
0.838773 0.840208 0.257298
0.860151 0.842649 0.265232
0.880308 0.844923 0.273289
0.896391 0.846952 0.281575
0.912902 0.849119 0.288746
0.927749 0.851484 0.299596
0.941817 0.853819 0.312734
0.95407 0.855985 0.325597
0.96112 0.857679 0.338552
0.967788 0.859144 0.353475
0.977462 0.861585 0.359167
0.988495 0.864363 0.360372
0.997772 0.866712 0.362799
0.998566 0.868299 0.367956
0.999527 0.870085 0.373419
1 0.872389 0.378027
0.0844129 0.759335 0.361059
