LUT预设1/LUT全系打包/胶片lut系列/709胶片系列（正常色彩素材用这个）/3513蓝709.cube
TITLE "Generated by Resolve"
LUT_3D_SIZE 9
0.0331273 0.0855421 0.0849012
0.0823529 0.0958267 0.0880903
0.193774 0.108385 0.0780041
0.318044 0.121202 0.0725414
0.440314 0.136004 0.0737316
0.548806 0.146258 0.0764477
0.647883 0.149783 0.0820783
0.743877 0.148272 0.0820325
0.833631 0.14197 0.0878309
0.0459297 0.135653 0.11635
0.115999 0.157885 0.113939
0.263218 0.176669 0.10219
0.400671 0.19501 0.100877
0.526558 0.210895 0.105135
0.640238 0.221073 0.104219
0.747509 0.227131 0.0993057
0.841703 0.233173 0.0984817
0.917189 0.243061 0.103075
0.0562448 0.211139 0.148608
0.12639 0.245487 0.132204
0.293523 0.275792 0.112551
0.450431 0.298161 0.113497
0.57348 0.320562 0.118059
0.67776 0.345006 0.124514
0.783291 0.363546 0.114763
0.874769 0.380972 0.105531
0.951202 0.398795 0.0948501
0.0816815 0.321309 0.195651
0.168399 0.367056 0.180514
0.346349 0.409445 0.142321
0.511208 0.437217 0.146334
0.632975 0.465797 0.155276
0.726818 0.494026 0.165576
0.814588 0.519493 0.16405
0.903349 0.536202 0.133852
0.978744 0.54696 0.104707
0.128191 0.457603 0.260853
0.224399 0.52282 0.216159
0.434623 0.559426 0.192676
0.5879 0.582437 0.200671
0.694148 0.606119 0.212848
0.778408 0.628153 0.216587
0.86186 0.644358 0.202258
0.946334 0.655268 0.159289
0.997421 0.661952 0.137881
0.142824 0.596094 0.312932
0.262882 0.661936 0.232334
0.508263 0.678477 0.220096
0.650889 0.692103 0.250858
0.742535 0.708934 0.271
0.819425 0.724529 0.277409
0.899687 0.740642 0.248295
0.972503 0.754559 0.216281
1 0.767788 0.19408
0.0990616 0.702525 0.337179
0.300938 0.751522 0.25713
0.555947 0.766125 0.231983
0.694865 0.781506 0.240909
0.792142 0.797086 0.254276
0.871336 0.811658 0.27303
0.9355 0.823209 0.298299
0.981155 0.836484 0.310216
0.999939 0.845563 0.322103
0.0796368 0.775616 0.373983
0.351125 0.812146 0.312139
0.59556 0.833692 0.276417
0.731868 0.851209 0.278157
0.832746 0.865034 0.295521
0.915496 0.875929 0.311299
0.968933 0.88481 0.348135
0.995102 0.887495 0.406943
1 0.894362 0.433188
0.121752 0.831266 0.439704
0.415076 0.859098 0.399481
0.635203 0.878584 0.38114
0.759594 0.893324 0.392325
0.861906 0.906249 0.406851
0.936309 0.914244 0.418845
0.982986 0.919951 0.442557
0.999893 0.922866 0.491218
1 0.926268 0.538491
0.0330968 0.0958419 0.124331
0.0866712 0.106981 0.136645
0.206195 0.117662 0.139788
0.336583 0.130648 0.138994
0.45919 0.144991 0.14612
0.575113 0.153002 0.157
0.678096 0.153552 0.175158
0.778881 0.14966 0.192142
0.865293 0.143679 0.21268
0.0505074 0.151217 0.169574
0.12813 0.171115 0.180209
0.270771 0.192401 0.1841
0.418021 0.209781 0.189441
0.558007 0.21828 0.189609
0.678874 0.225284 0.197498
0.786084 0.23122 0.210864
0.872557 0.239872 0.227832
0.935332 0.253193 0.249531
0.06215 0.23212 0.211109
0.152468 0.260044 0.220676
0.304356 0.296223 0.211719
0.46038 0.320134 0.215854
0.599374 0.340017 0.219104
0.722148 0.358465 0.222217
0.826001 0.376287 0.225162
0.905303 0.397482 0.234607
0.965148 0.416999 0.250797
0.0920424 0.34786 0.272358
0.202213 0.389075 0.283268
0.359014 0.436393 0.25977
0.517311 0.466041 0.264958
0.645487 0.493904 0.276768
0.755993 0.521828 0.276005
0.858289 0.54345 0.262898
0.936309 0.557702 0.258518
0.987488 0.569604 0.266758
0.14789 0.487648 0.358404
0.255451 0.547036 0.351202
0.425254 0.592859 0.311894
0.591287 0.612375 0.334035
0.70132 0.636469 0.355703
0.798352 0.655451 0.337606
0.883635 0.669337 0.322972
0.961212 0.677852 0.303929
0.998337 0.686763 0.311467
0.160418 0.624491 0.437598
0.26244 0.687556 0.399786
0.486183 0.716365 0.347356
0.650507 0.727413 0.354803
0.74313 0.741176 0.385992
0.821805 0.75259 0.407721
0.901778 0.767178 0.395209
0.972625 0.78175 0.377829
1 0.792142 0.385901
0.117281 0.723049 0.488441
0.272038 0.783627 0.432212
0.535286 0.799298 0.391287
0.681041 0.812299 0.391043
0.784054 0.826429 0.402869
0.865003 0.838895 0.433341
0.928298 0.850019 0.467033
0.974609 0.86183 0.479942
0.999527 0.869642 0.490257
0.0743725 0.797101 0.535088
0.319173 0.84004 0.490242
0.573449 0.860548 0.463767
0.711299 0.8757 0.467048
0.815854 0.888762 0.479194
0.8981 0.899825 0.490898
0.953307 0.90692 0.522072
0.983001 0.911101 0.565927
0.998016 0.914946 0.591989
0.0977035 0.854704 0.596674
0.381628 0.882506 0.566186
0.611017 0.901473 0.552911
0.739055 0.915755 0.565713
0.842206 0.926177 0.577249
0.920012 0.934035 0.583734
0.968658 0.940459 0.594034
0.997772 0.944503 0.626307
1 0.944244 0.674037
0.0320134 0.114809 0.1879
0.0862135 0.122744 0.216876
0.209308 0.130846 0.241108
0.350591 0.142901 0.250278
0.477317 0.155825 0.2636
0.590417 0.164248 0.283833
0.693843 0.166155 0.312428
0.793423 0.161975 0.348455
0.87895 0.152224 0.379995
0.0566567 0.177188 0.249424
0.131853 0.195804 0.274769
0.276051 0.210513 0.306325
0.42916 0.228397 0.317617
0.565118 0.23917 0.33492
0.691707 0.246418 0.357687
0.797238 0.248463 0.382849
0.877501 0.257053 0.410193
0.936889 0.272145 0.436362
0.0674601 0.264195 0.304738
0.167865 0.290929 0.32462
0.309819 0.322713 0.347005
0.476005 0.342412 0.358495
0.624552 0.359365 0.368963
0.747539 0.376562 0.383124
0.831342 0.398322 0.403738
0.902937 0.421637 0.42594
0.960525 0.441886 0.444892
0.100572 0.384329 0.381872
0.223728 0.424628 0.403372
0.374212 0.463523 0.413291
0.524987 0.495048 0.420661
0.670771 0.523201 0.420188
0.77818 0.550179 0.429068
0.862608 0.570382 0.442618
0.928389 0.58439 0.455436
0.975998 0.593866 0.465278
0.160967 0.527291 0.477913
0.280552 0.577813 0.495064
0.431357 0.623468 0.480522
0.583276 0.649989 0.482628
0.700267 0.666133 0.507134
0.800046 0.684077 0.49868
0.884672 0.696681 0.489784
0.949996 0.703624 0.497551
0.989624 0.711208 0.505287
0.17818 0.654154 0.570871
0.282017 0.710918 0.566567
0.467063 0.744167 0.529076
0.627985 0.758114 0.518853
0.735683 0.771054 0.535607
0.82472 0.782971 0.553918
0.901381 0.796704 0.55584
0.962722 0.807874 0.553338
0.998215 0.815152 0.560922
0.132738 0.745373 0.629984
0.247349 0.803326 0.609873
0.500511 0.824414 0.572076
0.658488 0.839139 0.566629
0.765438 0.853239 0.578286
0.853819 0.866896 0.596582
0.919219 0.87631 0.622019
0.96495 0.883436 0.630701
0.995529 0.890349 0.639429
0.0670024 0.818204 0.680018
0.272663 0.864652 0.654108
0.546685 0.883513 0.631891
0.689036 0.897581 0.633936
0.795544 0.909926 0.641138
0.881376 0.919554 0.650034
0.939925 0.927352 0.666468
0.97763 0.929702 0.690074
0.995392 0.93344 0.711879
0.0644694 0.874846 0.733776
0.350896 0.903365 0.709407
0.590372 0.920897 0.699077
0.72018 0.933455 0.70576
0.824948 0.94258 0.71043
0.905898 0.949691 0.714519
0.956069 0.955886 0.724636
0.987259 0.959106 0.74461
0.998398 0.959991 0.775189
0.0359655 0.138216 0.250568
0.0843671 0.140734 0.305013
0.214252 0.144472 0.344381
0.363714 0.156115 0.359503
0.494301 0.168688 0.374807
0.603983 0.179843 0.398108
0.704097 0.181384 0.436057
0.801419 0.175021 0.478386
0.890532 0.160922 0.51751
0.06215 0.205661 0.322271
0.11931 0.216678 0.387243
0.277516 0.228824 0.424323
0.438025 0.246967 0.434836
0.573373 0.262669 0.455772
0.695552 0.267475 0.488914
0.801541 0.265843 0.522911
0.880873 0.274144 0.552514
0.938277 0.289937 0.577768
0.0735943 0.296071 0.389639
0.177066 0.324285 0.411688
0.305592 0.343679 0.482155
0.47805 0.367071 0.488121
0.628656 0.381781 0.506493
0.747692 0.39585 0.530343
0.831479 0.421057 0.551461
0.901076 0.443229 0.57116
0.956542 0.461326 0.584482
0.112428 0.421302 0.474876
0.234821 0.457038 0.49662
0.391119 0.490623 0.52195
0.531456 0.523018 0.54786
0.670008 0.547906 0.561257
0.773831 0.572106 0.570809
0.855299 0.5906 0.581216
0.92134 0.603281 0.591028
0.969848 0.611048 0.598596
0.170748 0.560311 0.571145
0.30248 0.604837 0.592645
0.457435 0.644739 0.597986
0.580072 0.674556 0.600641
0.697368 0.68925 0.616129
0.793439 0.703792 0.620478
0.877928 0.715373 0.617609
0.943343 0.721874 0.62034
0.984283 0.727367 0.626062
0.191058 0.679927 0.658793
0.308034 0.725795 0.667933
0.459709 0.76141 0.650202
0.614755 0.7776 0.64126
0.72781 0.789929 0.648234
0.822217 0.80528 0.658701
0.897917 0.816388 0.664408
0.955428 0.825513 0.663493
0.991073 0.831769 0.669749
0.145586 0.762295 0.713039
0.264317 0.814603 0.710048
0.482567 0.842435 0.683772
0.645579 0.857328 0.679942
0.755627 0.871672 0.686015
0.847074 0.884459 0.69543
0.916945 0.890639 0.714031
0.961776 0.897856 0.720577
0.989059 0.903243 0.72845
0.0691691 0.833982 0.761883
0.270039 0.878386 0.749538
0.532799 0.898772 0.729961
0.681056 0.911742 0.73138
0.787594 0.922896 0.733928
0.872465 0.932342 0.738476
0.9337 0.938842 0.750347
0.971481 0.942489 0.76939
0.991363 0.94548 0.786816
0.0320439 0.892103 0.813596
0.34313 0.917144 0.793988
0.585092 0.933333 0.784009
0.712642 0.944961 0.786419
0.815976 0.954147 0.790021
0.896025 0.960021 0.796017
0.948898 0.965408 0.804257
0.979858 0.968109 0.820417
0.994446 0.970321 0.842298
0.0366674 0.164233 0.313405
0.0773785 0.158221 0.391165
0.22089 0.156832 0.446891
0.375448 0.171771 0.457847
0.506355 0.184756 0.473762
0.612146 0.200839 0.501015
0.71191 0.200427 0.541665
0.809613 0.188739 0.586847
0.899138 0.170489 0.630182
0.0595254 0.233143 0.392248
0.0982071 0.233036 0.496483
0.28365 0.240879 0.539467
0.4533 0.261189 0.547784
0.585794 0.278691 0.5626
0.697612 0.288624 0.591974
0.806912 0.283284 0.634852
0.884947 0.290929 0.663737
0.942641 0.30518 0.684016
0.0776837 0.325521 0.46424
0.177752 0.350896 0.49514
0.307301 0.362463 0.592859
0.486854 0.381689 0.614801
0.631617 0.401221 0.622889
0.74934 0.414954 0.64921
0.831586 0.439933 0.662425
0.900404 0.460914 0.676295
0.953979 0.478233 0.687907
0.12134 0.451789 0.548196
0.244907 0.48777 0.572351
0.386755 0.521416 0.619791
0.531502 0.547158 0.657908
0.669535 0.570535 0.669322
0.76788 0.589868 0.677653
0.850645 0.606134 0.68513
0.91693 0.6177 0.688548
0.965225 0.626154 0.692622
0.177188 0.58819 0.639429
0.319219 0.630335 0.663661
0.482109 0.664607 0.678431
0.601175 0.687572 0.689998
0.698207 0.706004 0.699428
0.790936 0.719585 0.705104
0.871946 0.728573 0.707805
0.935897 0.736782 0.710292
0.978973 0.741756 0.71487
0.20383 0.700099 0.718166
0.327932 0.741375 0.733455
0.478172 0.772335 0.72781
0.612268 0.791302 0.726146
0.721386 0.805081 0.73109
0.817075 0.819623 0.738598
0.893095 0.830518 0.741024
0.948287 0.837644 0.74493
0.98677 0.844022 0.752483
0.157366 0.777539 0.772061
0.278202 0.826169 0.778744
0.479118 0.854627 0.764218
0.638544 0.869551 0.762066
0.749432 0.883848 0.766903
0.841047 0.89691 0.770718
0.914504 0.903655 0.780606
0.958999 0.909834 0.790722
0.98587 0.914641 0.800931
0.0583963 0.850309 0.824323
0.268284 0.890639 0.822492
0.525307 0.910292 0.806439
0.672023 0.923598 0.806607
0.779461 0.934249 0.809232
0.864378 0.942931 0.813855
0.926741 0.947967 0.823316
0.967041 0.9523 0.836133
0.98854 0.955474 0.847974
0.0157168 0.90753 0.879026
0.339788 0.929915 0.86656
0.579232 0.94403 0.85359
0.707927 0.953384 0.854765
0.808988 0.962661 0.855573
0.889418 0.969146 0.859159
0.942428 0.972869 0.866941
0.975219 0.976181 0.875608
0.990662 0.978439 0.888701
0.030869 0.190555 0.374441
0.0651255 0.175189 0.472801
0.229099 0.168582 0.533867
0.391638 0.179995 0.550072
0.524147 0.194842 0.564569
0.6309 0.210864 0.588373
0.725795 0.212619 0.625345
0.818326 0.200351 0.670146
0.907286 0.178744 0.712352
0.0500038 0.257877 0.457557
0.0704509 0.243427 0.602823
0.292775 0.247181 0.646708
0.473045 0.263096 0.652293
0.6056 0.282887 0.659754
0.709636 0.299748 0.676799
0.81619 0.295354 0.717983
0.889662 0.304387 0.744549
0.945129 0.320455 0.762234
0.0740368 0.351278 0.528435
0.171252 0.375967 0.570916
0.306401 0.38024 0.685435
0.495018 0.396201 0.711788
0.645182 0.414191 0.72105
0.750576 0.435309 0.734478
0.833875 0.457786 0.746822
0.901839 0.477714 0.757
0.953246 0.495262 0.764218
0.125856 0.47805 0.605829
0.247486 0.514443 0.636652
0.372885 0.546304 0.708568
0.53312 0.56875 0.745571
0.669612 0.5879 0.749264
0.766323 0.605371 0.755184
0.847852 0.62092 0.759991
0.912428 0.631083 0.763592
0.960693 0.639094 0.768048
0.188556 0.611383 0.690486
0.324102 0.652964 0.719219
0.461265 0.686809 0.751995
0.588052 0.703746 0.767269
0.693446 0.720531 0.774868
0.786297 0.731304 0.779797
0.865858 0.740459 0.783276
0.929946 0.747967 0.787564
0.973312 0.755215 0.792706
0.217212 0.716991 0.767742
0.339406 0.755734 0.785702
0.485634 0.784237 0.795224
0.610513 0.804929 0.800275
0.715816 0.819013 0.804456
0.811429 0.832761 0.80885
0.888243 0.841779 0.81265
0.942229 0.848676 0.818814
0.980484 0.856229 0.824979
0.166705 0.792233 0.820249
0.292546 0.837049 0.835431
0.488029 0.866102 0.833509
0.633478 0.882307 0.835126
0.743175 0.895674 0.835431
0.835218 0.908019 0.83827
0.908583 0.915389 0.843732
0.955795 0.920195 0.850217
0.98262 0.92578 0.86099
0.0735332 0.861112 0.874617
0.266636 0.902083 0.881834
0.519081 0.921889 0.870893
0.665461 0.933547 0.869963
0.775402 0.944167 0.870939
0.861479 0.952377 0.875593
0.922927 0.957458 0.881712
0.96199 0.961944 0.887877
0.984955 0.964767 0.899199
0.0274968 0.917418 0.930144
0.335134 0.937774 0.915999
0.571054 0.951568 0.906676
0.702449 0.961028 0.907713
0.805051 0.969467 0.909819
0.886488 0.976196 0.911772
0.938857 0.979385 0.915084
0.970504 0.982315 0.92047
0.989273 0.982849 0.925566
0.0174105 0.210407 0.429175
0.0515755 0.189349 0.541665
0.239353 0.175647 0.61355
0.408621 0.184009 0.630304
0.546517 0.198184 0.642741
0.651179 0.211276 0.665644
0.736339 0.22359 0.690929
0.831083 0.206073 0.738674
0.913787 0.187304 0.781964
0.0406653 0.278035 0.511864
0.0392309 0.252964 0.693355
0.304067 0.252293 0.732128
0.490959 0.265599 0.73814
0.628016 0.282185 0.745953
0.733089 0.297475 0.764294
0.826322 0.304616 0.792416
0.895125 0.316274 0.813107
0.947265 0.334035 0.828092
0.0658122 0.37258 0.581445
0.155932 0.396368 0.642863
0.305669 0.399054 0.75964
0.501778 0.413382 0.78349
0.650568 0.430777 0.793515
0.753292 0.454337 0.805814
0.837018 0.474556 0.816175
0.902831 0.49456 0.824964
0.952804 0.509941 0.831052
0.131212 0.499763 0.651041
0.240299 0.540612 0.700099
0.345815 0.568368 0.79678
0.532799 0.588556 0.81445
0.669108 0.604547 0.819669
0.763806 0.620829 0.824475
0.845212 0.632975 0.828763
0.912001 0.64213 0.831418
0.958877 0.649943 0.835904
0.193286 0.633707 0.736812
0.315816 0.675593 0.774334
0.443458 0.703853 0.816556
0.567895 0.721782 0.838209
0.688701 0.733364 0.842496
0.783566 0.743114 0.845609
0.862272 0.751705 0.848615
0.926162 0.758022 0.852216
0.970459 0.765789 0.858122
0.22356 0.732189 0.805524
0.34081 0.770062 0.832258
0.474296 0.798993 0.856718
0.607858 0.816876 0.862654
0.711788 0.831525 0.866331
0.81001 0.844038 0.870405
0.885603 0.851759 0.872892
0.938399 0.85951 0.878019
0.975052 0.868025 0.884031
0.176104 0.803967 0.859266
0.297322 0.848371 0.885008
0.478416 0.877974 0.891859
0.628443 0.894911 0.892821
0.739071 0.908492 0.894606
0.831617 0.917708 0.897246
0.905119 0.923003 0.898466
0.953796 0.929305 0.900587
0.980804 0.933394 0.905486
0.0872969 0.87068 0.917525
0.278279 0.90956 0.929671
0.51313 0.930587 0.921874
0.660471 0.941894 0.920592
0.772992 0.951873 0.919875
0.859037 0.958144 0.921309
0.919463 0.963226 0.92398
0.960266 0.966857 0.92694
0.980926 0.96968 0.934951
0.0363928 0.926223 0.968566
0.333288 0.943053 0.957717
0.566308 0.957259 0.947021
0.70042 0.967224 0.94641
0.804532 0.975021 0.945174
0.883391 0.97966 0.947387
0.935882 0.983963 0.949371
0.967254 0.98706 0.953079
0.983154 0.989151 0.95494
0.00849927 0.226886 0.477699
0.0557107 0.191669 0.619165
0.253239 0.174258 0.691981
0.428916 0.182727 0.708095
0.568139 0.194858 0.72015
0.674342 0.20676 0.741024
0.760952 0.216327 0.766857
0.840375 0.215518 0.799207
0.919203 0.198428 0.840177
0.0239567 0.296544 0.565438
0.0161593 0.265721 0.7673
0.310246 0.260212 0.800122
0.504814 0.268696 0.811231
0.646082 0.28333 0.822049
0.74905 0.299413 0.836591
0.83386 0.315022 0.853422
0.899779 0.330419 0.872099
0.949126 0.348013 0.885847
0.0527504 0.394766 0.62948
0.134539 0.414939 0.712703
0.305959 0.414328 0.829343
0.508385 0.429358 0.848112
0.65687 0.447471 0.855528
0.758389 0.471489 0.865339
0.839368 0.49247 0.875532
0.90399 0.510872 0.883375
0.952193 0.522683 0.887709
0.122316 0.521416 0.698238
0.204944 0.563622 0.769451
0.327291 0.586496 0.867674
0.530861 0.602426 0.875257
0.669367 0.618524 0.87837
0.763775 0.634119 0.883543
0.845182 0.646723 0.888762
0.911467 0.654887 0.892287
0.954574 0.662043 0.896452
0.179355 0.653773 0.783459
0.271183 0.695445 0.835096
0.413916 0.718471 0.881239
0.56321 0.732082 0.897429
0.685405 0.743557 0.899535
0.780041 0.754803 0.902586
0.858595 0.761837 0.905241
0.922271 0.768597 0.90721
0.96614 0.776791 0.91075
0.200687 0.746822 0.845258
0.314122 0.786328 0.883009
0.453422 0.813565 0.913161
0.599924 0.82884 0.915785
0.709209 0.842344 0.917739
0.807294 0.852705 0.919188
0.883406 0.860365 0.920745
0.936233 0.867475 0.923827
0.970962 0.877409 0.927855
0.174273 0.814878 0.892454
0.295171 0.859831 0.923629
0.472602 0.888304 0.936675
0.624811 0.904921 0.935668
0.738643 0.916396 0.936461
0.831632 0.924834 0.938033
0.902449 0.929778 0.942016
0.950347 0.936996 0.943175
0.974884 0.940871 0.944778
0.0829023 0.8804 0.948592
0.276478 0.917433 0.964416
0.51342 0.936294 0.958495
0.660349 0.948745 0.956466
0.773739 0.957809 0.956863
0.859449 0.964324 0.95639
0.917662 0.968765 0.955718
0.95787 0.972717 0.956741
0.979889 0.975128 0.961379
0.0342107 0.93254 0.994766
0.332952 0.949035 0.985748
0.567102 0.962173 0.975845
0.69958 0.972549 0.974014
0.803357 0.978637 0.971633
0.882261 0.984909 0.969375
0.9355 0.986419 0.972076
0.964492 0.989456 0.975357
0.982895 0.991501 0.977676
0.00241093 0.242405 0.525063
0.0599985 0.190173 0.696742
0.271214 0.166964 0.769528
0.448692 0.173327 0.784604
0.5897 0.184695 0.796048
0.700755 0.192203 0.819547
0.789288 0.198596 0.84622
0.864683 0.204578 0.870146
0.924849 0.2094 0.892287
0.00556954 0.311025 0.619745
0.0327001 0.27985 0.814694
0.318593 0.26981 0.858396
0.513848 0.277989 0.870039
0.656764 0.290257 0.882094
0.757992 0.305165 0.896391
0.840726 0.324407 0.90956
0.904433 0.343282 0.921401
0.951247 0.360357 0.931975
0.0349889 0.41323 0.674983
0.100893 0.430106 0.783352
0.307637 0.429603 0.891783
0.514061 0.443351 0.901961
0.658946 0.462776 0.910307
0.759609 0.486854 0.918624
0.840543 0.507973 0.926299
0.903899 0.524529 0.929824
0.94876 0.53341 0.933501
0.102831 0.54374 0.74548
0.156603 0.585458 0.837842
0.321309 0.60209 0.924178
0.529778 0.614771 0.927993
0.667506 0.630564 0.927871
0.762402 0.646967 0.931731
0.841474 0.659449 0.934371
0.908049 0.665797 0.936431
0.952529 0.670283 0.938598
0.132692 0.672831 0.829465
0.202808 0.713985 0.89546
0.387259 0.730877 0.93547
0.558785 0.742245 0.941314
0.6822 0.752621 0.942641
0.778668 0.762676 0.944457
0.859083 0.771527 0.946151
0.920684 0.778607 0.948074
0.962112 0.786877 0.951797
0.138003 0.762142 0.886229
0.234485 0.803983 0.937255
0.427329 0.825071 0.959411
0.593805 0.837308 0.956771
0.70808 0.851225 0.95848
0.805966 0.860761 0.957488
0.883482 0.868254 0.957671
0.934661 0.875959 0.957641
0.970489 0.883177 0.958267
0.145373 0.827314 0.925658
0.269749 0.872724 0.960769
0.462791 0.89781 0.973037
0.623072 0.911894 0.968399
0.739071 0.921904 0.967956
0.832654 0.929717 0.96553
0.899992 0.93611 0.967208
0.947173 0.939605 0.967681
0.974029 0.94609 0.972183
0.084062 0.887999 0.973495
0.279637 0.924636 0.989776
0.517708 0.942031 0.983627
0.661036 0.953536 0.980667
0.773831 0.962386 0.979644
0.860929 0.968154 0.979431
0.918547 0.972564 0.979095
0.953994 0.975143 0.978836
0.978286 0.979065 0.981414
0.0438697 0.935531 0.999725
0.344076 0.953353 0.999512
0.571389 0.965988 0.995392
0.703777 0.974594 0.992218
0.804425 0.98323 0.989502
0.882704 0.985656 0.986877
0.933928 0.989013 0.987625
0.965576 0.991226 0.987732
0.981857 0.993164 0.989105
