LUT预设1/LUT全系打包/胶片lut系列/709胶片系列（正常色彩素材用这个）/3513蓝709.cube
TITLE "Generated by Resolve"
LUT_3D_SIZE 5
0.0331273 0.0855421 0.0849012
0.193774 0.108385 0.0780041
0.440314 0.136004 0.0737316
0.647883 0.149783 0.0820783
0.833631 0.14197 0.0878309
0.0562448 0.211139 0.148608
0.293523 0.275792 0.112551
0.57348 0.320562 0.118059
0.783291 0.363546 0.114763
0.951202 0.398795 0.0948501
0.128191 0.457603 0.260853
0.434623 0.559426 0.192676
0.694148 0.606119 0.212848
0.86186 0.644358 0.202258
0.997421 0.661952 0.137881
0.0990616 0.702525 0.337179
0.555947 0.766125 0.231983
0.792142 0.797086 0.254276
0.9355 0.823209 0.298299
0.999939 0.845563 0.322103
0.121752 0.831266 0.439704
0.635203 0.878584 0.38114
0.861906 0.906249 0.406851
0.982986 0.919951 0.442557
1 0.926268 0.538491
0.0320134 0.114809 0.1879
0.209308 0.130846 0.241108
0.477317 0.155825 0.2636
0.693843 0.166155 0.312428
0.87895 0.152224 0.379995
0.0674601 0.264195 0.304738
0.309819 0.322713 0.347005
0.624552 0.359365 0.368963
0.831342 0.398322 0.403738
0.960525 0.441886 0.444892
0.160967 0.527291 0.477913
0.431357 0.623468 0.480522
0.700267 0.666133 0.507134
0.884672 0.696681 0.489784
0.989624 0.711208 0.505287
0.132738 0.745373 0.629984
0.500511 0.824414 0.572076
0.765438 0.853239 0.578286
0.919219 0.87631 0.622019
0.995529 0.890349 0.639429
0.0644694 0.874846 0.733776
0.590372 0.920897 0.699077
0.824948 0.94258 0.71043
0.956069 0.955886 0.724636
0.998398 0.959991 0.775189
0.0366674 0.164233 0.313405
0.22089 0.156832 0.446891
0.506355 0.184756 0.473762
0.71191 0.200427 0.541665
0.899138 0.170489 0.630182
0.0776837 0.325521 0.46424
0.307301 0.362463 0.592859
0.631617 0.401221 0.622889
0.831586 0.439933 0.662425
0.953979 0.478233 0.687907
0.177188 0.58819 0.639429
0.482109 0.664607 0.678431
0.698207 0.706004 0.699428
0.871946 0.728573 0.707805
0.978973 0.741756 0.71487
0.157366 0.777539 0.772061
0.479118 0.854627 0.764218
0.749432 0.883848 0.766903
0.914504 0.903655 0.780606
0.98587 0.914641 0.800931
0.0157168 0.90753 0.879026
0.579232 0.94403 0.85359
0.808988 0.962661 0.855573
0.942428 0.972869 0.866941
0.990662 0.978439 0.888701
0.0174105 0.210407 0.429175
0.239353 0.175647 0.61355
0.546517 0.198184 0.642741
0.736339 0.22359 0.690929
0.913787 0.187304 0.781964
0.0658122 0.37258 0.581445
0.305669 0.399054 0.75964
0.650568 0.430777 0.793515
0.837018 0.474556 0.816175
0.952804 0.509941 0.831052
0.193286 0.633707 0.736812
0.443458 0.703853 0.816556
0.688701 0.733364 0.842496
0.862272 0.751705 0.848615
0.970459 0.765789 0.858122
0.176104 0.803967 0.859266
0.478416 0.877974 0.891859
0.739071 0.908492 0.894606
0.905119 0.923003 0.898466
0.980804 0.933394 0.905486
0.0363928 0.926223 0.968566
0.566308 0.957259 0.947021
0.804532 0.975021 0.945174
0.935882 0.983963 0.949371
0.983154 0.989151 0.95494
0.00241093 0.242405 0.525063
0.271214 0.166964 0.769528
0.5897 0.184695 0.796048
0.789288 0.198596 0.84622
0.924849 0.2094 0.892287
0.0349889 0.41323 0.674983
0.307637 0.429603 0.891783
0.658946 0.462776 0.910307
0.840543 0.507973 0.926299
0.94876 0.53341 0.933501
0.132692 0.672831 0.829465
0.387259 0.730877 0.93547
0.6822 0.752621 0.942641
0.859083 0.771527 0.946151
0.962112 0.786877 0.951797
0.145373 0.827314 0.925658
0.462791 0.89781 0.973037
0.739071 0.921904 0.967956
0.899992 0.93611 0.967208
0.974029 0.94609 0.972183
0.0438697 0.935531 0.999725
0.571389 0.965988 0.995392
0.804425 0.98323 0.989502
0.933928 0.989013 0.987625
0.981857 0.993164 0.989105
