LUT预设1/LUT全系打包/胶片lut系列/709胶片系列（正常色彩素材用这个）/light青709.cube
TITLE "Generated by Resolve"
LUT_3D_SIZE 9
0.0949111 0.0751354 0.061387
0.109743 0.0758068 0.0631571
0.135943 0.0754864 0.0636301
0.180362 0.073518 0.0612497
0.263096 0.0691081 0.0562905
0.373449 0.0641489 0.050782
0.50428 0.0588693 0.0442512
0.632731 0.0600595 0.0383307
0.745037 0.065156 0.0344396
0.0971542 0.0962387 0.0682383
0.114855 0.0989853 0.0720684
0.14844 0.0996567 0.0730297
0.20415 0.100893 0.0656138
0.29099 0.102296 0.0574197
0.411856 0.101381 0.0491188
0.552605 0.0983291 0.0398566
0.688045 0.101701 0.0320745
0.800778 0.112825 0.0239261
0.107591 0.13077 0.0833753
0.12604 0.138689 0.086305
0.162905 0.146624 0.0890516
0.234989 0.15552 0.0782635
0.339956 0.170092 0.066453
0.474434 0.187961 0.0551919
0.623819 0.202457 0.0456397
0.75465 0.21471 0.0395819
0.864469 0.224048 0.0332189
0.113893 0.195468 0.0948653
0.138384 0.210681 0.0978561
0.186221 0.228534 0.0994888
0.270878 0.250294 0.0962081
0.398215 0.281895 0.0852674
0.553597 0.320912 0.0720989
0.709468 0.353506 0.0607309
0.840085 0.375723 0.0507515
0.944656 0.390845 0.0486152
0.122591 0.303395 0.110979
0.152224 0.32781 0.114549
0.212818 0.360265 0.116762
0.324651 0.39855 0.115404
0.473762 0.441764 0.114092
0.645518 0.49456 0.105989
0.800397 0.536431 0.0924086
0.922728 0.564279 0.0889906
0.999207 0.578637 0.100511
0.142519 0.457328 0.13753
0.185657 0.496452 0.141314
0.25803 0.54023 0.148058
0.393561 0.585306 0.154116
0.57026 0.636423 0.157015
0.737423 0.68896 0.15874
0.872251 0.72221 0.17261
0.964858 0.733547 0.191501
1 0.737362 0.20531
0.176577 0.623392 0.19118
0.230701 0.662486 0.204547
0.317861 0.70692 0.216541
0.476875 0.763348 0.213458
0.657023 0.809949 0.233341
0.80029 0.843183 0.26836
0.917388 0.864454 0.298161
0.998856 0.877058 0.312276
1 0.878767 0.31899
0.229099 0.765225 0.262394
0.283528 0.798733 0.290562
0.386007 0.840391 0.314672
0.558053 0.888533 0.327779
0.725017 0.928664 0.350683
0.849287 0.9579 0.381231
0.95256 0.975647 0.407782
0.999237 0.981842 0.427619
1 0.984726 0.440543
0.284947 0.878874 0.349691
0.350393 0.910918 0.384283
0.466087 0.945342 0.417166
0.646815 0.982849 0.433539
0.776974 0.997009 0.456489
0.886076 0.999985 0.482765
0.978683 1 0.509377
1 1 0.535256
1 1 0.551904
0.0936751 0.0774701 0.0704814
0.110964 0.077409 0.0764935
0.133516 0.0784772 0.0773785
0.182528 0.0755322 0.08159
0.269566 0.0692149 0.0830243
0.384924 0.0619211 0.0839857
0.519493 0.0565194 0.0856489
0.647105 0.0570535 0.0834363
0.758556 0.060914 0.0813306
0.0913558 0.0995804 0.0757305
0.110414 0.101305 0.0846113
0.147814 0.101122 0.0902724
0.206058 0.101137 0.0888075
0.298405 0.0987869 0.0866407
0.424567 0.0916915 0.0818952
0.566293 0.0845808 0.0750134
0.698772 0.0903792 0.0711223
0.809949 0.0998398 0.0713054
0.102358 0.13521 0.100038
0.121172 0.142672 0.105165
0.162524 0.149996 0.114122
0.23827 0.155962 0.105577
0.34696 0.165637 0.0955062
0.485695 0.176135 0.0885634
0.637095 0.18468 0.0842145
0.764553 0.195148 0.0819104
0.871733 0.206165 0.0796368
0.113771 0.202396 0.124483
0.136797 0.217182 0.127764
0.183917 0.235172 0.135302
0.273579 0.255756 0.135302
0.40972 0.282612 0.124926
0.568917 0.314382 0.113939
0.723674 0.343099 0.107836
0.850034 0.364904 0.107515
0.94992 0.380941 0.114763
0.12224 0.312825 0.151873
0.151125 0.337179 0.156527
0.211185 0.370123 0.164401
0.325948 0.408988 0.16965
0.486046 0.452262 0.170687
0.659098 0.500923 0.16466
0.811627 0.541329 0.159701
0.928603 0.563684 0.171572
0.999924 0.57435 0.197238
0.142931 0.471824 0.19881
0.181964 0.507103 0.206973
0.248615 0.548959 0.223026
0.390463 0.597513 0.23122
0.575921 0.651255 0.234455
0.743221 0.699962 0.250431
0.87245 0.724361 0.275639
0.966827 0.73547 0.291615
1 0.741009 0.304295
0.179278 0.641474 0.264942
0.229938 0.675883 0.280339
0.31603 0.718013 0.303792
0.475944 0.766979 0.320851
0.659907 0.815 0.342061
0.803906 0.848615 0.373388
0.920378 0.872755 0.397131
1 0.885512 0.411994
1 0.886854 0.421958
0.235248 0.783215 0.341878
0.289204 0.815091 0.372778
0.396048 0.853132 0.406119
0.570718 0.896895 0.430884
0.732097 0.936278 0.456611
0.853635 0.96524 0.483223
0.954833 0.981033 0.508827
0.998367 0.986038 0.529671
1 0.989258 0.543084
0.293248 0.897734 0.434211
0.367193 0.929198 0.476219
0.499962 0.96199 0.510826
0.669352 0.988724 0.53138
0.789181 0.998642 0.558129
0.892607 1 0.585153
0.97789 1 0.608927
1 1 0.631159
1 1 0.646723
0.0928359 0.0803998 0.0835431
0.111437 0.0805829 0.0934005
0.133608 0.0804456 0.0993362
0.176394 0.0812085 0.104173
0.271626 0.0724498 0.120256
0.392828 0.0633555 0.134127
0.531655 0.05626 0.143511
0.660243 0.0558328 0.145388
0.770947 0.0564431 0.143893
0.0848402 0.104021 0.0859693
0.108858 0.105287 0.102296
0.144427 0.10634 0.115816
0.20441 0.105959 0.124163
0.3037 0.101717 0.133822
0.439353 0.0892042 0.141085
0.584314 0.0810559 0.144823
0.714946 0.085481 0.146105
0.822126 0.0929274 0.145724
0.0920577 0.143175 0.11574
0.111147 0.151171 0.126604
0.153689 0.157885 0.13901
0.238682 0.160021 0.149569
0.353506 0.165286 0.153796
0.499321 0.167346 0.155001
0.650233 0.167178 0.155169
0.773922 0.175921 0.156558
0.878264 0.190997 0.159579
0.108049 0.214008 0.166415
0.131121 0.229038 0.174594
0.176486 0.246921 0.186801
0.272404 0.263905 0.194034
0.416922 0.284901 0.192218
0.580591 0.308507 0.187304
0.732906 0.332189 0.192126
0.852674 0.353124 0.20206
0.947341 0.371939 0.220386
0.122148 0.328374 0.214801
0.151095 0.351553 0.224475
0.207752 0.38204 0.238895
0.321813 0.418647 0.251804
0.495262 0.462028 0.258549
0.670115 0.509102 0.259159
0.814664 0.541802 0.26862
0.926863 0.560067 0.290318
0.998627 0.571527 0.314168
0.144549 0.491218 0.279423
0.181827 0.523308 0.291508
0.245319 0.562112 0.310842
0.38616 0.606744 0.330449
0.580331 0.66009 0.34609
0.748196 0.705989 0.368566
0.87422 0.728664 0.388464
0.969894 0.740993 0.402548
1 0.748135 0.417472
0.185306 0.662776 0.352728
0.235401 0.695537 0.372686
0.320424 0.733989 0.402258
0.480568 0.775631 0.435828
0.664973 0.819043 0.459327
0.808911 0.856291 0.483665
0.922148 0.882445 0.504784
0.999817 0.894942 0.521492
1 0.896086 0.53434
0.242924 0.803616 0.433951
0.300572 0.835248 0.46804
0.418265 0.870481 0.507759
0.595865 0.909377 0.538384
0.74287 0.943938 0.565118
0.859495 0.970794 0.589334
0.956283 0.985199 0.613214
0.997497 0.989883 0.632929
1 0.993652 0.645533
0.304372 0.917693 0.527687
0.390066 0.948226 0.57055
0.548058 0.977768 0.60766
0.697841 0.993851 0.631281
0.806745 0.999512 0.660563
0.90222 1 0.686137
0.97879 1 0.704311
1 1 0.721767
1 1 0.735256
0.0898146 0.0853895 0.100008
0.110414 0.0853742 0.113466
0.136385 0.0830701 0.130495
0.175311 0.0848554 0.135912
0.257099 0.0813764 0.15848
0.383871 0.0708019 0.187732
0.532341 0.0584268 0.20972
0.668742 0.0567941 0.219196
0.780728 0.0560311 0.219577
0.0775464 0.111055 0.101076
0.102708 0.114626 0.124529
0.144442 0.113802 0.152178
0.200595 0.113924 0.168643
0.298009 0.111254 0.189166
0.441291 0.0955825 0.214237
0.594629 0.0860914 0.230533
0.726879 0.0869306 0.236469
0.833509 0.0946059 0.240787
0.0780041 0.156268 0.13225
0.0960861 0.165179 0.141924
0.145724 0.173022 0.169512
0.235065 0.17319 0.208194
0.353017 0.176318 0.228397
0.505806 0.172107 0.246479
0.661479 0.163195 0.255665
0.785702 0.172854 0.266056
0.886885 0.190356 0.277455
0.0924086 0.232258 0.208042
0.116075 0.24773 0.220813
0.162295 0.265675 0.238132
0.264088 0.279377 0.262791
0.416724 0.294942 0.283284
0.586999 0.311818 0.296208
0.738048 0.327733 0.311604
0.85304 0.346822 0.330678
0.944717 0.367041 0.352697
0.113832 0.348424 0.289769
0.143633 0.372152 0.306279
0.201038 0.401373 0.325292
0.315785 0.43444 0.348287
0.490806 0.472557 0.368322
0.673655 0.513436 0.383627
0.81355 0.53994 0.401602
0.924681 0.557214 0.420432
0.995987 0.571344 0.439841
0.146227 0.513085 0.369711
0.185519 0.545235 0.388907
0.252232 0.582361 0.412573
0.391913 0.621958 0.444877
0.584955 0.667445 0.470237
0.752834 0.711345 0.491966
0.876707 0.734295 0.507485
0.972396 0.748455 0.523232
0.999908 0.757916 0.542428
0.192554 0.684886 0.450446
0.244648 0.718502 0.476631
0.334585 0.755459 0.51133
0.501488 0.791531 0.548287
0.675029 0.827329 0.573785
0.814908 0.864775 0.596857
0.923552 0.891722 0.616983
0.997177 0.904723 0.632883
1 0.906828 0.647776
0.251911 0.824765 0.534691
0.316518 0.857176 0.571618
0.451942 0.891539 0.611704
0.6262 0.925261 0.642588
0.758846 0.95346 0.670634
0.867857 0.975235 0.692393
0.959152 0.988479 0.711849
0.997803 0.993179 0.728252
1 0.997467 0.739132
0.31693 0.93695 0.619913
0.41387 0.966339 0.660166
0.588586 0.988632 0.700023
0.725307 0.998016 0.72874
0.826429 0.999969 0.753277
0.914763 1 0.773709
0.982528 1 0.788464
1 1 0.802808
1 1 0.815808
0.081651 0.0932021 0.122271
0.103761 0.0926375 0.141817
0.135592 0.0889296 0.167025
0.177905 0.0869917 0.18706
0.243015 0.088838 0.201862
0.352224 0.0843824 0.232166
0.510765 0.06804 0.274083
0.662226 0.0614328 0.301793
0.780652 0.0637827 0.31281
0.0656748 0.124163 0.123384
0.0895552 0.128344 0.152605
0.137987 0.126009 0.1935
0.200183 0.121172 0.22591
0.284932 0.121248 0.246006
0.414252 0.110826 0.276661
0.576623 0.0967727 0.315221
0.724712 0.0991073 0.339696
0.83595 0.105623 0.353002
0.0626383 0.175494 0.148974
0.0822156 0.185534 0.162692
0.136065 0.193591 0.211505
0.227375 0.191897 0.267063
0.342855 0.192523 0.30518
0.491951 0.190494 0.336034
0.658381 0.180407 0.368688
0.787991 0.187472 0.390234
0.891691 0.200137 0.408652
0.0707103 0.257465 0.242939
0.0963302 0.272938 0.257221
0.146654 0.291188 0.281941
0.25684 0.305074 0.327413
0.408881 0.317403 0.372503
0.583505 0.330922 0.414694
0.739178 0.339849 0.443519
0.85864 0.352987 0.465675
0.952529 0.374075 0.486076
0.0932021 0.376989 0.36408
0.126375 0.401144 0.383749
0.189929 0.429816 0.409232
0.306767 0.461128 0.439765
0.480354 0.493202 0.469795
0.670253 0.522683 0.51017
0.814481 0.544518 0.533165
0.922957 0.560204 0.550408
0.991485 0.577127 0.568765
0.143099 0.541833 0.468254
0.184466 0.573159 0.495735
0.261616 0.611643 0.528817
0.40856 0.64892 0.562066
0.591913 0.68127 0.590127
0.757763 0.719158 0.615228
0.875654 0.74052 0.629755
0.971099 0.756725 0.644007
0.999557 0.769284 0.660975
0.197574 0.70898 0.55407
0.253269 0.742245 0.584451
0.353918 0.778241 0.620203
0.530861 0.811597 0.654887
0.692821 0.840665 0.680415
0.822751 0.87245 0.702815
0.925734 0.899001 0.720653
0.993591 0.911833 0.733776
1 0.917617 0.747539
0.260273 0.845838 0.635081
0.333379 0.877409 0.668986
0.481224 0.911604 0.706416
0.651133 0.940749 0.73489
0.777493 0.961196 0.758953
0.878035 0.978378 0.781338
0.96286 0.990112 0.798932
0.998734 0.995514 0.813458
1 1 0.822507
0.329412 0.954665 0.709484
0.433158 0.979736 0.746059
0.610956 0.995544 0.780072
0.742535 0.999741 0.806043
0.844099 1 0.829587
0.926787 1 0.848798
0.986419 1 0.863767
1 1 0.878294
1 1 0.889372
0.0654002 0.106355 0.149218
0.0890059 0.105592 0.17554
0.131518 0.100099 0.211856
0.184833 0.0920882 0.245975
0.243351 0.0932021 0.263264
0.327291 0.0977798 0.277058
0.468177 0.0889296 0.325078
0.627665 0.0809339 0.375753
0.763775 0.0813458 0.407797
0.0503243 0.143313 0.151019
0.0736095 0.148058 0.186831
0.128954 0.142916 0.240436
0.206134 0.130068 0.295064
0.284993 0.127138 0.317113
0.383047 0.127932 0.333989
0.529885 0.12488 0.379889
0.695415 0.124041 0.433631
0.819867 0.124437 0.463996
0.048188 0.200366 0.173632
0.0697032 0.212146 0.197498
0.12932 0.216114 0.264118
0.232059 0.208316 0.341848
0.340215 0.205493 0.391257
0.461753 0.214511 0.409064
0.624186 0.214191 0.457191
0.771405 0.216388 0.50248
0.886946 0.222293 0.532021
0.0500496 0.288167 0.271992
0.0780957 0.304128 0.288396
0.137972 0.322179 0.318654
0.25951 0.335561 0.391318
0.411215 0.343786 0.465064
0.555169 0.365896 0.500847
0.725582 0.372305 0.561593
0.856931 0.378119 0.589624
0.955612 0.394415 0.607019
0.0686809 0.413886 0.42742
0.106401 0.437797 0.448096
0.177096 0.465721 0.470451
0.305165 0.497704 0.495308
0.489128 0.530465 0.563104
0.669825 0.550225 0.616663
0.809705 0.567391 0.64715
0.923812 0.580484 0.669078
0.992432 0.590524 0.680461
0.121096 0.582284 0.577722
0.164431 0.612863 0.605447
0.260609 0.646708 0.63357
0.422354 0.679667 0.656947
0.608377 0.708385 0.693736
0.762554 0.732647 0.715267
0.874464 0.752392 0.728634
0.968139 0.770092 0.744778
1 0.784604 0.759182
0.191028 0.739391 0.659922
0.252171 0.772061 0.691737
0.367285 0.80444 0.723323
0.551736 0.834699 0.74966
0.708293 0.860044 0.771023
0.831128 0.884886 0.793988
0.92723 0.906706 0.810422
0.990372 0.92079 0.822736
1 0.93051 0.834012
0.264866 0.868666 0.731151
0.348623 0.898421 0.760967
0.50515 0.931029 0.792905
0.668544 0.957183 0.818433
0.790753 0.972168 0.839765
0.886107 0.984192 0.859144
0.967086 0.99292 0.875944
1 0.997772 0.889158
1 1 0.897429
0.342275 0.970459 0.793256
0.452949 0.98938 0.823514
0.627176 0.999222 0.851713
0.753063 1 0.874891
0.854841 1 0.896986
0.935882 1 0.914702
0.991089 1 0.929686
1 1 0.942397
1 1 0.951202
0.0480964 0.124727 0.180499
0.0714122 0.123491 0.216709
0.128969 0.112551 0.266926
0.196185 0.100328 0.310384
0.259007 0.0965896 0.337255
0.327611 0.104845 0.343587
0.426703 0.11284 0.366873
0.573037 0.111452 0.425452
0.726589 0.10782 0.482216
0.0404059 0.167193 0.185489
0.0592813 0.169436 0.231205
0.128069 0.158251 0.303212
0.221805 0.142046 0.365988
0.303243 0.131807 0.402884
0.378119 0.137362 0.403769
0.476326 0.156893 0.419654
0.64065 0.156725 0.491234
0.785351 0.154864 0.543893
0.0384222 0.230518 0.206912
0.0553597 0.241184 0.244511
0.130098 0.236942 0.33254
0.247868 0.226658 0.426261
0.364553 0.21622 0.486152
0.457984 0.226261 0.492607
0.582315 0.24712 0.51429
0.723384 0.257176 0.571771
0.852476 0.264714 0.620386
0.0366979 0.321813 0.297368
0.0654765 0.339696 0.317891
0.137499 0.357275 0.371847
0.273884 0.368963 0.469749
0.43595 0.374502 0.559167
0.560037 0.386511 0.582055
0.686168 0.411963 0.621988
0.823529 0.422644 0.669886
0.936446 0.433326 0.700877
0.0521859 0.453086 0.470909
0.0941787 0.477882 0.490623
0.181537 0.507393 0.508049
0.331136 0.541131 0.548211
0.525383 0.566964 0.638972
0.682872 0.585245 0.690517
0.793652 0.603693 0.721767
0.909117 0.615946 0.758801
0.987457 0.625391 0.778302
0.0990921 0.620706 0.662852
0.150439 0.646387 0.681941
0.266331 0.676432 0.695521
0.43798 0.707012 0.712261
0.624582 0.735576 0.739239
0.778073 0.759289 0.784054
0.87335 0.777447 0.809567
0.963058 0.792432 0.830152
1 0.805905 0.846708
0.172992 0.771878 0.759319
0.240833 0.801129 0.786084
0.374319 0.829313 0.80737
0.561044 0.857328 0.825483
0.716289 0.881636 0.844938
0.834607 0.902602 0.867185
0.92607 0.919081 0.885801
0.987839 0.93164 0.895979
1 0.942138 0.905013
0.261265 0.894759 0.821317
0.357214 0.921859 0.846677
0.521019 0.95227 0.875013
0.676768 0.973037 0.895979
0.794369 0.983001 0.9131
0.888685 0.990219 0.927733
0.970108 0.99585 0.941436
1 0.999603 0.951385
1 1 0.957595
0.350271 0.985443 0.870466
0.474434 0.997192 0.895872
0.640696 1 0.918334
0.761837 1 0.938811
0.861997 1 0.956405
0.94342 1 0.97023
0.994965 1 0.980179
1 1 0.987243
1 1 0.991684
0.0401923 0.144305 0.22208
0.0588235 0.139406 0.270954
0.133776 0.123003 0.334554
0.21268 0.110018 0.381964
0.283101 0.100816 0.422095
0.349874 0.104005 0.430533
0.419562 0.119799 0.425605
0.530709 0.133593 0.461128
0.668849 0.138491 0.520943
0.0381628 0.191287 0.228397
0.0523384 0.187304 0.290013
0.139849 0.168093 0.386313
0.245518 0.154253 0.449439
0.329549 0.141085 0.48925
0.403876 0.140276 0.495918
0.477073 0.160937 0.480522
0.599756 0.180163 0.525673
0.727047 0.187961 0.582437
0.0363012 0.263478 0.24683
0.0490578 0.269657 0.304173
0.135515 0.258762 0.414084
0.27126 0.250401 0.514534
0.399985 0.243793 0.576776
0.484947 0.248051 0.575219
0.573495 0.269017 0.571542
0.682979 0.292821 0.612985
0.803632 0.308003 0.666056
0.0354162 0.358785 0.32784
0.0564279 0.378759 0.356741
0.144594 0.396002 0.437079
0.298497 0.407065 0.54728
0.473014 0.412848 0.644526
0.598016 0.421012 0.673838
0.682307 0.442054 0.676524
0.788693 0.459327 0.715251
0.897932 0.474907 0.757275
0.0440986 0.489418 0.499413
0.0925002 0.516594 0.519005
0.205859 0.548623 0.540124
0.370336 0.582788 0.608927
0.568261 0.604364 0.708431
0.708934 0.620584 0.756298
0.785718 0.635431 0.775647
0.881834 0.650111 0.811856
0.971267 0.664012 0.843595
0.0838788 0.644724 0.704387
0.154528 0.67158 0.718196
0.290745 0.70248 0.725673
0.465248 0.733898 0.740032
0.647547 0.764797 0.770855
0.792691 0.788174 0.840345
0.872419 0.804868 0.86566
0.951171 0.817685 0.890013
1 0.831403 0.91371
0.157794 0.795163 0.833341
0.24445 0.820035 0.848707
0.395544 0.847745 0.86215
0.571984 0.876036 0.875685
0.720165 0.900282 0.890394
0.834058 0.92285 0.914626
0.925002 0.93637 0.934722
0.987228 0.94609 0.950042
1 0.955123 0.96173
0.252934 0.918044 0.90071
0.3608 0.944045 0.92369
0.528756 0.969162 0.945754
0.676585 0.9823 0.958556
0.79411 0.989715 0.968856
0.890028 0.995407 0.978637
0.972747 0.998749 0.990524
1 1 0.997971
1 1 0.995407
0.353994 0.997192 0.944198
0.493431 1 0.964279
0.648997 1 0.980957
0.77052 1 0.994217
0.869169 1 1
0.949752 1 1
0.99678 1 1
1 1 1
1 1 1
0.0382544 0.160327 0.276265
0.0589303 0.149783 0.341421
0.145815 0.130907 0.415183
0.233875 0.119692 0.461723
0.308568 0.109514 0.502831
0.376669 0.106355 0.516487
0.438849 0.119677 0.500786
0.522271 0.143481 0.506447
0.631251 0.161685 0.552773
0.0381323 0.215015 0.284367
0.0520333 0.20209 0.368368
0.153841 0.179477 0.47686
0.27042 0.1673 0.53637
0.361028 0.159167 0.573129
0.438087 0.154803 0.585611
0.500557 0.172641 0.552438
0.590051 0.195087 0.56968
0.692348 0.214008 0.614908
0.0357366 0.29752 0.295506
0.0493477 0.298833 0.370443
0.14287 0.286915 0.491539
0.298558 0.280919 0.595972
0.436667 0.278889 0.656687
0.524132 0.283619 0.657099
0.591546 0.295857 0.636042
0.672923 0.318135 0.65481
0.771725 0.339025 0.698085
0.0350347 0.39707 0.365774
0.0529641 0.419059 0.402884
0.161624 0.436759 0.500542
0.330922 0.447272 0.621118
0.515328 0.453498 0.723781
0.638193 0.463279 0.748974
0.69987 0.474098 0.735485
0.773724 0.487816 0.754177
0.861082 0.508782 0.790021
0.0424506 0.525826 0.524514
0.107546 0.555505 0.544701
0.241505 0.591791 0.577142
0.410513 0.62237 0.667185
0.608576 0.639704 0.773999
0.742916 0.656046 0.824384
0.802136 0.664042 0.830045
0.867506 0.676326 0.848905
0.94934 0.694057 0.879728
0.0761425 0.667536 0.725719
0.176577 0.69691 0.733532
0.329793 0.728817 0.738918
0.499046 0.763622 0.755993
0.673106 0.796109 0.816129
0.802182 0.818021 0.884474
0.878447 0.830686 0.909682
0.942809 0.838651 0.929122
0.996536 0.854246 0.952132
0.153613 0.807599 0.87245
0.261601 0.832181 0.881682
0.423178 0.861448 0.889433
0.588449 0.89044 0.898283
0.728283 0.916915 0.91371
0.836606 0.941451 0.936538
0.927962 0.955413 0.964126
0.988281 0.961563 0.984237
1 0.968078 0.994965
0.245167 0.931304 0.960189
0.367819 0.956252 0.980652
0.536278 0.97438 0.990478
0.678065 0.98555 0.992309
0.79443 0.99321 0.991608
0.891844 0.998764 0.995514
0.977935 1 0.999832
1 1 1
1 1 1
0.354665 0.999924 0.992538
0.505592 1 0.997467
0.650111 1 0.999603
0.772839 1 1
0.870512 1 1
0.952483 1 1
0.997299 1 1
1 1 1
1 1 1
