LUT预设1/LUT全系打包/胶片lut系列/709胶片系列（正常色彩素材用这个）/light青709.cube
TITLE "Generated by Resolve"
LUT_3D_SIZE 5
0.0949111 0.0751354 0.061387
0.135943 0.0754864 0.0636301
0.263096 0.0691081 0.0562905
0.50428 0.0588693 0.0442512
0.745037 0.065156 0.0344396
0.107591 0.13077 0.0833753
0.162905 0.146624 0.0890516
0.339956 0.170092 0.066453
0.623819 0.202457 0.0456397
0.864469 0.224048 0.0332189
0.122591 0.303395 0.110979
0.212818 0.360265 0.116762
0.473762 0.441764 0.114092
0.800397 0.536431 0.0924086
0.999207 0.578637 0.100511
0.176577 0.623392 0.19118
0.317861 0.70692 0.216541
0.657023 0.809949 0.233341
0.917388 0.864454 0.298161
1 0.878767 0.31899
0.284947 0.878874 0.349691
0.466087 0.945342 0.417166
0.776974 0.997009 0.456489
0.978683 1 0.509377
1 1 0.551904
0.0928359 0.0803998 0.0835431
0.133608 0.0804456 0.0993362
0.271626 0.0724498 0.120256
0.531655 0.05626 0.143511
0.770947 0.0564431 0.143893
0.0920577 0.143175 0.11574
0.153689 0.157885 0.13901
0.353506 0.165286 0.153796
0.650233 0.167178 0.155169
0.878264 0.190997 0.159579
0.122148 0.328374 0.214801
0.207752 0.38204 0.238895
0.495262 0.462028 0.258549
0.814664 0.541802 0.26862
0.998627 0.571527 0.314168
0.185306 0.662776 0.352728
0.320424 0.733989 0.402258
0.664973 0.819043 0.459327
0.922148 0.882445 0.504784
1 0.896086 0.53434
0.304372 0.917693 0.527687
0.548058 0.977768 0.60766
0.806745 0.999512 0.660563
0.97879 1 0.704311
1 1 0.735256
0.081651 0.0932021 0.122271
0.135592 0.0889296 0.167025
0.243015 0.088838 0.201862
0.510765 0.06804 0.274083
0.780652 0.0637827 0.31281
0.0626383 0.175494 0.148974
0.136065 0.193591 0.211505
0.342855 0.192523 0.30518
0.658381 0.180407 0.368688
0.891691 0.200137 0.408652
0.0932021 0.376989 0.36408
0.189929 0.429816 0.409232
0.480354 0.493202 0.469795
0.814481 0.544518 0.533165
0.991485 0.577127 0.568765
0.197574 0.70898 0.55407
0.353918 0.778241 0.620203
0.692821 0.840665 0.680415
0.925734 0.899001 0.720653
1 0.917617 0.747539
0.329412 0.954665 0.709484
0.610956 0.995544 0.780072
0.844099 1 0.829587
0.986419 1 0.863767
1 1 0.889372
0.0480964 0.124727 0.180499
0.128969 0.112551 0.266926
0.259007 0.0965896 0.337255
0.426703 0.11284 0.366873
0.726589 0.10782 0.482216
0.0384222 0.230518 0.206912
0.130098 0.236942 0.33254
0.364553 0.21622 0.486152
0.582315 0.24712 0.51429
0.852476 0.264714 0.620386
0.0521859 0.453086 0.470909
0.181537 0.507393 0.508049
0.525383 0.566964 0.638972
0.793652 0.603693 0.721767
0.987457 0.625391 0.778302
0.172992 0.771878 0.759319
0.374319 0.829313 0.80737
0.716289 0.881636 0.844938
0.92607 0.919081 0.885801
1 0.942138 0.905013
0.350271 0.985443 0.870466
0.640696 1 0.918334
0.861997 1 0.956405
0.994965 1 0.980179
1 1 0.991684
0.0382544 0.160327 0.276265
0.145815 0.130907 0.415183
0.308568 0.109514 0.502831
0.438849 0.119677 0.500786
0.631251 0.161685 0.552773
0.0357366 0.29752 0.295506
0.14287 0.286915 0.491539
0.436667 0.278889 0.656687
0.591546 0.295857 0.636042
0.771725 0.339025 0.698085
0.0424506 0.525826 0.524514
0.241505 0.591791 0.577142
0.608576 0.639704 0.773999
0.802136 0.664042 0.830045
0.94934 0.694057 0.879728
0.153613 0.807599 0.87245
0.423178 0.861448 0.889433
0.728283 0.916915 0.91371
0.927962 0.955413 0.964126
1 0.968078 0.994965
0.354665 0.999924 0.992538
0.650111 1 0.999603
0.870512 1 1
0.997299 1 1
1 1 1
