LUT预设1/LUT全系打包/胶片lut系列/709胶片系列（正常色彩素材用这个）/light青709.cube
TITLE "Generated by Resolve"
LUT_3D_SIZE 33
0.0949111 0.0751354 0.061387
0.0979019 0.0753948 0.0619211
0.100999 0.075639 0.0625925
0.104585 0.0757916 0.0632334
0.109743 0.0758068 0.0631571
0.115099 0.0759289 0.0632334
0.120851 0.0759747 0.063386
0.128481 0.0756847 0.063508
0.135943 0.0754864 0.0636301
0.143816 0.075288 0.0635386
0.155901 0.0747539 0.0627298
0.168078 0.0741436 0.0619516
0.180362 0.073518 0.0612497
0.199939 0.0724041 0.0600137
0.219089 0.0713054 0.058793
0.23801 0.0702678 0.0576181
0.263096 0.0691081 0.0562905
0.288289 0.0679484 0.0549477
0.313405 0.0667735 0.0535897
0.342885 0.0655222 0.0522316
0.373449 0.0641489 0.050782
0.403677 0.0627604 0.0493324
0.436866 0.061387 0.0476844
0.470527 0.0599527 0.0459602
0.50428 0.0588693 0.0442512
0.537362 0.0587015 0.0423743
0.569574 0.0590219 0.0405737
0.602075 0.0592355 0.0392767
0.632731 0.0600595 0.0383307
0.661601 0.0614328 0.0377356
0.691035 0.0627451 0.0369573
0.719051 0.0639658 0.035874
0.745037 0.065156 0.0344396
0.0943313 0.0796368 0.061799
0.0976577 0.0799573 0.0628367
0.100984 0.0802777 0.0639353
0.105837 0.0804456 0.0644999
0.111345 0.0805524 0.0650034
0.117006 0.0806439 0.0657359
0.123705 0.0805676 0.06598
0.1308 0.0804608 0.0658885
0.137774 0.0803998 0.0657359
0.147448 0.0801251 0.065095
0.158968 0.0795911 0.0641642
0.17023 0.0790875 0.0633097
0.18558 0.0782788 0.0621195
0.203906 0.0772717 0.0607156
0.222049 0.0762493 0.0592203
0.243397 0.0754101 0.0577249
0.268513 0.0746624 0.0562142
0.293507 0.07393 0.0546578
0.320607 0.0730907 0.0531167
0.350805 0.0721294 0.0514839
0.381247 0.0712139 0.0497444
0.412299 0.0701762 0.0479438
0.446387 0.0690013 0.0458991
0.480095 0.0677653 0.0440375
0.513619 0.0668193 0.0425269
0.546639 0.0668498 0.0409552
0.579812 0.0668193 0.0393378
0.613001 0.066804 0.0378424
0.642802 0.0681621 0.0367742
0.672831 0.0694285 0.0357061
0.703029 0.0706798 0.0345769
0.729549 0.0717021 0.0329595
0.756222 0.0727855 0.0310216
0.0941787 0.0845808 0.0629435
0.0976272 0.0849012 0.0642863
0.101488 0.0851759 0.0655985
0.107286 0.0852216 0.0664683
0.113054 0.0852979 0.0674907
0.119051 0.0853437 0.0684367
0.125872 0.085359 0.0681926
0.132631 0.0856489 0.0680552
0.13991 0.0858625 0.0679179
0.15111 0.0857099 0.0669718
0.162203 0.0855726 0.0659953
0.17377 0.0854353 0.0649729
0.191745 0.0848554 0.0633402
0.209583 0.0842908 0.0616464
0.227268 0.0837568 0.0599222
0.251484 0.0831922 0.0581216
0.275822 0.0826276 0.05626
0.299962 0.0821698 0.0543374
0.329351 0.081239 0.0523842
0.359014 0.0802777 0.0503243
0.388998 0.0792706 0.0483406
0.421759 0.0779736 0.0465553
0.455879 0.0764935 0.0446479
0.489555 0.0750134 0.0428016
0.523293 0.0743572 0.0408942
0.557137 0.0741131 0.0389563
0.591562 0.0743572 0.0372625
0.624277 0.0755169 0.035996
0.655497 0.0774243 0.0350652
0.686854 0.0791791 0.0339971
0.716258 0.0807813 0.0326085
0.743648 0.0822461 0.0307012
0.770748 0.0838026 0.0287022
0.0950332 0.0899367 0.065156
0.0986191 0.0904707 0.0666667
0.103532 0.0909438 0.0678416
0.109041 0.0913863 0.068925
0.114321 0.0918898 0.0700389
0.120623 0.0921645 0.0704967
0.127596 0.0924086 0.0707561
0.134661 0.0926223 0.0711833
0.144244 0.0926986 0.0706188
0.155245 0.0926986 0.0693217
0.166369 0.0926986 0.0679484
0.180774 0.0924849 0.0662699
0.198123 0.0921492 0.0642252
0.215122 0.091783 0.0621653
0.235218 0.0914015 0.0600443
0.258885 0.0910201 0.057847
0.282383 0.0906233 0.0556497
0.308034 0.0902724 0.0536507
0.338079 0.0898451 0.0519265
0.367742 0.0894636 0.0502327
0.398978 0.0889448 0.0484321
0.433112 0.0880903 0.0465553
0.467658 0.0873426 0.0446174
0.502037 0.0866255 0.0426947
0.537301 0.0865797 0.0408637
0.572778 0.0864424 0.03888
0.60827 0.0862593 0.0368658
0.640024 0.0878462 0.035523
0.671519 0.0895247 0.0340887
0.703548 0.0910964 0.0325933
0.73138 0.0924086 0.0304112
0.758495 0.0937362 0.0280308
0.785962 0.095079 0.0254978
0.0971542 0.0962387 0.0682383
0.100481 0.0969863 0.0691386
0.105257 0.0976577 0.0700999
0.109957 0.0983139 0.071107
0.114855 0.0989853 0.0720684
0.122118 0.0991836 0.0728008
0.129564 0.0993515 0.0737774
0.13756 0.0994583 0.0746777
0.14844 0.0996567 0.0730297
0.159411 0.100099 0.0714275
0.170489 0.100542 0.0698711
0.187442 0.100679 0.0677501
0.20415 0.100893 0.0656138
0.220844 0.101167 0.0634318
0.244114 0.101518 0.0613718
0.267567 0.1019 0.0594186
0.29099 0.102296 0.0574197
0.319554 0.102266 0.0554513
0.349203 0.102144 0.0533913
0.378439 0.102037 0.0513161
0.411856 0.101381 0.0491188
0.446052 0.100542 0.0469062
0.480232 0.0997635 0.0445869
0.516213 0.0990311 0.042237
0.552605 0.0983291 0.0398566
0.589227 0.0974289 0.0374762
0.623529 0.0977646 0.0353857
0.655512 0.0991989 0.0336309
0.688045 0.101701 0.0320745
0.718654 0.104723 0.0303502
0.746151 0.107698 0.0281682
0.774151 0.110323 0.0259709
0.800778 0.112825 0.0239261
0.098497 0.103029 0.070634
0.102373 0.104051 0.0716411
0.106874 0.104997 0.0728618
0.11133 0.10602 0.0741741
0.117708 0.106737 0.0754711
0.12491 0.107378 0.0767834
0.13196 0.108125 0.0780652
0.141268 0.108705 0.0775769
0.152346 0.109285 0.0759289
0.163348 0.10988 0.074342
0.177523 0.110414 0.0723278
0.194049 0.110964 0.0701305
0.210544 0.111543 0.0679789
0.230091 0.112184 0.0657969
0.253162 0.112856 0.063508
0.276188 0.113558 0.0611582
0.301503 0.114061 0.0587778
0.33077 0.114199 0.0563516
0.359609 0.114305 0.0538949
0.390402 0.114412 0.0514076
0.42501 0.114672 0.0491798
0.459632 0.11516 0.0469215
0.494667 0.115846 0.0446174
0.531792 0.11664 0.0423438
0.568933 0.11754 0.0400244
0.605936 0.118624 0.0376745
0.639033 0.121798 0.0361944
0.672297 0.124636 0.0346685
0.705715 0.127337 0.0331884
0.734279 0.12958 0.0310216
0.762905 0.131609 0.0288853
0.791684 0.133257 0.0273747
0.81651 0.134676 0.0261692
0.101564 0.110964 0.0752117
0.105928 0.112047 0.0764935
0.110292 0.113146 0.077821
0.114885 0.114244 0.0791333
0.121263 0.115251 0.0802319
0.127428 0.116457 0.0813458
0.133867 0.117723 0.0821088
0.145083 0.118441 0.080415
0.1561 0.119173 0.0788891
0.167636 0.119753 0.077409
0.183993 0.120623 0.0749828
0.200488 0.12195 0.0728313
0.2168 0.123323 0.0707408
0.23946 0.124895 0.0683604
0.26244 0.126574 0.0659037
0.285222 0.128328 0.0634165
0.313878 0.129915 0.0609903
0.34345 0.13164 0.0585184
0.372717 0.133532 0.0560311
0.40647 0.135103 0.0535744
0.441032 0.136751 0.0511635
0.475608 0.138628 0.0486763
0.51194 0.1402 0.0461738
0.549218 0.141573 0.0436255
0.586603 0.143008 0.0409857
0.622126 0.145037 0.0388647
0.656092 0.147494 0.0371862
0.690196 0.149783 0.0356146
0.72192 0.151431 0.0342412
0.75108 0.152514 0.0325017
0.780316 0.153872 0.030869
0.807874 0.155993 0.0294957
0.831907 0.158099 0.0283055
0.105577 0.118883 0.0809033
0.109728 0.119997 0.0821241
0.113649 0.121706 0.082887
0.118563 0.123598 0.0834516
0.123964 0.125521 0.0840162
0.129213 0.127626 0.0845808
0.137926 0.129305 0.084184
0.148821 0.130724 0.0833906
0.159777 0.132204 0.0830396
0.173465 0.133669 0.0818036
0.189944 0.135348 0.0795148
0.206241 0.137072 0.0772564
0.225666 0.139025 0.0747692
0.248829 0.141299 0.0718853
0.272053 0.143633 0.068986
0.297688 0.146105 0.0661173
0.326986 0.148623 0.0634623
0.356664 0.151507 0.0607004
0.387396 0.154437 0.0579995
0.422324 0.157259 0.0553597
0.45684 0.160311 0.0527199
0.491859 0.163348 0.0500343
0.529641 0.16556 0.0473945
0.567544 0.168032 0.0446937
0.605417 0.170672 0.0421607
0.639811 0.17351 0.041001
0.674113 0.176425 0.039826
0.707912 0.1794 0.0386664
0.737972 0.181765 0.0370947
0.767697 0.1841 0.0354925
0.797192 0.186481 0.0339361
0.82324 0.188647 0.0325017
0.847944 0.190784 0.0311437
0.107591 0.13077 0.0833753
0.111467 0.132479 0.0840314
0.115434 0.134356 0.0846571
0.120775 0.136568 0.0854505
0.12604 0.138689 0.086305
0.131838 0.140902 0.087068
0.142245 0.142733 0.0874342
0.152636 0.144686 0.0881514
0.162905 0.146624 0.0890516
0.179385 0.148669 0.0865187
0.195666 0.150744 0.0840314
0.211978 0.152865 0.0814679
0.234989 0.15552 0.0782635
0.258335 0.158724 0.0750896
0.281682 0.162036 0.0720073
0.310536 0.165972 0.0691844
0.339956 0.170092 0.066453
0.369848 0.17438 0.0635691
0.403571 0.178683 0.060853
0.439124 0.183215 0.0580606
0.474434 0.187961 0.0551919
0.511543 0.191608 0.0525368
0.549599 0.195117 0.0500649
0.587732 0.198901 0.0475471
0.623819 0.202457 0.0456397
0.658045 0.205707 0.0442817
0.691814 0.209033 0.0429236
0.724361 0.21207 0.0413977
0.75465 0.21471 0.0395819
0.784695 0.217304 0.0378882
0.81387 0.219776 0.0362097
0.839094 0.221881 0.0347143
0.864469 0.224048 0.0332189
0.109346 0.143389 0.0859083
0.113222 0.14519 0.0865644
0.117998 0.147356 0.0874189
0.123293 0.149706 0.0885481
0.128511 0.152331 0.0895399
0.136446 0.155123 0.0905928
0.146258 0.157809 0.0916915
0.15584 0.160708 0.0927443
0.169024 0.163561 0.0919509
0.185245 0.166323 0.0896468
0.201465 0.168963 0.0875715
0.221118 0.172229 0.0850996
0.244114 0.176013 0.0822614
0.26743 0.179889 0.0794385
0.293187 0.184192 0.0765698
0.323293 0.188998 0.0734112
0.35314 0.194156 0.070161
0.384985 0.199527 0.0668803
0.420661 0.205112 0.0640421
0.456931 0.210895 0.0611429
0.493278 0.216617 0.0582284
0.531456 0.221195 0.0555428
0.569711 0.226307 0.0528115
0.607874 0.231662 0.0499733
0.642298 0.235569 0.0485847
0.676555 0.239734 0.0472114
0.711391 0.244099 0.045716
0.742977 0.247608 0.0439918
0.773846 0.251087 0.042237
0.805142 0.254643 0.0403906
0.832334 0.257755 0.0387579
0.858747 0.260746 0.0371405
0.884947 0.263813 0.035523
0.110964 0.158984 0.0888533
0.114885 0.161288 0.0893721
0.12015 0.164187 0.0903792
0.125353 0.166918 0.0912795
0.130877 0.169833 0.0922103
0.140337 0.172808 0.0932326
0.149554 0.176028 0.094316
0.158923 0.179339 0.0953384
0.175006 0.182254 0.093843
0.191241 0.185412 0.0926528
0.207263 0.188617 0.0917678
0.230182 0.192752 0.0892042
0.253498 0.197208 0.0865644
0.27686 0.201755 0.0840314
0.305974 0.207446 0.0807202
0.336477 0.213489 0.0774243
0.366674 0.219974 0.0741741
0.40174 0.226963 0.0712139
0.437873 0.234165 0.0683146
0.474113 0.241535 0.0653697
0.512505 0.248447 0.0625162
0.551583 0.254887 0.0597086
0.590967 0.261967 0.0567178
0.628275 0.267948 0.0544289
0.663294 0.272953 0.0527199
0.698878 0.278126 0.0508736
0.732891 0.282856 0.0489204
0.764004 0.286763 0.046891
0.79556 0.290776 0.0447852
0.825483 0.29424 0.0427405
0.852308 0.297459 0.0409247
0.878889 0.300771 0.0390478
0.904997 0.304021 0.0373083
0.112413 0.175982 0.0917372
0.117037 0.178698 0.0924697
0.12221 0.181476 0.0932631
0.127367 0.18439 0.0940871
0.134737 0.187472 0.0949569
0.143679 0.191028 0.0959793
0.152514 0.194858 0.0969863
0.16492 0.199084 0.0970932
0.180957 0.203037 0.0966049
0.196674 0.207233 0.0962081
0.215702 0.212024 0.0950027
0.239002 0.217273 0.0926986
0.262303 0.222782 0.0908675
0.288273 0.228855 0.0885939
0.318593 0.235859 0.0856947
0.349447 0.242725 0.0827192
0.381506 0.250111 0.0797436
0.418357 0.258366 0.0766613
0.454887 0.266743 0.0735637
0.492012 0.274907 0.0703746
0.532586 0.283085 0.067155
0.572992 0.291569 0.0637827
0.613565 0.300221 0.0603799
0.649302 0.30602 0.05832
0.685603 0.311986 0.0561227
0.722011 0.317739 0.0538033
0.754284 0.322362 0.0515602
0.785855 0.327123 0.0493477
0.817914 0.332006 0.0470741
0.846067 0.33608 0.0451972
0.873213 0.339986 0.0433967
0.90074 0.343908 0.0417182
0.924666 0.347066 0.0415808
0.113893 0.195468 0.0948653
0.119127 0.199161 0.0955825
0.124315 0.202655 0.0963302
0.129747 0.206424 0.0969711
0.138384 0.210681 0.0978561
0.146807 0.215198 0.0986496
0.155337 0.219577 0.0994583
0.170932 0.224033 0.0993515
0.186221 0.228534 0.0994888
0.201343 0.232929 0.100053
0.224125 0.238682 0.0986648
0.247471 0.244343 0.0973678
0.270878 0.250294 0.0962081
0.300786 0.25771 0.0936751
0.331563 0.265156 0.0910353
0.362875 0.272969 0.0883955
0.398215 0.281895 0.0852674
0.435492 0.291478 0.0819715
0.472496 0.301106 0.0787823
0.5122 0.310933 0.0755627
0.553597 0.320912 0.0720989
0.595285 0.331106 0.0686198
0.634668 0.3393 0.0656748
0.671962 0.346303 0.0632944
0.709468 0.353506 0.0607309
0.744945 0.360052 0.0580453
0.776867 0.365408 0.0555428
0.809262 0.370947 0.0529183
0.840085 0.375723 0.0507515
0.867903 0.37966 0.0498512
0.895445 0.383703 0.0489967
0.922438 0.387778 0.048127
0.944656 0.390845 0.0486152
0.115785 0.219165 0.0981613
0.121065 0.222736 0.0987106
0.126329 0.226307 0.0991989
0.133288 0.230594 0.0998398
0.141527 0.235096 0.100496
0.14963 0.239872 0.101427
0.161105 0.244434 0.10219
0.176059 0.249302 0.103014
0.190707 0.254078 0.103914
0.209064 0.260426 0.104097
0.232502 0.267475 0.103197
0.256077 0.274296 0.102266
0.282414 0.282048 0.100954
0.314015 0.290593 0.098558
0.3458 0.299443 0.0963912
0.378744 0.308629 0.0941634
0.415824 0.318669 0.091249
0.453437 0.329107 0.0884718
0.491432 0.339574 0.0856947
0.53373 0.350561 0.0820935
0.576318 0.361486 0.078233
0.619104 0.3729 0.074403
0.657404 0.380835 0.071458
0.695918 0.388937 0.0683146
0.734585 0.396857 0.0648661
0.767483 0.402991 0.0624552
0.80029 0.408927 0.0605631
0.832776 0.415015 0.0586557
0.862119 0.419837 0.0573587
0.889799 0.424216 0.0565499
0.917586 0.429084 0.0560159
0.941924 0.433173 0.0565347
0.963241 0.436774 0.057908
0.117723 0.243534 0.10132
0.123186 0.247883 0.101854
0.128756 0.252323 0.102602
0.136858 0.258 0.103624
0.144884 0.263447 0.104723
0.152758 0.269184 0.10573
0.167086 0.274968 0.1066
0.181033 0.281102 0.107393
0.194736 0.287083 0.108309
0.217853 0.294423 0.107744
0.241489 0.301595 0.107286
0.265202 0.309133 0.106813
0.295628 0.317678 0.105394
0.327794 0.326848 0.103883
0.360174 0.336049 0.102419
0.396201 0.34612 0.100298
0.433585 0.356939 0.0979019
0.47155 0.36788 0.0956283
0.512825 0.379232 0.0923171
0.556329 0.391562 0.0882429
0.600122 0.404349 0.0843366
0.641474 0.414908 0.080766
0.680735 0.423941 0.0780499
0.720211 0.433219 0.0753185
0.756832 0.441627 0.0730297
0.789883 0.448218 0.071107
0.822705 0.45539 0.0692302
0.85478 0.462226 0.0674144
0.882841 0.467475 0.0668193
0.911208 0.472374 0.0662394
0.938476 0.477592 0.0660716
0.958434 0.481331 0.0676738
0.977966 0.485039 0.0697032
0.12018 0.273579 0.106126
0.125689 0.278035 0.106645
0.132525 0.283131 0.107378
0.140444 0.289036 0.108476
0.148318 0.294728 0.109468
0.158984 0.300679 0.110292
0.172137 0.307225 0.111055
0.185077 0.313619 0.111742
0.202686 0.320851 0.112108
0.226398 0.32842 0.11191
0.250126 0.33637 0.111894
0.277089 0.345159 0.111452
0.309438 0.355352 0.110506
0.342367 0.36524 0.10956
0.376776 0.37583 0.108339
0.414786 0.387366 0.10663
0.45304 0.398428 0.104997
0.492744 0.410117 0.103349
0.536355 0.423041 0.0998398
0.580026 0.436332 0.0971084
0.623575 0.449516 0.0947127
0.663615 0.459205 0.0916152
0.703944 0.469627 0.0882734
0.744076 0.480247 0.0849775
0.778546 0.488441 0.0826581
0.812329 0.49604 0.0801862
0.845899 0.504189 0.0779126
0.875929 0.510552 0.0768902
0.904295 0.515892 0.0764019
0.932769 0.521767 0.0759136
0.95523 0.52639 0.0771954
0.973373 0.529976 0.0799115
0.990707 0.533318 0.0831617
0.122591 0.303395 0.110979
0.128283 0.308217 0.111131
0.136217 0.314565 0.112306
0.144244 0.321157 0.11342
0.152224 0.32781 0.114549
0.164996 0.335668 0.115328
0.177462 0.343343 0.115999
0.189853 0.351553 0.116823
0.212818 0.360265 0.116762
0.23653 0.369512 0.116732
0.260197 0.378546 0.116533
0.291814 0.388708 0.11603
0.324651 0.39855 0.115404
0.357992 0.408835 0.114931
0.395666 0.419593 0.114122
0.434516 0.430869 0.113741
0.473762 0.441764 0.114092
0.51635 0.454749 0.112947
0.559853 0.468589 0.11078
0.603342 0.482048 0.108797
0.645518 0.49456 0.105989
0.686702 0.505714 0.10193
0.727703 0.517464 0.0980392
0.766339 0.528176 0.0948196
0.800397 0.536431 0.0924086
0.834104 0.545113 0.0902724
0.866773 0.55314 0.0886549
0.894789 0.558953 0.0887007
0.922728 0.564279 0.0889906
0.949752 0.569711 0.0897688
0.966522 0.572946 0.0932174
0.983001 0.575662 0.0966201
0.999207 0.578637 0.100511
0.125887 0.338735 0.116701
0.132937 0.344839 0.117189
0.141222 0.351843 0.118303
0.149569 0.359258 0.119432
0.159731 0.366903 0.120394
0.171527 0.375143 0.120989
0.183291 0.383932 0.121584
0.199802 0.392752 0.121935
0.223209 0.40209 0.12166
0.246479 0.411948 0.121447
0.273121 0.421668 0.12108
0.306569 0.432013 0.120943
0.339681 0.441962 0.121157
0.374762 0.452735 0.122225
0.415106 0.464164 0.123262
0.455543 0.475914 0.124422
0.496834 0.487617 0.124895
0.540444 0.501991 0.123415
0.583978 0.51577 0.122026
0.627512 0.529778 0.121126
0.668864 0.542229 0.117205
0.710185 0.554467 0.113375
0.751522 0.567315 0.109667
0.786496 0.576837 0.107164
0.820325 0.58555 0.104952
0.854658 0.594766 0.102663
0.884031 0.60145 0.102327
0.9122 0.606806 0.102831
0.939986 0.612497 0.103532
0.960555 0.616526 0.10602
0.976196 0.618936 0.110002
0.991577 0.621622 0.11426
1 0.623468 0.119265
0.12929 0.374624 0.122332
0.13785 0.38204 0.12343
0.146456 0.389838 0.124605
0.155062 0.397391 0.125887
0.166339 0.406317 0.126345
0.177813 0.415793 0.126833
0.189532 0.425864 0.127459
0.211887 0.436072 0.127275
0.234974 0.44686 0.127062
0.257618 0.457374 0.127672
0.289265 0.467933 0.12874
0.322683 0.478981 0.130098
0.355642 0.489647 0.131289
0.395178 0.501274 0.132418
0.436866 0.512642 0.133516
0.479652 0.524529 0.134279
0.522622 0.537392 0.134401
0.565896 0.551385 0.134493
0.609232 0.564858 0.134691
0.651499 0.578408 0.133196
0.692576 0.591379 0.129351
0.733639 0.604944 0.125811
0.772076 0.617029 0.122637
0.806088 0.626154 0.120348
0.840635 0.635813 0.117952
0.872999 0.64358 0.116869
0.900572 0.648432 0.119142
0.927611 0.653086 0.121721
0.953307 0.656916 0.124422
0.968551 0.658564 0.130297
0.983734 0.660121 0.136599
0.999222 0.661295 0.142687
1 0.661662 0.149325
0.135393 0.414633 0.129488
0.144533 0.423407 0.130648
0.153719 0.431891 0.131609
0.164034 0.441001 0.132311
0.175906 0.451041 0.132723
0.187915 0.461631 0.133135
0.203952 0.472084 0.13434
0.225834 0.482795 0.135317
0.247318 0.493614 0.136492
0.272343 0.504845 0.138094
0.305348 0.515633 0.139498
0.338186 0.52694 0.141161
0.37293 0.537957 0.142504
0.416464 0.549874 0.143343
0.459922 0.561425 0.144106
0.504295 0.573388 0.144503
0.547311 0.587243 0.145785
0.590448 0.600519 0.14696
0.633799 0.614069 0.148394
0.674571 0.627237 0.145144
0.715373 0.640787 0.142702
0.756207 0.654276 0.140703
0.790524 0.663203 0.140368
0.82443 0.671855 0.140871
0.857801 0.679881 0.141741
0.886412 0.685283 0.14464
0.912657 0.689433 0.148547
0.938964 0.692943 0.153277
0.958663 0.695415 0.158724
0.974624 0.696696 0.163607
0.99086 0.698329 0.168582
1 0.699565 0.173342
1 0.699977 0.177432
0.142519 0.457328 0.13753
0.15201 0.466178 0.138186
0.161563 0.475151 0.139055
0.173632 0.485786 0.140139
0.185657 0.496452 0.141314
0.197772 0.507256 0.142718
0.217685 0.518624 0.144183
0.23801 0.529488 0.146014
0.25803 0.54023 0.148058
0.288289 0.551278 0.150057
0.320714 0.562173 0.151614
0.352895 0.573297 0.153277
0.393561 0.585306 0.154116
0.438285 0.597467 0.154406
0.482734 0.610254 0.154635
0.526436 0.623072 0.155383
0.57026 0.636423 0.157015
0.613733 0.649104 0.158511
0.655879 0.662348 0.158953
0.696635 0.675471 0.158373
0.737423 0.68896 0.15874
0.774945 0.699992 0.15996
0.808331 0.708186 0.162951
0.841443 0.715618 0.167147
0.872251 0.72221 0.17261
0.897795 0.725567 0.177371
0.923537 0.729152 0.182681
0.948028 0.732113 0.187716
0.964858 0.733547 0.191501
0.98204 0.735027 0.1953
0.999146 0.736278 0.198444
1 0.737011 0.20206
1 0.737362 0.20531
0.150301 0.50013 0.148043
0.160021 0.509209 0.149447
0.170871 0.518929 0.150866
0.18323 0.529534 0.152499
0.195422 0.540017 0.154238
0.210712 0.550668 0.156207
0.230259 0.561868 0.158114
0.249439 0.572747 0.160067
0.272435 0.58378 0.161929
0.304219 0.59527 0.16347
0.335897 0.607355 0.164736
0.37052 0.619486 0.165667
0.415198 0.632441 0.165881
0.460777 0.64622 0.165484
0.50576 0.659709 0.165194
0.549172 0.67248 0.166873
0.592706 0.684672 0.168521
0.636866 0.696834 0.170367
0.677119 0.710201 0.172045
0.717632 0.722728 0.174868
0.757778 0.73518 0.179278
0.791211 0.742367 0.185519
0.823774 0.749126 0.192233
0.85594 0.755413 0.199496
0.883543 0.759564 0.205188
0.909178 0.762585 0.210422
0.934951 0.766018 0.215549
0.95581 0.768429 0.21976
0.973007 0.769863 0.222812
0.990326 0.771725 0.225574
1 0.772778 0.228305
1 0.773587 0.230793
1 0.77406 0.233188
0.158556 0.542306 0.161883
0.168063 0.551095 0.163149
0.180453 0.561944 0.164904
0.192966 0.572473 0.16672
0.20528 0.582818 0.168841
0.223392 0.59379 0.170642
0.241749 0.604776 0.17261
0.259785 0.615747 0.174762
0.288472 0.628016 0.176135
0.319524 0.640345 0.177401
0.350301 0.652277 0.179019
0.391714 0.665492 0.179538
0.436774 0.67892 0.179202
0.481987 0.692653 0.178058
0.526802 0.705562 0.179004
0.570733 0.717159 0.181674
0.615015 0.728725 0.184573
0.657145 0.740795 0.189273
0.696666 0.752499 0.194491
0.735927 0.764309 0.200259
0.77258 0.773739 0.207263
0.80528 0.780438 0.215518
0.837629 0.78674 0.224216
0.868833 0.79266 0.232212
0.894774 0.796017 0.237659
0.921157 0.799817 0.242969
0.946441 0.803189 0.248112
0.963821 0.805234 0.250523
0.981323 0.806989 0.252872
0.998917 0.809171 0.254948
1 0.809659 0.256947
1 0.810178 0.259083
1 0.810407 0.26067
0.166857 0.584863 0.17586
0.177813 0.593851 0.177493
0.190448 0.603769 0.179767
0.203143 0.613626 0.182498
0.217823 0.623667 0.185214
0.235386 0.634394 0.188296
0.252537 0.644739 0.191699
0.273442 0.655512 0.194751
0.303517 0.667521 0.196216
0.333242 0.679652 0.197894
0.366217 0.692607 0.198764
0.411276 0.706783 0.197009
0.456886 0.721416 0.194903
0.5019 0.735927 0.193729
0.547265 0.747555 0.197971
0.592386 0.759304 0.202487
0.637888 0.771634 0.206775
0.676524 0.782696 0.213321
0.714946 0.793545 0.220554
0.753155 0.804501 0.22797
0.786267 0.811353 0.237507
0.819211 0.81796 0.247364
0.852094 0.823804 0.256931
0.879805 0.827985 0.263554
0.906371 0.831373 0.268635
0.932754 0.835294 0.274205
0.954009 0.837842 0.277516
0.971801 0.839963 0.280079
0.98996 0.841901 0.282246
1 0.843488 0.284627
1 0.843778 0.286046
1 0.844419 0.287846
1 0.844526 0.289326
0.176577 0.623392 0.19118
0.189151 0.633051 0.19408
0.20177 0.64268 0.197299
0.214481 0.652247 0.200732
0.230701 0.662486 0.204547
0.246937 0.672663 0.208743
0.262852 0.68275 0.213321
0.289143 0.694575 0.21529
0.317861 0.70692 0.216541
0.346197 0.719692 0.218173
0.386694 0.733852 0.217136
0.431586 0.748608 0.215183
0.476875 0.763348 0.213458
0.52192 0.775738 0.216953
0.567849 0.787091 0.222004
0.614771 0.798871 0.226703
0.657023 0.809949 0.233341
0.694804 0.819471 0.241382
0.731991 0.828748 0.249516
0.767712 0.837064 0.258778
0.80029 0.843183 0.26836
0.832761 0.849714 0.278248
0.863523 0.855543 0.286625
0.890562 0.859739 0.292134
0.917388 0.864454 0.298161
0.943603 0.868894 0.303517
0.96202 0.871565 0.306462
0.980362 0.874083 0.309087
0.998856 0.877058 0.312276
1 0.877577 0.313573
1 0.878294 0.315236
1 0.878721 0.316701
1 0.878767 0.31899
0.188037 0.66247 0.207248
0.20087 0.672023 0.211109
0.213687 0.681483 0.215167
0.227436 0.690883 0.219547
0.243122 0.700389 0.224521
0.258427 0.709758 0.229831
0.277287 0.719799 0.234348
0.305119 0.73164 0.236515
0.33257 0.743587 0.239338
0.363195 0.755642 0.241642
0.406867 0.769436 0.241291
0.450675 0.783169 0.241093
0.493904 0.796704 0.241993
0.541772 0.809018 0.246052
0.58941 0.821469 0.250233
0.637446 0.834195 0.25388
0.67483 0.84358 0.262425
0.711955 0.852491 0.27129
0.74902 0.86128 0.279896
0.781857 0.868391 0.289387
0.813977 0.875105 0.299001
0.845685 0.881956 0.30811
0.874388 0.887816 0.315068
0.901656 0.89305 0.321401
0.92929 0.898497 0.32752
0.95137 0.901869 0.331777
0.970077 0.90457 0.334783
0.989075 0.90724 0.338293
1 0.908888 0.341009
1 0.909407 0.34313
1 0.909773 0.34493
1 0.910155 0.347341
1 0.909239 0.349264
0.201205 0.698146 0.224338
0.214069 0.706828 0.228809
0.226856 0.715389 0.233402
0.241535 0.724681 0.239261
0.25655 0.734142 0.245655
0.271229 0.74345 0.252201
0.29514 0.754513 0.256275
0.321324 0.766201 0.260197
0.347066 0.777478 0.264469
0.384588 0.790341 0.266026
0.426413 0.803632 0.266789
0.468223 0.816831 0.268284
0.513771 0.829786 0.270878
0.563272 0.843351 0.274144
0.612528 0.856733 0.277195
0.655726 0.867552 0.283406
0.692332 0.875608 0.292393
0.728969 0.883452 0.301091
0.763806 0.890776 0.310109
0.795026 0.89749 0.318975
0.826551 0.904204 0.327489
0.857099 0.910643 0.335531
