LUT预设1/LUT全系打包/胶片lut系列/709胶片系列（正常色彩素材用这个）/lime橙调709.cube
TITLE "Generated by Resolve"
LUT_3D_SIZE 33
0.0617533 0.0587778 0.0499428
0.0812848 0.0622873 0.0509041
0.101762 0.0658579 0.0514992
0.123476 0.069337 0.051545
0.149325 0.0728466 0.0518959
0.181689 0.0754253 0.0515145
0.212131 0.0770581 0.0512551
0.238636 0.0775311 0.0509651
0.263249 0.078233 0.0510872
0.286793 0.0792401 0.0516213
0.308827 0.0807355 0.0526741
0.330175 0.0822766 0.0537575
0.34995 0.0835279 0.0545052
0.369085 0.0844434 0.0549325
0.387304 0.0850843 0.0551156
0.404944 0.085069 0.0548714
0.422065 0.0847334 0.0544289
0.438056 0.0836347 0.0535286
0.453925 0.0823682 0.0525063
0.467948 0.0803845 0.0509651
0.481697 0.0784466 0.0494087
0.493675 0.076524 0.047776
0.505425 0.0747997 0.0462806
0.515114 0.0734112 0.0448768
0.524224 0.0721752 0.0436103
0.530617 0.0712139 0.0425574
0.535866 0.0699779 0.0413367
0.538003 0.0686503 0.0402686
0.539376 0.067216 0.0391546
0.538506 0.065568 0.037995
0.537469 0.06392 0.0368505
0.536034 0.0625925 0.0357214
0.534585 0.061326 0.0345312
0.0590372 0.0732128 0.0500496
0.0799268 0.0773938 0.05037
0.102663 0.0815442 0.0500954
0.127275 0.0857252 0.0494392
0.157641 0.0896315 0.0509804
0.195071 0.0931258 0.0523995
0.229541 0.0962539 0.0543679
0.259419 0.0986954 0.0560006
0.28629 0.100877 0.0576791
0.311833 0.103075 0.0593729
0.335027 0.105058 0.0610666
0.357061 0.106752 0.0625772
0.377722 0.108125 0.0637827
0.397436 0.108919 0.0644236
0.416205 0.109407 0.0648203
0.434241 0.109117 0.0646677
0.451926 0.108568 0.0641489
0.468406 0.107225 0.0630198
0.48452 0.105776 0.0619059
0.498985 0.104021 0.0603799
0.512963 0.102434 0.0590219
0.52517 0.10103 0.0577554
0.536721 0.099855 0.0566567
0.546517 0.0991684 0.0558938
0.555428 0.0986496 0.0551308
0.562036 0.0979629 0.0543984
0.567361 0.0971847 0.0535744
0.569848 0.0957961 0.0525826
0.571283 0.0944686 0.0516213
0.570764 0.0929274 0.0505074
0.56968 0.0912184 0.0493324
0.567987 0.089601 0.0481422
0.566613 0.0882887 0.0471656
0.0578775 0.0872053 0.0479133
0.078706 0.0921798 0.0486
0.100252 0.0977493 0.047837
0.123857 0.103304 0.04654
0.158038 0.10721 0.0467536
0.201831 0.11104 0.0488899
0.242069 0.114977 0.0526589
0.27631 0.118929 0.0565652
0.306203 0.12224 0.0597238
0.333928 0.125246 0.062623
0.358557 0.127672 0.065095
0.38175 0.129519 0.0670634
0.403082 0.13077 0.0685283
0.423392 0.131273 0.0692302
0.443229 0.131472 0.0695811
0.461723 0.1308 0.0691691
0.480079 0.130037 0.0686351
0.496956 0.128756 0.067689
0.513405 0.127596 0.066804
0.528359 0.126619 0.0660716
0.542748 0.12607 0.0656596
0.555596 0.126009 0.0656138
0.567376 0.126101 0.0656748
0.577691 0.12639 0.0658427
0.586603 0.12639 0.0658732
0.593576 0.125963 0.0655375
0.598779 0.125231 0.0650187
0.601678 0.123827 0.0641489
0.603006 0.122316 0.0632181
0.602441 0.1205 0.062089
0.601053 0.118517 0.060853
0.599252 0.116777 0.0596017
0.597894 0.11548 0.0586099
0.0573892 0.100938 0.0438392
0.0771344 0.10692 0.0452125
0.0960861 0.114015 0.0441138
0.118456 0.120775 0.0422522
0.153552 0.124971 0.0399939
0.203326 0.128954 0.0419471
0.25005 0.13341 0.0470283
0.289784 0.138399 0.0534524
0.323003 0.142733 0.0584268
0.353613 0.146563 0.0628367
0.380072 0.149264 0.0660563
0.404334 0.151141 0.068574
0.426856 0.152285 0.0704204
0.447852 0.152422 0.071107
0.468498 0.152316 0.071458
0.487572 0.151095 0.0707256
0.50634 0.150118 0.0701305
0.523522 0.14902 0.0694133
0.540169 0.148257 0.0689403
0.555428 0.148211 0.0689708
0.570031 0.14873 0.0693065
0.583124 0.149905 0.0702678
0.595209 0.151186 0.0712749
0.60592 0.152453 0.072343
0.614954 0.153124 0.0730602
0.622385 0.15317 0.0734264
0.627726 0.152483 0.0733654
0.631159 0.151125 0.0729381
0.632609 0.149554 0.072343
0.632212 0.147539 0.0715038
0.631357 0.145846 0.0705119
0.629694 0.144121 0.0694133
0.628595 0.142977 0.0686198
0.0588998 0.114183 0.0378271
0.0775921 0.120729 0.0397192
0.094728 0.128771 0.0395819
0.11371 0.136858 0.0378424
0.13901 0.144213 0.0325322
0.188144 0.148608 0.0317388
0.24004 0.152407 0.035874
0.288518 0.156695 0.0433509
0.328984 0.161227 0.0502327
0.365698 0.165362 0.0565499
0.396063 0.168322 0.061265
0.42269 0.170108 0.064622
0.446937 0.171176 0.0670787
0.469184 0.171099 0.0680858
0.491081 0.170809 0.0685893
0.510994 0.16968 0.0683909
0.530663 0.168688 0.0681163
0.547921 0.16788 0.0681163
0.564752 0.167636 0.0682994
0.580163 0.16878 0.0693675
0.594965 0.170504 0.0709239
0.608637 0.17319 0.0729381
0.620996 0.175555 0.0749981
0.631983 0.177752 0.0769207
0.641413 0.179141 0.0784619
0.649088 0.179629 0.079469
0.654673 0.179187 0.0799115
0.658259 0.177783 0.0797589
0.659815 0.175982 0.0793011
0.659602 0.173846 0.0785687
0.658824 0.172015 0.0775921
0.657191 0.170199 0.0764019
0.655818 0.168719 0.0754559
0.0605936 0.12694 0.0282292
0.0779126 0.134081 0.0304265
0.092607 0.142626 0.0310979
0.106569 0.151736 0.0305791
0.125139 0.161318 0.0243229
0.161715 0.168811 0.01944
0.208606 0.173434 0.0196994
0.260548 0.176165 0.0251316
0.309667 0.179095 0.0321813
0.356374 0.181811 0.0394446
0.394141 0.184131 0.0455024
0.428077 0.18584 0.0505531
0.456168 0.186664 0.0540627
0.481514 0.186572 0.0562905
0.505074 0.186038 0.0577707
0.526223 0.184909 0.0584421
0.546731 0.183871 0.0592813
0.564706 0.183948 0.060502
0.582681 0.184451 0.0619974
0.598566 0.187243 0.0645914
0.614298 0.190173 0.0672618
0.628229 0.194186 0.0705882
0.641581 0.197986 0.0738079
0.653223 0.201373 0.0770275
0.663813 0.204028 0.0798199
0.672007 0.205188 0.0818341
0.678904 0.205615 0.083299
0.682826 0.204334 0.0836652
0.685756 0.202808 0.0836805
0.686015 0.200626 0.082826
0.685802 0.198474 0.0818189
0.684276 0.19649 0.0805524
0.682994 0.194842 0.0795911
0.064683 0.140047 0.0218204
0.0804608 0.148058 0.0244144
0.0932631 0.15697 0.025452
0.104158 0.166506 0.0254215
0.118105 0.177142 0.0194095
0.143313 0.187472 0.012604
0.178622 0.194751 0.00936904
0.227832 0.196719 0.0116426
0.28098 0.197787 0.0168307
0.335317 0.198474 0.0232547
0.381933 0.199756 0.0301061
0.424811 0.200977 0.0362249
0.459144 0.201801 0.0409247
0.489693 0.201968 0.0446784
0.515969 0.201465 0.0474403
0.539269 0.200748 0.0494698
0.560998 0.200076 0.0513771
0.580163 0.201007 0.0540169
0.598703 0.202258 0.0566873
0.615259 0.205982 0.0604715
0.631693 0.209796 0.0642405
0.645731 0.214511 0.0686198
0.659648 0.219013 0.0727855
0.671046 0.222492 0.0765545
0.682231 0.225849 0.0801404
0.690562 0.227237 0.0827649
0.698528 0.228428 0.0851453
0.703182 0.227558 0.0861372
0.707408 0.226535 0.0869764
0.708186 0.224353 0.0865644
0.708843 0.222248 0.0860456
0.707713 0.22034 0.0848554
0.706416 0.21825 0.0836042
0.0703441 0.154253 0.0179751
0.0847486 0.163394 0.0210574
0.095964 0.172778 0.0222019
0.105226 0.182376 0.0221408
0.11693 0.192889 0.0166781
0.136995 0.203815 0.0109102
0.164385 0.212741 0.00788891
0.20206 0.217548 0.00819409
0.25008 0.218204 0.00994888
0.302892 0.216876 0.0123293
0.358984 0.216709 0.0178531
0.411597 0.216831 0.023331
0.456321 0.217868 0.0296178
0.494377 0.218219 0.034699
0.525597 0.218006 0.0390478
0.551843 0.217762 0.0425269
0.575341 0.217533 0.0457923
0.59556 0.219272 0.0496223
0.615152 0.221561 0.0535744
0.632258 0.225849 0.0585184
0.649256 0.230274 0.0633707
0.663493 0.235126 0.0683299
0.677653 0.23978 0.073167
0.689158 0.243397 0.0773785
0.700465 0.246815 0.0814832
0.709148 0.248447 0.0845197
0.71751 0.249897 0.0873426
0.722789 0.249287 0.0888991
0.727779 0.248646 0.0902876
0.729427 0.246799 0.0903029
0.730892 0.244923 0.0902724
0.730098 0.242954 0.0894331
0.729305 0.241001 0.0885939
0.0758373 0.169268 0.0152743
0.0893568 0.179492 0.0187228
0.0995651 0.189639 0.0197757
0.108263 0.199573 0.0194705
0.118425 0.209216 0.0152438
0.135348 0.219898 0.0102541
0.158068 0.229343 0.00743114
0.187716 0.236561 0.00682078
0.228656 0.238621 0.00709544
0.27361 0.238849 0.0078584
0.331395 0.237507 0.0112154
0.386908 0.236698 0.0150454
0.441169 0.237171 0.0202945
0.487297 0.237446 0.0254826
0.527062 0.237644 0.0309606
0.558099 0.237827 0.0361334
0.585946 0.238209 0.0412757
0.608301 0.240238 0.04654
0.629709 0.242527 0.0517891
0.647562 0.246632 0.0573739
0.665232 0.250919 0.0629282
0.679927 0.25539 0.0682536
0.694514 0.259846 0.0734874
0.706462 0.263523 0.0780957
0.718044 0.266896 0.0825055
0.727153 0.268818 0.0859998
0.735958 0.270542 0.0893111
0.742061 0.270359 0.0914321
0.747738 0.270161 0.0933242
0.750164 0.268544 0.0938735
0.752422 0.267033 0.0943618
0.752239 0.265263 0.0939803
0.751888 0.263416 0.0935836
0.0813306 0.184878 0.0132143
0.0944228 0.196201 0.0168917
0.103792 0.206806 0.0178073
0.112306 0.217288 0.0175021
0.121355 0.226261 0.0142367
0.136248 0.236164 0.00996414
0.155673 0.245899 0.00723278
0.179019 0.255192 0.00613413
0.211597 0.259327 0.00549325
0.24889 0.261769 0.0052491
0.304723 0.259724 0.00628672
0.362036 0.258366 0.00840772
0.423636 0.257908 0.0122072
0.47628 0.258076 0.0176242
0.524605 0.258335 0.0239109
0.560494 0.259068 0.0305943
0.593698 0.259663 0.0373083
0.618204 0.261799 0.0438087
0.642069 0.264042 0.050248
0.661051 0.267765 0.0563668
0.679515 0.271427 0.0623026
0.695155 0.275746 0.0679179
0.710246 0.279713 0.0733349
0.722866 0.283436 0.0783093
0.734966 0.286809 0.0830549
0.744823 0.289113 0.0870985
0.754055 0.290974 0.090837
0.761135 0.291447 0.0935988
0.767575 0.291737 0.0960708
0.771069 0.290562 0.097322
0.774121 0.289448 0.0984207
0.774487 0.287678 0.0985122
0.775128 0.286412 0.0988937
0.0874189 0.202167 0.0129244
0.0996872 0.213733 0.0165713
0.108721 0.224842 0.0170443
0.117586 0.235737 0.0164034
0.126726 0.244709 0.0135958
0.140963 0.254459 0.00952163
0.158663 0.264149 0.00689708
0.178988 0.274052 0.00564584
0.206653 0.280339 0.00483711
0.239185 0.284993 0.00425727
0.285313 0.284855 0.00410468
0.33875 0.283787 0.005066
0.398871 0.281804 0.00712596
0.456306 0.281209 0.0118868
0.513298 0.280949 0.017792
0.555962 0.281529 0.0255131
0.596826 0.282261 0.0335088
0.624949 0.283879 0.0410925
0.651972 0.285679 0.0485084
0.672969 0.28867 0.0551003
0.692897 0.291752 0.0614176
0.709499 0.295552 0.067216
0.725307 0.299413 0.0728771
0.738811 0.303136 0.0783093
0.751431 0.306584 0.0834058
0.762158 0.309346 0.0880293
0.772045 0.311559 0.092256
0.780148 0.312657 0.0956588
0.787152 0.313207 0.0985733
0.791852 0.312657 0.100465
0.795468 0.311742 0.101976
0.797162 0.310704 0.102876
0.798291 0.30956 0.103593
0.094316 0.220386 0.0133974
0.105455 0.231815 0.0170291
0.114565 0.243824 0.0171664
0.123934 0.255131 0.0163424
0.133577 0.264714 0.0134279
0.147204 0.274357 0.00936904
0.163363 0.284077 0.0068513
0.180972 0.294072 0.00560006
0.205112 0.302007 0.00469978
0.234455 0.307958 0.00383001
0.273152 0.309865 0.00288396
0.322621 0.309239 0.00303655
0.377874 0.307195 0.00384527
0.436332 0.305928 0.00759899
0.494789 0.304738 0.0118868
0.542763 0.30518 0.0200198
0.588449 0.305715 0.0281376
0.622858 0.307027 0.0369726
0.654826 0.3084 0.0453803
0.679576 0.310628 0.052781
0.702327 0.313161 0.0597848
0.721248 0.316396 0.0661326
0.738689 0.319905 0.0722972
0.753567 0.323552 0.0781415
0.7673 0.327047 0.0837262
0.779019 0.330022 0.0888533
0.789807 0.332479 0.0935378
0.798932 0.334051 0.0974899
0.806622 0.334844 0.100816
0.812589 0.334859 0.10341
0.817197 0.334539 0.105608
0.819577 0.333501 0.106874
0.821225 0.33254 0.107805
0.10193 0.239261 0.0143587
0.11133 0.250416 0.017731
0.120928 0.26334 0.0179294
0.130922 0.275135 0.0167697
0.141497 0.285817 0.0135958
0.154879 0.295598 0.00973526
0.169726 0.305364 0.00747692
0.185534 0.314946 0.00627146
0.206958 0.32401 0.00540169
0.233509 0.330785 0.0043183
0.265949 0.335012 0.00297551
0.31017 0.334997 0.00227359
0.357595 0.333501 0.00172427
0.415427 0.331075 0.0034638
0.472465 0.329015 0.00619516
0.527138 0.329076 0.0142214
0.577676 0.329305 0.0227054
0.618662 0.330144 0.0326543
0.654948 0.331365 0.0418708
0.684169 0.33283 0.0502785
0.709728 0.334981 0.057969
0.731167 0.337743 0.0649424
0.75024 0.340902 0.0716106
0.766903 0.344579 0.0779278
0.781674 0.34789 0.0838788
0.794766 0.351141 0.0894179
0.806348 0.353628 0.094316
0.816587 0.355383 0.0987259
0.82536 0.356649 0.102541
0.832578 0.357092 0.105623
0.837766 0.356802 0.107881
0.84123 0.355962 0.109407
0.843107 0.354849 0.110384
0.11136 0.261158 0.0176852
0.119142 0.271656 0.020264
0.128405 0.284581 0.0205234
0.138582 0.29659 0.0190585
0.149538 0.307805 0.0161288
0.163088 0.318166 0.012665
0.177386 0.327901 0.0106661
0.192615 0.337362 0.00946059
0.211505 0.346456 0.00833143
0.236973 0.353475 0.00657664
0.265995 0.359091 0.00430304
0.307469 0.360067 0.00297551
0.351034 0.360204 0.00195315
0.403326 0.358053 0.00270085
0.455283 0.356191 0.00494392
0.508965 0.354879 0.0110628
0.559243 0.35433 0.018616
0.606195 0.35465 0.0284733
0.647227 0.355459 0.0380255
0.683314 0.356451 0.0475471
0.712978 0.358175 0.0559854
0.738582 0.360235 0.0637827
0.760021 0.362982 0.0709697
0.77911 0.366094 0.0777752
0.795132 0.3691 0.0839551
0.809812 0.372198 0.0898299
0.822599 0.374868 0.0951705
0.834257 0.377096 0.100114
0.84358 0.378317 0.103929
0.852033 0.378988 0.107317
0.857694 0.378637 0.109636
0.862058 0.377752 0.111452
0.864179 0.376623 0.112474
0.120714 0.283711 0.0213169
0.127077 0.293568 0.0229496
0.135607 0.30605 0.0230869
0.145892 0.317952 0.021622
0.157305 0.329641 0.0193637
0.170932 0.340536 0.0166781
0.184878 0.350347 0.0149538
0.199634 0.359762 0.0136721
0.216632 0.368795 0.0122835
0.240864 0.376242 0.0096437
0.267567 0.383047 0.00660716
0.306233 0.38526 0.00462348
0.346822 0.386587 0.00302129
0.39408 0.385153 0.00282292
0.44271 0.383597 0.00466926
0.493538 0.381704 0.00927749
0.543297 0.380758 0.0163882
0.592737 0.38027 0.0254978
0.636149 0.380407 0.0350042
0.676982 0.380804 0.0447395
0.70988 0.382101 0.0535286
0.740383 0.383597 0.0620584
0.764172 0.385809 0.0695811
0.786587 0.38851 0.0768902
0.80441 0.391394 0.0834669
0.821454 0.394263 0.0898451
0.835279 0.396521 0.0951553
0.848707 0.398505 0.100328
0.859205 0.399451 0.10425
0.869276 0.400168 0.107973
0.875914 0.399771 0.110506
0.881743 0.399115 0.112749
0.884291 0.398047 0.113924
0.129671 0.308278 0.0257115
0.135134 0.316655 0.0263066
0.142641 0.327855 0.0263218
0.153201 0.33991 0.0255741
0.16495 0.351888 0.0246281
0.17908 0.363287 0.023209
0.193606 0.373449 0.021973
0.208927 0.383108 0.0206607
0.22562 0.392386 0.0189517
0.249241 0.400076 0.0156863
0.275395 0.406943 0.0122377
0.310857 0.410529 0.0087129
0.349371 0.412879 0.0061799
0.392187 0.413138 0.00527962
0.436759 0.412024 0.00677501
0.482185 0.410315 0.0101167
0.529122 0.408408 0.0162356
0.576379 0.406561 0.0233463
0.62211 0.40589 0.0323491
0.667277 0.405447 0.0416571
0.704509 0.406241 0.0509194
0.740948 0.40708 0.0602884
0.767254 0.409064 0.0683146
0.793057 0.411063 0.076173
0.812268 0.41355 0.0828412
0.831662 0.415976 0.0894636
0.846586 0.417929 0.0948501
0.861677 0.419684 0.100237
0.87332 0.420386 0.104295
0.884916 0.420874 0.108309
0.892317 0.42031 0.110933
0.899687 0.419638 0.113481
0.902602 0.418509 0.114717
0.138537 0.332921 0.0298466
0.143603 0.340581 0.0301366
0.150088 0.350118 0.0303655
0.161105 0.362325 0.0307164
0.173205 0.37435 0.0308995
0.188144 0.386435 0.0303502
0.203159 0.396933 0.0293278
0.219364 0.40679 0.0277104
0.236301 0.416419 0.025803
0.259525 0.42417 0.0220188
0.285725 0.431128 0.018204
0.318334 0.435859 0.0140841
0.354879 0.438987 0.0115358
0.394873 0.440696 0.0102541
0.436072 0.440635 0.0117647
0.477897 0.439887 0.0142824
0.521385 0.437858 0.0193484
0.564279 0.435401 0.024567
0.608804 0.433341 0.0322728
0.652705 0.43125 0.0399634
0.692363 0.431144 0.0489509
0.731243 0.43093 0.0577554
0.761959 0.432563 0.0662089
0.792081 0.434211 0.0745098
0.814755 0.436271 0.0815595
0.837171 0.438224 0.0885176
0.854582 0.439643 0.0942245
0.871717 0.440879 0.0997482
0.885252 0.441245 0.104005
0.898482 0.441321 0.108156
0.907622 0.440513 0.111025
0.916594 0.439719 0.113802
0.920317 0.438575 0.115221
0.147417 0.357855 0.0338445
0.152087 0.364599 0.0343786
0.158343 0.372946 0.035172
0.16939 0.385122 0.0367895
0.182147 0.397284 0.0379034
0.198154 0.41001 0.0380713
0.213962 0.421088 0.0372625
0.231189 0.431174 0.0353094
0.249546 0.440681 0.0327916
0.272068 0.448814 0.0288396
0.297887 0.455604 0.0247654
0.327565 0.461311 0.0205997
0.362325 0.465126 0.0181735
0.399207 0.46862 0.0166018
0.437461 0.469474 0.0178531
0.475807 0.470314 0.0196841
0.515129 0.467613 0.023331
0.554421 0.465003 0.0272068
0.596979 0.461158 0.0330053
0.638621 0.457786 0.0391089
0.680766 0.456153 0.0473487
0.720638 0.455039 0.0555428
0.755367 0.456016 0.06421
0.78764 0.457115 0.0724498
0.814221 0.458701 0.0800793
0.838956 0.460258 0.0872206
0.859083 0.461601 0.0932784
0.878218 0.462394 0.0989395
0.894072 0.462242 0.103471
0.908751 0.461921 0.107576
0.920043 0.460594 0.110628
0.930205 0.459373 0.113359
0.935683 0.458045 0.115007
0.158297 0.383566 0.0399786
0.162493 0.389044 0.0409705
0.168704 0.396429 0.042298
0.179187 0.407965 0.0444343
0.192554 0.420554 0.0459144
0.209308 0.43386 0.0458991
0.226078 0.445655 0.0451057
0.244038 0.455726 0.042649
0.263111 0.464988 0.0396277
0.285267 0.473259 0.035462
0.311223 0.480171 0.031342
0.339315 0.486427 0.0273136
0.372839 0.4916 0.0255741
0.40679 0.496498 0.0242924
0.443503 0.498909 0.0258183
0.479667 0.50074 0.0275578
0.515938 0.498787 0.0301823
0.552666 0.496162 0.0331579
0.590448 0.491112 0.0368505
0.62884 0.486625 0.0413977
0.668589 0.482765 0.0474403
0.706752 0.480415 0.0541848
0.744366 0.479759 0.062211
0.779049 0.480079 0.0702525
0.810056 0.481331 0.0783398
0.837858 0.482536 0.0857404
0.861646 0.483482 0.0922866
0.883238 0.483742 0.0980545
0.901839 0.483268 0.102785
0.918471 0.482155 0.106905
0.931991 0.480415 0.110124
0.943328 0.478859 0.11284
0.950698 0.477378 0.114717
0.169848 0.408927 0.0467842
0.172976 0.412619 0.0478218
0.179263 0.419684 0.049546
0.188968 0.430488 0.0519875
0.203128 0.443626 0.0537118
0.22118 0.457984 0.054078
0.239002 0.47042 0.0532235
0.257267 0.48043 0.05037
0.277119 0.489601 0.0468452
0.298711 0.49781 0.0424964
0.324453 0.504906 0.0383459
0.351034 0.511742 0.0344091
0.38265 0.518196 0.0331426
0.414405 0.523995 0.0323491
0.448783 0.528313 0.0337072
0.482567 0.530785 0.0352636
0.516884 0.529809 0.037232
0.551186 0.526864 0.039353
0.586053 0.521477 0.0416876
0.621912 0.516289 0.0451057
0.658961 0.510872 0.0493477
0.695964 0.507286 0.0550546
0.733227 0.504952 0.061738
0.768017 0.504082 0.0690623
0.801526 0.504326 0.0767987
0.831022 0.504768 0.0839551
0.858488 0.505211 0.090837
0.882399 0.504967 0.0965744
0.904646 0.504356 0.101732
0.923537 0.502892 0.105852
0.940398 0.500908 0.109331
0.953582 0.499046 0.112062
0.963546 0.497032 0.114183
0.182513 0.434104 0.0542916
0.184314 0.436088 0.054902
0.190311 0.44303 0.056611
0.198596 0.45243 0.058854
0.213596 0.466621 0.0606699
0.2327 0.481712 0.0610361
0.251804 0.494621 0.0600137
0.270222 0.504845 0.057435
0.290425 0.513893 0.0538186
0.311284 0.522087 0.0496529
0.336736 0.529503 0.0457465
0.36286 0.536904 0.0424659
0.392447 0.544488 0.0413672
0.422675 0.551156 0.0411078
0.454414 0.557 0.0423743
0.486702 0.559884 0.0437629
0.519265 0.560433 0.0453651
0.552026 0.557671 0.046891
0.584894 0.55314 0.0484016
0.618189 0.54696 0.0505531
0.651286 0.540352 0.0528878
0.686244 0.535088 0.057084
0.721263 0.530297 0.061677
0.756466 0.528176 0.0681773
0.791684 0.52668 0.0750591
0.823636 0.526665 0.0822309
0.854704 0.526833 0.0893416
0.881163 0.526162 0.0951247
0.906844 0.525246 0.100587
0.928069 0.523415 0.104723
0.948043 0.521324 0.108461
0.962402 0.519173 0.111192
0.974838 0.517128 0.113588
0.195422 0.459861 0.0624399
0.196017 0.460227 0.0625925
0.20145 0.46656 0.0641489
0.209277 0.475303 0.066041
0.223789 0.489525 0.0680095
0.243626 0.505013 0.068101
0.263722 0.51838 0.0667582
0.282597 0.52903 0.0642557
0.302785 0.537865 0.0606088
0.32343 0.546105 0.0567788
0.347906 0.553964 0.053254
0.373342 0.56199 0.0507057
0.400931 0.570199 0.0497444
0.429877 0.577737 0.0499733
0.459693 0.584558 0.051133
0.490654 0.58793 0.0524453
0.521706 0.590005 0.0538796
0.553445 0.587488 0.055024
0.584802 0.583993 0.0560616
0.616556 0.577874 0.0575723
0.648035 0.571481 0.0590524
0.681056 0.565286 0.0621805
0.713405 0.559106 0.0652171
0.747112 0.555337 0.0704051
0.780377 0.551415 0.0754406
0.813214 0.549935 0.0816815
0.845945 0.548348 0.0878004
0.875319 0.547036 0.09337
0.904891 0.545861 0.0989242
0.928847 0.543923 0.10312
0.952453 0.542123 0.10721
0.968582 0.539956 0.11014
0.983932 0.537774 0.112932
0.208728 0.486 0.0714275
0.208209 0.484901 0.070985
0.212757 0.490333 0.0721599
0.219989 0.498207 0.073579
0.233478 0.51191 0.075639
0.254108 0.527993 0.0754711
0.274922 0.541802 0.0737774
0.294209 0.552804 0.0711223
0.31429 0.561547 0.067628
0.334936 0.569986 0.0642863
0.357931 0.57821 0.0612497
0.382666 0.586633 0.0593118
0.409049 0.595544 0.0584726
0.436774 0.603403 0.0589609
0.465049 0.611154 0.060029
0.494774 0.615396 0.0613413
0.524208 0.618952 0.0626078
0.554742 0.617014 0.0634012
0.585031 0.614832 0.0641489
0.615564 0.608896 0.0649882
0.645869 0.60264 0.0658427
0.676326 0.59527 0.0675212
0.706523 0.588251 0.069398
0.738384 0.582238 0.0728466
0.770123 0.576806 0.0764782
0.804028 0.573449 0.0816815
0.837217 0.570352 0.0867475
0.86923 0.568612 0.0920577
0.900816 0.566567 0.0971847
0.927428 0.564706 0.101534
0.953689 0.562829 0.105806
0.970916 0.560967 0.10901
0.988312 0.559304 0.112276
0.223026 0.513664 0.0809491
0.22269 0.512673 0.0804761
0.22536 0.515694 0.0810559
0.23209 0.522744 0.0822309
0.243595 0.534585 0.0841382
0.264637 0.551064 0.0838178
0.285863 0.564996 0.0816052
0.305684 0.576394 0.0785534
0.325383 0.585184 0.0749523
0.345953 0.593683 0.0717327
0.368002 0.602228 0.0690471
0.392233 0.61117 0.0677653
0.41706 0.620142 0.0670939
0.44416 0.628275 0.0678721
0.471015 0.636194 0.0688792
0.499641 0.640772 0.0700847
0.527947 0.644709 0.0712444
0.557107 0.644373 0.0719615
0.586175 0.643076 0.0726177
0.615671 0.638376 0.073106
0.644892 0.633204 0.0737621
0.674083 0.62591 0.0745861
0.703456 0.618723 0.0757916
0.732906 0.611307 0.0776226
0.763134 0.604623 0.0799268
0.795392 0.598856 0.0832227
0.827878 0.593805 0.0867781
0.861326 0.590524 0.0911116
0.893843 0.587579 0.0954299
0.923888 0.585718 0.0998856
0.951354 0.583993 0.104158
0.971023 0.582605 0.107927
0.988388 0.581262 0.111421
0.237537 0.541512 0.0905928
0.237232 0.540551 0.0901656
0.238041 0.541054 0.090135
0.244083 0.547234 0.0911879
0.254093 0.557336 0.0927901
0.275212 0.574273 0.0927443
0.296727 0.588159 0.0897993
0.316945 0.599725 0.086183
0.33637 0.608606 0.0821851
0.356863 0.617456 0.0791791
0.377935 0.626184 0.0768292
0.401328 0.635233 0.076112
0.425177 0.644419 0.0757916
0.451133 0.652689 0.0766918
0.477302 0.660441 0.0776532
0.504387 0.665949 0.0787518
0.531624 0.670161 0.0797284
0.55938 0.671519 0.0803693
0.587335 0.670939 0.080827
0.615641 0.667704 0.0810559
0.643839 0.66273 0.0812695
0.671931 0.656107 0.0815137
0.699962 0.648707 0.0819715
0.728176 0.640421 0.0826123
0.757671 0.632639 0.0838788
0.788235 0.625193 0.0856489
0.820203 0.619135 0.0881514
0.853437 0.613993 0.0912795
0.885786 0.610101 0.0948348
0.917372 0.607324 0.0988632
0.944717 0.605234 0.102815
0.967178 0.603906 0.106783
0.984634 0.60267 0.110231
0.253498 0.571191 0.101244
0.252796 0.56968 0.100633
0.252384 0.568536 0.10013
0.257832 0.573785 0.101061
0.266941 0.582086 0.102159
0.286427 0.597803 0.102617
0.308186 0.611627 0.0992294
0.328313 0.623011 0.0952316
0.347906 0.632486 0.0905623
0.368292 0.641352 0.0872206
0.388785 0.650233 0.0845045
0.411612 0.659297 0.0840162
0.434897 0.668284 0.0838941
0.459556 0.676509 0.0847639
0.484703 0.683925 0.0857252
0.510491 0.689937 0.0867628
0.536599 0.694041 0.0875563
0.562936 0.69662 0.0881666
0.589349 0.69662 0.0884871
0.616022 0.695033 0.0886091
0.64303 0.690776 0.0885786
0.670024 0.685481 0.0884718
0.697368 0.678248 0.0884108
0.724956 0.670146 0.0883345
0.753658 0.661555 0.0886397
0.782559 0.652705 0.0890059
0.813336 0.64509 0.0902724
0.844846 0.63801 0.0918288
0.877165 0.632898 0.0945449
0.909606 0.629023 0.0977798
0.937758 0.626535 0.101549
0.963317 0.625208 0.105684
0.980865 0.62414 0.109178
0.269444 0.600381 0.111879
0.268376 0.598428 0.111162
0.267002 0.595956 0.110231
0.271565 0.600015 0.11104
0.280186 0.607355 0.11194
0.297627 0.621164 0.112612
