LUT预设1/LUT全系打包/胶片lut系列/709胶片系列（正常色彩素材用这个）/lime橙调709.cube
TITLE "Generated by Resolve"
LUT_3D_SIZE 9
0.0617533 0.0587778 0.0499428
0.149325 0.0728466 0.0518959
0.263249 0.078233 0.0510872
0.34995 0.0835279 0.0545052
0.422065 0.0847334 0.0544289
0.481697 0.0784466 0.0494087
0.524224 0.0721752 0.0436103
0.539376 0.067216 0.0391546
0.534585 0.061326 0.0345312
0.0588998 0.114183 0.0378271
0.13901 0.144213 0.0325322
0.328984 0.161227 0.0502327
0.446937 0.171176 0.0670787
0.530663 0.168688 0.0681163
0.594965 0.170504 0.0709239
0.641413 0.179141 0.0784619
0.659815 0.175982 0.0793011
0.655818 0.168719 0.0754559
0.0758373 0.169268 0.0152743
0.118425 0.209216 0.0152438
0.228656 0.238621 0.00709544
0.441169 0.237171 0.0202945
0.585946 0.238209 0.0412757
0.665232 0.250919 0.0629282
0.718044 0.266896 0.0825055
0.747738 0.270161 0.0933242
0.751888 0.263416 0.0935836
0.10193 0.239261 0.0143587
0.141497 0.285817 0.0135958
0.206958 0.32401 0.00540169
0.357595 0.333501 0.00172427
0.577676 0.329305 0.0227054
0.709728 0.334981 0.057969
0.781674 0.34789 0.0838788
0.82536 0.356649 0.102541
0.843107 0.354849 0.110384
0.138537 0.332921 0.0298466
0.173205 0.37435 0.0308995
0.236301 0.416419 0.025803
0.354879 0.438987 0.0115358
0.521385 0.437858 0.0193484
0.692363 0.431144 0.0489509
0.814755 0.436271 0.0815595
0.885252 0.441245 0.104005
0.920317 0.438575 0.115221
0.182513 0.434104 0.0542916
0.213596 0.466621 0.0606699
0.290425 0.513893 0.0538186
0.392447 0.544488 0.0413672
0.519265 0.560433 0.0453651
0.651286 0.540352 0.0528878
0.791684 0.52668 0.0750591
0.906844 0.525246 0.100587
0.974838 0.517128 0.113588
0.237537 0.541512 0.0905928
0.254093 0.557336 0.0927901
0.33637 0.608606 0.0821851
0.425177 0.644419 0.0757916
0.531624 0.670161 0.0797284
0.643839 0.66273 0.0812695
0.757671 0.632639 0.0838788
0.885786 0.610101 0.0948348
0.984634 0.60267 0.110231
0.302251 0.656931 0.133944
0.308034 0.658045 0.132586
0.382589 0.702312 0.11928
0.462303 0.736156 0.108248
0.55079 0.762478 0.108156
0.645487 0.76733 0.106722
0.751385 0.745113 0.102495
0.859342 0.710811 0.100984
0.95761 0.689174 0.108019
0.344884 0.725292 0.163668
0.347662 0.72639 0.163424
0.413703 0.7673 0.15227
0.48539 0.801541 0.138048
0.563424 0.830793 0.132296
0.653681 0.842405 0.121706
0.751629 0.834379 0.116106
0.837324 0.816709 0.116548
0.923247 0.788022 0.117632
0.0424048 0.0608072 0.122133
0.129839 0.0626078 0.113634
0.230289 0.0682994 0.0983597
0.317006 0.0690318 0.0947127
0.393439 0.0755474 0.0976425
0.45742 0.0765393 0.0941176
0.503273 0.0673686 0.082414
0.52018 0.0575723 0.0710613
0.515724 0.052079 0.065095
0.0353399 0.119387 0.132921
0.122667 0.149798 0.155077
0.289433 0.172763 0.151141
0.420096 0.189227 0.160769
0.51252 0.203571 0.169375
0.579767 0.204944 0.16556
0.62678 0.195117 0.154269
0.645151 0.178927 0.139528
0.642084 0.170031 0.131487
0.0330358 0.170779 0.0986038
0.123003 0.218357 0.11754
0.280476 0.266972 0.102968
0.476417 0.285481 0.128466
0.601419 0.298665 0.149905
0.686854 0.308553 0.159472
0.748562 0.314702 0.167575
0.781353 0.309255 0.168444
0.783337 0.297322 0.161761
0.0477455 0.222416 0.0682078
0.163607 0.288365 0.0946975
0.269383 0.357931 0.0808881
0.431983 0.361746 0.0717327
0.61883 0.368338 0.0977188
0.737057 0.379904 0.124575
0.815488 0.395804 0.146944
0.863844 0.402274 0.161959
0.879377 0.394171 0.16405
0.0927291 0.286458 0.0535286
0.185428 0.359396 0.0821546
0.282795 0.440757 0.0875868
0.412604 0.466743 0.071931
0.566171 0.462943 0.0703136
0.715434 0.459556 0.0912184
0.833326 0.467704 0.119203
0.9066 0.472892 0.138872
0.942184 0.465385 0.144961
0.160693 0.375311 0.0610666
0.214908 0.437675 0.0904402
0.309651 0.523903 0.101747
0.416602 0.563195 0.0812238
0.542214 0.57966 0.0771344
0.665095 0.557824 0.0775006
0.799435 0.542351 0.0930953
0.914549 0.541421 0.116594
0.983459 0.532113 0.129274
0.220356 0.489403 0.0902724
0.247852 0.526802 0.109224
0.341726 0.610758 0.115267
0.434241 0.652293 0.0965286
0.540932 0.679194 0.095613
0.649516 0.671214 0.0932479
0.761166 0.640665 0.0932937
0.887221 0.617685 0.102647
0.985138 0.609705 0.117388
0.289097 0.622095 0.137987
0.299901 0.63473 0.141772
0.382193 0.699657 0.142412
0.463996 0.737072 0.122728
0.552544 0.765393 0.117632
0.646632 0.770886 0.112703
0.751553 0.748211 0.106447
0.858167 0.712154 0.103059
0.956771 0.689265 0.109071
0.337224 0.709636 0.167895
0.342824 0.715984 0.168704
0.411826 0.76466 0.162554
0.484459 0.800534 0.143267
0.561807 0.830198 0.134981
0.65185 0.8421 0.122957
0.749874 0.834653 0.116915
0.835676 0.816938 0.117021
0.92195 0.78764 0.117876
0.0340429 0.0725261 0.204578
0.0902113 0.0714275 0.198123
0.210071 0.0600137 0.175937
0.298711 0.059144 0.154726
0.373388 0.060914 0.147326
0.438605 0.0652018 0.145373
0.4916 0.0667277 0.138033
0.514519 0.0594492 0.125704
0.510246 0.0534829 0.118563
0.0317235 0.125628 0.230579
0.0755779 0.15668 0.256138
0.225452 0.161379 0.248127
0.355962 0.170459 0.226398
0.461723 0.177722 0.223911
0.540276 0.190021 0.229313
0.59678 0.190845 0.222568
0.623316 0.174166 0.202304
0.621607 0.163912 0.191623
0.0279393 0.181811 0.226795
0.0623331 0.219867 0.250782
0.211887 0.272068 0.285328
0.40209 0.303059 0.285924
0.54995 0.329198 0.29955
0.636927 0.344686 0.31136
0.700023 0.346853 0.310719
0.742504 0.326421 0.287297
0.751492 0.304601 0.264866
0.0285039 0.237644 0.222614
0.0606851 0.277226 0.238804
0.241703 0.356252 0.270604
0.429511 0.408331 0.266941
0.620462 0.437201 0.300725
0.730678 0.459113 0.329839
0.802518 0.46595 0.340597
0.854231 0.46096 0.337316
0.87541 0.443565 0.321981
0.0347295 0.293004 0.203586
0.0835279 0.332799 0.209979
0.285023 0.431525 0.248524
0.434073 0.505638 0.248875
0.602792 0.509331 0.242329
0.756695 0.526925 0.273716
0.868223 0.548592 0.313024
0.939681 0.560708 0.337072
0.975631 0.556023 0.340444
0.0640879 0.357488 0.176104
0.122042 0.38613 0.175708
0.316106 0.500862 0.230838
0.442985 0.585992 0.245975
0.586786 0.605188 0.221439
0.721187 0.601389 0.216999
0.854871 0.6112 0.250645
0.964691 0.626429 0.294377
0.999512 0.627909 0.314168
0.125841 0.426856 0.150774
0.171298 0.442786 0.151598
0.344335 0.571878 0.231479
0.457633 0.663218 0.259083
0.579538 0.699062 0.22945
0.702632 0.709499 0.216632
0.809949 0.696376 0.21474
0.92575 0.68751 0.235859
0.996674 0.689998 0.269001
0.225116 0.514229 0.152255
0.245747 0.524849 0.156237
0.376806 0.6542 0.247745
0.480613 0.739559 0.275792
0.581323 0.78056 0.248096
0.687922 0.802792 0.228565
0.792157 0.796872 0.213901
0.889006 0.772015 0.203586
0.974319 0.754177 0.214496
0.292531 0.591897 0.171572
0.300526 0.601831 0.174731
0.405493 0.723507 0.261799
0.501808 0.803174 0.28661
0.587747 0.843931 0.259342
0.681392 0.872526 0.235492
0.776699 0.878508 0.213794
0.861311 0.865599 0.198077
0.940581 0.837568 0.1879
0.0328374 0.0854047 0.276295
0.0694285 0.082948 0.267308
0.178485 0.0766308 0.253941
0.279454 0.0613565 0.233494
0.366857 0.0529641 0.206958
0.437415 0.0548867 0.195529
0.491188 0.0596933 0.185229
0.51635 0.0570077 0.172595
0.512276 0.0516518 0.165194
0.0318456 0.140169 0.304692
0.0633707 0.169696 0.32987
0.17052 0.173404 0.328038
0.314015 0.168933 0.311803
0.435355 0.169345 0.284947
0.524254 0.176074 0.277272
0.588006 0.185031 0.273167
0.622858 0.178927 0.258854
0.623728 0.170184 0.248829
0.0283207 0.188815 0.307424
0.0525216 0.224063 0.330709
0.150652 0.277943 0.375235
0.314946 0.29546 0.383719
0.481956 0.310933 0.357305
0.59382 0.324147 0.357763
0.668299 0.330785 0.359701
0.71725 0.320348 0.344228
0.731228 0.302251 0.323888
0.0294957 0.248692 0.323369
0.0500649 0.284108 0.341085
0.150942 0.352193 0.38883
0.331518 0.408377 0.426734
0.536339 0.441032 0.423789
0.674296 0.46804 0.436301
0.756176 0.478828 0.443854
0.808713 0.46714 0.431907
0.830823 0.441123 0.40557
0.0327001 0.309819 0.327703
0.0518654 0.341299 0.339574
0.167956 0.415366 0.372763
0.379477 0.497337 0.409339
0.573388 0.543069 0.415396
0.739422 0.569696 0.445914
0.847257 0.597925 0.47953
0.912047 0.60354 0.491066
0.94052 0.584527 0.477409
0.0387274 0.371939 0.324346
0.0580453 0.393347 0.325399
0.199725 0.472374 0.345968
0.419196 0.573327 0.390921
0.572824 0.639307 0.400504
0.730816 0.639689 0.398779
0.873655 0.667018 0.440879
0.975464 0.694972 0.486503
0.999878 0.695918 0.498909
0.0559396 0.430564 0.301976
0.0767376 0.441245 0.294347
0.248905 0.52343 0.308492
0.452277 0.640528 0.37937
0.578576 0.715099 0.398169
0.712795 0.727031 0.376913
0.841123 0.728038 0.381125
0.956008 0.746334 0.422339
0.999802 0.763943 0.465385
0.112627 0.499062 0.266651
0.129793 0.502586 0.259663
0.306111 0.582666 0.287556
0.475471 0.706676 0.373724
0.586847 0.78468 0.404456
0.700069 0.812558 0.380621
0.819821 0.822309 0.372091
0.922835 0.817136 0.375326
0.992172 0.815885 0.400443
0.176608 0.548547 0.235904
0.1888 0.549142 0.227451
0.356741 0.636484 0.276905
0.500771 0.772503 0.384436
0.598077 0.845869 0.416403
0.693599 0.88101 0.389761
0.797284 0.90454 0.376303
0.895842 0.905791 0.365179
0.980041 0.889784 0.356588
0.0327153 0.0995346 0.340139
0.0588846 0.0949111 0.329122
0.147814 0.0911727 0.320699
0.248234 0.0835431 0.315953
0.339773 0.0629129 0.289631
0.425147 0.0494392 0.261585
0.494514 0.0490425 0.241993
0.524208 0.0494545 0.225071
0.520073 0.0443732 0.216587
0.032105 0.154314 0.377111
0.0588235 0.182361 0.398352
0.13727 0.185824 0.394018
0.259174 0.18761 0.389715
0.391913 0.177829 0.372671
0.506355 0.170932 0.344732
0.58674 0.175372 0.327672
0.628107 0.175906 0.31281
0.631312 0.169894 0.3037
0.0288396 0.201236 0.382162
0.0500343 0.234134 0.400656
0.127275 0.288136 0.436103
0.24686 0.306279 0.457694
0.413077 0.307881 0.443748
0.55874 0.314473 0.414694
0.651118 0.320439 0.404822
0.708019 0.316579 0.393957
0.726787 0.305119 0.379217
0.0300145 0.256535 0.393378
0.0484932 0.288533 0.408621
0.125368 0.353735 0.451926
0.267185 0.412924 0.50692
0.437018 0.433021 0.510491
0.611078 0.452094 0.489952
0.717021 0.463676 0.487572
0.782025 0.455497 0.47834
0.809598 0.434119 0.456641
0.0336309 0.318379 0.406332
0.0495613 0.346761 0.419928
0.12874 0.415732 0.460868
0.284489 0.490364 0.514931
0.478889 0.544198 0.542901
0.673961 0.574685 0.547829
0.796292 0.598978 0.563256
0.869444 0.604242 0.567056
0.904662 0.583871 0.547036
0.0390936 0.382864 0.418372
0.051606 0.401434 0.424308
0.133822 0.471672 0.45597
0.30573 0.555596 0.496513
0.534127 0.633722 0.52903
0.710201 0.668162 0.539712
0.856565 0.693004 0.575631
0.953536 0.721798 0.607767
0.992142 0.722972 0.611582
0.0479591 0.443091 0.419028
0.057145 0.451133 0.417258
0.14374 0.522377 0.438315
0.333516 0.609033 0.467277
0.556405 0.702617 0.513497
0.698146 0.75433 0.526558
0.84683 0.761593 0.533394
0.967605 0.786023 0.571099
1 0.811185 0.609171
0.0657816 0.502358 0.401144
0.0725109 0.504021 0.394934
0.180896 0.572244 0.403372
0.389715 0.661158 0.433783
0.578759 0.767605 0.502876
0.695598 0.831754 0.523674
0.824063 0.845808 0.510307
0.942855 0.846815 0.516182
0.997604 0.860227 0.548867
0.0893721 0.545556 0.375235
0.0938735 0.544625 0.365179
0.22385 0.61149 0.366583
0.448753 0.704631 0.407019
0.597406 0.824964 0.49929
0.698299 0.891783 0.524971
0.802472 0.920745 0.50837
0.91519 0.93286 0.501945
0.996002 0.925978 0.501305
0.0326543 0.112184 0.401053
0.0531624 0.106249 0.386969
0.120409 0.102449 0.380591
0.210575 0.0987411 0.376394
0.303944 0.0874952 0.372442
0.390494 0.0622263 0.34406
0.471427 0.0426337 0.313252
0.517861 0.0376898 0.292348
0.516548 0.0328222 0.282948
0.0324102 0.168597 0.435645
0.0562905 0.195529 0.454536
0.113893 0.196719 0.451255
0.213214 0.201114 0.452628
0.331533 0.197925 0.448661
0.454536 0.183261 0.430076
0.564111 0.169589 0.39939
0.630838 0.165896 0.375982
0.639338 0.160739 0.365805
0.0294957 0.216388 0.440269
0.0496834 0.247898 0.461418
0.118791 0.299733 0.494896
0.21207 0.316854 0.513817
0.336339 0.320592 0.520378
0.494667 0.3178 0.501915
0.628702 0.314885 0.470436
0.704616 0.310674 0.448127
0.728542 0.30219 0.433082
0.0306859 0.267948 0.454429
0.0488746 0.297765 0.47129
0.114443 0.358221 0.509819
0.239353 0.42034 0.563455
0.360998 0.438636 0.587747
0.528206 0.443671 0.570443
0.67866 0.45301 0.543511
0.764813 0.449226 0.52604
0.80264 0.43209 0.508019
0.0344244 0.324697 0.469841
0.0498054 0.350668 0.481621
0.115648 0.41352 0.519936
0.242786 0.489632 0.578225
0.396872 0.546181 0.630793
0.569528 0.566827 0.629969
0.737743 0.585199 0.614954
0.833997 0.58996 0.60972
0.880766 0.572503 0.593393
0.0404364 0.387076 0.484627
0.0522316 0.404135 0.491722
0.119326 0.471443 0.529656
0.242451 0.553307 0.583764
0.430442 0.625803 0.635645
0.633829 0.673106 0.654398
0.801999 0.697002 0.665812
0.909148 0.717098 0.681208
0.966613 0.716777 0.679393
0.0502937 0.450507 0.496895
0.0579232 0.458015 0.497414
0.120897 0.524483 0.528008
0.244434 0.606577 0.570031
0.459907 0.686778 0.608545
0.665705 0.751598 0.637324
0.831815 0.784344 0.656992
0.962051 0.809491 0.693645
0.999542 0.831266 0.720729
0.0618906 0.510872 0.495872
0.0652934 0.511238 0.491966
0.129335 0.573632 0.513283
0.262348 0.654612 0.541054
0.485405 0.737423 0.573587
0.678874 0.821057 0.625071
0.817136 0.871 0.640391
0.955047 0.879667 0.652522
0.999695 0.898726 0.686839
0.070634 0.548257 0.480293
0.0714427 0.546807 0.473838
0.138872 0.607752 0.484886
0.299809 0.690806 0.498146
0.532677 0.777157 0.536828
0.690898 0.876463 0.611231
0.803281 0.938796 0.634256
0.925902 0.960296 0.629313
0.999466 0.95819 0.632181
0.0325475 0.120974 0.443153
0.050248 0.113359 0.432105
0.099733 0.109483 0.427466
0.174746 0.106554 0.424918
0.261555 0.100404 0.42237
0.350698 0.0848249 0.416083
0.429938 0.0558633 0.386984
0.47567 0.0340887 0.360388
0.475212 0.0266575 0.351354
0.0326238 0.17998 0.483253
0.05449 0.203891 0.50544
0.0963607 0.202945 0.498482
0.170184 0.208103 0.50396
0.268727 0.207355 0.503807
0.382467 0.200931 0.500496
0.500816 0.180758 0.481117
0.58883 0.158877 0.452216
0.609064 0.149081 0.439948
0.0299229 0.228092 0.496986
0.0511177 0.258473 0.525185
0.10901 0.306447 0.552331
0.18201 0.322866 0.564904
0.281132 0.328328 0.578103
0.403876 0.328832 0.579049
0.553658 0.320897 0.560983
0.675151 0.307576 0.527413
0.722148 0.296849 0.504936
0.0315557 0.277363 0.517449
0.0509041 0.30724 0.535332
0.108324 0.364004 0.566308
0.214572 0.424994 0.617197
0.319509 0.444755 0.643519
0.433494 0.448203 0.651194
0.59295 0.447501 0.6318
0.732052 0.443488 0.600305
0.796765 0.432578 0.575662
0.0361944 0.332433 0.532647
0.0515755 0.356863 0.541039
0.108614 0.414282 0.57467
0.21619 0.488487 0.632242
0.362264 0.548989 0.690486
0.476417 0.56643 0.712978
0.635477 0.570199 0.694743
0.789837 0.577386 0.668635
0.861494 0.570397 0.649897
0.042359 0.391455 0.541939
0.053193 0.405997 0.547753
0.110506 0.466499 0.58407
0.212467 0.545159 0.639506
0.372412 0.619623 0.702785
0.533516 0.670665 0.747997
0.699367 0.688762 0.745449
0.851438 0.702541 0.736171
0.935073 0.705913 0.730282
0.0519417 0.453437 0.557488
0.058854 0.460166 0.558984
0.114244 0.522606 0.593423
0.215412 0.6047 0.645731
0.37847 0.68162 0.700557
0.57818 0.744808 0.743221
0.769604 0.787839 0.765866
0.920027 0.812039 0.784939
0.98996 0.825803 0.797955
0.0635843 0.517723 0.570001
0.0661326 0.517021 0.566278
0.118578 0.576028 0.593591
0.213794 0.65684 0.637888
0.37351 0.732631 0.678538
0.596277 0.803525 0.715068
0.787015 0.866072 0.750759
0.952819 0.899092 0.777462
0.999802 0.922057 0.815015
0.0711986 0.558099 0.567346
0.0717327 0.556558 0.56112
0.118273 0.610803 0.579522
0.215274 0.693111 0.615335
0.385885 0.768917 0.641001
0.612726 0.843992 0.676432
0.783246 0.925032 0.73196
0.920699 0.976898 0.754101
0.999817 0.984237 0.767697
0.0322576 0.121843 0.45069
0.049836 0.113542 0.440177
0.0941634 0.109865 0.437263
0.163928 0.106996 0.437919
0.246006 0.101305 0.435401
0.331655 0.0903029 0.435569
0.413657 0.0649271 0.414588
0.450355 0.0373083 0.384222
0.447852 0.0283207 0.373953
0.0323186 0.181796 0.497368
0.0538033 0.204685 0.523705
0.0891585 0.203006 0.518456
0.151217 0.209216 0.526146
0.23534 0.208209 0.528969
0.33991 0.204791 0.525612
0.45864 0.190707 0.521202
0.544686 0.164172 0.495735
0.560769 0.150042 0.482063
0.0297856 0.232593 0.530297
0.0521859 0.263127 0.56556
0.100877 0.308309 0.591211
0.158053 0.322133 0.601816
0.240085 0.330846 0.613031
0.340902 0.331121 0.622751
0.468147 0.327901 0.619486
0.604639 0.31368 0.603159
0.670359 0.298833 0.581842
0.0323186 0.282383 0.560525
0.0521096 0.312642 0.579202
0.103655 0.367422 0.610483
0.191546 0.423926 0.659327
0.281132 0.445884 0.682307
0.379049 0.451209 0.701427
0.491234 0.450355 0.702647
0.639048 0.442832 0.686183
0.739406 0.432532 0.662455
0.0375372 0.337621 0.57615
0.0527657 0.361288 0.586664
0.104555 0.4168 0.622904
0.195834 0.486015 0.67982
0.329213 0.551492 0.738872
0.441978 0.570031 0.77023
0.53077 0.570397 0.776226
0.677241 0.565072 0.756008
0.81004 0.562219 0.731701
0.043946 0.394247 0.590326
0.0541848 0.40795 0.597391
0.105104 0.464729 0.634714
0.193088 0.538079 0.689891
0.332525 0.615396 0.755032
0.489158 0.67039 0.816281
0.589639 0.688106 0.831876
0.745663 0.687694 0.812558
0.885527 0.692653 0.795254
0.0531624 0.455085 0.608804
0.0594034 0.460822 0.611124
0.108248 0.516823 0.645548
0.194842 0.593256 0.698512
0.33019 0.671595 0.760403
0.508293 0.738903 0.823255
0.680079 0.788037 0.860273
0.847196 0.806348 0.864332
0.960021 0.815991 0.857832
0.0646525 0.519539 0.628824
0.0668498 0.518639 0.626139
0.114321 0.574258 0.657023
0.19881 0.65301 0.706798
0.325017 0.729686 0.761852
0.511879 0.799207 0.817273
0.715312 0.859785 0.857099
0.903441 0.904341 0.884215
0.997421 0.923949 0.907729
0.0734112 0.564874 0.638086
0.073991 0.563851 0.633188
0.114137 0.61413 0.655192
0.194965 0.695125 0.700542
0.310018 0.771282 0.748669
0.492668 0.841993 0.791989
0.711009 0.908644 0.827115
0.891691 0.968322 0.862348
0.996902 0.994507 0.894606
0.0322423 0.122087 0.451026
0.049897 0.113283 0.440101
0.0938277 0.109407 0.436637
0.16408 0.106294 0.436851
0.246311 0.100404 0.434714
0.33138 0.0895552 0.434806
0.413245 0.0642863 0.413901
0.449348 0.0369573 0.3841
0.446281 0.0282139 0.374365
0.0321355 0.181323 0.496925
0.0535897 0.203845 0.522881
0.0890211 0.202152 0.517968
0.150759 0.208377 0.525765
0.234424 0.207309 0.52874
0.337789 0.204044 0.525689
0.455467 0.190768 0.523339
0.539895 0.164828 0.499733
0.553903 0.150332 0.485969
0.0294194 0.231861 0.530388
0.051957 0.262547 0.566247
0.0997787 0.308125 0.594186
0.154788 0.320623 0.604486
0.23267 0.330144 0.617472
0.328252 0.33022 0.630289
0.445151 0.327794 0.62977
0.579019 0.315724 0.622141
0.644984 0.299886 0.603571
0.0320287 0.282353 0.564706
0.0518807 0.312657 0.585977
0.102358 0.3673 0.62063
0.184817 0.422629 0.670924
0.26627 0.444755 0.694789
0.360571 0.450904 0.714839
0.456199 0.451301 0.723751
0.594034 0.443931 0.716396
0.694255 0.431586 0.697581
0.0377813 0.338338 0.587564
0.0527962 0.361822 0.600443
0.103029 0.417166 0.64097
0.188342 0.484428 0.698497
0.31397 0.5523 0.759503
0.429526 0.573068 0.790555
0.511131 0.57319 0.81001
0.607492 0.567605 0.796613
0.73843 0.554894 0.778851
0.044419 0.394934 0.605997
0.0543679 0.40827 0.615351
0.103243 0.464408 0.657374
0.187335 0.537026 0.715175
0.317311 0.614801 0.782498
0.480446 0.673228 0.848951
0.568521 0.691951 0.880552
0.653941 0.689937 0.86743
0.815915 0.682078 0.848127
0.0535134 0.454612 0.631235
0.0594339 0.459968 0.636347
0.105043 0.513466 0.675425
0.185382 0.587762 0.730617
0.309026 0.667124 0.795041
0.486809 0.738491 0.867414
0.639612 0.791867 0.91812
0.785565 0.809293 0.923842
0.922667 0.80943 0.913893
0.064683 0.518746 0.657237
0.0665751 0.517433 0.657038
0.11017 0.569192 0.69192
0.188052 0.644343 0.743297
0.30161 0.722026 0.802319
0.476036 0.793713 0.870604
0.667994 0.858366 0.928634
0.872953 0.909316 0.965484
0.995743 0.925383 0.973556
0.0737621 0.565393 0.675669
0.0744182 0.564645 0.67425
0.112383 0.613123 0.702312
0.190661 0.693721 0.754482
0.298863 0.771893 0.812253
0.459709 0.844205 0.876341
0.656077 0.911208 0.928618
0.860609 0.9664 0.962432
0.987823 0.997009 0.984375
