LUT预设1/LUT全系打包/胶片lut系列/709胶片系列（正常色彩素材用这个）/lime橙调709.cube
TITLE "Generated by Resolve"
LUT_3D_SIZE 5
0.0617533 0.0587778 0.0499428
0.263249 0.078233 0.0510872
0.422065 0.0847334 0.0544289
0.524224 0.0721752 0.0436103
0.534585 0.061326 0.0345312
0.0758373 0.169268 0.0152743
0.228656 0.238621 0.00709544
0.585946 0.238209 0.0412757
0.718044 0.266896 0.0825055
0.751888 0.263416 0.0935836
0.138537 0.332921 0.0298466
0.236301 0.416419 0.025803
0.521385 0.437858 0.0193484
0.814755 0.436271 0.0815595
0.920317 0.438575 0.115221
0.237537 0.541512 0.0905928
0.33637 0.608606 0.0821851
0.531624 0.670161 0.0797284
0.757671 0.632639 0.0838788
0.984634 0.60267 0.110231
0.344884 0.725292 0.163668
0.413703 0.7673 0.15227
0.563424 0.830793 0.132296
0.751629 0.834379 0.116106
0.923247 0.788022 0.117632
0.0340429 0.0725261 0.204578
0.210071 0.0600137 0.175937
0.373388 0.060914 0.147326
0.4916 0.0667277 0.138033
0.510246 0.0534829 0.118563
0.0279393 0.181811 0.226795
0.211887 0.272068 0.285328
0.54995 0.329198 0.29955
0.700023 0.346853 0.310719
0.751492 0.304601 0.264866
0.0347295 0.293004 0.203586
0.285023 0.431525 0.248524
0.602792 0.509331 0.242329
0.868223 0.548592 0.313024
0.975631 0.556023 0.340444
0.125841 0.426856 0.150774
0.344335 0.571878 0.231479
0.579538 0.699062 0.22945
0.809949 0.696376 0.21474
0.996674 0.689998 0.269001
0.292531 0.591897 0.171572
0.405493 0.723507 0.261799
0.587747 0.843931 0.259342
0.776699 0.878508 0.213794
0.940581 0.837568 0.1879
0.0327153 0.0995346 0.340139
0.147814 0.0911727 0.320699
0.339773 0.0629129 0.289631
0.494514 0.0490425 0.241993
0.520073 0.0443732 0.216587
0.0288396 0.201236 0.382162
0.127275 0.288136 0.436103
0.413077 0.307881 0.443748
0.651118 0.320439 0.404822
0.726787 0.305119 0.379217
0.0336309 0.318379 0.406332
0.12874 0.415732 0.460868
0.478889 0.544198 0.542901
0.796292 0.598978 0.563256
0.904662 0.583871 0.547036
0.0479591 0.443091 0.419028
0.14374 0.522377 0.438315
0.556405 0.702617 0.513497
0.84683 0.761593 0.533394
1 0.811185 0.609171
0.0893721 0.545556 0.375235
0.22385 0.61149 0.366583
0.597406 0.824964 0.49929
0.802472 0.920745 0.50837
0.996002 0.925978 0.501305
0.0325475 0.120974 0.443153
0.099733 0.109483 0.427466
0.261555 0.100404 0.42237
0.429938 0.0558633 0.386984
0.475212 0.0266575 0.351354
0.0299229 0.228092 0.496986
0.10901 0.306447 0.552331
0.281132 0.328328 0.578103
0.553658 0.320897 0.560983
0.722148 0.296849 0.504936
0.0361944 0.332433 0.532647
0.108614 0.414282 0.57467
0.362264 0.548989 0.690486
0.635477 0.570199 0.694743
0.861494 0.570397 0.649897
0.0519417 0.453437 0.557488
0.114244 0.522606 0.593423
0.37847 0.68162 0.700557
0.769604 0.787839 0.765866
0.98996 0.825803 0.797955
0.0711986 0.558099 0.567346
0.118273 0.610803 0.579522
0.385885 0.768917 0.641001
0.783246 0.925032 0.73196
0.999817 0.984237 0.767697
0.0322423 0.122087 0.451026
0.0938277 0.109407 0.436637
0.246311 0.100404 0.434714
0.413245 0.0642863 0.413901
0.446281 0.0282139 0.374365
0.0294194 0.231861 0.530388
0.0997787 0.308125 0.594186
0.23267 0.330144 0.617472
0.445151 0.327794 0.62977
0.644984 0.299886 0.603571
0.0377813 0.338338 0.587564
0.103029 0.417166 0.64097
0.31397 0.5523 0.759503
0.511131 0.57319 0.81001
0.73843 0.554894 0.778851
0.0535134 0.454612 0.631235
0.105043 0.513466 0.675425
0.309026 0.667124 0.795041
0.639612 0.791867 0.91812
0.922667 0.80943 0.913893
0.0737621 0.565393 0.675669
0.112383 0.613123 0.702312
0.298863 0.771893 0.812253
0.656077 0.911208 0.928618
0.987823 0.997009 0.984375
