LUT预设1/LUT全系打包/胶片lut系列/709胶片系列（正常色彩素材用这个）/富士cn709.cube
TITLE "Generated by Resolve"
LUT_3D_SIZE 5
0.0175631 0.0151827 0.0146029
0.148959 0.0381628 0.0189975
0.335714 0.0676432 0.0252079
0.572061 0.0976425 0.0246891
0.800641 0.12108 0.0206455
0.0307622 0.181384 0.124163
0.205295 0.215961 0.146899
0.472892 0.239933 0.133013
0.741039 0.238453 0.0924239
0.933364 0.231632 0.0728466
0.0207218 0.470375 0.281468
0.154482 0.511467 0.302205
0.541695 0.567529 0.329931
0.845121 0.594965 0.31342
0.980682 0.56556 0.237537
0.00347906 0.740078 0.36965
0.0972 0.760281 0.379248
0.639048 0.834012 0.386221
0.921813 0.888563 0.435691
0.972152 0.842649 0.389166
0.00259403 0.782132 0.29868
0.0562142 0.775586 0.28188
0.470603 0.806516 0.265736
0.795758 0.876448 0.345907
0.932296 0.911788 0.415335
0.0467231 0.0522316 0.105348
0.205127 0.0755779 0.105669
0.410971 0.108141 0.103578
0.680079 0.147219 0.0924849
0.922255 0.182376 0.0777142
0.0527352 0.215488 0.231144
0.227527 0.244846 0.239933
0.526894 0.285954 0.243702
0.841657 0.305043 0.230594
0.98024 0.282399 0.207645
0.0226139 0.526726 0.448188
0.153338 0.557366 0.469749
0.576562 0.604639 0.474388
0.891905 0.628382 0.465644
0.970596 0.550332 0.354482
0.0138247 0.786511 0.590875
0.0975662 0.793606 0.592721
0.57499 0.829862 0.577417
0.900053 0.881422 0.627237
0.964736 0.809522 0.548486
0.000122072 0.829557 0.577081
0.0165103 0.800793 0.551232
0.270878 0.75819 0.47538
0.703563 0.867369 0.571557
0.915999 0.92256 0.637171
0.0914168 0.121157 0.264485
0.270191 0.134997 0.25716
0.501778 0.162982 0.248737
0.796445 0.208438 0.243595
0.98294 0.220172 0.229786
0.107256 0.283864 0.401755
0.291478 0.302708 0.405798
0.621347 0.347082 0.408072
0.909895 0.360815 0.412879
0.989227 0.319081 0.382254
0.0830396 0.597284 0.645655
0.221241 0.61767 0.658351
0.662547 0.653254 0.640055
0.930632 0.65977 0.622232
0.968902 0.539437 0.478889
0.0740215 0.856962 0.827298
0.150713 0.856428 0.823102
0.590234 0.855344 0.766659
0.912047 0.887755 0.778744
0.973693 0.804364 0.685603
0.000579843 0.876539 0.812619
0.0111238 0.84651 0.786801
0.261952 0.789944 0.675807
0.692714 0.879652 0.728939
0.928908 0.933593 0.780224
0.143191 0.209873 0.469459
0.317983 0.22092 0.469871
0.611933 0.239139 0.455619
0.914351 0.281483 0.453895
0.999664 0.266041 0.449454
0.147494 0.382712 0.640452
0.359197 0.411017 0.646235
0.735363 0.431388 0.626535
0.949615 0.39942 0.59411
0.991089 0.330877 0.528634
0.203311 0.688548 0.846342
0.330053 0.711284 0.858991
0.722591 0.69688 0.805325
0.92282 0.630884 0.71873
0.978805 0.539345 0.614572
0.142138 0.911818 0.97554
0.201709 0.90576 0.968139
0.613581 0.879026 0.910842
0.919371 0.885878 0.87808
0.976944 0.80145 0.781567
0.00015259 0.908919 0.960967
0.0134127 0.880003 0.937514
0.313848 0.836454 0.840635
0.715084 0.902632 0.853025
0.939116 0.939178 0.874983
0.1888 0.30135 0.693767
0.335698 0.311116 0.699336
0.680278 0.319371 0.672953
0.975601 0.333318 0.646922
1 0.287297 0.603525
0.167163 0.481331 0.852903
0.374838 0.521111 0.855146
0.755627 0.490517 0.803128
0.957794 0.386419 0.695186
0.994232 0.307774 0.615381
0.224384 0.776104 0.965972
0.299977 0.784161 0.971862
0.583963 0.688762 0.91014
0.856596 0.57116 0.779385
0.969406 0.507286 0.691478
0.163073 0.945739 0.989487
0.191959 0.93312 0.989776
0.513008 0.865461 0.975097
0.813046 0.830869 0.91873
0.953429 0.77322 0.839078
0 0.933379 0.987198
0.0220035 0.905226 0.982712
0.353933 0.870863 0.949371
0.730007 0.92076 0.948119
0.935164 0.936156 0.937682
