LUT预设1/LUT全系打包/胶片lut系列/709胶片系列（正常色彩素材用这个）/富士cn709.cube
TITLE "Generated by Resolve"
LUT_3D_SIZE 33
0.0175631 0.0151827 0.0146029
0.0272831 0.0171664 0.0155337
0.0396887 0.0193637 0.0161898
0.0535744 0.0215763 0.0164797
0.0710307 0.0246281 0.016846
0.0881666 0.0277714 0.017319
0.108202 0.0312657 0.0178531
0.128206 0.0346838 0.0183261
0.148959 0.0381628 0.0189975
0.170062 0.0416114 0.0197147
0.191608 0.0450904 0.0204318
0.21384 0.0488136 0.0213779
0.236194 0.0523232 0.0221256
0.26009 0.0561837 0.0229801
0.284352 0.059968 0.0237583
0.309438 0.0638132 0.0245365
0.335714 0.0676432 0.0252079
0.361868 0.0713207 0.0257267
0.390112 0.0751202 0.025864
0.418219 0.0787366 0.025803
0.44744 0.0823224 0.0255131
0.478172 0.0863203 0.0253605
0.508949 0.0902876 0.0251774
0.54052 0.0939956 0.0249485
0.572061 0.0976425 0.0246891
0.603449 0.101106 0.0243687
0.633814 0.104479 0.0242313
0.664378 0.107774 0.0239719
0.693187 0.11075 0.0235294
0.721523 0.113603 0.0229801
0.749157 0.116396 0.0224002
0.775082 0.118761 0.0215152
0.800641 0.12108 0.0206455
0.0206912 0.0264439 0.0218967
0.032517 0.0290837 0.0231022
0.0441749 0.0316014 0.0242313
0.0597238 0.0343328 0.0248569
0.0768292 0.0371099 0.0252384
0.0952468 0.0400397 0.0256657
0.11577 0.0430457 0.0259251
0.136172 0.0460517 0.0262455
0.157885 0.049073 0.0266423
0.179568 0.0519417 0.0268406
0.20209 0.0550088 0.0272374
0.224872 0.0581521 0.0276951
0.248066 0.0619821 0.0285039
0.272816 0.0659953 0.0293278
0.29778 0.0698558 0.029984
0.324178 0.0736858 0.0305028
0.350744 0.0773022 0.030808
0.378103 0.080766 0.0308232
0.406973 0.0842756 0.0306859
0.435813 0.0875257 0.0304112
0.466178 0.0907301 0.0298466
0.497215 0.0937972 0.0290379
0.528466 0.0968185 0.028275
0.559899 0.0998398 0.0276493
0.591699 0.102785 0.0269017
0.622385 0.105791 0.0264591
0.65272 0.108827 0.0261082
0.682826 0.111757 0.0256046
0.711086 0.114565 0.0250248
0.739193 0.117556 0.0245365
0.76582 0.120104 0.023743
0.791196 0.122393 0.022858
0.816358 0.124681 0.022034
0.0258488 0.0402533 0.0315099
0.0367132 0.0424353 0.0324102
0.0482185 0.0451514 0.0336004
0.0649424 0.0482338 0.0344091
0.0816205 0.0512398 0.0352026
0.10164 0.054551 0.0359197
0.122286 0.0578927 0.0365606
0.143633 0.0611887 0.0371557
0.165667 0.0644999 0.0376287
0.188052 0.0676738 0.0379339
0.211643 0.0710155 0.0382696
0.23508 0.0741436 0.0384375
0.260212 0.0774243 0.038529
0.28574 0.0806592 0.0385901
0.311849 0.083711 0.038468
0.339223 0.0865644 0.0382544
0.366735 0.08925 0.0380865
0.39556 0.0917983 0.0374762
0.424628 0.0941176 0.0365301
0.454444 0.0967269 0.0355688
0.485786 0.0997787 0.0345922
0.51696 0.102525 0.0333257
0.548623 0.105379 0.0323491
0.580133 0.108095 0.0313573
0.61146 0.110658 0.0302892
0.64181 0.113344 0.0296483
0.671885 0.115801 0.0288396
0.700969 0.118166 0.027985
0.728725 0.120455 0.0272068
0.756649 0.122637 0.0263066
0.781857 0.12459 0.02533
0.807111 0.126558 0.0243992
0.831312 0.128435 0.0234836
0.0286259 0.0594797 0.0443122
0.0382696 0.0616312 0.0454719
0.0516976 0.0640726 0.0465553
0.0679637 0.0668193 0.0475471
0.0852674 0.0696117 0.0485084
0.106523 0.0726024 0.0490425
0.127489 0.0756237 0.0496071
0.150134 0.0786145 0.0497597
0.17322 0.0814069 0.0496986
0.196765 0.0841993 0.0495613
0.221363 0.0876478 0.0497139
0.246036 0.091249 0.0499275
0.27274 0.0947585 0.0500343
0.299641 0.0984207 0.05037
0.327535 0.101595 0.0503243
0.356054 0.104585 0.049958
0.384909 0.107393 0.0493477
0.414511 0.109499 0.0479896
0.444434 0.111513 0.0464027
0.475334 0.113222 0.044419
0.506539 0.114656 0.0422065
0.537881 0.115801 0.0398108
0.569421 0.11725 0.0380102
0.600687 0.11841 0.0359503
0.631159 0.119738 0.0342718
0.661265 0.121218 0.0328985
0.691051 0.122499 0.0313268
0.718975 0.124743 0.0304265
0.746654 0.127001 0.0294499
0.773465 0.129091 0.0283665
0.799054 0.131258 0.0276036
0.824414 0.133288 0.0268101
0.847639 0.135256 0.0261082
0.030045 0.0789807 0.057496
0.0383917 0.081239 0.0589456
0.0538949 0.0842603 0.0605173
0.0694896 0.0870985 0.0619364
0.088838 0.0902724 0.0630655
0.110292 0.0938277 0.06421
0.132189 0.097322 0.0652171
0.155978 0.100771 0.0657206
0.179812 0.10425 0.0662547
0.205219 0.107622 0.0663462
0.231159 0.111101 0.0666056
0.25835 0.114412 0.0664988
0.286198 0.11754 0.0660716
0.314748 0.120562 0.0654459
0.343877 0.122942 0.0644083
0.373342 0.125032 0.0630198
0.403525 0.126619 0.0611276
0.434134 0.127443 0.0585184
0.464668 0.129244 0.0564889
0.496208 0.130251 0.0536965
0.527794 0.131289 0.0508125
0.559304 0.132158 0.0480354
0.5906 0.13312 0.0455177
0.621973 0.133776 0.0426184
0.651881 0.134768 0.040589
0.681651 0.135576 0.0383154
0.710506 0.1364 0.0361944
0.738491 0.137591 0.0348058
0.766247 0.13846 0.0332189
0.792218 0.139681 0.0321202
0.817273 0.140826 0.0310826
0.841871 0.141894 0.0300145
0.863828 0.143114 0.0293126
0.0297093 0.102327 0.0730144
0.0396277 0.104662 0.0745251
0.0547341 0.107378 0.0761883
0.0700542 0.110109 0.077821
0.0917678 0.113512 0.0793469
0.113268 0.117021 0.0809491
0.137102 0.120409 0.0819715
0.161776 0.12401 0.0830854
0.187289 0.127825 0.0839246
0.214145 0.131762 0.0843519
0.241337 0.13576 0.0847791
0.270268 0.139315 0.0844587
0.299687 0.14287 0.0840467
0.329564 0.145907 0.0831311
0.35996 0.148409 0.0816968
0.390768 0.150866 0.0800183
0.422156 0.152117 0.0770733
0.453635 0.15314 0.0738384
0.485603 0.153658 0.0702525
0.517525 0.153735 0.066331
0.549661 0.15349 0.062089
0.580957 0.15314 0.0584726
0.612512 0.152239 0.0543069
0.642939 0.151446 0.0505379
0.672786 0.15079 0.0472572
0.702754 0.149996 0.0439765
0.730983 0.150851 0.0421912
0.758877 0.152087 0.0405737
0.786343 0.153079 0.0388495
0.81149 0.154543 0.0379034
0.836484 0.155718 0.0368048
0.859571 0.157015 0.0360418
0.8813 0.158373 0.0356451
0.0284123 0.126467 0.0886091
0.0408484 0.129152 0.0903639
0.0547341 0.132128 0.092256
0.0723125 0.135607 0.0945449
0.0938582 0.139544 0.0970474
0.115511 0.143526 0.0995956
0.140993 0.147753 0.101488
0.166613 0.152224 0.103624
0.194049 0.156252 0.104662
0.22237 0.160403 0.105455
0.251637 0.164157 0.105669
0.282124 0.16762 0.105043
0.312703 0.171099 0.104402
0.344305 0.173358 0.102174
0.37615 0.17554 0.0997635
0.408423 0.177005 0.0965591
0.440665 0.177707 0.092607
0.473198 0.178897 0.0889906
0.50573 0.178866 0.0846418
0.538354 0.17879 0.0801404
0.570871 0.178714 0.0757
0.602579 0.178042 0.0712444
0.634958 0.177523 0.0669566
0.665568 0.177005 0.0631723
0.69572 0.176562 0.0593729
0.725444 0.176059 0.0557717
0.753201 0.17586 0.0531167
0.780758 0.175586 0.0502327
0.806638 0.175509 0.0482795
0.83151 0.175509 0.0466316
0.856077 0.175219 0.044831
0.877501 0.175341 0.0440681
0.898528 0.175235 0.0432441
0.0286564 0.153124 0.105577
0.0414435 0.156024 0.10782
0.0539406 0.158907 0.11014
0.0740673 0.162844 0.11313
0.0948501 0.166857 0.116121
0.118715 0.17116 0.11902
0.144915 0.175814 0.121813
0.171405 0.180514 0.124269
0.200519 0.18497 0.125429
0.229862 0.189731 0.126818
0.260716 0.193652 0.126833
0.292378 0.197665 0.126604
0.324361 0.201053 0.125704
0.357153 0.203693 0.123384
0.390066 0.206424 0.121157
0.423102 0.207462 0.117052
0.456931 0.208499 0.112581
0.490455 0.209171 0.107881
0.524544 0.208911 0.102541
0.558953 0.208865 0.0974594
0.591989 0.208042 0.0923323
0.625086 0.207019 0.0870527
0.657801 0.20589 0.0818036
0.68838 0.204547 0.0769818
0.718807 0.202899 0.071931
0.747402 0.202411 0.0687114
0.774762 0.202075 0.0658579
0.802045 0.201694 0.0628977
0.826841 0.202106 0.0616007
0.851728 0.202152 0.0599069
0.874708 0.202289 0.0586252
0.895827 0.202823 0.0581216
0.916915 0.20296 0.0573129
0.0307622 0.181384 0.124163
0.0416724 0.184543 0.126589
0.0549935 0.187976 0.129213
0.0745556 0.192248 0.132372
0.0936294 0.196277 0.135439
0.119722 0.20119 0.138735
0.146151 0.206088 0.142046
0.174884 0.211002 0.144656
0.205295 0.215961 0.146899
0.236332 0.220798 0.148867
0.269108 0.225086 0.149203
0.301976 0.229221 0.149508
0.335592 0.23212 0.147723
0.369726 0.234836 0.145205
0.403677 0.236912 0.14197
0.4383 0.238163 0.137194
0.472892 0.239933 0.133013
0.507988 0.240711 0.128161
0.543343 0.241032 0.122911
0.57879 0.241489 0.117754
0.612604 0.241062 0.112428
0.646845 0.240726 0.10692
0.679072 0.240024 0.101884
0.710063 0.2392 0.0971084
0.741039 0.238453 0.0924239
0.768887 0.237598 0.0889448
0.796597 0.236744 0.0853742
0.82295 0.236027 0.0825513
0.847562 0.235203 0.0800641
0.871885 0.234226 0.0773327
0.893187 0.233494 0.0758679
0.913954 0.232761 0.074403
0.933364 0.231632 0.0728466
0.0321202 0.211383 0.143557
0.0406653 0.214527 0.146075
0.055848 0.218265 0.149004
0.0735027 0.222202 0.152041
0.094377 0.226459 0.155261
0.120653 0.231662 0.158923
0.146304 0.23682 0.162432
0.177523 0.242115 0.165133
0.208576 0.247623 0.168078
0.240986 0.252659 0.169802
0.274769 0.257496 0.170809
0.308614 0.26244 0.171801
0.343496 0.265766 0.170199
0.37847 0.269291 0.169024
0.414099 0.271916 0.166171
0.450095 0.273777 0.162249
0.486641 0.275792 0.158343
0.523659 0.276188 0.152422
0.560983 0.277073 0.146807
0.596811 0.276921 0.140658
0.63267 0.276646 0.134463
0.668055 0.27657 0.128496
0.700099 0.275608 0.123201
0.732174 0.274571 0.117922
0.762036 0.274037 0.113802
0.78996 0.273594 0.110613
0.817868 0.273335 0.107439
0.842588 0.272877 0.105043
0.866758 0.272419 0.102602
0.890105 0.271901 0.100298
0.91046 0.271397 0.0987869
0.930358 0.270817 0.0975357
0.9467 0.2701 0.0968643
0.0320134 0.243259 0.163119
0.0393378 0.246433 0.16556
0.0544289 0.250462 0.168368
0.0689403 0.254398 0.171084
0.091783 0.259113 0.174289
0.116503 0.26421 0.177691
0.144137 0.269322 0.181064
0.176516 0.275074 0.18468
0.20882 0.280812 0.188418
0.243809 0.286061 0.190814
0.278676 0.29163 0.193561
0.314794 0.296315 0.194629
0.351064 0.300343 0.194461
0.387747 0.30457 0.194293
0.425177 0.306935 0.1906
0.462654 0.309743 0.18735
0.500633 0.31194 0.182834
0.538781 0.313298 0.177295
0.577386 0.314839 0.172061
0.613474 0.315404 0.166308
0.650172 0.315923 0.160571
0.684962 0.31632 0.155322
0.717662 0.316426 0.150622
0.75082 0.316426 0.1458
0.779797 0.316091 0.141985
0.808484 0.315938 0.138491
0.836027 0.315709 0.135241
0.860578 0.314702 0.132143
0.885237 0.314153 0.129686
0.906432 0.313191 0.127657
0.926101 0.311894 0.125643
0.944945 0.310353 0.123354
0.958267 0.308354 0.121355
0.030396 0.276158 0.182635
0.0388342 0.279469 0.185092
0.050721 0.283207 0.187549
0.0643473 0.28716 0.190188
0.0880293 0.292271 0.193347
0.110796 0.297246 0.196506
0.141344 0.303029 0.200595
0.173083 0.309163 0.20473
0.206638 0.315053 0.208347
0.242588 0.321324 0.21178
0.278965 0.327626 0.215335
0.316701 0.332738 0.216373
0.354696 0.337713 0.217502
0.393393 0.342107 0.217197
0.432486 0.345953 0.215625
0.472236 0.349722 0.214176
0.511986 0.351568 0.209461
0.551843 0.353613 0.205035
0.590921 0.355047 0.200031
0.628565 0.356069 0.1944
0.666712 0.356985 0.188647
0.700893 0.357382 0.183536
0.735424 0.357504 0.178103
0.768139 0.358144 0.173709
0.796963 0.358434 0.170123
0.826291 0.359457 0.167391
0.85214 0.359487 0.164874
0.8766 0.359564 0.162402
0.900435 0.35967 0.160113
0.919509 0.358557 0.157427
0.938323 0.356863 0.154116
0.953918 0.35491 0.150423
0.965896 0.352377 0.14638
0.0278172 0.311467 0.201511
0.0366827 0.315068 0.203738
0.0454566 0.318975 0.206516
0.0611582 0.323156 0.209323
0.0808728 0.327916 0.212497
0.102937 0.332906 0.215808
0.134279 0.338827 0.219867
0.164935 0.344915 0.223941
0.201556 0.351202 0.228183
0.239689 0.357855 0.232578
0.27892 0.364034 0.236301
0.318563 0.370092 0.23917
0.359091 0.376318 0.242176
0.399558 0.380835 0.241993
0.440742 0.385229 0.241276
0.481605 0.389181 0.239414
0.522148 0.392111 0.235752
0.56318 0.395621 0.232685
0.601694 0.397498 0.227787
0.640787 0.39942 0.22298
0.677974 0.401205 0.218418
0.712856 0.402686 0.21387
0.748043 0.404242 0.209903
0.779568 0.405158 0.206317
0.809812 0.406378 0.20322
0.839658 0.407294 0.200168
0.864759 0.40737 0.197101
0.889815 0.407263 0.194049
0.911833 0.406455 0.190555
0.930465 0.404211 0.185992
0.948714 0.402228 0.181506
0.961028 0.398688 0.175616
0.972122 0.39443 0.169024
0.0258793 0.347936 0.221439
0.0322271 0.351507 0.22414
0.0380407 0.355077 0.226703
0.055314 0.359655 0.229419
0.0715953 0.364462 0.232334
0.0965286 0.370138 0.235889
0.12546 0.376226 0.239689
0.156191 0.382437 0.243549
0.194766 0.389319 0.247944
0.232303 0.396384 0.252293
0.27361 0.403021 0.255863
0.315206 0.409873 0.259312
0.35761 0.416037 0.261997
0.400656 0.421698 0.263203
0.443778 0.427527 0.264714
0.486488 0.431724 0.263386
0.529183 0.435462 0.261753
0.57116 0.439139 0.25977
0.610727 0.441718 0.256214
0.650874 0.444587 0.2533
0.687968 0.446952 0.249851
0.724117 0.448875 0.24622
0.759731 0.450752 0.242557
0.790997 0.452018 0.238544
0.822141 0.453971 0.235065
0.850202 0.454795 0.231479
0.8757 0.454948 0.227558
0.901122 0.45565 0.224079
0.919982 0.453483 0.218418
0.938369 0.451392 0.212451
0.954452 0.44831 0.205753
0.965484 0.443885 0.197482
0.976242 0.43888 0.188678
0.0247044 0.38706 0.241489
0.0289464 0.390921 0.24416
0.0367285 0.395026 0.24683
0.0495918 0.399695 0.249561
0.0623789 0.40412 0.252354
0.0882887 0.409995 0.255695
0.113497 0.415808 0.259083
0.146914 0.422324 0.263035
0.184665 0.429175 0.267262
0.223407 0.436011 0.271412
0.267948 0.443046 0.275853
0.31281 0.45037 0.2804
0.35787 0.456855 0.283711
0.401984 0.463569 0.286076
0.446662 0.469566 0.287724
0.490715 0.474525 0.287068
0.535012 0.479759 0.287175
0.57702 0.483742 0.285374
0.618128 0.487068 0.282933
0.658824 0.490669 0.280629
0.695415 0.493294 0.277302
0.732403 0.496132 0.274296
0.766552 0.498756 0.27126
0.798856 0.500664 0.267903
0.831159 0.502785 0.26482
0.857572 0.503105 0.260655
0.883741 0.503487 0.256367
0.907561 0.503105 0.251148
0.926482 0.500343 0.24387
0.945205 0.497551 0.236484
0.958434 0.49308 0.227207
0.969253 0.487358 0.216831
0.979538 0.481437 0.206073
0.0223392 0.427176 0.261875
0.0244907 0.431205 0.264729
0.0327306 0.43566 0.267277
0.0418097 0.440116 0.269764
0.056672 0.445335 0.272496
0.0787976 0.450828 0.275364
0.100328 0.456535 0.278279
0.13637 0.463416 0.281834
0.171328 0.470146 0.285328
0.212131 0.477195 0.289204
0.256977 0.484535 0.293446
0.302388 0.491768 0.297368
0.349889 0.498772 0.300832
0.398428 0.506218 0.304723
0.445228 0.512398 0.307042
0.492119 0.518578 0.308751
0.538491 0.524575 0.310109
0.581003 0.528618 0.309087
0.624338 0.533135 0.308354
0.664012 0.536934 0.306737
0.702205 0.540291 0.304677
0.740368 0.543786 0.302876
0.773251 0.545647 0.299565
0.806882 0.547829 0.295827
0.837766 0.549737 0.291844
0.865064 0.550195 0.286778
0.892226 0.550851 0.282017
0.91339 0.548806 0.274662
0.932754 0.545937 0.266209
0.95082 0.542702 0.257313
0.961898 0.53698 0.245731
0.972763 0.5308 0.233768
0.980346 0.52433 0.221973
0.0207218 0.470375 0.281468
0.0231632 0.474418 0.284153
0.0295872 0.478828 0.286656
0.0354772 0.483192 0.289143
0.0510109 0.488457 0.291615
0.0673991 0.49337 0.293889
0.090898 0.498848 0.296513
0.122927 0.505196 0.299306
0.154482 0.511467 0.302205
0.199603 0.51902 0.30695
0.2448 0.526513 0.311681
0.293339 0.534066 0.316442
0.3449 0.541604 0.321126
0.395941 0.548959 0.325505
0.444892 0.555596 0.327596
0.494545 0.561913 0.329503
0.541695 0.567529 0.329931
0.586511 0.572091 0.32903
0.63183 0.577081 0.328084
0.671229 0.580728 0.325917
0.710735 0.584222 0.323919
0.747997 0.58764 0.32166
0.781765 0.590524 0.319326
0.816159 0.593606 0.31725
0.845121 0.594965 0.31342
0.872862 0.596094 0.309377
0.899382 0.596475 0.304387
0.919249 0.593744 0.295628
0.938949 0.591058 0.286748
0.954009 0.586206 0.275837
0.965011 0.579675 0.263233
0.975875 0.572915 0.250324
0.980682 0.56556 0.237537
0.0186313 0.513985 0.300938
0.021088 0.517906 0.303243
0.0246128 0.521996 0.305303
0.0305028 0.526192 0.307362
0.043122 0.530587 0.309087
0.054963 0.534997 0.311345
0.0811322 0.540536 0.314244
0.108446 0.546319 0.316991
0.142733 0.552789 0.320546
0.186419 0.559823 0.324773
0.228946 0.56701 0.328954
0.282292 0.574792 0.333547
0.336294 0.582559 0.338048
0.390021 0.589792 0.34139
0.444205 0.596811 0.343572
0.498924 0.603494 0.345556
0.545953 0.60882 0.345434
0.593668 0.614511 0.345129
0.638407 0.619364 0.344533
0.678782 0.623774 0.343542
0.719615 0.628016 0.342779
0.755291 0.631724 0.341772
0.790112 0.635325 0.34052
0.824353 0.638361 0.338506
0.853071 0.639475 0.334524
0.882063 0.641093 0.330785
0.905684 0.640269 0.324407
0.926009 0.637873 0.315877
0.946242 0.635493 0.307576
0.957519 0.628992 0.294759
0.968444 0.622248 0.28159
0.977096 0.614923 0.267994
0.980987 0.606531 0.254108
0.0162509 0.555352 0.316442
0.0184787 0.559258 0.319066
0.0204623 0.563546 0.322072
0.0270695 0.567498 0.324437
0.035462 0.571756 0.326909
0.0475166 0.576303 0.329625
0.0699626 0.581735 0.332235
0.0915541 0.586709 0.334737
0.129809 0.593698 0.338643
0.170855 0.600504 0.342382
0.217578 0.607996 0.346654
0.273747 0.616053 0.351263
0.329763 0.623636 0.355337
0.388083 0.630365 0.357275
0.446921 0.636973 0.35877
0.503075 0.643229 0.359457
0.554192 0.64892 0.35906
0.605676 0.654994 0.358907
0.650019 0.659846 0.358175
0.692653 0.664698 0.357748
0.733684 0.669749 0.357321
0.769314 0.67364 0.356924
0.8047 0.678035 0.356756
0.835859 0.681147 0.355703
0.864637 0.683238 0.353796
0.89305 0.685573 0.351766
0.91339 0.683757 0.344381
0.933455 0.682002 0.337102
0.950103 0.678218 0.327337
0.961013 0.671031 0.313787
0.971771 0.664103 0.299931
0.977462 0.655467 0.285069
0.98114 0.646159 0.269886
0.0138857 0.597101 0.334447
0.0148013 0.600961 0.337209
0.0159152 0.604456 0.339712
0.0215915 0.608103 0.341924
0.0269474 0.611368 0.343908
0.0410163 0.615503 0.346136
0.0586557 0.619867 0.348547
0.0809491 0.624857 0.35108
0.119539 0.631159 0.354299
0.15671 0.637583 0.357702
0.210315 0.644785 0.361028
0.267918 0.652506 0.364462
0.327001 0.659998 0.367132
0.390845 0.667201 0.368429
0.454948 0.674403 0.369604
0.51223 0.68101 0.369985
0.568353 0.687572 0.37023
0.621561 0.69398 0.37055
0.665141 0.699855 0.370977
0.709407 0.706325 0.372107
0.747799 0.711543 0.373388
0.783215 0.71635 0.375082
0.818494 0.72134 0.376501
0.847425 0.723903 0.375586
0.876234 0.726925 0.374823
0.900969 0.728023 0.371771
0.921111 0.72636 0.365194
0.941054 0.725124 0.359136
0.953445 0.719478 0.347585
0.964019 0.712718 0.33463
0.973495 0.705089 0.321035
0.977142 0.695033 0.305104
0.980652 0.684886 0.28925
0.0112306 0.633738 0.348577
0.0116426 0.637186 0.351141
0.0134585 0.640772 0.353552
0.016846 0.644007 0.355932
0.020737 0.647471 0.35816
0.0340276 0.65156 0.360479
0.0464637 0.655558 0.362799
0.0734874 0.660929 0.36553
0.107164 0.666941 0.368582
0.145754 0.673182 0.371344
0.20441 0.681086 0.374212
0.263279 0.688899 0.376684
0.329335 0.695811 0.377783
0.398535 0.703105 0.378515
0.465736 0.710384 0.379004
0.526085 0.717418 0.379492
0.586664 0.724681 0.380529
0.63769 0.731655 0.382254
0.683955 0.738582 0.384115
0.72932 0.745556 0.386267
0.765637 0.751186 0.388373
0.801678 0.75671 0.390936
0.833799 0.761303 0.392615
0.861616 0.765225 0.393698
0.889067 0.768994 0.395254
0.909712 0.769146 0.39147
0.928725 0.76849 0.387274
0.945891 0.766812 0.381186
0.956313 0.760388 0.368948
0.966644 0.753521 0.35642
0.973159 0.74464 0.341558
0.976669 0.733898 0.325078
0.980163 0.722393 0.307988
0.00823987 0.669261 0.361746
0.00830091 0.672084 0.363897
0.00987259 0.674678 0.365789
0.0115969 0.677256 0.367803
0.0171969 0.680156 0.369482
0.0268864 0.683116 0.371252
0.0373083 0.68629 0.373007
0.0682994 0.691371 0.374975
0.0982986 0.696483 0.376837
0.145937 0.70277 0.378592
0.204776 0.709957 0.380407
0.265187 0.717433 0.381796
0.337957 0.725612 0.383032
0.411109 0.734157 0.384466
0.478752 0.742672 0.386252
0.543404 0.75108 0.388266
0.608072 0.760006 0.390524
0.655756 0.768063 0.3935
0.704494 0.77644 0.396811
0.746914 0.784131 0.400259
0.783307 0.790585 0.403769
0.819471 0.797253 0.407584
0.847272 0.80177 0.410559
0.874388 0.805554 0.412802
0.899001 0.808423 0.413733
0.917693 0.807828 0.410788
0.936248 0.807675 0.408133
0.94931 0.803128 0.4
0.959365 0.796674 0.388785
0.969284 0.78996 0.377859
0.972824 0.778851 0.361486
0.976074 0.767758 0.345373
0.978302 0.756207 0.329152
0.00622568 0.697185 0.368658
0.00643931 0.699702 0.37055
0.0074464 0.702037 0.372244
0.00830091 0.704402 0.374121
0.0144808 0.706996 0.375616
0.020798 0.709804 0.377234
0.0366979 0.713466 0.378668
0.063035 0.717952 0.38024
0.0891585 0.722576 0.381674
0.146746 0.73022 0.383627
0.20412 0.737636 0.385641
0.271977 0.74609 0.387457
0.347921 0.754864 0.388602
0.422995 0.76347 0.389899
0.491508 0.772488 0.391577
0.560952 0.781826 0.393133
0.62118 0.790585 0.39559
0.672511 0.799176 0.398764
0.724346 0.808026 0.402228
0.762768 0.814908 0.406088
0.8 0.821912 0.410361
0.834409 0.828397 0.414908
0.861189 0.833478 0.419471
0.887785 0.838514 0.424704
0.908232 0.840513 0.426169
0.925917 0.841291 0.426352
0.943038 0.8421 0.426474
0.952651 0.836332 0.417578
0.962127 0.830991 0.408942
0.969055 0.823117 0.397528
0.972168 0.812131 0.381811
0.975113 0.800885 0.366506
0.975769 0.788998 0.350317
0.00421149 0.722911 0.37351
0.00448615 0.724544 0.374517
0.00491341 0.726085 0.375448
0.00656138 0.727672 0.376318
0.0112306 0.729458 0.377188
0.0155337 0.731365 0.378576
0.0361334 0.734722 0.380041
0.0582132 0.738231 0.381033
0.0941787 0.743053 0.38204
0.148287 0.749569 0.382773
0.201297 0.755932 0.383459
0.277409 0.765072 0.384375
0.352895 0.774411 0.385092
0.428046 0.784161 0.386435
0.501488 0.794766 0.388128
0.575067 0.805417 0.390158
0.632395 0.815473 0.393866
0.688853 0.825742 0.398291
0.739544 0.835462 0.403265
0.778363 0.843885 0.409247
0.817197 0.852415 0.415686
0.847059 0.859403 0.422568
0.873686 0.865599 0.430014
0.899077 0.869947 0.435584
0.916014 0.870497 0.436942
0.933181 0.87126 0.438743
0.946563 0.868971 0.436301
0.955871 0.863523 0.429328
0.964996 0.858259 0.423255
0.969024 0.848493 0.411048
0.971984 0.838163 0.397681
0.974411 0.827665 0.384741
0.974182 0.815671 0.369253
0.00347906 0.740078 0.36965
0.00370794 0.741619 0.371267
0.00390631 0.743008 0.372976
0.00622568 0.744625 0.374487
0.00936904 0.74638 0.375845
0.0166781 0.748409 0.377142
0.0349889 0.751461 0.378225
0.0523384 0.754482 0.37911
0.0972 0.760281 0.379248
0.146014 0.766445 0.379309
0.204532 0.773861 0.379431
0.281178 0.783719 0.379904
0.356817 0.792828 0.379721
0.432563 0.803113 0.380056
0.509346 0.813703 0.380697
0.579843 0.824063 0.382193
0.639048 0.834012 0.386221
0.69929 0.844282 0.390066
0.744488 0.853147 0.395651
0.78558 0.861769 0.402243
0.824903 0.870253 0.409049
0.852872 0.876158 0.416541
0.88159 0.882383 0.424384
0.904341 0.886412 0.430472
0.921813 0.888563 0.435691
0.939574 0.890974 0.441382
0.949371 0.888045 0.439597
0.958358 0.884932 0.437522
0.965774 0.880674 0.434104
0.968566 0.871931 0.424262
0.971359 0.86389 0.415061
0.972457 0.853849 0.402975
0.972152 0.842649 0.389166
0.00276188 0.756161 0.367697
0.00285344 0.757092 0.368795
0.00308232 0.757992 0.36965
0.00529488 0.758923 0.370733
0.00729381 0.75996 0.371527
0.0178378 0.761715 0.372168
0.0318608 0.763668 0.372259
0.0526436 0.766323 0.372045
0.0962844 0.771069 0.370657
0.137743 0.775509 0.369009
0.2038 0.783017 0.367178
0.27599 0.791226 0.364965
0.348653 0.799908 0.363043
0.428183 0.810941 0.362692
0.506554 0.821775 0.36257
0.575113 0.832853 0.365698
0.638727 0.844007 0.370199
0.700984 0.855253 0.375387
0.74548 0.8654 0.3832
0.790539 0.875868 0.391318
0.827939 0.884733 0.400473
0.858625 0.892149 0.410895
0.889723 0.899947 0.421439
0.908064 0.903136 0.429099
0.925734 0.905592 0.436011
0.940871 0.906477 0.440604
0.949676 0.903655 0.44036
0.95874 0.901183 0.44062
0.963806 0.89543 0.43566
0.966888 0.887907 0.428489
0.970092 0.880873 0.422431
0.970413 0.870756 0.41091
0.970825 0.861189 0.400153
0.00248722 0.765621 0.359426
0.00251774 0.766445 0.36025
0.00320439 0.767254 0.361395
0.00456245 0.768109 0.36231
0.00653086 0.768994 0.362951
0.0170748 0.770535 0.363119
0.0268864 0.771908 0.362997
0.0539101 0.774868 0.361273
0.08925 0.778454 0.35874
0.12932 0.782452 0.355947
0.197925 0.789944 0.352102
0.265385 0.797177 0.347768
0.342107 0.806851 0.345525
0.422553 0.817441 0.344274
0.500069 0.827878 0.343603
0.567636 0.839216 0.347997
0.634562 0.850385 0.352712
0.690394 0.861082 0.359899
0.737911 0.871336 0.369268
0.786023 0.881682 0.378241
0.818982 0.889006 0.388357
