LUT预设1/LUT全系打包/胶片lut系列/709胶片系列（正常色彩素材用这个）/富士cn709.cube
TITLE "Generated by Resolve"
LUT_3D_SIZE 9
0.0175631 0.0151827 0.0146029
0.0710307 0.0246281 0.016846
0.148959 0.0381628 0.0189975
0.236194 0.0523232 0.0221256
0.335714 0.0676432 0.0252079
0.44744 0.0823224 0.0255131
0.572061 0.0976425 0.0246891
0.693187 0.11075 0.0235294
0.800641 0.12108 0.0206455
0.030045 0.0789807 0.057496
0.088838 0.0902724 0.0630655
0.179812 0.10425 0.0662547
0.286198 0.11754 0.0660716
0.403525 0.126619 0.0611276
0.527794 0.131289 0.0508125
0.651881 0.134768 0.040589
0.766247 0.13846 0.0332189
0.863828 0.143114 0.0293126
0.0307622 0.181384 0.124163
0.0936294 0.196277 0.135439
0.205295 0.215961 0.146899
0.335592 0.23212 0.147723
0.472892 0.239933 0.133013
0.612604 0.241062 0.112428
0.741039 0.238453 0.0924239
0.847562 0.235203 0.0800641
0.933364 0.231632 0.0728466
0.0278172 0.311467 0.201511
0.0808728 0.327916 0.212497
0.201556 0.351202 0.228183
0.359091 0.376318 0.242176
0.522148 0.392111 0.235752
0.677974 0.401205 0.218418
0.809812 0.406378 0.20322
0.911833 0.406455 0.190555
0.972122 0.39443 0.169024
0.0207218 0.470375 0.281468
0.0510109 0.488457 0.291615
0.154482 0.511467 0.302205
0.3449 0.541604 0.321126
0.541695 0.567529 0.329931
0.710735 0.584222 0.323919
0.845121 0.594965 0.31342
0.938949 0.591058 0.286748
0.980682 0.56556 0.237537
0.0112306 0.633738 0.348577
0.020737 0.647471 0.35816
0.107164 0.666941 0.368582
0.329335 0.695811 0.377783
0.586664 0.724681 0.380529
0.765637 0.751186 0.388373
0.889067 0.768994 0.395254
0.956313 0.760388 0.368948
0.980163 0.722393 0.307988
0.00347906 0.740078 0.36965
0.00936904 0.74638 0.375845
0.0972 0.760281 0.379248
0.356817 0.792828 0.379721
0.639048 0.834012 0.386221
0.824903 0.870253 0.409049
0.921813 0.888563 0.435691
0.965774 0.880674 0.434104
0.972152 0.842649 0.389166
0.00209049 0.778485 0.339132
0.00721752 0.779919 0.341543
0.0670176 0.782925 0.329976
0.315084 0.80679 0.307225
0.595102 0.847288 0.319432
0.787686 0.885924 0.359304
0.898878 0.909117 0.395056
0.946166 0.911971 0.416434
0.963928 0.901747 0.42182
0.00259403 0.782132 0.29868
0.0041352 0.781949 0.304463
0.0562142 0.775586 0.28188
0.232563 0.778134 0.249531
0.470603 0.806516 0.265736
0.657923 0.842283 0.305547
0.795758 0.876448 0.345907
0.885374 0.900099 0.3832
0.932296 0.911788 0.415335
0.029221 0.0291447 0.0478065
0.0887465 0.0389563 0.0492714
0.172793 0.0535134 0.0502327
0.265461 0.0693523 0.0528878
0.370336 0.0858778 0.0554818
0.491371 0.103212 0.0533303
0.62356 0.120912 0.0498512
0.751675 0.137453 0.0468452
0.862898 0.152056 0.0450599
0.0379187 0.093431 0.0979019
0.100771 0.104356 0.102037
0.195804 0.11989 0.104936
0.308019 0.134859 0.104997
0.436149 0.146563 0.100343
0.573083 0.156039 0.0915084
0.708476 0.162799 0.0786603
0.829908 0.169284 0.0666361
0.92546 0.176822 0.0611734
0.0356909 0.195743 0.171344
0.0972305 0.209232 0.179141
0.208576 0.227527 0.186755
0.343938 0.245151 0.187274
0.496956 0.259342 0.179355
0.655985 0.26775 0.165133
0.795773 0.272526 0.154711
0.900603 0.271366 0.147753
0.967819 0.261479 0.137514
0.0290532 0.329137 0.260563
0.0790875 0.343999 0.270863
0.200412 0.365286 0.28246
0.364584 0.389487 0.292256
0.542107 0.409216 0.287648
0.712459 0.424765 0.279683
0.850645 0.436057 0.276539
0.939452 0.432486 0.263142
0.977249 0.40763 0.225803
0.0205844 0.500755 0.36231
0.0496529 0.517617 0.375402
0.152667 0.535683 0.386877
0.346075 0.559518 0.399161
0.551858 0.581079 0.397665
0.73196 0.599985 0.39469
0.867872 0.609964 0.388663
0.950591 0.597192 0.355627
0.976165 0.55874 0.29427
0.010132 0.667826 0.449149
0.019913 0.678752 0.461128
0.104448 0.689754 0.46836
0.3308 0.709285 0.467643
0.587167 0.736431 0.472251
0.770687 0.761852 0.483665
0.899718 0.775448 0.487678
0.958633 0.754192 0.447379
0.97348 0.706127 0.379583
0.00387579 0.759426 0.475074
0.00946059 0.764843 0.482475
0.0887922 0.770077 0.477821
0.320989 0.787823 0.464317
0.600275 0.828717 0.477607
0.799329 0.867658 0.51046
0.907866 0.883345 0.53286
0.952865 0.864729 0.516182
0.962966 0.819486 0.464668
0.00125124 0.796338 0.457115
0.00508125 0.798444 0.46421
0.049134 0.791394 0.446708
0.242176 0.790051 0.406912
0.500679 0.823743 0.42388
0.713329 0.867063 0.468894
0.845975 0.894881 0.505028
0.917525 0.901991 0.524804
0.951507 0.892668 0.526375
9.15541e-05 0.802029 0.436301
0.0010071 0.801785 0.444694
0.0275578 0.779614 0.412284
0.142092 0.752605 0.3608
0.345403 0.772152 0.373373
0.553811 0.819028 0.420615
0.730785 0.865934 0.468605
0.848646 0.899153 0.508476
0.915999 0.915755 0.537896
0.0467231 0.0522316 0.105348
0.113603 0.0618143 0.10631
0.205127 0.0755779 0.105669
0.300725 0.0911269 0.105714
0.410971 0.108141 0.103578
0.540124 0.127687 0.0995804
0.680079 0.147219 0.0924849
0.812787 0.166064 0.0841382
0.922255 0.182376 0.0777142
0.0538338 0.115526 0.158251
0.121798 0.12488 0.158572
0.221958 0.14052 0.159411
0.3364 0.156863 0.160342
0.471061 0.17113 0.157839
0.620615 0.18323 0.147631
0.766033 0.192752 0.131762
0.886946 0.200183 0.117739
0.964752 0.200931 0.111315
0.0527352 0.215488 0.231144
0.115129 0.226444 0.23592
0.227527 0.244846 0.239933
0.364065 0.266423 0.243259
0.526894 0.285954 0.243702
0.698146 0.298436 0.236606
0.841657 0.305043 0.230594
0.935012 0.299519 0.22327
0.98024 0.282399 0.207645
0.038117 0.34786 0.327001
0.0866865 0.361334 0.336294
0.211017 0.383093 0.344945
0.380087 0.410895 0.354345
0.568704 0.435798 0.355886
0.746822 0.454627 0.356054
0.8804 0.464256 0.355261
0.949569 0.450324 0.332219
0.973816 0.415869 0.285039
0.0226139 0.526726 0.448188
0.0490883 0.542519 0.461753
0.153338 0.557366 0.469749
0.357397 0.580423 0.473686
0.576562 0.604639 0.474388
0.762722 0.624567 0.475593
0.891905 0.628382 0.465644
0.957931 0.604013 0.426047
0.970596 0.550332 0.354482
0.0117037 0.693034 0.552193
0.0229648 0.703304 0.565484
0.1075 0.710826 0.567193
0.336873 0.72604 0.558724
0.597467 0.751644 0.562203
0.788754 0.775097 0.57261
0.914809 0.783749 0.573327
0.960784 0.751904 0.527703
0.969558 0.6907 0.452689
0.0138247 0.786511 0.590875
0.0217288 0.793271 0.601358
0.0975662 0.793606 0.592721
0.30544 0.796796 0.566552
0.57499 0.829862 0.577417
0.783291 0.868055 0.611795
0.900053 0.881422 0.627237
0.948425 0.856214 0.60087
0.964736 0.809522 0.548486
0.00631724 0.825208 0.58912
0.00975052 0.827131 0.59736
0.0488136 0.813794 0.57557
0.204074 0.791379 0.522057
0.43975 0.812207 0.528115
0.663676 0.85745 0.570901
0.818021 0.890639 0.607477
0.909499 0.902617 0.626398
0.951858 0.890654 0.618219
0.000122072 0.829557 0.577081
0.00112917 0.828916 0.585153
0.0165103 0.800793 0.551232
0.0964828 0.752041 0.481682
0.270878 0.75819 0.47538
0.497246 0.812696 0.522866
0.703563 0.867369 0.571557
0.837583 0.90399 0.610758
0.915999 0.92256 0.637171
0.0680705 0.0842603 0.180377
0.139635 0.0920729 0.17969
0.237949 0.101595 0.172992
0.338964 0.116014 0.170962
0.453834 0.133135 0.169863
0.589593 0.154086 0.166369
0.736599 0.175662 0.155489
0.867124 0.195361 0.146181
0.959106 0.204852 0.139956
0.0759899 0.147753 0.235203
0.147036 0.154574 0.233845
0.25507 0.166674 0.229862
0.372885 0.182116 0.227619
0.512016 0.198398 0.227665
0.671946 0.213367 0.221881
0.821622 0.224506 0.207156
0.931289 0.227222 0.192233
0.982971 0.214786 0.184344
0.0798352 0.244587 0.305745
0.140429 0.252872 0.309834
0.25922 0.267964 0.310857
0.403403 0.292226 0.314961
0.568063 0.315679 0.319951
0.743435 0.33196 0.319341
0.878721 0.334218 0.315419
0.954559 0.320424 0.307225
0.985443 0.300343 0.29044
0.0661784 0.378119 0.408957
0.112428 0.389441 0.41767
0.242573 0.405921 0.419074
0.416953 0.435889 0.427802
0.610742 0.46659 0.436652
0.786435 0.48661 0.441428
0.907088 0.490639 0.438636
0.956619 0.465934 0.407446
0.972076 0.421363 0.351568
0.0415503 0.557397 0.540658
0.0681926 0.571847 0.555077
0.176867 0.582193 0.556466
0.387594 0.604868 0.555093
0.615122 0.632731 0.558953
0.8038 0.651576 0.559457
0.915373 0.6477 0.546242
0.959945 0.608469 0.496468
0.967147 0.54255 0.414618
0.0271305 0.722286 0.658518
0.0412604 0.734218 0.674266
0.130678 0.73901 0.671672
0.362921 0.749905 0.65481
0.618936 0.771374 0.65127
0.813245 0.79202 0.6589
0.927779 0.79353 0.654124
0.962036 0.748852 0.599145
0.970199 0.682475 0.522179
0.0408179 0.820996 0.711421
0.0489815 0.828473 0.723613
0.121477 0.824231 0.711696
0.316014 0.817716 0.676692
0.573754 0.839826 0.67538
0.783108 0.873533 0.701671
0.903105 0.883375 0.709041
0.952148 0.854994 0.678981
0.969528 0.806043 0.624338
0.0175021 0.855772 0.714931
0.0204471 0.857694 0.723308
0.0619974 0.84152 0.700114
0.200824 0.807507 0.639261
0.415106 0.814939 0.627741
0.641749 0.857832 0.661036
0.8121 0.894575 0.695094
0.915373 0.908644 0.710811
0.957778 0.891279 0.69366
0.000503548 0.855192 0.704372
0.0011902 0.853895 0.710719
0.0127413 0.824796 0.677272
0.0881971 0.770199 0.600275
0.249226 0.767666 0.576547
0.478965 0.818296 0.611978
0.692592 0.872129 0.657282
0.836454 0.910552 0.694835
0.923079 0.929595 0.716716
0.0914168 0.121157 0.264485
0.16199 0.128527 0.265949
0.270191 0.134997 0.25716
0.382574 0.146441 0.25095
0.501778 0.162982 0.248737
0.64445 0.185016 0.247913
0.796445 0.208438 0.243595
0.918029 0.22504 0.235035
0.98294 0.220172 0.229786
0.0963302 0.18732 0.328008
0.169253 0.192584 0.325277
0.287068 0.201709 0.319188
0.419623 0.216129 0.315923
0.564523 0.231769 0.31429
0.728756 0.247654 0.311131
0.876448 0.257588 0.302342
0.963043 0.249866 0.292897
0.993484 0.232166 0.288914
0.107256 0.283864 0.401755
0.166659 0.29163 0.406729
0.291478 0.302708 0.405798
0.450309 0.324254 0.404913
0.621347 0.347082 0.408072
0.793561 0.363149 0.413077
0.909895 0.360815 0.412879
0.968536 0.344228 0.40473
0.989227 0.319081 0.382254
0.110582 0.418326 0.506813
0.156558 0.431281 0.519387
0.288289 0.443793 0.519081
0.467765 0.464393 0.517571
0.662943 0.491829 0.521004
0.827939 0.511788 0.529702
0.928801 0.510887 0.525444
0.962188 0.47657 0.486915
0.974762 0.42417 0.423697
0.0830396 0.597284 0.645655
0.108095 0.611765 0.661891
0.221241 0.61767 0.658351
0.436316 0.629267 0.643656
0.662547 0.653254 0.640055
0.839673 0.671199 0.640101
0.930632 0.65977 0.622232
0.95993 0.607675 0.560662
0.968902 0.539437 0.478889
0.0592508 0.761425 0.773724
0.0746624 0.773602 0.789685
0.166629 0.774502 0.781582
0.399252 0.775555 0.750515
0.649378 0.791074 0.736324
0.836927 0.807858 0.737804
0.935302 0.798795 0.721553
0.962661 0.745174 0.659998
0.972396 0.679026 0.586114
0.0740215 0.856962 0.827298
0.0809491 0.864042 0.838331
0.150713 0.856428 0.823102
0.341924 0.843091 0.781826
0.590234 0.855344 0.766659
0.79321 0.882078 0.77998
0.912047 0.887755 0.778744
0.957092 0.855558 0.742657
0.973693 0.804364 0.685603
0.0287327 0.883635 0.827039
0.0304417 0.885023 0.834775
0.0746929 0.866438 0.810071
0.209552 0.827878 0.745693
0.420432 0.829358 0.720989
0.646082 0.867796 0.742092
0.818784 0.902525 0.770016
0.924987 0.91548 0.781216
0.963729 0.89221 0.755428
0.000579843 0.876539 0.812619
0.000854505 0.874968 0.818433
0.0111238 0.84651 0.786801
0.0949569 0.793256 0.708354
0.261952 0.789944 0.675807
0.484398 0.831006 0.69337
0.692714 0.879652 0.728939
0.841001 0.917723 0.764019
0.928908 0.933593 0.780224
0.116411 0.163348 0.361547
0.182666 0.170794 0.365743
0.297475 0.174502 0.355337
0.423987 0.183017 0.347417
0.558114 0.198947 0.345724
0.708415 0.221927 0.346777
0.858122 0.245563 0.344823
0.959228 0.254627 0.340307
0.995285 0.240497 0.33785
0.118822 0.233585 0.435554
0.190616 0.240162 0.436683
0.316838 0.246586 0.429664
0.466957 0.257771 0.423926
0.627176 0.272297 0.419852
0.793637 0.287083 0.417227
0.923339 0.2916 0.411597
0.981567 0.276051 0.404608
0.998322 0.259373 0.401022
0.129473 0.330861 0.516197
0.191684 0.341222 0.524224
0.328115 0.353857 0.523156
0.502235 0.371176 0.51928
0.683528 0.388006 0.515938
0.843275 0.397024 0.516594
0.933974 0.387015 0.513054
0.976532 0.364172 0.496468
0.990936 0.332601 0.465782
0.154986 0.466331 0.618723
0.204089 0.48246 0.633387
0.337118 0.496956 0.634974
0.521675 0.509285 0.626307
0.715038 0.523903 0.618097
0.859159 0.531533 0.615564
0.936812 0.517678 0.600046
0.964355 0.477012 0.554757
0.979675 0.424292 0.495003
0.144244 0.641764 0.751522
0.169909 0.657099 0.76762
0.281437 0.663417 0.764279
0.490532 0.666407 0.742657
0.707347 0.675135 0.724102
0.861295 0.679789 0.711833
0.933516 0.654932 0.681056
0.96051 0.599252 0.617823
0.975082 0.540688 0.550317
0.109911 0.797986 0.874937
0.129244 0.808591 0.886229
0.223651 0.810086 0.876524
0.446983 0.804669 0.841245
0.681758 0.810346 0.817105
0.855589 0.817182 0.804852
0.937636 0.796353 0.774594
0.962646 0.739803 0.712062
0.975052 0.679225 0.644724
0.109407 0.887114 0.919707
0.114748 0.891951 0.927398
0.180026 0.884047 0.91516
0.367422 0.866529 0.873671
0.609888 0.87071 0.846784
0.805158 0.890074 0.84593
0.920821 0.891325 0.836072
0.960052 0.854734 0.794461
0.976501 0.803662 0.737881
0.0376593 0.905394 0.915709
0.0375067 0.905653 0.919905
0.0810559 0.885954 0.896864
0.216938 0.846601 0.836347
0.437644 0.847318 0.806561
0.661601 0.881636 0.816312
0.831373 0.912016 0.833982
0.931487 0.919066 0.835218
0.96849 0.8925 0.805097
0.000411994 0.894331 0.90338
0.000198367 0.892363 0.90779
0.0104677 0.864897 0.877058
0.106874 0.816007 0.800626
0.287999 0.81445 0.764294
0.504768 0.847852 0.76846
0.700862 0.89015 0.793835
0.847959 0.925429 0.823194
0.934279 0.936446 0.831815
0.143191 0.209873 0.469459
0.202289 0.217624 0.477699
0.317983 0.22092 0.469871
0.457694 0.226444 0.460212
0.611933 0.239139 0.455619
0.775174 0.260624 0.45478
0.914351 0.281483 0.453895
0.985016 0.281559 0.451072
0.999664 0.266041 0.449454
0.143206 0.282841 0.55314
0.207553 0.291173 0.559457
0.341131 0.296574 0.551797
0.50486 0.304311 0.54255
0.684215 0.315297 0.533684
0.852094 0.325261 0.527123
0.958419 0.320897 0.519936
0.991852 0.301564 0.511177
0.999359 0.280552 0.497093
0.147494 0.382712 0.640452
0.209995 0.395727 0.650202
0.359197 0.411017 0.646235
0.547509 0.42417 0.63714
0.735363 0.431388 0.626535
0.882216 0.424781 0.61387
0.949615 0.39942 0.59411
0.979202 0.366155 0.563409
0.991089 0.330877 0.528634
0.187396 0.520699 0.734646
0.234089 0.540749 0.748867
0.367224 0.556756 0.748425
0.555505 0.561334 0.735912
0.745144 0.55671 0.714809
0.873152 0.538735 0.687816
0.933577 0.503853 0.64921
0.962539 0.459098 0.600656
0.983017 0.416785 0.554528
0.203311 0.688548 0.846342
0.224765 0.703838 0.860563
0.330053 0.711284 0.858991
0.525154 0.708736 0.837324
0.722591 0.69688 0.805325
0.855329 0.672053 0.76704
0.92282 0.630884 0.71873
0.957824 0.583368 0.664836
0.978805 0.539345 0.614572
0.178622 0.830945 0.94229
0.195773 0.840436 0.948562
0.280705 0.842344 0.943114
0.48159 0.83299 0.918181
0.695949 0.824765 0.88806
0.849348 0.810086 0.85417
0.923659 0.774639 0.808026
0.958175 0.72723 0.753567
0.975998 0.678523 0.698772
0.142138 0.911818 0.97554
0.144656 0.91429 0.976516
0.201709 0.90576 0.968139
0.381308 0.883879 0.93872
0.613581 0.879026 0.910842
0.803281 0.890059 0.897704
0.919371 0.885878 0.87808
0.957931 0.848203 0.833844
0.976944 0.80145 0.781567
0.0402228 0.92256 0.967651
0.0395514 0.922133 0.969924
0.0820783 0.902144 0.955459
0.221942 0.863416 0.908598
0.452125 0.863493 0.878492
0.675502 0.893446 0.879393
0.841978 0.919493 0.887434
0.935164 0.919997 0.879103
0.971435 0.892317 0.846479
0.00015259 0.908919 0.960967
0 0.906752 0.962036
0.0134127 0.880003 0.937514
0.119768 0.836591 0.876081
0.313848 0.836454 0.840635
0.529061 0.865385 0.836866
0.715084 0.902632 0.853025
0.856916 0.933104 0.873533
0.939116 0.939178 0.874983
0.168856 0.257923 0.584817
0.217105 0.265064 0.595422
0.331579 0.268284 0.588891
0.482689 0.271977 0.577295
0.652415 0.280324 0.567819
0.830533 0.296818 0.5608
0.953887 0.310765 0.556725
0.997162 0.304067 0.552743
1 0.284459 0.54081
0.162585 0.330098 0.669993
0.215213 0.339101 0.679637
0.354208 0.345388 0.671672
0.532509 0.351202 0.658106
0.727779 0.356756 0.642588
0.893614 0.356664 0.627298
0.978897 0.340581 0.611749
0.996017 0.314656 0.591623
0.999466 0.28423 0.563973
0.159915 0.433188 0.756237
0.218952 0.449088 0.766751
0.374929 0.467353 0.760418
0.572229 0.47744 0.746639
0.760052 0.466072 0.722713
0.899641 0.435813 0.689097
0.957412 0.395697 0.651164
0.979614 0.355062 0.610544
0.991562 0.318044 0.573709
0.200931 0.583597 0.83856
0.241978 0.602838 0.849836
0.365881 0.614023 0.848035
0.551675 0.604608 0.831373
0.732265 0.574014 0.793164
0.858305 0.527306 0.738415
0.92459 0.478782 0.684321
0.961166 0.435828 0.637613
0.984482 0.40209 0.601419
0.232563 0.735759 0.921904
0.245991 0.749508 0.930922
0.333852 0.753094 0.929366
0.503319 0.737957 0.909865
0.680217 0.700603 0.867262
0.809796 0.647349 0.806424
0.897444 0.59678 0.746395
0.947753 0.558236 0.698711
0.975738 0.526589 0.659373
0.23125 0.861921 0.977737
0.239979 0.870237 0.981201
0.30425 0.868223 0.979004
0.463355 0.84744 0.964294
0.640208 0.817319 0.931609
0.78616 0.78172 0.884138
0.883787 0.740398 0.829587
0.943374 0.703395 0.781552
0.970077 0.667399 0.738277
0.161059 0.930724 0.988235
0.160388 0.932433 0.988296
0.206546 0.922072 0.986542
0.36907 0.892332 0.974517
0.581155 0.875639 0.953506
0.763149 0.875685 0.931517
0.88394 0.86183 0.901366
0.942199 0.829923 0.860151
0.971923 0.792859 0.816403
0.0373541 0.936965 0.985656
0.0362402 0.936187 0.985641
0.0791333 0.915816 0.978958
0.225132 0.878233 0.954925
0.456184 0.87538 0.934142
0.675776 0.899382 0.929793
0.838071 0.918975 0.92813
0.928527 0.913405 0.911009
0.969329 0.887495 0.878508
0 0.921981 0.983261
0 0.919661 0.983215
0.0174105 0.89366 0.97081
0.132876 0.854673 0.932219
0.336034 0.855024 0.902449
0.548577 0.88072 0.895293
0.728206 0.914031 0.90547
0.864012 0.938689 0.915938
0.942306 0.940764 0.910994
0.1888 0.30135 0.693767
0.22591 0.308034 0.706157
0.335698 0.311116 0.699336
0.497353 0.314015 0.686015
0.680278 0.319371 0.672953
0.869718 0.329564 0.658839
0.975601 0.333318 0.646922
1 0.316884 0.630915
1 0.287297 0.603525
0.174609 0.371695 0.774319
0.216022 0.380896 0.785245
0.357992 0.389059 0.7785
0.551049 0.395636 0.763317
0.754131 0.396201 0.741466
0.916747 0.380255 0.712322
0.987015 0.350637 0.681651
0.997253 0.314809 0.647883
0.999649 0.278035 0.611643
0.167163 0.481331 0.852903
0.218677 0.499763 0.860945
0.374838 0.521111 0.855146
0.573068 0.52459 0.839948
0.755627 0.490517 0.803128
0.89546 0.437217 0.748318
0.957794 0.386419 0.695186
0.981979 0.343267 0.650874
0.994232 0.307774 0.615381
0.197528 0.643153 0.915099
0.230838 0.659541 0.923598
0.336187 0.662577 0.922484
0.506004 0.632883 0.90251
0.679149 0.5776 0.852979
0.820951 0.513054 0.78291
0.911635 0.459068 0.720989
0.962081 0.418235 0.674617
0.98584 0.386969 0.639551
0.224384 0.776104 0.965972
0.2336 0.787533 0.971496
0.299977 0.784161 0.971862
0.4336 0.750546 0.955901
0.583963 0.688762 0.91014
0.728771 0.623285 0.843793
0.856596 0.57116 0.779385
0.931136 0.534051 0.729137
0.969406 0.507286 0.691478
0.239857 0.885496 0.989654
0.238758 0.891478 0.989975
0.280491 0.883391 0.98912
0.390661 0.846967 0.982712
0.530358 0.797436 0.9561
0.678401 0.748821 0.909056
0.814267 0.707576 0.852537
0.908644 0.673732 0.802945
0.955123 0.64651 0.764858
0.163073 0.945739 0.989487
0.159564 0.946487 0.989456
0.191959 0.93312 0.989776
0.329168 0.893278 0.986648
0.513008 0.865461 0.975097
0.681575 0.853681 0.953918
0.813046 0.830869 0.91873
0.903532 0.801694 0.877333
0.953429 0.77322 0.839078
0.0315709 0.949538 0.987564
0.0303807 0.948837 0.987579
0.0746929 0.928191 0.986419
0.225284 0.890806 0.979934
0.44921 0.883314 0.971115
0.649454 0.897841 0.964324
0.796857 0.904738 0.953613
0.895354 0.895003 0.931762
0.954147 0.873701 0.901274
0 0.933379 0.987198
0 0.930724 0.98703
0.0220035 0.905226 0.982712
0.1458 0.870085 0.966644
0.353933 0.870863 0.949371
0.560143 0.893141 0.943404
0.730007 0.92076 0.948119
0.856291 0.937392 0.948333
0.935164 0.936156 0.937682
