LUT预设1/LUT全系打包/胶片lut系列/709胶片系列（正常色彩素材用这个）/林柯达5213-709.cube
TITLE "Generated by Resolve"
LUT_3D_SIZE 33
0.0781567 0.0899062 0.10277
0.0965896 0.0910964 0.101717
0.116518 0.0921798 0.100359
0.140978 0.0929274 0.0983597
0.165972 0.0937667 0.0964065
0.189807 0.0941024 0.0939803
0.213031 0.093904 0.0909743
0.236515 0.0937972 0.0879835
0.257176 0.0928359 0.0845197
0.277104 0.0914778 0.0807202
0.297398 0.0902113 0.0769665
0.314748 0.0882429 0.0734874
0.332448 0.0861067 0.06981
0.349599 0.0837415 0.0662547
0.365301 0.0807355 0.0632639
0.380972 0.0775921 0.0601053
0.395071 0.0744793 0.057435
0.407568 0.0715038 0.0554055
0.419989 0.0683452 0.0532387
0.430304 0.0657664 0.0518349
0.439719 0.063447 0.0508278
0.449363 0.0610361 0.0498207
0.453407 0.0603952 0.0496834
0.456733 0.0596628 0.0493935
0.459648 0.0588235 0.0489357
0.457694 0.0586099 0.0486458
0.455985 0.0583047 0.0482795
0.45359 0.057908 0.0478523
0.449668 0.0577554 0.0475166
0.445838 0.0575418 0.0471656
0.442481 0.0573281 0.0468605
0.439719 0.0572061 0.0466621
0.437049 0.057084 0.0464637
0.0741588 0.102022 0.108965
0.0915847 0.104601 0.107836
0.114137 0.106691 0.106172
0.142519 0.108248 0.103838
0.17142 0.110079 0.101411
0.198352 0.110567 0.0981765
0.225467 0.110735 0.0945754
0.252522 0.11078 0.0909285
0.274403 0.10988 0.0870832
0.296712 0.108995 0.0832227
0.318486 0.107805 0.0792859
0.337362 0.105577 0.0756085
0.356725 0.103258 0.0716411
0.374701 0.100465 0.0680705
0.391501 0.0972763 0.0648356
0.408576 0.0941787 0.061387
0.423102 0.0910048 0.0588998
0.436881 0.0876783 0.0566873
0.45098 0.0842145 0.0543069
0.461006 0.0815747 0.0537728
0.470771 0.0788128 0.0531014
0.479789 0.0759899 0.0522774
0.483772 0.0740063 0.0519112
0.487724 0.0717937 0.0513924
0.490166 0.0698405 0.0508278
0.489296 0.0684825 0.0504463
0.488869 0.0670939 0.0499886
0.486854 0.06598 0.0495918
0.48368 0.0652781 0.0492714
0.480629 0.0645304 0.0489357
0.477699 0.0640574 0.0486915
0.474693 0.0636454 0.0484932
0.471733 0.0632792 0.0482948
0.069276 0.113603 0.114794
0.0843519 0.116686 0.113664
0.110903 0.12015 0.111696
0.140719 0.123781 0.109682
0.170138 0.127672 0.107744
0.200153 0.129427 0.104417
0.230304 0.131151 0.101228
0.259358 0.132387 0.0978408
0.285161 0.13164 0.0937514
0.311498 0.130877 0.0895857
0.335439 0.129305 0.0851301
0.356939 0.127031 0.0805066
0.37882 0.124559 0.0755627
0.398169 0.121752 0.0715648
0.417044 0.118929 0.0676585
0.436225 0.116228 0.0636149
0.451301 0.111559 0.0616922
0.466499 0.106691 0.0595254
0.480705 0.101854 0.0574655
0.490867 0.0976883 0.0564736
0.501198 0.0932631 0.0552529
0.509209 0.08925 0.0542611
0.514138 0.0858625 0.0536965
0.519265 0.0823072 0.0530251
0.521477 0.079408 0.052491
0.521813 0.0769513 0.0520638
0.52195 0.0747387 0.0515908
0.519707 0.0736248 0.0512856
0.517266 0.0728313 0.0510109
0.514717 0.0717784 0.0506905
0.511589 0.0714275 0.0504921
0.508614 0.0711223 0.0502785
0.505867 0.0708324 0.0500954
0.0631876 0.124544 0.120363
0.0759899 0.128252 0.119158
0.106477 0.134279 0.117647
0.136934 0.140673 0.116121
0.168383 0.146136 0.114229
0.202152 0.149248 0.111254
0.23653 0.152804 0.108248
0.268238 0.154025 0.104524
0.298009 0.153216 0.100053
0.328374 0.152667 0.0955367
0.35378 0.150866 0.0902113
0.377981 0.148882 0.0846571
0.402182 0.147097 0.0791791
0.422232 0.144121 0.0756237
0.442237 0.140612 0.0718242
0.461204 0.136431 0.0683757
0.476707 0.130388 0.0659648
0.492241 0.124269 0.0632792
0.504997 0.118578 0.0612039
0.51516 0.113161 0.0597238
0.52546 0.107744 0.0580148
0.532677 0.103471 0.0569619
0.538613 0.0998093 0.0561837
0.544854 0.0960708 0.0552529
0.546883 0.0931716 0.0546883
0.548547 0.0902419 0.0540932
0.550134 0.0871748 0.0534371
0.54873 0.0854353 0.0531014
0.547478 0.0835126 0.0527352
0.546105 0.0818341 0.0523995
0.543862 0.0812848 0.0522164
0.541665 0.080705 0.052018
0.539742 0.080293 0.0518807
0.056672 0.13608 0.125719
0.0725414 0.141009 0.124422
0.102693 0.148867 0.123201
0.131579 0.156359 0.122133
0.16495 0.16257 0.120073
0.201419 0.168032 0.117601
0.238773 0.1738 0.11516
0.272328 0.175616 0.111009
0.305745 0.176913 0.1066
0.338674 0.177966 0.102266
0.365652 0.176059 0.0971695
0.392935 0.174197 0.0919814
0.418845 0.17145 0.0872053
0.440299 0.166796 0.0830243
0.462043 0.162234 0.0786908
0.480766 0.156435 0.0749828
0.497047 0.149767 0.0716259
0.513176 0.143145 0.0681315
0.525444 0.136782 0.0657054
0.536522 0.130373 0.063508
0.547662 0.123903 0.0611276
0.555337 0.119844 0.0600137
0.563119 0.115709 0.0588235
0.570199 0.111299 0.0575723
0.573526 0.10753 0.0568551
0.577111 0.103487 0.0560464
0.579629 0.099733 0.0553292
0.579721 0.0969253 0.0549172
0.580026 0.0939956 0.05449
0.579477 0.0920424 0.0541695
0.577722 0.0912795 0.0540169
0.575525 0.0906233 0.0538338
0.573785 0.0905776 0.053727
0.0528572 0.146883 0.129503
0.0712749 0.153231 0.12845
0.0972457 0.161379 0.12784
0.122484 0.169574 0.127138
0.159289 0.177813 0.125536
0.198886 0.186786 0.123796
0.238025 0.195056 0.122133
0.275105 0.198337 0.118227
0.312963 0.202014 0.114214
0.348013 0.20351 0.109941
0.378729 0.201465 0.104829
0.40972 0.199496 0.0996262
0.436316 0.195163 0.0947127
0.459586 0.189731 0.0899672
0.483116 0.184283 0.085008
0.501396 0.177432 0.0808118
0.518456 0.170611 0.0767681
0.53521 0.164141 0.0726482
0.546868 0.157397 0.070222
0.558633 0.150515 0.067628
0.569848 0.143877 0.065156
0.578088 0.138888 0.0637827
0.586297 0.133349 0.062211
0.592645 0.127916 0.0607919
0.596338 0.122896 0.0597238
0.600137 0.117708 0.0585184
0.601877 0.113649 0.0576638
0.602426 0.110445 0.0570687
0.60325 0.107179 0.0564126
0.602655 0.105791 0.0560769
0.601801 0.10486 0.0558175
0.601205 0.103853 0.0555276
0.600366 0.103807 0.0554055
0.0478828 0.157839 0.133211
0.0677348 0.165835 0.132845
0.0899062 0.17438 0.132448
0.113771 0.183261 0.132311
0.155154 0.194537 0.131441
0.195651 0.205814 0.130861
0.236072 0.21471 0.129
0.276341 0.220325 0.125429
0.317189 0.226276 0.121813
0.353262 0.227985 0.117464
0.386618 0.227329 0.112612
0.42063 0.226825 0.107607
0.447593 0.222797 0.102739
0.473548 0.218402 0.0978103
0.499199 0.213657 0.0927749
0.518074 0.206806 0.0885939
0.537026 0.200015 0.0843671
0.554452 0.192706 0.0803693
0.566979 0.184146 0.0772412
0.579355 0.175189 0.0739147
0.589746 0.16701 0.0711223
0.597665 0.159213 0.0689403
0.605631 0.150896 0.0665141
0.610925 0.144183 0.0646525
0.615213 0.138293 0.0629587
0.619776 0.132357 0.0610971
0.621988 0.128542 0.0601358
0.624216 0.125093 0.0592813
0.626734 0.121859 0.0584115
0.626978 0.12047 0.0580301
0.627741 0.119142 0.0576486
0.628534 0.117983 0.0572976
0.628717 0.117784 0.0571603
0.0471199 0.16994 0.135836
0.0661326 0.1785 0.136019
0.0842908 0.186725 0.136294
0.110536 0.196536 0.136355
0.150362 0.209354 0.136492
0.189502 0.221881 0.136828
0.230747 0.231998 0.134997
0.273564 0.240879 0.132219
0.316686 0.250385 0.12958
0.354665 0.252567 0.125048
0.39202 0.254444 0.120562
0.428855 0.25594 0.115923
0.458335 0.251881 0.110857
0.48809 0.248325 0.105806
0.514946 0.243381 0.100954
0.536095 0.235813 0.0964675
0.557137 0.227878 0.0919203
0.573968 0.218692 0.0878157
0.587045 0.208392 0.084062
0.600412 0.197742 0.0799878
0.609171 0.187335 0.0768139
0.616861 0.177966 0.0740215
0.624735 0.168811 0.0711223
0.629908 0.163043 0.0690929
0.635172 0.157305 0.0669108
0.640146 0.151659 0.064744
0.642985 0.147753 0.0636606
0.645792 0.143221 0.0623484
0.648096 0.139315 0.0612192
0.648737 0.13669 0.0605631
0.649424 0.133715 0.0598154
0.64976 0.13164 0.0592508
0.649622 0.130694 0.0589609
0.0475471 0.183291 0.139544
0.0625315 0.191348 0.140078
0.0767224 0.199161 0.140337
0.106981 0.211215 0.141054
0.144793 0.225101 0.142199
0.182666 0.239246 0.143282
0.227085 0.251209 0.141405
0.271626 0.263127 0.139284
0.315969 0.273686 0.136965
0.356558 0.277531 0.132677
0.39707 0.28159 0.128588
0.43473 0.283299 0.124132
0.467155 0.280842 0.119387
0.500206 0.278462 0.114519
0.527184 0.27332 0.109972
0.550439 0.266392 0.105699
0.574411 0.259205 0.101152
0.590753 0.250019 0.097261
0.605783 0.240604 0.0934005
0.62089 0.231174 0.0895094
0.629374 0.22092 0.0860914
0.638117 0.211063 0.0826276
0.646159 0.201633 0.0791791
0.651209 0.193484 0.0762341
0.656291 0.185046 0.0730907
0.660105 0.176959 0.0703136
0.662593 0.169833 0.0682383
0.66508 0.16228 0.06598
0.666423 0.15639 0.0643473
0.666926 0.151492 0.0631418
0.667491 0.14638 0.0618753
0.668086 0.144274 0.0612345
0.668849 0.14313 0.0607767
0.0484627 0.197375 0.142718
0.0605631 0.204959 0.142916
0.0720531 0.212192 0.142977
0.106035 0.225711 0.144549
0.141085 0.239612 0.146044
0.177478 0.253101 0.14696
0.2224 0.266773 0.145998
0.267384 0.280842 0.145098
0.310964 0.29163 0.143236
0.354055 0.299184 0.139834
0.39707 0.306905 0.136614
0.435859 0.309483 0.132677
0.472526 0.309712 0.128328
0.509728 0.309957 0.123964
0.537514 0.304799 0.119661
0.564416 0.299214 0.115419
0.590875 0.292958 0.111009
0.608072 0.284062 0.107118
0.625772 0.275044 0.103151
0.640879 0.265339 0.0990921
0.650492 0.25478 0.0951095
0.660304 0.244144 0.0909438
0.667659 0.233387 0.0869306
0.67219 0.222019 0.0829328
0.67686 0.210559 0.0788128
0.679683 0.200107 0.0754711
0.681895 0.191043 0.0728466
0.684291 0.181857 0.0700389
0.685573 0.175967 0.0684062
0.687144 0.170809 0.066865
0.68893 0.165667 0.0651713
0.690532 0.164797 0.0646067
0.692119 0.163546 0.06392
0.0493172 0.211704 0.144961
0.058854 0.21854 0.145205
0.0728923 0.226673 0.145571
0.104768 0.240314 0.147585
0.1355 0.253681 0.149493
0.17258 0.267903 0.150622
0.217395 0.283757 0.15082
0.262303 0.299641 0.151247
0.307652 0.311803 0.149477
0.352758 0.322927 0.147112
0.398489 0.334386 0.144686
0.43917 0.337133 0.141054
0.479377 0.339284 0.137362
0.517845 0.340719 0.133837
0.547219 0.336187 0.130007
0.577493 0.331624 0.126024
0.603937 0.32604 0.122225
0.623606 0.318135 0.118547
0.643931 0.309957 0.114656
0.658946 0.300893 0.110704
0.670314 0.290898 0.106493
0.681849 0.280613 0.102098
0.688991 0.269841 0.0977493
0.694804 0.258656 0.09337
0.700694 0.247333 0.0888991
0.703426 0.236683 0.0853132
0.706432 0.2262 0.08159
0.709377 0.216175 0.0778821
0.711147 0.209125 0.0755016
0.712978 0.201862 0.0729381
0.714397 0.1953 0.0705882
0.715419 0.19202 0.0693065
0.716396 0.188388 0.0678721
0.0494698 0.226093 0.147723
0.0568704 0.232242 0.147616
0.0741283 0.241611 0.148669
0.102144 0.254597 0.151003
0.128939 0.267201 0.153292
0.168597 0.282628 0.154879
0.212741 0.299138 0.15642
0.256519 0.315709 0.158251
0.302724 0.328618 0.156909
0.348318 0.341756 0.15584
0.393484 0.353246 0.154391
0.436286 0.358679 0.151827
0.479225 0.364416 0.149218
0.517968 0.366964 0.14638
0.551461 0.364935 0.142824
0.585855 0.363516 0.139391
0.613199 0.358648 0.135592
0.636759 0.352575 0.131868
0.660929 0.346761 0.128084
0.67628 0.337713 0.123522
0.690135 0.328588 0.119295
0.704036 0.319448 0.114977
0.710857 0.307591 0.109804
0.717983 0.295979 0.104601
0.724376 0.284443 0.0994888
0.727871 0.272526 0.0948348
0.731243 0.260029 0.0897993
0.734081 0.249027 0.085481
0.735821 0.239673 0.0820783
0.73756 0.229801 0.0783856
0.73843 0.222507 0.0757
0.739101 0.218097 0.0740978
0.739818 0.213489 0.0722972
0.0494545 0.240543 0.150896
0.0549935 0.245853 0.150301
0.0749828 0.256428 0.152056
0.0987716 0.268345 0.154528
0.122026 0.28014 0.156756
0.165377 0.297276 0.159472
0.207507 0.314015 0.162356
0.250965 0.330571 0.164538
0.297612 0.345754 0.164477
0.343801 0.361044 0.164645
0.389853 0.373373 0.164004
0.435065 0.382162 0.162509
0.480674 0.391714 0.161181
0.520485 0.394736 0.158602
0.558038 0.395834 0.155673
0.596597 0.396994 0.152651
0.62417 0.392859 0.149081
0.65127 0.387869 0.145663
0.677302 0.383124 0.142229
0.69308 0.374792 0.138079
0.709285 0.366308 0.133745
0.723461 0.357412 0.129152
0.731929 0.346273 0.123842
0.740536 0.33489 0.118288
0.74728 0.323568 0.113008
0.751705 0.311696 0.107836
0.756039 0.299565 0.102388
0.759106 0.289387 0.0979934
0.761517 0.279774 0.0938277
0.763943 0.270085 0.0894789
0.764843 0.263294 0.0865034
0.765789 0.257404 0.0837568
0.766827 0.251255 0.080766
0.0488289 0.254688 0.153445
0.0530861 0.259403 0.152529
0.0741741 0.270878 0.155276
0.0943465 0.281941 0.157763
0.120439 0.294682 0.160586
0.16141 0.311727 0.164614
0.201678 0.328679 0.168811
0.244923 0.345098 0.171435
0.291966 0.361639 0.172915
0.338384 0.37818 0.174731
0.385489 0.390631 0.174731
0.431983 0.40209 0.174426
0.478904 0.413825 0.174044
0.519203 0.417609 0.172183
0.559548 0.421622 0.170397
0.598566 0.424949 0.168566
0.629084 0.422446 0.165393
0.660517 0.420554 0.162387
0.687175 0.416693 0.15877
0.706538 0.410254 0.154665
0.72639 0.403723 0.150332
0.741085 0.395499 0.145449
0.752041 0.385855 0.139986
0.763226 0.375998 0.134249
0.770291 0.365087 0.128496
0.776135 0.353887 0.122606
0.782055 0.342168 0.116274
0.785122 0.331884 0.111177
0.788083 0.321492 0.105898
0.790707 0.310811 0.100389
0.791867 0.303624 0.0967117
0.793057 0.296208 0.0928054
0.793912 0.289555 0.0892958
0.0496529 0.269581 0.158267
0.0570687 0.275288 0.158236
0.0742504 0.285496 0.160678
0.0909895 0.295521 0.162951
0.119158 0.309102 0.166598
0.156451 0.325338 0.171496
0.193271 0.341436 0.176379
0.238636 0.358465 0.179614
0.285481 0.375708 0.182742
0.332708 0.392874 0.18587
0.380621 0.406699 0.186526
0.427939 0.420844 0.187518
0.474571 0.433295 0.187915
0.51751 0.440864 0.187091
0.561639 0.44889 0.186145
0.601526 0.453635 0.184466
0.636271 0.453895 0.181704
0.67216 0.454871 0.179004
0.699046 0.451774 0.175326
0.722087 0.447288 0.171298
0.745632 0.442679 0.167025
0.760098 0.434821 0.161807
0.773236 0.42649 0.15642
0.786252 0.418036 0.150988
0.793149 0.407279 0.144945
0.800168 0.396323 0.138598
0.806653 0.386084 0.132677
0.810056 0.375555 0.127077
0.813382 0.364797 0.121172
0.816114 0.355459 0.115969
0.817472 0.347692 0.111681
0.818936 0.339834 0.107164
0.819348 0.333257 0.103487
0.0504005 0.284123 0.162539
0.0593881 0.290654 0.163333
0.073228 0.299947 0.165621
0.0862898 0.308904 0.167788
0.116732 0.323339 0.172717
0.150256 0.338766 0.178256
0.184268 0.354208 0.183795
0.231876 0.37232 0.18851
0.278874 0.390066 0.193393
0.326253 0.407156 0.197253
0.375021 0.423194 0.198947
0.423529 0.439094 0.200809
0.47071 0.452049 0.201556
0.516014 0.462638 0.201511
0.562158 0.473594 0.201511
0.602609 0.478889 0.200122
0.641138 0.482246 0.198306
0.680323 0.486442 0.196704
0.707301 0.483803 0.193072
0.733761 0.481376 0.189487
0.759152 0.478325 0.185641
0.774731 0.471809 0.180728
0.790433 0.465278 0.175784
0.80444 0.45832 0.170657
0.813336 0.449378 0.164721
0.822202 0.44033 0.158694
0.82919 0.431113 0.152605
0.833448 0.420844 0.146212
0.838056 0.411063 0.139849
0.84094 0.402106 0.134035
0.842573 0.393179 0.128374
0.844511 0.384558 0.122652
0.845075 0.378424 0.118502
0.0524147 0.298772 0.165774
0.0620279 0.305913 0.167315
0.0728313 0.313893 0.169299
0.0849622 0.322438 0.172091
0.114824 0.337209 0.178592
0.143862 0.351675 0.184909
0.17847 0.3673 0.191073
0.225269 0.385336 0.197223
0.271214 0.403082 0.203494
0.319631 0.420462 0.207736
0.368948 0.437507 0.210651
0.418585 0.454582 0.213748
0.466392 0.468574 0.214878
0.513298 0.482155 0.215747
0.561013 0.49604 0.216678
0.603555 0.502937 0.215839
0.646097 0.510552 0.215366
0.686427 0.516625 0.214221
0.716121 0.516381 0.211093
0.746456 0.516197 0.207782
0.77229 0.514641 0.204196
0.790707 0.509896 0.199619
0.809659 0.505791 0.195315
0.823941 0.499931 0.190173
0.834516 0.49247 0.18439
0.845685 0.485557 0.178668
0.85211 0.476295 0.172198
0.85713 0.46659 0.16582
0.862318 0.457267 0.159503
0.864256 0.447868 0.153475
0.866209 0.439002 0.147631
0.867948 0.429999 0.141558
0.868009 0.423804 0.137453
0.0558938 0.31426 0.16965
0.0641337 0.321324 0.172259
0.071809 0.328069 0.174701
0.0861524 0.337438 0.178714
0.111406 0.351095 0.185443
0.135851 0.364477 0.191959
0.172885 0.380514 0.198917
0.218158 0.398566 0.206531
0.262867 0.416251 0.214023
0.312917 0.434363 0.218524
0.363516 0.452476 0.222644
0.413947 0.470634 0.226886
0.462867 0.486534 0.22829
0.511513 0.502419 0.229816
0.559731 0.51693 0.231189
0.605173 0.52694 0.231342
0.65124 0.537591 0.231785
0.690745 0.543816 0.230732
0.723751 0.545632 0.228305
0.757229 0.548165 0.226322
0.782101 0.546899 0.223285
0.802884 0.544289 0.220127
0.824094 0.541695 0.216876
0.837217 0.536385 0.212619
0.849393 0.530678 0.208133
0.861448 0.524865 0.203571
0.867689 0.516777 0.197604
0.873945 0.508629 0.19147
0.879774 0.500969 0.18555
0.882399 0.492485 0.179034
0.885298 0.484382 0.17258
0.887373 0.476997 0.166659
0.887663 0.470176 0.161486
0.0606546 0.331472 0.175509
0.0666972 0.337362 0.177813
0.0724804 0.343008 0.179889
0.0886549 0.35314 0.184878
0.110094 0.365576 0.191302
0.130816 0.377661 0.197452
0.170993 0.394507 0.205341
0.213565 0.411978 0.213428
0.256016 0.429328 0.221103
0.307668 0.448005 0.226444
0.358862 0.466545 0.231968
0.409689 0.484504 0.236561
0.459983 0.50161 0.239094
0.51014 0.518578 0.241688
0.559075 0.533211 0.243565
0.606119 0.546075 0.244862
0.654078 0.559304 0.246174
0.692775 0.566476 0.246128
0.729259 0.571878 0.245579
0.766217 0.577737 0.245274
0.790249 0.577661 0.243412
0.813886 0.577218 0.241428
0.8365 0.576928 0.239567
0.850202 0.57261 0.235828
0.864332 0.568933 0.232395
0.876402 0.564279 0.22826
0.884031 0.558175 0.222812
0.891768 0.551751 0.21709
0.897719 0.545342 0.211109
0.901427 0.538155 0.204364
0.905089 0.530632 0.197253
0.906828 0.523507 0.191348
0.906813 0.515709 0.185946
0.0676585 0.350225 0.181216
0.0721294 0.354711 0.18291
0.0764324 0.358999 0.184436
0.0933394 0.369497 0.190158
0.110811 0.380301 0.196048
0.13135 0.391852 0.202213
0.170413 0.408743 0.210925
0.208347 0.425284 0.219501
0.251225 0.442649 0.227344
0.303243 0.461738 0.234333
0.354589 0.480766 0.241489
0.406149 0.499077 0.246418
0.457542 0.516976 0.249912
0.509682 0.535332 0.253666
0.559411 0.551095 0.256107
0.608209 0.566476 0.258381
0.657053 0.582254 0.260807
0.696696 0.590478 0.261952
0.736202 0.598886 0.263233
0.772747 0.606073 0.264363
0.798367 0.607279 0.263783
0.824109 0.60911 0.26363
0.84596 0.609079 0.262592
0.861158 0.606592 0.260517
0.876417 0.604135 0.258442
0.887831 0.600305 0.255161
0.895979 0.594965 0.250629
0.904372 0.590188 0.24654
0.909239 0.583642 0.241062
0.913039 0.577005 0.235279
0.916793 0.570062 0.229191
0.917784 0.563409 0.223972
0.918379 0.55642 0.218418
0.0738231 0.367987 0.185916
0.076936 0.371191 0.187152
0.082414 0.375616 0.189197
0.0972763 0.385245 0.194888
0.111742 0.39472 0.20029
0.135256 0.407141 0.207141
0.170626 0.423301 0.216175
0.204898 0.439063 0.224979
0.250858 0.457252 0.233402
0.30193 0.476402 0.241657
0.352743 0.495521 0.250065
0.405615 0.514199 0.255314
0.458396 0.532815 0.260365
0.511772 0.551339 0.265431
0.561822 0.567681 0.268681
0.611399 0.583947 0.272053
0.658335 0.598657 0.275364
0.699031 0.60914 0.278111
0.739864 0.620096 0.281224
0.774624 0.627634 0.283452
0.802823 0.631678 0.284993
0.831449 0.636347 0.286976
0.852201 0.637308 0.287068
0.869017 0.636973 0.286671
0.886259 0.636622 0.286366
0.896605 0.633692 0.28397
0.905898 0.629969 0.280766
0.915251 0.62681 0.277989
0.919615 0.621012 0.272374
0.924163 0.615686 0.267079
0.928145 0.609995 0.261463
0.929351 0.604089 0.256184
0.93051 0.597818 0.250507
0.0851911 0.387442 0.191638
0.0878462 0.389899 0.192294
0.0949264 0.394949 0.194751
0.107179 0.403143 0.199359
0.119036 0.411063 0.203693
0.144564 0.423957 0.211307
0.17554 0.43888 0.22031
0.205509 0.453437 0.229114
0.254093 0.47245 0.238621
0.30312 0.491524 0.248203
0.352758 0.510567 0.257389
0.406989 0.529717 0.264103
0.461036 0.548669 0.270924
0.514305 0.567117 0.276982
0.564385 0.584176 0.281331
0.61503 0.601663 0.286
0.660548 0.616281 0.290379
0.702632 0.629129 0.294759
0.7449 0.642496 0.299489
0.778241 0.65069 0.303243
0.809049 0.657588 0.30692
0.840146 0.665156 0.311391
0.859037 0.666621 0.312703
0.877409 0.667796 0.314244
0.894911 0.668544 0.315373
0.904768 0.665904 0.313512
0.914672 0.663203 0.311574
0.923247 0.659907 0.308858
0.928008 0.655009 0.304295
0.93283 0.649973 0.299489
0.936187 0.644831 0.29485
0.937514 0.6392 0.289967
0.938842 0.633341 0.284749
0.0964828 0.406439 0.196323
0.0983291 0.407919 0.196231
0.106065 0.413306 0.198978
0.115877 0.419944 0.20267
0.125216 0.426383 0.206088
0.15198 0.44007 0.21503
0.178698 0.453788 0.224033
0.20914 0.468406 0.233249
0.257588 0.487816 0.244129
0.304921 0.506981 0.254932
0.35552 0.526131 0.264622
0.410895 0.545602 0.273045
0.465492 0.564828 0.281636
0.518044 0.583169 0.288441
0.568597 0.600717 0.294255
0.619715 0.61857 0.300481
0.663478 0.63299 0.306249
0.706065 0.646952 0.312108
0.74815 0.66099 0.318547
0.779843 0.669291 0.324254
0.811856 0.677867 0.330114
0.841108 0.685496 0.335637
0.861067 0.688258 0.338735
0.881361 0.691264 0.342
0.897963 0.692851 0.34406
0.908904 0.691417 0.343343
0.920165 0.690364 0.343038
0.92813 0.687633 0.340627
0.933608 0.684016 0.336996
0.939147 0.680247 0.33315
0.942077 0.676036 0.328984
0.943908 0.671275 0.324239
0.945891 0.667018 0.31989
0.111162 0.425818 0.202243
0.112902 0.426871 0.202045
0.122103 0.432944 0.205219
0.131106 0.43888 0.208255
0.143984 0.446479 0.212573
0.168521 0.459266 0.221088
0.192844 0.471992 0.229496
0.226398 0.487236 0.239063
0.270726 0.505653 0.250294
0.314 0.52372 0.261418
0.364767 0.542672 0.271748
0.418067 0.561822 0.281834
0.471763 0.581155 0.292256
0.523125 0.599084 0.300084
0.573587 0.616709 0.307973
0.623117 0.634134 0.316243
0.666102 0.648966 0.323568
0.708675 0.663752 0.330983
0.748425 0.67718 0.338399
0.781521 0.687617 0.345983
0.814511 0.698085 0.353552
0.842329 0.705898 0.359915
0.864164 0.710918 0.365194
0.886091 0.715984 0.370459
0.901701 0.717922 0.372946
0.913832 0.717922 0.373678
0.926162 0.71812 0.374563
0.933394 0.716213 0.372549
0.939361 0.7131 0.369436
0.945418 0.710231 0.36669
0.947601 0.705959 0.362356
0.949783 0.702037 0.358419
0.95172 0.698131 0.354421
0.128786 0.445808 0.209247
0.13196 0.447654 0.209461
0.140261 0.452918 0.211765
0.148287 0.458 0.213916
0.163531 0.466514 0.218982
0.185061 0.47808 0.226673
0.206378 0.489555 0.234257
0.241825 0.505409 0.244694
0.282109 0.52285 0.256275
0.321386 0.539971 0.26775
0.373571 0.559167 0.279469
0.424918 0.578225 0.291554
0.476509 0.597192 0.303395
0.527596 0.615076 0.313146
0.578332 0.632807 0.322988
0.62591 0.649683 0.332509
0.668666 0.664897 0.340993
0.71194 0.680278 0.349752
0.749554 0.693263 0.358602
0.783108 0.704723 0.367605
0.817212 0.716274 0.376654
0.842893 0.723537 0.38381
0.865782 0.729671 0.390646
0.88922 0.735912 0.397498
0.902922 0.736934 0.399603
0.916289 0.737926 0.401801
0.92903 0.738582 0.403449
0.935637 0.736294 0.401297
0.942367 0.734325 0.399542
0.948089 0.731929 0.397223
0.950637 0.728969 0.394171
0.953231 0.725917 0.390906
0.955047 0.723659 0.38854
0.148486 0.466148 0.216266
0.153292 0.468666 0.216907
0.161242 0.473289 0.218662
0.1691 0.477775 0.220233
0.186786 0.487327 0.226261
0.206775 0.49807 0.23328
0.227085 0.508873 0.240269
0.263859 0.525185 0.251987
0.30045 0.541619 0.263828
0.339727 0.558465 0.275731
0.389181 0.577157 0.288624
0.437644 0.595544 0.301427
0.48687 0.613687 0.313741
0.536233 0.631189 0.325338
0.585962 0.648859 0.337346
0.630655 0.66479 0.348013
0.67303 0.679927 0.358144
0.715389 0.695171 0.368612
0.750744 0.707622 0.378729
0.784939 0.719661 0.388891
0.818875 0.73164 0.3991
0.842802 0.738964 0.407309
0.867247 0.74641 0.415564
0.889586 0.752834 0.422873
0.904128 0.755016 0.426307
0.918746 0.757198 0.429679
0.9308 0.758389 0.431754
0.938201 0.757137 0.430762
0.945724 0.756008 0.429892
0.950896 0.75462 0.428565
0.953887 0.752544 0.4262
0.956954 0.750851 0.424292
0.958511 0.749584 0.422644
0.175647 0.488289 0.225727
0.181476 0.491325 0.226398
0.188693 0.495216 0.227375
0.196384 0.499397 0.228702
0.215091 0.509651 0.235431
0.233249 0.519539 0.241917
0.255604 0.530922 0.249638
0.288121 0.545892 0.260838
0.320378 0.560754 0.271916
0.359426 0.577066 0.284123
0.404578 0.594736 0.297505
0.449744 0.612482 0.311055
0.4972 0.629999 0.324559
0.544961 0.647364 0.338216
0.593133 0.664759 0.352193
0.635386 0.679942 0.363958
0.677363 0.694972 0.375769
0.71841 0.709712 0.387686
0.752667 0.72224 0.398962
0.78706 0.734813 0.410407
0.818631 0.745968 0.421149
0.843687 0.754177 0.430426
0.869032 0.762615 0.440055
0.889525 0.768277 0.446952
