LUT预设1/LUT全系打包/胶片lut系列/709胶片系列（正常色彩素材用这个）/林柯达5213-709.cube
TITLE "Generated by Resolve"
LUT_3D_SIZE 9
0.0781567 0.0899062 0.10277
0.165972 0.0937667 0.0964065
0.257176 0.0928359 0.0845197
0.332448 0.0861067 0.06981
0.395071 0.0744793 0.057435
0.439719 0.063447 0.0508278
0.459648 0.0588235 0.0489357
0.449668 0.0577554 0.0475166
0.437049 0.057084 0.0464637
0.056672 0.13608 0.125719
0.16495 0.16257 0.120073
0.305745 0.176913 0.1066
0.418845 0.17145 0.0872053
0.497047 0.149767 0.0716259
0.547662 0.123903 0.0611276
0.573526 0.10753 0.0568551
0.580026 0.0939956 0.05449
0.573785 0.0905776 0.053727
0.0475471 0.183291 0.139544
0.144793 0.225101 0.142199
0.315969 0.273686 0.136965
0.467155 0.280842 0.119387
0.574411 0.259205 0.101152
0.629374 0.22092 0.0860914
0.656291 0.185046 0.0730907
0.666423 0.15639 0.0643473
0.668849 0.14313 0.0607767
0.0494545 0.240543 0.150896
0.122026 0.28014 0.156756
0.297612 0.345754 0.164477
0.480674 0.391714 0.161181
0.62417 0.392859 0.149081
0.709285 0.366308 0.133745
0.74728 0.323568 0.113008
0.761517 0.279774 0.0938277
0.766827 0.251255 0.080766
0.0524147 0.298772 0.165774
0.114824 0.337209 0.178592
0.271214 0.403082 0.203494
0.466392 0.468574 0.214878
0.646097 0.510552 0.215366
0.77229 0.514641 0.204196
0.834516 0.49247 0.18439
0.862318 0.457267 0.159503
0.868009 0.423804 0.137453
0.0738231 0.367987 0.185916
0.111742 0.39472 0.20029
0.250858 0.457252 0.233402
0.458396 0.532815 0.260365
0.658335 0.598657 0.275364
0.802823 0.631678 0.284993
0.886259 0.636622 0.286366
0.919615 0.621012 0.272374
0.93051 0.597818 0.250507
0.128786 0.445808 0.209247
0.163531 0.466514 0.218982
0.282109 0.52285 0.256275
0.476509 0.597192 0.303395
0.668666 0.664897 0.340993
0.817212 0.716274 0.376654
0.902922 0.736934 0.399603
0.942367 0.734325 0.399542
0.955047 0.723659 0.38854
0.242206 0.535958 0.247913
0.284153 0.556939 0.257023
0.379477 0.602304 0.289998
0.53373 0.664286 0.346807
0.693339 0.7234 0.408301
0.820447 0.76994 0.461051
0.906737 0.797864 0.496956
0.950301 0.802487 0.507637
0.961883 0.800504 0.510857
0.423316 0.632395 0.290455
0.461295 0.648249 0.297002
0.541009 0.685023 0.330556
0.630289 0.726284 0.385397
0.733074 0.768612 0.45481
0.827466 0.803861 0.513207
0.901869 0.826658 0.548486
0.947631 0.834211 0.56611
0.962417 0.83595 0.581476
0.0652781 0.0761578 0.12578
0.143297 0.0728466 0.131533
0.232898 0.0701152 0.130251
0.304387 0.0654612 0.119387
0.362646 0.0585641 0.101793
0.406119 0.0517281 0.0829175
0.419226 0.0484169 0.0642557
0.406287 0.0469215 0.0523232
0.391028 0.0457008 0.0464179
0.0465553 0.132342 0.166476
0.133135 0.144991 0.163363
0.273777 0.154879 0.155245
0.387274 0.148425 0.137484
0.46421 0.130159 0.113817
0.514427 0.104799 0.0895552
0.533486 0.0814527 0.0693065
0.532235 0.0649882 0.0560159
0.524453 0.0641184 0.0529946
0.041474 0.194186 0.200671
0.110719 0.220844 0.197147
0.27953 0.255848 0.18996
0.437934 0.263279 0.169635
0.549142 0.24538 0.139971
0.607767 0.210788 0.111788
0.63357 0.16994 0.0892195
0.645609 0.142489 0.0717479
0.653208 0.128313 0.0624704
0.0424048 0.258686 0.217227
0.0910506 0.285405 0.211017
0.257115 0.336492 0.211673
0.451331 0.381567 0.205478
0.601465 0.381369 0.186267
0.692576 0.352071 0.163104
0.728939 0.304219 0.134295
0.743145 0.260395 0.105821
0.753552 0.236027 0.085481
0.0478828 0.32108 0.233021
0.092958 0.349355 0.229557
0.231266 0.400977 0.236561
0.434989 0.463508 0.245701
0.624491 0.507942 0.24538
0.759197 0.512474 0.233402
0.826185 0.487694 0.211414
0.851514 0.442985 0.178653
0.854734 0.402716 0.146777
0.0667277 0.388663 0.248661
0.0945602 0.408225 0.249439
0.21471 0.459236 0.263508
0.424582 0.530495 0.287861
0.634562 0.59675 0.304372
0.789975 0.63357 0.313481
0.88249 0.639002 0.31194
0.916854 0.61709 0.28896
0.927184 0.588296 0.259266
0.114961 0.462547 0.264851
0.144274 0.478569 0.26688
0.248493 0.524987 0.284398
0.441032 0.5953 0.321218
0.647471 0.665125 0.360555
0.808225 0.718822 0.393912
0.900191 0.73904 0.41059
0.942779 0.734264 0.403342
0.955001 0.721798 0.387289
0.23769 0.552682 0.293568
0.273732 0.568231 0.293492
0.367193 0.607187 0.308934
0.520439 0.665919 0.354788
0.685267 0.725551 0.414557
0.816388 0.771862 0.464149
0.906508 0.799451 0.495048
0.951141 0.803067 0.501122
0.962402 0.800381 0.502571
0.438376 0.64744 0.318868
0.471901 0.659586 0.319539
0.552438 0.693141 0.341955
0.636439 0.730663 0.386984
0.734386 0.770718 0.452171
0.827955 0.804944 0.507927
0.902541 0.8262 0.539376
0.949035 0.832547 0.554681
0.963073 0.834272 0.571344
0.0524605 0.0643015 0.14052
0.112261 0.0622568 0.154162
0.200366 0.0569619 0.165255
0.273014 0.0522469 0.165621
0.330953 0.0492256 0.155062
0.371878 0.0475624 0.135592
0.386831 0.0460517 0.107668
0.380667 0.0444038 0.0771191
0.368307 0.0432898 0.0609445
0.0413672 0.119463 0.192859
0.101213 0.130831 0.199847
0.233234 0.134386 0.206546
0.354604 0.126802 0.2009
0.434424 0.110765 0.182986
0.483742 0.0888685 0.155535
0.499962 0.0674601 0.119829
0.491615 0.0555276 0.0834058
0.478935 0.0526894 0.065919
0.0403143 0.197971 0.255985
0.0837873 0.220554 0.257374
0.230701 0.242618 0.254124
0.400977 0.248981 0.240223
0.518441 0.230106 0.213794
0.57821 0.193286 0.17792
0.603677 0.151049 0.137774
0.604379 0.1131 0.0977035
0.599908 0.0903639 0.0713817
0.0420233 0.278004 0.293385
0.0732891 0.30251 0.290837
0.212207 0.338933 0.286
0.414481 0.373938 0.277638
0.57232 0.371176 0.251865
0.670542 0.341192 0.214755
0.712978 0.297398 0.170459
0.722622 0.243351 0.131167
0.729763 0.214298 0.100542
0.0471962 0.347478 0.310903
0.0773175 0.371572 0.305333
0.18854 0.409613 0.295583
0.396338 0.461067 0.294118
0.594675 0.503151 0.289998
0.737942 0.504341 0.273548
0.807492 0.469856 0.246998
0.830823 0.416037 0.206302
0.835233 0.376883 0.168978
0.0621958 0.414816 0.326329
0.0826429 0.43151 0.323247
0.184695 0.472663 0.317861
0.383062 0.531609 0.323537
0.600381 0.592981 0.339071
0.768887 0.632273 0.349798
0.872374 0.637507 0.347875
0.910536 0.610498 0.320317
0.921187 0.578958 0.286366
0.10457 0.487633 0.343648
0.126925 0.500069 0.340597
0.213779 0.536446 0.337469
0.395544 0.596109 0.351049
0.614847 0.665858 0.391546
0.792264 0.722484 0.426413
0.894575 0.743404 0.437705
0.942992 0.736996 0.423331
0.955139 0.724773 0.403723
0.237552 0.578286 0.360327
0.265919 0.589456 0.355734
0.354726 0.621622 0.355276
0.502968 0.673075 0.380941
0.667994 0.730739 0.434073
0.807492 0.777737 0.481346
0.906508 0.805097 0.503517
0.953201 0.806088 0.497734
0.963607 0.80177 0.492775
0.468788 0.675166 0.372366
0.495583 0.683772 0.371054
0.569741 0.710597 0.379309
0.646586 0.740963 0.403693
0.735683 0.776196 0.456519
0.829023 0.808331 0.504585
0.90695 0.82652 0.52401
0.953338 0.829297 0.529
0.965042 0.829618 0.541222
0.0429847 0.0533913 0.154742
0.0828565 0.0558938 0.173922
0.165133 0.0506752 0.190387
0.238819 0.0439612 0.197208
0.294377 0.0429236 0.194018
0.332143 0.0446174 0.178958
0.352377 0.0444953 0.153231
0.355612 0.0437629 0.117556
0.351156 0.0431678 0.0929427
0.0383307 0.104219 0.215503
0.0742657 0.117037 0.228733
0.184039 0.120821 0.245045
0.312932 0.111482 0.251987
0.401709 0.0981308 0.243534
0.456596 0.0809033 0.221866
0.475883 0.0623941 0.183978
0.467018 0.0527657 0.133013
0.455817 0.0493172 0.0994278
0.04065 0.189532 0.295689
0.0649577 0.210742 0.30312
0.17496 0.231006 0.309316
0.347845 0.235721 0.309697
0.480705 0.21796 0.294408
0.548638 0.181781 0.264286
0.576959 0.137072 0.220142
0.574914 0.0954757 0.158602
0.567468 0.0723583 0.109316
0.0442664 0.290349 0.362051
0.0637827 0.313832 0.367529
0.167269 0.345678 0.367193
0.358328 0.368536 0.362188
0.531197 0.363424 0.339055
0.636866 0.331456 0.304555
0.678111 0.275914 0.25449
0.691646 0.219806 0.192905
0.694224 0.181384 0.140932
0.0493782 0.373312 0.391119
0.069398 0.396551 0.392798
0.150896 0.430076 0.386358
0.343297 0.467628 0.379782
0.553124 0.498878 0.371618
0.702861 0.493553 0.34725
0.777203 0.451438 0.306249
0.810513 0.404715 0.252064
0.819333 0.365606 0.208789
0.0617075 0.442206 0.405158
0.0768444 0.458091 0.405203
0.158145 0.494057 0.396872
0.33196 0.537438 0.38407
0.555444 0.586557 0.386603
0.735134 0.623362 0.39266
0.848341 0.624231 0.387411
0.892699 0.59118 0.357733
0.905516 0.557946 0.325109
0.0997177 0.512825 0.421683
0.115648 0.52398 0.419059
0.186175 0.554955 0.409262
0.350317 0.602548 0.400626
0.569543 0.661784 0.423209
0.760281 0.717281 0.457435
0.878843 0.741253 0.470054
0.937758 0.736278 0.456596
0.952316 0.727703 0.440772
0.240345 0.604639 0.429404
0.261067 0.613657 0.426505
0.341268 0.641367 0.423575
0.475914 0.68127 0.427024
0.634546 0.730495 0.457877
0.787915 0.780133 0.505959
0.900282 0.809888 0.525963
0.952621 0.811002 0.515175
0.96376 0.806851 0.508965
0.486198 0.697505 0.427298
0.503059 0.702632 0.426581
0.563043 0.72314 0.43238
0.633829 0.747097 0.439918
0.716533 0.777279 0.475639
0.814862 0.8094 0.518929
0.903456 0.828351 0.534112
0.954345 0.830686 0.531411
0.965743 0.829007 0.533623
0.0368811 0.0433967 0.165393
0.0603494 0.048661 0.191836
0.130739 0.046479 0.2094
0.202029 0.0399481 0.215305
0.252369 0.0398718 0.212253
0.290578 0.0419165 0.202548
0.3131 0.0424201 0.182132
0.324025 0.0426795 0.150851
0.328618 0.0428016 0.126329
0.0373693 0.0894331 0.236622
0.0575113 0.102129 0.254994
0.137362 0.108797 0.273793
0.262989 0.100771 0.287221
0.361593 0.0862745 0.287648
0.424903 0.0728313 0.274342
0.446281 0.0590372 0.239551
0.441825 0.0514687 0.186328
0.436591 0.0484779 0.147005
0.0417029 0.178805 0.331106
0.0523079 0.19675 0.342809
0.124773 0.216129 0.352728
0.280507 0.222232 0.361227
0.428763 0.206409 0.358328
0.515251 0.176135 0.339071
0.556588 0.134463 0.300496
0.560174 0.0912184 0.234089
0.555581 0.0674144 0.174014
0.0469368 0.292348 0.419257
0.0576944 0.31075 0.426749
0.121599 0.337789 0.430076
0.276921 0.358282 0.430426
0.464622 0.35407 0.421805
0.59144 0.324926 0.399603
0.645762 0.269978 0.355688
0.66743 0.206668 0.288746
0.672984 0.163394 0.225315
0.0533455 0.392737 0.468376
0.0665904 0.413535 0.475212
0.123934 0.445884 0.478645
0.281605 0.478477 0.477958
0.492393 0.496788 0.473991
0.652979 0.485328 0.449165
0.733211 0.440787 0.405692
0.772015 0.381918 0.347433
0.790188 0.348394 0.300069
0.0641184 0.468879 0.48658
0.0761273 0.484932 0.491371
0.13846 0.519677 0.492668
0.276753 0.554788 0.48098
0.486412 0.586542 0.475654
0.67924 0.612406 0.475624
0.802243 0.606867 0.459693
0.857847 0.5691 0.421668
0.884916 0.544656 0.379934
0.0981918 0.538033 0.498192
0.111192 0.549035 0.498863
0.169299 0.579995 0.495171
0.304707 0.618021 0.482292
0.503563 0.657053 0.480766
0.703334 0.701442 0.500084
0.840864 0.726192 0.510048
0.916991 0.723018 0.498802
0.938674 0.714916 0.486915
0.242222 0.631601 0.50016
0.256703 0.639231 0.500648
0.325765 0.664393 0.502495
0.43505 0.692271 0.497841
0.577264 0.725307 0.499687
0.739742 0.770352 0.534325
0.871748 0.803616 0.556863
0.940139 0.809628 0.551827
0.958755 0.807996 0.548577
0.473793 0.71165 0.487343
0.482002 0.714733 0.48896
0.52192 0.729656 0.499199
0.574792 0.746426 0.507088
0.656703 0.769512 0.519493
0.771054 0.802762 0.549401
0.883665 0.828183 0.567437
0.94902 0.835508 0.56669
0.963729 0.834897 0.567147
0.0342718 0.0374609 0.167346
0.0483406 0.042237 0.200824
0.101747 0.0421149 0.222766
0.167971 0.0380865 0.229526
0.21062 0.0380865 0.223239
0.249149 0.0393072 0.217975
0.27599 0.0401312 0.203174
0.295476 0.0412757 0.177081
0.311696 0.0422065 0.156573
0.0374151 0.0766461 0.251423
0.0473335 0.0855421 0.276188
0.0995651 0.0945907 0.297322
0.211948 0.0911574 0.313085
0.313863 0.0768444 0.317006
0.382818 0.0644541 0.310155
0.410315 0.0555734 0.280659
0.417472 0.0496681 0.234974
0.421805 0.0477913 0.197787
0.0428779 0.168521 0.36289
0.0464637 0.182162 0.376455
0.0899825 0.199695 0.387198
0.216754 0.208194 0.396567
0.366445 0.194018 0.401221
0.469978 0.166827 0.394873
0.529107 0.128527 0.36936
0.54522 0.0868238 0.312993
0.547555 0.0661326 0.256916
0.0485695 0.286015 0.461097
0.0532998 0.30013 0.469261
0.0852674 0.322103 0.475685
0.199237 0.342123 0.478614
0.3823 0.341024 0.478386
0.53048 0.31751 0.473075
0.607935 0.27126 0.446555
0.651896 0.213321 0.396353
0.670176 0.170855 0.345953
0.0561227 0.398276 0.531838
0.0633707 0.414206 0.53872
0.0961624 0.43949 0.544381
0.206485 0.468376 0.546624
0.396979 0.487327 0.547326
0.574166 0.476341 0.535866
0.678538 0.443076 0.512383
0.740536 0.397208 0.474067
0.770596 0.367346 0.441794
0.0680247 0.486931 0.564508
0.0773175 0.499794 0.569223
0.121416 0.530205 0.57499
0.223957 0.565042 0.575051
0.41207 0.593301 0.575174
0.609827 0.608087 0.57528
0.743053 0.597665 0.558465
0.812116 0.564141 0.52253
0.846799 0.542641 0.496712
0.0999008 0.56054 0.573465
0.10959 0.571389 0.578058
0.157549 0.60325 0.583215
0.268513 0.639078 0.581247
0.435492 0.665232 0.57435
0.626078 0.690181 0.577356
0.77702 0.70724 0.580407
0.870344 0.703014 0.568353
0.906126 0.69192 0.5523
0.23917 0.656123 0.574273
0.244083 0.661784 0.578149
0.291325 0.682734 0.586801
0.37818 0.706661 0.588373
0.500435 0.727047 0.579248
0.657542 0.754147 0.586831
0.807843 0.782406 0.59971
0.902998 0.794369 0.600656
0.940063 0.793225 0.598062
0.428061 0.724102 0.565744
0.425177 0.724453 0.569467
0.441855 0.733272 0.58233
0.483482 0.745953 0.592416
0.567208 0.762737 0.593286
0.691463 0.789166 0.599832
0.830945 0.818891 0.613642
0.922881 0.835279 0.621836
0.950988 0.837842 0.627771
0.033463 0.0349279 0.164965
0.0420081 0.0372931 0.200473
0.0788586 0.0382849 0.227497
0.136217 0.0382696 0.241047
0.176623 0.0378882 0.234806
0.208881 0.0375219 0.228519
0.23949 0.038056 0.220081
0.273335 0.0397498 0.204593
0.302556 0.0415351 0.190372
0.0379034 0.0668345 0.25655
0.0425422 0.0721752 0.287846
0.0738079 0.080354 0.312291
0.167987 0.0805676 0.330907
0.266789 0.0702983 0.338186
0.330922 0.0581216 0.331868
0.366155 0.0516365 0.311162
0.39263 0.047425 0.281376
0.408911 0.0467689 0.252552
0.043946 0.159243 0.382513
0.0454108 0.169543 0.40148
0.069749 0.183536 0.412924
0.164309 0.194339 0.422675
0.306966 0.185733 0.431632
0.412818 0.155184 0.431189
0.480262 0.116304 0.418112
0.518288 0.081239 0.384604
0.5337 0.0664683 0.347143
0.0493172 0.277195 0.488136
0.0512551 0.289998 0.4981
0.0652476 0.308354 0.506737
0.143893 0.328984 0.512291
0.307927 0.331655 0.515358
0.456962 0.307424 0.516091
0.548165 0.267445 0.508064
0.620249 0.222721 0.489052
0.65684 0.185962 0.466529
0.0560616 0.388693 0.566949
0.0592966 0.40116 0.572625
0.0751659 0.422034 0.580423
0.144549 0.450217 0.588022
0.305333 0.475776 0.594293
0.488853 0.469718 0.591592
0.610605 0.44744 0.587701
0.697673 0.424949 0.582361
0.74345 0.412558 0.57641
0.068513 0.484672 0.618006
0.074342 0.494667 0.622278
0.100694 0.520806 0.630457
0.169924 0.555581 0.638544
0.336339 0.590234 0.647044
0.53576 0.60621 0.649378
0.672847 0.596735 0.641306
0.755673 0.583627 0.631037
0.806012 0.586923 0.631876
0.100984 0.575555 0.644007
0.108476 0.58471 0.650187
0.145159 0.612345 0.658701
0.236561 0.646418 0.663249
0.383398 0.674189 0.663966
0.561257 0.692073 0.665293
0.710338 0.698848 0.664576
0.812238 0.694301 0.655711
0.861219 0.687877 0.646097
0.219959 0.673976 0.653346
0.219379 0.676585 0.658518
0.251667 0.693828 0.669688
0.3243 0.717128 0.675914
0.439261 0.737087 0.675486
0.584207 0.750942 0.671
0.727916 0.762676 0.66688
0.841031 0.771695 0.665415
0.900206 0.768353 0.659541
0.35259 0.732372 0.656764
0.343267 0.731014 0.661799
0.343862 0.735882 0.675837
0.390127 0.750164 0.687327
0.494957 0.770596 0.693263
0.622278 0.788647 0.689189
0.751232 0.804166 0.678752
0.860563 0.819989 0.678309
0.918853 0.827314 0.685954
0.0331731 0.0340276 0.161746
0.0387427 0.0355077 0.196658
0.064744 0.0367895 0.227237
0.114061 0.038529 0.246036
0.155978 0.0384985 0.246921
0.18088 0.0372625 0.238651
0.20647 0.0369421 0.232517
0.251926 0.038468 0.228428
0.292012 0.0403143 0.223209
0.0376745 0.0607614 0.251164
0.0403296 0.0654459 0.287419
0.0592813 0.0698558 0.318715
0.134081 0.0701915 0.340764
0.228367 0.0650645 0.354543
0.283513 0.0560464 0.346929
0.316609 0.0485542 0.329778
0.358526 0.0451057 0.31397
0.387381 0.0448768 0.298177
0.0441596 0.150149 0.388281
0.0454414 0.15877 0.415
0.0581369 0.169284 0.430808
0.123293 0.180575 0.441215
0.252445 0.176684 0.451591
0.356847 0.147158 0.453361
0.416236 0.105699 0.442374
0.468986 0.076463 0.427604
0.502525 0.0673381 0.414069
0.0496071 0.268818 0.503731
0.05066 0.280354 0.516243
0.057023 0.296056 0.526726
0.107164 0.316136 0.53492
0.240604 0.325567 0.542184
0.388556 0.308446 0.547707
0.484916 0.271885 0.547402
0.567834 0.234852 0.546319
0.616892 0.208408 0.545602
0.0559091 0.38027 0.585489
0.0572213 0.388754 0.592264
0.0648051 0.406744 0.603464
0.108446 0.436942 0.616297
0.244007 0.474342 0.630076
0.431754 0.483558 0.635248
0.56173 0.469078 0.635798
0.649149 0.457099 0.639963
0.699138 0.457343 0.646906
0.0669261 0.475288 0.647044
0.0695964 0.479835 0.651789
0.0860304 0.505165 0.662318
0.143374 0.547723 0.675319
0.309667 0.595224 0.690455
0.513588 0.621347 0.698405
0.638285 0.616007 0.693996
0.712001 0.611582 0.694728
0.765759 0.631785 0.710155
0.0985733 0.575113 0.690761
0.104204 0.580819 0.695384
0.133989 0.606867 0.704417
0.224125 0.647593 0.713878
0.372137 0.682155 0.723232
0.540063 0.700542 0.728466
0.672465 0.704234 0.728923
0.759701 0.700374 0.725017
0.817044 0.710124 0.730083
0.205524 0.68426 0.719066
0.205997 0.685695 0.723598
0.236408 0.701549 0.7337
0.307317 0.725139 0.742168
0.429145 0.746471 0.747066
0.564706 0.758343 0.745342
0.686427 0.762493 0.739391
0.785977 0.762127 0.73283
0.854673 0.759167 0.726177
0.29276 0.736141 0.733318
0.290364 0.735515 0.735759
0.303471 0.741634 0.745541
0.369451 0.760143 0.75697
0.493874 0.784756 0.768246
0.612955 0.799344 0.767208
0.702922 0.801053 0.747555
0.793378 0.804105 0.733043
0.874098 0.809934 0.731838
0.0330053 0.0336004 0.158312
0.0376745 0.0349279 0.191974
0.0591592 0.0363775 0.223774
0.103593 0.038407 0.245548
0.146395 0.0386969 0.251652
0.16846 0.0374762 0.24387
0.188113 0.036759 0.237537
0.237476 0.0378729 0.23856
0.28275 0.0394141 0.238041
0.0373846 0.0579843 0.24593
0.0395361 0.0622568 0.282872
0.0542153 0.0639506 0.317586
0.116991 0.0633555 0.341863
0.207752 0.061677 0.359808
0.26038 0.0559854 0.353338
0.287282 0.0477913 0.335607
0.330694 0.0439765 0.325368
0.366323 0.0436103 0.31841
0.0440223 0.144213 0.385931
0.0453803 0.152438 0.415747
0.0539406 0.160433 0.434928
0.102342 0.170947 0.447257
0.216907 0.169558 0.459937
0.321035 0.143465 0.464942
0.375372 0.104341 0.454566
0.426917 0.0787976 0.444678
0.467475 0.0690166 0.441321
0.0496681 0.262135 0.507668
0.0505837 0.272984 0.523659
0.0537575 0.286305 0.536477
0.0859693 0.30486 0.54667
0.192309 0.319692 0.557046
0.339254 0.313664 0.566079
0.449989 0.28632 0.569238
0.535882 0.25182 0.569772
0.581933 0.228031 0.570138
0.0561227 0.375753 0.596567
0.0567941 0.380652 0.604334
0.0610971 0.395666 0.61651
0.0918135 0.426505 0.630426
0.217731 0.475135 0.648325
0.419287 0.503456 0.660639
0.559426 0.500465 0.664485
0.638193 0.488289 0.66656
0.67863 0.485985 0.670588
0.0667124 0.471336 0.660731
0.0682383 0.472816 0.666423
0.082475 0.498497 0.679652
0.149371 0.553033 0.697643
0.333913 0.614252 0.718547
0.549065 0.651713 0.732265
0.664668 0.655634 0.732097
0.71989 0.650095 0.730098
0.758785 0.662409 0.737423
0.100359 0.574746 0.714244
0.104448 0.57879 0.718883
0.134752 0.608164 0.729503
0.252857 0.663401 0.744793
0.42771 0.706188 0.759304
0.589731 0.726162 0.766857
0.705043 0.733059 0.768017
0.766842 0.729107 0.763378
0.80592 0.737392 0.767468
0.205646 0.689616 0.754681
0.209003 0.691066 0.756085
0.243015 0.706767 0.761639
0.323201 0.730419 0.767727
0.463691 0.755337 0.77705
0.591699 0.767391 0.781521
0.694148 0.770916 0.781567
0.771099 0.769039 0.778332
0.823682 0.766537 0.775158
0.277028 0.738109 0.768185
0.279896 0.738613 0.76907
0.306096 0.746639 0.774075
0.385061 0.766659 0.78323
0.514504 0.790082 0.794583
0.624262 0.802426 0.798367
0.69604 0.803082 0.792142
0.767407 0.803418 0.784573
0.838026 0.803876 0.779492
