LUT预设1/LUT全系打包/胶片lut系列/709胶片系列（正常色彩素材用这个）/林柯达5213-709.cube
TITLE "Generated by Resolve"
LUT_3D_SIZE 5
0.0781567 0.0899062 0.10277
0.257176 0.0928359 0.0845197
0.395071 0.0744793 0.057435
0.459648 0.0588235 0.0489357
0.437049 0.057084 0.0464637
0.0475471 0.183291 0.139544
0.315969 0.273686 0.136965
0.574411 0.259205 0.101152
0.656291 0.185046 0.0730907
0.668849 0.14313 0.0607767
0.0524147 0.298772 0.165774
0.271214 0.403082 0.203494
0.646097 0.510552 0.215366
0.834516 0.49247 0.18439
0.868009 0.423804 0.137453
0.128786 0.445808 0.209247
0.282109 0.52285 0.256275
0.668666 0.664897 0.340993
0.902922 0.736934 0.399603
0.955047 0.723659 0.38854
0.423316 0.632395 0.290455
0.541009 0.685023 0.330556
0.733074 0.768612 0.45481
0.901869 0.826658 0.548486
0.962417 0.83595 0.581476
0.0524605 0.0643015 0.14052
0.200366 0.0569619 0.165255
0.330953 0.0492256 0.155062
0.386831 0.0460517 0.107668
0.368307 0.0432898 0.0609445
0.0403143 0.197971 0.255985
0.230701 0.242618 0.254124
0.518441 0.230106 0.213794
0.603677 0.151049 0.137774
0.599908 0.0903639 0.0713817
0.0471962 0.347478 0.310903
0.18854 0.409613 0.295583
0.594675 0.503151 0.289998
0.807492 0.469856 0.246998
0.835233 0.376883 0.168978
0.10457 0.487633 0.343648
0.213779 0.536446 0.337469
0.614847 0.665858 0.391546
0.894575 0.743404 0.437705
0.955139 0.724773 0.403723
0.468788 0.675166 0.372366
0.569741 0.710597 0.379309
0.735683 0.776196 0.456519
0.90695 0.82652 0.52401
0.965042 0.829618 0.541222
0.0368811 0.0433967 0.165393
0.130739 0.046479 0.2094
0.252369 0.0398718 0.212253
0.3131 0.0424201 0.182132
0.328618 0.0428016 0.126329
0.0417029 0.178805 0.331106
0.124773 0.216129 0.352728
0.428763 0.206409 0.358328
0.556588 0.134463 0.300496
0.555581 0.0674144 0.174014
0.0533455 0.392737 0.468376
0.123934 0.445884 0.478645
0.492393 0.496788 0.473991
0.733211 0.440787 0.405692
0.790188 0.348394 0.300069
0.0981918 0.538033 0.498192
0.169299 0.579995 0.495171
0.503563 0.657053 0.480766
0.840864 0.726192 0.510048
0.938674 0.714916 0.486915
0.473793 0.71165 0.487343
0.52192 0.729656 0.499199
0.656703 0.769512 0.519493
0.883665 0.828183 0.567437
0.963729 0.834897 0.567147
0.033463 0.0349279 0.164965
0.0788586 0.0382849 0.227497
0.176623 0.0378882 0.234806
0.23949 0.038056 0.220081
0.302556 0.0415351 0.190372
0.043946 0.159243 0.382513
0.069749 0.183536 0.412924
0.306966 0.185733 0.431632
0.480262 0.116304 0.418112
0.5337 0.0664683 0.347143
0.0560616 0.388693 0.566949
0.0751659 0.422034 0.580423
0.305333 0.475776 0.594293
0.610605 0.44744 0.587701
0.74345 0.412558 0.57641
0.100984 0.575555 0.644007
0.145159 0.612345 0.658701
0.383398 0.674189 0.663966
0.710338 0.698848 0.664576
0.861219 0.687877 0.646097
0.35259 0.732372 0.656764
0.343862 0.735882 0.675837
0.494957 0.770596 0.693263
0.751232 0.804166 0.678752
0.918853 0.827314 0.685954
0.0330053 0.0336004 0.158312
0.0591592 0.0363775 0.223774
0.146395 0.0386969 0.251652
0.188113 0.036759 0.237537
0.28275 0.0394141 0.238041
0.0440223 0.144213 0.385931
0.0539406 0.160433 0.434928
0.216907 0.169558 0.459937
0.375372 0.104341 0.454566
0.467475 0.0690166 0.441321
0.0561227 0.375753 0.596567
0.0610971 0.395666 0.61651
0.217731 0.475135 0.648325
0.559426 0.500465 0.664485
0.67863 0.485985 0.670588
0.100359 0.574746 0.714244
0.134752 0.608164 0.729503
0.42771 0.706188 0.759304
0.705043 0.733059 0.768017
0.80592 0.737392 0.767468
0.277028 0.738109 0.768185
0.306096 0.746639 0.774075
0.514504 0.790082 0.794583
0.69604 0.803082 0.792142
0.838026 0.803876 0.779492
