LUT预设1/LUT全系打包/胶片lut系列/709胶片系列（正常色彩素材用这个）/柯达5213-2-709.cube
TITLE "Generated by Resolve"
LUT_3D_SIZE 33
0.0391546 0.0914473 0.121065
0.0552834 0.0925917 0.12105
0.0748455 0.0935683 0.120394
0.098436 0.0942245 0.119036
0.122484 0.0949416 0.117876
0.14612 0.0955825 0.115496
0.168902 0.0962997 0.11191
0.192187 0.0970626 0.108217
0.213764 0.0973526 0.104417
0.233722 0.0970169 0.100313
0.253819 0.0967269 0.0962234
0.271839 0.0958877 0.0917067
0.288502 0.0946822 0.0868086
0.305165 0.0934615 0.0817884
0.320592 0.0918898 0.0776837
0.335714 0.0902876 0.0742199
0.350851 0.0886549 0.070634
0.364218 0.086656 0.0670176
0.377386 0.0846265 0.063447
0.390692 0.0824445 0.0596323
0.400793 0.0805524 0.0567025
0.411078 0.0784619 0.0535286
0.420905 0.0762798 0.0502327
0.428687 0.0747234 0.0478676
0.436515 0.0730297 0.0451972
0.442329 0.0714122 0.0427405
0.445594 0.0701457 0.0409094
0.448829 0.0687266 0.0388952
0.449805 0.0676585 0.0373846
0.449348 0.0667582 0.0361486
0.448859 0.0657511 0.0347753
0.446418 0.0651408 0.0340276
0.443503 0.0645304 0.0332799
0.0350805 0.102907 0.127749
0.0497902 0.10486 0.127428
0.0744335 0.105852 0.126101
0.100496 0.106859 0.124773
0.127062 0.108186 0.123491
0.151949 0.109483 0.120104
0.177142 0.111208 0.116503
0.203159 0.11284 0.112993
0.224994 0.113268 0.109071
0.246983 0.113863 0.105043
0.269627 0.114275 0.100969
0.287877 0.113359 0.0965591
0.306706 0.112413 0.0920424
0.32546 0.111406 0.0875868
0.341604 0.109194 0.0833753
0.357778 0.10695 0.079057
0.373602 0.104463 0.0746319
0.387121 0.101427 0.0704509
0.400687 0.0982528 0.0660868
0.413214 0.0950332 0.0619364
0.423804 0.0919356 0.058381
0.434577 0.0886397 0.0545663
0.443839 0.085832 0.0511025
0.451408 0.0832532 0.0480354
0.459251 0.0806439 0.0446479
0.464164 0.0785229 0.042359
0.468574 0.0764782 0.0402533
0.47274 0.0742351 0.0381323
0.473106 0.0728008 0.0367895
0.473716 0.0713207 0.0352941
0.473381 0.0698558 0.0339513
0.471077 0.0691386 0.0331579
0.469001 0.0684367 0.0322728
0.0299992 0.113313 0.133989
0.0449683 0.115572 0.133471
0.0715038 0.118227 0.132601
0.0980392 0.121065 0.131823
0.125261 0.123842 0.130327
0.153201 0.126345 0.127245
0.181689 0.12903 0.124208
0.209628 0.13106 0.120836
0.234424 0.131975 0.116564
0.260014 0.132677 0.11223
0.284047 0.132815 0.107576
0.30486 0.131884 0.1028
0.326329 0.130816 0.097734
0.345861 0.128878 0.0927291
0.363119 0.125978 0.0877241
0.380774 0.123171 0.0825818
0.396109 0.119387 0.0776989
0.410056 0.115175 0.0727855
0.424155 0.110933 0.0677195
0.435584 0.107424 0.063859
0.44651 0.103807 0.0599985
0.457496 0.100038 0.0558938
0.465446 0.0972457 0.0525063
0.473396 0.0943465 0.0488289
0.480583 0.0912032 0.0452888
0.485466 0.0887617 0.0431983
0.490486 0.0861067 0.0409094
0.494011 0.0835737 0.0387732
0.495186 0.0814069 0.0370947
0.496376 0.0789807 0.0352331
0.495995 0.0771496 0.0339055
0.494713 0.0755322 0.0328222
0.49366 0.0737774 0.0316625
0.0222019 0.124453 0.140673
0.0420233 0.128161 0.140185
0.0688182 0.13254 0.139742
0.0955825 0.137118 0.139239
0.125032 0.140917 0.137407
0.15642 0.144289 0.134966
0.188464 0.147509 0.132647
0.217166 0.149401 0.128679
0.245151 0.15053 0.124102
0.27361 0.152102 0.119905
0.2981 0.152087 0.115236
0.321614 0.151324 0.110246
0.345571 0.150622 0.105348
0.36463 0.148455 0.100191
0.382956 0.145846 0.094789
0.401648 0.143175 0.0892805
0.415915 0.139193 0.084062
0.430457 0.135424 0.0787213
0.44445 0.131319 0.0733349
0.455741 0.126726 0.0687266
0.467033 0.121904 0.0639963
0.477363 0.117296 0.0593729
0.485664 0.113069 0.0552987
0.494072 0.108614 0.0510262
0.500938 0.104509 0.0475776
0.50663 0.100679 0.0447547
0.512489 0.0965896 0.0417182
0.515511 0.0931106 0.0393683
0.517754 0.0895857 0.0371557
0.520088 0.085893 0.0348211
0.519814 0.0834363 0.0335546
0.519432 0.080766 0.0323491
0.518853 0.0785687 0.0314488
0.0150912 0.135729 0.14667
0.040589 0.14078 0.146258
0.0647746 0.145632 0.145907
0.0888228 0.150484 0.145556
0.12166 0.155062 0.143908
0.154849 0.159869 0.142519
0.188663 0.164599 0.1411
0.220142 0.167239 0.137575
0.252461 0.170138 0.134173
0.284977 0.172946 0.13051
0.31075 0.172702 0.125368
0.33753 0.172869 0.120012
0.362676 0.172244 0.114458
0.382315 0.170077 0.108354
0.401999 0.167666 0.102144
0.420401 0.164813 0.0958877
0.435477 0.160449 0.0897841
0.450629 0.155993 0.0836042
0.464118 0.150851 0.0777447
0.476081 0.145235 0.0722515
0.487953 0.139193 0.0665293
0.497475 0.13344 0.061799
0.506416 0.12781 0.0573434
0.515419 0.122377 0.0528572
0.521798 0.117922 0.0496681
0.528099 0.113237 0.0463111
0.533806 0.108568 0.0429541
0.536538 0.104524 0.0407111
0.53933 0.100328 0.0384833
0.540993 0.0965133 0.0365301
0.54107 0.0934615 0.0351873
0.541192 0.090135 0.0335699
0.540154 0.0880446 0.0325322
0.0170901 0.147341 0.152285
0.0379187 0.152758 0.152209
0.057908 0.158083 0.152117
0.0836652 0.163851 0.151797
0.118593 0.170382 0.151293
0.15378 0.177081 0.150988
0.189471 0.182696 0.14966
0.225605 0.186923 0.146975
0.262974 0.19144 0.144289
0.296025 0.194003 0.140108
0.324865 0.194461 0.134371
0.354025 0.195331 0.128573
0.377783 0.194491 0.122576
0.398688 0.192493 0.116228
0.420172 0.190799 0.11014
0.43772 0.187152 0.103944
0.454139 0.183169 0.0978561
0.471077 0.179004 0.0913252
0.483818 0.173175 0.0854658
0.49662 0.167437 0.0793927
0.509026 0.161379 0.0731365
0.518029 0.155108 0.06804
0.527504 0.148821 0.0626078
0.535943 0.142443 0.0576638
0.542473 0.136599 0.0541238
0.548928 0.130571 0.0503395
0.553445 0.124788 0.0471046
0.556527 0.119341 0.0441596
0.559838 0.113832 0.0409857
0.560952 0.109194 0.0387579
0.561608 0.104601 0.0366064
0.562234 0.0999313 0.0343328
0.561288 0.0974441 0.0332036
0.0165103 0.159899 0.158648
0.0332341 0.165454 0.158618
0.0485389 0.170916 0.158434
0.0800031 0.178042 0.158404
0.115053 0.18558 0.158633
0.150179 0.19321 0.158801
0.18735 0.199222 0.156985
0.226474 0.205447 0.154757
0.26569 0.212055 0.152682
0.298573 0.214389 0.148287
0.331121 0.21651 0.143786
0.36466 0.218799 0.139513
0.388388 0.217609 0.133791
0.412619 0.216327 0.127962
0.43682 0.215045 0.121935
0.454994 0.211414 0.115221
0.473487 0.207645 0.108095
0.490776 0.203326 0.100938
0.504143 0.197101 0.0938277
0.517937 0.190906 0.0865339
0.529793 0.183963 0.0801099
0.539193 0.176486 0.0744488
0.549004 0.168978 0.0683604
0.556481 0.161639 0.0633707
0.562951 0.154147 0.0587625
0.56965 0.146731 0.0538643
0.573358 0.140627 0.0506142
0.576852 0.134539 0.0472419
0.57995 0.128481 0.0438392
0.581033 0.123476 0.0415351
0.582254 0.118242 0.0388952
0.583017 0.114153 0.0367437
0.582773 0.11104 0.0352178
0.0164645 0.172 0.164126
0.0277867 0.177295 0.164034
0.0424048 0.182956 0.163882
0.0759747 0.19147 0.164462
0.109056 0.199802 0.165179
0.143832 0.208148 0.165331
0.18497 0.216541 0.164019
0.226734 0.225315 0.16286
0.267521 0.232792 0.161166
0.303746 0.236088 0.158038
0.341268 0.239643 0.155077
0.37496 0.241733 0.151263
0.401999 0.241352 0.145769
0.429572 0.241138 0.140169
0.452903 0.239399 0.133318
0.472602 0.236057 0.12546
0.492927 0.233036 0.118181
0.509667 0.228016 0.111131
0.524529 0.221775 0.104173
0.540002 0.215915 0.0973373
0.550912 0.208545 0.0910658
0.561242 0.201312 0.0850233
0.571466 0.193744 0.078584
0.578164 0.186191 0.0733959
0.584909 0.17879 0.0681315
0.590646 0.171191 0.0628824
0.5944 0.164309 0.0586862
0.598062 0.157031 0.0541085
0.600519 0.150286 0.0501869
0.602075 0.143801 0.0466926
0.603815 0.13724 0.0430152
0.604364 0.132235 0.0404364
0.604776 0.127352 0.0379187
0.0126802 0.184543 0.170077
0.0187533 0.18941 0.169787
0.0390631 0.19675 0.170123
0.0709544 0.205783 0.171038
0.102495 0.214725 0.171695
0.140322 0.224079 0.171481
0.183246 0.234073 0.170947
0.226551 0.244434 0.170382
0.266606 0.25098 0.168444
0.305486 0.256123 0.165911
0.345418 0.261845 0.163439
0.377386 0.263951 0.158877
0.407584 0.265232 0.153826
0.438544 0.26688 0.149187
0.462577 0.264744 0.143175
0.486595 0.261982 0.13695
0.510658 0.25951 0.130877
0.52781 0.254047 0.124239
0.545403 0.248692 0.117479
0.561563 0.24271 0.110475
0.572808 0.235401 0.103578
0.584054 0.227771 0.0963149
0.593484 0.220142 0.0894789
0.600092 0.211719 0.0830701
0.607019 0.203418 0.0764324
0.611673 0.19501 0.0706951
0.615717 0.186938 0.0653391
0.619638 0.178286 0.0596323
0.62179 0.170764 0.0553902
0.623941 0.163272 0.0512093
0.62591 0.156237 0.0472725
0.6271 0.150805 0.0444343
0.628153 0.144869 0.0412299
0.010132 0.197604 0.174395
0.0140536 0.202258 0.173785
0.0417029 0.210849 0.174487
0.069398 0.219486 0.17525
0.0965591 0.227832 0.175769
0.138094 0.238743 0.175784
0.179919 0.249668 0.175769
0.221744 0.260624 0.175845
0.262959 0.268345 0.173938
0.304646 0.2766 0.172335
0.345937 0.284428 0.170581
0.380026 0.287327 0.16701
0.415076 0.290547 0.163653
0.448646 0.292485 0.159899
0.475883 0.290623 0.154849
0.503761 0.288914 0.149798
0.528237 0.285801 0.143984
0.54725 0.281041 0.13724
0.566827 0.276036 0.130114
0.58172 0.270008 0.123018
0.594247 0.263035 0.115846
0.607431 0.256153 0.10869
0.615854 0.248051 0.102068
0.623774 0.240055 0.0956588
0.631617 0.231693 0.0889296
0.636179 0.223575 0.0833143
0.640558 0.215 0.0772717
0.644541 0.206851 0.0714733
0.646571 0.198383 0.0661326
0.648936 0.190158 0.0606241
0.650431 0.182361 0.0557565
0.651682 0.175189 0.0514076
0.652781 0.16762 0.0467689
0.0074464 0.21091 0.178378
0.0175021 0.216785 0.178241
0.0418402 0.225238 0.17882
0.0649119 0.233387 0.179385
0.0937819 0.242573 0.179873
0.134295 0.254368 0.180377
0.175051 0.266133 0.181277
0.216129 0.276997 0.181292
0.259586 0.287068 0.180529
0.304021 0.297475 0.179767
0.344396 0.30486 0.178058
0.381842 0.309651 0.175509
0.419806 0.3149 0.173251
0.452384 0.316365 0.169482
0.482307 0.31603 0.165057
0.513207 0.316045 0.160616
0.536873 0.312871 0.155215
0.560159 0.309148 0.149493
0.584024 0.305531 0.143938
0.599649 0.299306 0.137606
0.615732 0.292897 0.131121
0.630777 0.286503 0.124712
0.640223 0.27892 0.118044
0.649866 0.271305 0.111254
0.657252 0.262821 0.104158
0.662211 0.254078 0.0970474
0.667109 0.24509 0.0896468
0.669871 0.235447 0.0825818
0.672145 0.226047 0.075761
0.674067 0.215885 0.0684672
0.675502 0.207462 0.062974
0.676585 0.198352 0.057145
0.67805 0.190753 0.0524758
0.00444038 0.224079 0.181323
0.0200961 0.230945 0.181292
0.040238 0.23859 0.181445
0.0595407 0.246235 0.181918
0.0937819 0.257191 0.182956
0.132204 0.26894 0.184451
0.16965 0.280537 0.185946
0.212238 0.29218 0.186038
0.256245 0.303853 0.18613
0.301244 0.315831 0.186221
0.341268 0.323705 0.184695
0.381506 0.331502 0.183276
0.422492 0.339513 0.181689
0.455238 0.340902 0.178347
0.489433 0.342901 0.175051
0.522179 0.343923 0.171633
0.549187 0.341039 0.16733
0.576989 0.338323 0.163119
0.601572 0.334676 0.158465
0.620859 0.329381 0.15288
0.640055 0.323857 0.147005
0.653834 0.317418 0.140536
0.664515 0.310262 0.133684
0.676066 0.303212 0.126802
0.682612 0.294804 0.119631
0.68838 0.285573 0.111971
0.694408 0.276799 0.104616
0.697337 0.267399 0.097612
0.699977 0.257328 0.0903334
0.702403 0.247898 0.0835889
0.703868 0.239139 0.0774853
0.70489 0.229633 0.0708324
0.706111 0.222385 0.0655985
0.00450141 0.237583 0.183383
0.0217441 0.245075 0.183978
0.0379339 0.25243 0.184451
0.0563668 0.260365 0.185046
0.0921492 0.272221 0.187045
0.127489 0.283818 0.188998
0.164279 0.29572 0.190494
0.208362 0.308873 0.191272
0.253071 0.322087 0.192035
0.297261 0.334203 0.192584
0.339574 0.343847 0.191852
0.38201 0.353841 0.191394
0.422019 0.360861 0.190036
0.457771 0.364034 0.187716
0.493843 0.367727 0.18558
0.526192 0.368643 0.18265
0.555825 0.367361 0.179171
0.586816 0.36643 0.175601
0.610697 0.363027 0.171115
0.63357 0.358968 0.166354
0.657282 0.355138 0.161715
0.671489 0.348974 0.155993
0.686275 0.342962 0.150393
0.699962 0.336187 0.144366
0.707988 0.328008 0.137453
0.716396 0.31989 0.130556
0.722606 0.311009 0.123308
0.726116 0.301045 0.115373
0.729397 0.290623 0.107012
0.731334 0.280903 0.0992447
0.732479 0.271031 0.0914321
0.733257 0.260533 0.0831006
0.734173 0.253193 0.0771801
0.00842298 0.252537 0.187243
0.0220951 0.259602 0.187793
0.0347448 0.266499 0.188357
0.0582742 0.275837 0.189731
0.0914168 0.287236 0.191775
0.123308 0.298283 0.19379
0.162051 0.310582 0.195422
0.205982 0.323659 0.196933
0.249897 0.336736 0.198413
0.29337 0.348409 0.199008
0.336583 0.359838 0.199222
0.380423 0.371435 0.199405
0.419074 0.378637 0.198291
0.456794 0.385061 0.196994
0.495384 0.392355 0.195743
0.528222 0.393286 0.193027
0.561913 0.39443 0.190402
0.595071 0.395346 0.187625
0.622003 0.392508 0.184054
0.649836 0.389914 0.180667
0.674525 0.386831 0.177111
0.692638 0.381781 0.17293
0.711437 0.376852 0.168795
0.72459 0.370199 0.162997
0.734157 0.362219 0.156054
0.744457 0.354726 0.14934
0.749676 0.345357 0.141314
0.754253 0.335744 0.13315
0.758938 0.326299 0.125048
0.760754 0.316579 0.117235
0.762478 0.306432 0.109133
0.764218 0.297353 0.101778
0.765438 0.289647 0.0954147
0.0113985 0.267506 0.192264
0.0221866 0.274052 0.192462
0.0322881 0.280491 0.192462
0.0608225 0.291249 0.194446
0.0899214 0.30193 0.196414
0.117876 0.312261 0.198108
0.160479 0.325383 0.200137
0.203174 0.338537 0.202213
0.245869 0.351553 0.20412
0.289845 0.36437 0.205035
0.334356 0.377325 0.206027
0.378424 0.389853 0.206744
0.417655 0.398444 0.20647
0.457115 0.407584 0.206256
0.495247 0.41445 0.205554
0.531228 0.417563 0.203922
0.567803 0.421118 0.20235
0.600687 0.422171 0.200534
0.631113 0.421057 0.198306
0.662226 0.42063 0.19617
0.68571 0.417533 0.192813
0.707179 0.413718 0.189075
0.729671 0.410056 0.185321
0.742809 0.403647 0.179583
0.756374 0.397345 0.173938
0.768811 0.390661 0.168017
0.775814 0.38204 0.160739
0.7832 0.373663 0.153658
0.788663 0.36466 0.146181
0.791547 0.35462 0.138048
0.794873 0.344762 0.12987
0.796536 0.335912 0.122347
0.797726 0.327062 0.114595
0.0125734 0.282307 0.196551
0.0211795 0.288518 0.196429
0.0351415 0.295964 0.197177
0.0610666 0.306142 0.199222
0.0860456 0.315923 0.2009
0.116487 0.326757 0.202777
0.15761 0.339666 0.205478
0.198276 0.352361 0.208148
0.240604 0.365118 0.210422
0.285954 0.378561 0.212345
0.332158 0.392218 0.214527
0.374395 0.403967 0.215747
0.414939 0.414771 0.216144
0.455573 0.426047 0.2168
0.494545 0.433448 0.216648
0.532769 0.440024 0.21651
0.571633 0.447059 0.216297
0.60531 0.448631 0.21471
0.639521 0.45037 0.213199
0.673182 0.451713 0.211353
0.698329 0.449256 0.208347
0.72433 0.447013 0.205447
0.747631 0.444114 0.202182
0.764508 0.439048 0.197681
0.782071 0.434195 0.193408
0.794644 0.427573 0.187808
0.80354 0.419928 0.18143
0.813001 0.412406 0.175097
0.817533 0.403235 0.167422
0.821591 0.393912 0.159594
0.825498 0.384619 0.151705
0.826581 0.375128 0.143542
0.828214 0.366171 0.135576
0.0141146 0.297032 0.202365
0.0209049 0.302663 0.202228
0.0384375 0.310948 0.203265
0.0599985 0.320104 0.204608
0.0802625 0.328878 0.205692
0.114626 0.340551 0.208164
0.153292 0.353033 0.21117
0.191272 0.365286 0.214084
0.235721 0.378897 0.216938
0.282414 0.392996 0.219989
0.33019 0.407355 0.223194
0.371557 0.420157 0.224857
0.413245 0.433097 0.22652
0.455024 0.44596 0.228092
0.494545 0.454902 0.228779
0.534936 0.464042 0.229358
0.574395 0.471687 0.229633
0.610819 0.474845 0.22858
0.648142 0.478553 0.22771
0.680949 0.480186 0.226215
0.709621 0.479271 0.223941
0.739269 0.478706 0.22179
0.76109 0.476127 0.218662
0.780789 0.472496 0.215045
0.801389 0.469123 0.211521
0.813016 0.462959 0.206287
0.825132 0.45687 0.20119
0.836057 0.450385 0.195682
0.842237 0.44213 0.1888
0.848768 0.433997 0.181994
0.853422 0.425361 0.174624
0.856306 0.416251 0.166674
0.859388 0.407172 0.158724
0.0146334 0.311437 0.207813
0.02121 0.316884 0.207416
0.0392004 0.325383 0.208499
0.0563211 0.333669 0.209094
0.0755322 0.342138 0.209918
0.111955 0.35433 0.213413
0.147509 0.366262 0.216663
0.184741 0.378622 0.220005
0.231937 0.393225 0.224491
0.279255 0.407599 0.228916
0.324544 0.421607 0.232639
0.36733 0.435218 0.23505
0.410758 0.448936 0.237491
0.452842 0.461173 0.23946
0.494072 0.472175 0.240742
0.535546 0.483726 0.242161
0.575235 0.491463 0.242557
0.614923 0.498116 0.242573
0.655131 0.505119 0.242741
0.687816 0.507301 0.241413
0.720211 0.508995 0.239963
0.752468 0.510903 0.238514
0.775265 0.508949 0.235782
0.798749 0.507317 0.233295
0.819333 0.504768 0.230274
0.83444 0.500542 0.226474
0.849836 0.496315 0.222766
0.860975 0.490227 0.2177
0.868833 0.482582 0.211627
0.876951 0.475242 0.205783
0.88072 0.466224 0.198047
0.884321 0.45716 0.190097
0.887373 0.448203 0.182208
0.0156863 0.325536 0.212833
0.0250553 0.33164 0.213123
0.0395514 0.339345 0.213947
0.0531624 0.346578 0.214343
0.0766308 0.356054 0.216327
0.109056 0.368017 0.220432
0.140551 0.379568 0.224033
0.180987 0.392874 0.228443
0.227909 0.407446 0.233478
0.274617 0.421881 0.238468
0.319661 0.43624 0.242054
0.363912 0.450492 0.245258
0.409781 0.465126 0.248661
0.451835 0.478202 0.250858
0.494408 0.491478 0.252918
0.536919 0.504936 0.255207
0.578286 0.513985 0.256168
0.620569 0.523049 0.257008
0.660746 0.530846 0.257618
0.695674 0.534127 0.256748
0.731106 0.538125 0.256321
0.761975 0.539956 0.255177
0.787655 0.539864 0.253681
0.814038 0.539986 0.252171
0.83328 0.537453 0.249439
0.850141 0.534554 0.246693
0.867552 0.531563 0.243732
0.877363 0.525597 0.238651
0.887556 0.51986 0.233692
0.896422 0.513405 0.228153
0.901671 0.505714 0.221241
0.907118 0.49781 0.214069
0.910536 0.489693 0.206577
0.0165713 0.339406 0.218112
0.0271 0.345953 0.21886
0.0382239 0.352972 0.219867
0.0483711 0.359777 0.22092
0.0760204 0.370779 0.224506
0.104311 0.381994 0.228168
0.132067 0.392966 0.23125
0.17818 0.407416 0.236606
0.223941 0.421775 0.24184
0.269322 0.436118 0.24686
0.314946 0.450736 0.250706
0.361639 0.465507 0.25478
0.407568 0.480003 0.258595
0.450996 0.494011 0.261295
0.494713 0.508156 0.264271
0.538079 0.520775 0.266728
0.580926 0.531579 0.268437
0.624567 0.543038 0.270314
0.664088 0.55108 0.271382
0.701946 0.557458 0.271992
0.740902 0.564675 0.272862
0.770489 0.567147 0.272389
0.799496 0.56965 0.271931
0.82768 0.571756 0.271336
0.84683 0.570504 0.269306
0.866575 0.569177 0.267262
0.883436 0.566766 0.264683
0.895796 0.562921 0.261036
0.908492 0.558999 0.257389
0.917464 0.55317 0.251881
0.923674 0.545769 0.245487
0.930129 0.538598 0.239094
0.932479 0.53048 0.231769
0.0210422 0.354482 0.223743
0.0306859 0.361044 0.224948
0.0398566 0.367346 0.225879
0.0538033 0.37496 0.22771
0.0793927 0.38558 0.231159
0.1037 0.396017 0.234455
0.134737 0.407645 0.238392
0.177432 0.421729 0.243931
0.219211 0.435554 0.249165
0.263157 0.449928 0.254154
0.311192 0.465034 0.259174
0.35964 0.480156 0.264393
0.405325 0.494926 0.268544
0.450324 0.509819 0.272282
0.495827 0.524865 0.276249
0.540078 0.538033 0.279072
0.58439 0.551049 0.281712
0.629358 0.564599 0.284489
0.66949 0.573571 0.286275
0.710506 0.582544 0.287984
0.748653 0.590402 0.289403
0.779629 0.594263 0.289769
0.811078 0.598337 0.290333
0.837324 0.600504 0.290242
0.858564 0.600275 0.289342
0.880446 0.600702 0.288792
0.895567 0.598215 0.286427
0.908934 0.595087 0.283772
0.922393 0.592371 0.281209
0.929808 0.586557 0.275715
0.937423 0.580926 0.27039
0.94374 0.575174 0.264714
0.947112 0.567941 0.257801
0.0272984 0.370214 0.229145
0.0350195 0.375937 0.230335
0.0422217 0.381506 0.231632
0.0593271 0.390127 0.234516
0.080293 0.399924 0.237934
0.100145 0.409476 0.240955
0.134661 0.422126 0.246006
0.173129 0.435721 0.251408
0.211246 0.448997 0.256306
0.259464 0.464164 0.261967
0.3084 0.479469 0.26772
0.35787 0.494804 0.273579
0.404425 0.510201 0.277974
0.450996 0.525505 0.282643
0.498054 0.540673 0.287221
0.543572 0.554681 0.29044
0.588815 0.568704 0.293797
0.63299 0.581292 0.296803
0.674769 0.591943 0.299351
0.717205 0.603052 0.302235
0.753277 0.610925 0.304494
0.786877 0.617197 0.306386
0.820966 0.62417 0.308782
0.845609 0.626749 0.309545
0.86923 0.62884 0.310094
0.892164 0.630961 0.310704
0.906966 0.629374 0.308934
0.922271 0.628 0.307317
0.934844 0.625895 0.304738
0.943725 0.621866 0.300359
0.952987 0.618402 0.296361
0.958694 0.61294 0.290684
0.962615 0.60618 0.284504
0.0332952 0.385779 0.234028
0.0397498 0.390906 0.235248
0.0468147 0.396139 0.23653
0.0654154 0.405325 0.239811
0.0829023 0.414176 0.242771
0.102892 0.423514 0.245823
0.138766 0.436683 0.251209
0.173098 0.449485 0.256199
0.211353 0.463035 0.26157
0.25977 0.478508 0.268055
0.308751 0.494026 0.274647
0.356939 0.50956 0.280888
0.405509 0.525444 0.286656
0.454078 0.541253 0.292668
0.501335 0.556466 0.29752
0.547646 0.571405 0.301579
0.593622 0.586343 0.305837
0.637247 0.599252 0.309621
0.680964 0.612024 0.313497
0.724498 0.624979 0.31751
0.759976 0.633417 0.320928
0.795789 0.641749 0.324422
0.828809 0.649027 0.327703
0.853834 0.652491 0.329534
0.879637 0.656199 0.331594
0.900267 0.657862 0.332418
0.916243 0.657298 0.331975
0.932799 0.657176 0.331792
0.943282 0.654322 0.329107
0.952789 0.651225 0.326024
0.961852 0.647776 0.322621
0.966567 0.642588 0.317342
0.971389 0.637201 0.311818
0.0409705 0.401694 0.237675
0.0459144 0.40589 0.238773
0.0556954 0.411917 0.240894
0.0708476 0.42002 0.244022
0.0849622 0.427817 0.246876
0.108919 0.438315 0.251102
0.139956 0.450721 0.256214
0.170153 0.462913 0.261189
0.211749 0.477348 0.267506
0.259892 0.493019 0.274784
0.308904 0.508705 0.281804
0.358572 0.524834 0.288457
0.40853 0.541039 0.295369
0.459159 0.557397 0.302449
0.505608 0.57258 0.307286
0.552636 0.58793 0.312444
0.599145 0.602884 0.317739
0.642878 0.616022 0.322423
0.686839 0.629343 0.327367
0.727764 0.64123 0.332296
0.764584 0.651164 0.337072
0.801892 0.661479 0.342031
0.832807 0.668559 0.345968
0.859983 0.67425 0.349599
0.888014 0.680415 0.353506
0.90631 0.681758 0.354498
0.92401 0.683131 0.355642
0.940581 0.684077 0.356252
0.950957 0.681971 0.353979
0.961639 0.680323 0.351965
0.969787 0.677424 0.348516
0.975433 0.673777 0.343938
0.981216 0.669978 0.339117
0.0480812 0.417121 0.241489
0.0526131 0.420752 0.242725
0.0652018 0.427985 0.245838
0.0785992 0.435386 0.248569
0.0915541 0.442603 0.251133
0.120027 0.454353 0.256077
0.148592 0.466163 0.260822
0.177554 0.477928 0.265293
0.224445 0.493446 0.272648
0.270314 0.508843 0.279973
0.316518 0.52433 0.287373
0.366522 0.540856 0.295232
0.415793 0.557046 0.303197
0.464485 0.573022 0.310521
0.511086 0.588403 0.316823
0.558389 0.603998 0.323507
0.603952 0.618585 0.329732
0.648203 0.632639 0.335714
0.692836 0.646754 0.341894
0.732433 0.658701 0.347845
0.770779 0.670466 0.353994
0.809232 0.682429 0.360311
0.837903 0.689616 0.365301
0.867124 0.696895 0.370474
0.893339 0.702724 0.374807
0.911955 0.704646 0.376913
0.930953 0.707012 0.379385
0.945449 0.707332 0.379782
0.95671 0.705928 0.3785
0.968277 0.704921 0.377508
0.974929 0.701686 0.373709
0.981064 0.698421 0.369741
0.986542 0.694972 0.365591
0.0618753 0.434546 0.246937
0.0679484 0.438621 0.248356
0.0800641 0.445396 0.250874
0.091722 0.451896 0.253071
0.108171 0.459861 0.25594
0.13431 0.470985 0.260487
0.160128 0.482078 0.265034
0.193286 0.494896 0.271046
0.236118 0.509865 0.278676
0.278614 0.524804 0.285954
0.324331 0.540383 0.294011
0.3738 0.556893 0.302785
0.423026 0.573098 0.311437
0.470588 0.588846 0.319249
0.518151 0.604669 0.327077
0.565164 0.620249 0.335164
0.609949 0.634501 0.342123
0.654627 0.648707 0.349386
0.698863 0.662684 0.356817
0.73698 0.674586 0.363806
0.775769 0.686732 0.371038
0.810864 0.697276 0.37792
0.84097 0.705653 0.384192
0.871366 0.714275 0.390707
0.894575 0.719493 0.395254
0.915236 0.723339 0.399023
0.936126 0.727321 0.402792
0.948775 0.727504 0.402838
0.961471 0.727718 0.402838
0.972839 0.727321 0.402182
0.979644 0.725246 0.399298
0.986679 0.723079 0.396231
0.99147 0.720806 0.39292
0.074876 0.451438 0.251759
0.0833906 0.456306 0.253315
0.0951247 0.46247 0.25536
0.106844 0.46862 0.25742
0.128328 0.478294 0.261677
0.15285 0.488975 0.266346
0.176898 0.499413 0.270649
0.214786 0.513283 0.277592
0.254688 0.527565 0.284672
0.293797 0.541558 0.291539
0.340795 0.55761 0.300633
0.387701 0.573495 0.309697
0.434577 0.589456 0.318776
0.480674 0.60499 0.32781
0.527382 0.620691 0.337179
0.572702 0.635859 0.346258
0.617121 0.650095 0.35465
0.662318 0.66453 0.363348
0.703487 0.677729 0.371695
0.742351 0.690242 0.379828
0.781415 0.702861 0.388144
0.813748 0.712917 0.395773
0.844938 0.722606 0.403403
0.875547 0.732174 0.410971
0.897322 0.737057 0.415854
