LUT预设1/LUT全系打包/胶片lut系列/709胶片系列（正常色彩素材用这个）/柯达5213-2-709.cube
TITLE "Generated by Resolve"
LUT_3D_SIZE 5
0.0391546 0.0914473 0.121065
0.213764 0.0973526 0.104417
0.350851 0.0886549 0.070634
0.436515 0.0730297 0.0451972
0.443503 0.0645304 0.0332799
0.0126802 0.184543 0.170077
0.266606 0.25098 0.168444
0.510658 0.25951 0.130877
0.607019 0.203418 0.0764324
0.628153 0.144869 0.0412299
0.0141146 0.297032 0.202365
0.235721 0.378897 0.216938
0.574395 0.471687 0.229633
0.801389 0.469123 0.211521
0.859388 0.407172 0.158724
0.0480812 0.417121 0.241489
0.224445 0.493446 0.272648
0.603952 0.618585 0.329732
0.893339 0.702724 0.374807
0.986542 0.694972 0.365591
0.290883 0.582574 0.298497
0.458961 0.648737 0.329198
0.706386 0.73962 0.427558
0.910872 0.805997 0.515282
0.999496 0.819409 0.541329
0.012665 0.0694743 0.151263
0.16408 0.063798 0.174701
0.309483 0.0596628 0.171664
0.396124 0.0565652 0.132555
0.399329 0.0530098 0.0728923
0 0.189929 0.255512
0.18407 0.229023 0.262226
0.459068 0.235309 0.232502
0.567697 0.177188 0.168505
0.580301 0.110323 0.088014
0.00440986 0.338888 0.326879
0.159686 0.395789 0.322316
0.522362 0.46363 0.319127
0.759197 0.452049 0.274601
0.807477 0.364218 0.187274
0.0340581 0.460395 0.365988
0.171267 0.519234 0.361456
0.54107 0.619577 0.383673
0.865507 0.704997 0.432685
0.981521 0.694575 0.414023
0.298833 0.625116 0.399893
0.464637 0.67895 0.408896
0.690898 0.75111 0.459876
0.908217 0.814038 0.530297
1 0.820356 0.527901
0.000427253 0.0500496 0.175601
0.094789 0.0542916 0.214313
0.243076 0.0457771 0.228656
0.33431 0.0474708 0.21529
0.354711 0.0471351 0.155947
0 0.170108 0.313634
0.0853285 0.206363 0.337987
0.377981 0.211963 0.354177
0.534173 0.165408 0.323461
0.564965 0.0946822 0.219669
0.00631724 0.366781 0.455817
0.0918746 0.419516 0.470039
0.413825 0.460212 0.471214
0.673335 0.439567 0.426566
0.758785 0.34548 0.32195
0.0337377 0.506081 0.50161
0.130678 0.563119 0.510048
0.433478 0.625513 0.503639
0.777859 0.679896 0.521477
0.932525 0.665675 0.493599
0.299733 0.669825 0.517876
0.416464 0.708263 0.537179
0.586206 0.746639 0.542626
0.847395 0.805798 0.581216
0.989746 0.825422 0.593774
0 0.0390784 0.183078
0.0396735 0.0450904 0.235462
0.165743 0.0425879 0.255268
0.250263 0.0417334 0.247517
0.296269 0.0432593 0.210636
0 0.150225 0.362722
0.0254673 0.179232 0.392401
0.262226 0.191669 0.417136
0.45568 0.146792 0.420264
0.536324 0.08542 0.369116
0.00622568 0.356878 0.531899
0.0298314 0.394507 0.549889
0.24918 0.438911 0.566232
0.546456 0.428611 0.570947
0.71899 0.390509 0.560143
0.0363928 0.52752 0.622782
0.0960098 0.579309 0.643656
0.332479 0.641749 0.658961
0.650965 0.670283 0.667979
0.828214 0.664775 0.650202
0.245151 0.700526 0.657725
0.289631 0.72343 0.683513
0.466392 0.762387 0.699519
0.698894 0.782132 0.692653
0.902602 0.79968 0.691386
0 0.0366827 0.176577
0.0123598 0.0401312 0.236118
0.110826 0.0425422 0.271504
0.174456 0.0403754 0.26276
0.248783 0.0410468 0.253605
0 0.133761 0.374517
0.00430304 0.15404 0.421454
0.162051 0.17113 0.448356
0.351263 0.131228 0.460868
0.450599 0.0786603 0.444511
0.00550851 0.341268 0.562249
0.0113832 0.370428 0.585046
0.145876 0.431235 0.614038
0.46865 0.466239 0.638926
0.647654 0.451469 0.64889
0.0297704 0.512581 0.673793
0.0760204 0.570855 0.698558
0.379538 0.673564 0.733776
0.680827 0.713695 0.75169
0.80116 0.718944 0.752163
0.219013 0.712489 0.745907
0.289647 0.73666 0.757122
0.495369 0.77496 0.775647
0.688762 0.788876 0.782788
0.833829 0.792096 0.782193
