LUT预设1/LUT全系打包/胶片lut系列/709胶片系列（正常色彩素材用这个）/柯达5213-2-709.cube
TITLE "Generated by Resolve"
LUT_3D_SIZE 9
0.0391546 0.0914473 0.121065
0.122484 0.0949416 0.117876
0.213764 0.0973526 0.104417
0.288502 0.0946822 0.0868086
0.350851 0.0886549 0.070634
0.400793 0.0805524 0.0567025
0.436515 0.0730297 0.0451972
0.449805 0.0676585 0.0373846
0.443503 0.0645304 0.0332799
0.0150912 0.135729 0.14667
0.12166 0.155062 0.143908
0.252461 0.170138 0.134173
0.362676 0.172244 0.114458
0.435477 0.160449 0.0897841
0.487953 0.139193 0.0665293
0.521798 0.117922 0.0496681
0.53933 0.100328 0.0384833
0.540154 0.0880446 0.0325322
0.0126802 0.184543 0.170077
0.102495 0.214725 0.171695
0.266606 0.25098 0.168444
0.407584 0.265232 0.153826
0.510658 0.25951 0.130877
0.572808 0.235401 0.103578
0.607019 0.203418 0.0764324
0.62179 0.170764 0.0553902
0.628153 0.144869 0.0412299
0.00450141 0.237583 0.183383
0.0921492 0.272221 0.187045
0.253071 0.322087 0.192035
0.422019 0.360861 0.190036
0.555825 0.367361 0.179171
0.657282 0.355138 0.161715
0.707988 0.328008 0.137453
0.729397 0.290623 0.107012
0.734173 0.253193 0.0771801
0.0141146 0.297032 0.202365
0.0802625 0.328878 0.205692
0.235721 0.378897 0.216938
0.413245 0.433097 0.22652
0.574395 0.471687 0.229633
0.709621 0.479271 0.223941
0.801389 0.469123 0.211521
0.842237 0.44213 0.1888
0.859388 0.407172 0.158724
0.0210422 0.354482 0.223743
0.0793927 0.38558 0.231159
0.219211 0.435554 0.249165
0.405325 0.494926 0.268544
0.58439 0.551049 0.281712
0.748653 0.590402 0.289403
0.858564 0.600275 0.289342
0.922393 0.592371 0.281209
0.947112 0.567941 0.257801
0.0480812 0.417121 0.241489
0.0915541 0.442603 0.251133
0.224445 0.493446 0.272648
0.415793 0.557046 0.303197
0.603952 0.618585 0.329732
0.770779 0.670466 0.353994
0.893339 0.702724 0.374807
0.95671 0.705928 0.3785
0.986542 0.694972 0.365591
0.122133 0.490745 0.265736
0.181094 0.51809 0.274891
0.298116 0.563439 0.296361
0.465232 0.622995 0.334905
0.639872 0.68159 0.379919
0.791959 0.730861 0.421912
0.903502 0.766369 0.45684
0.971557 0.780072 0.471473
0.997131 0.776638 0.467414
0.290883 0.582574 0.298497
0.358923 0.609232 0.305104
0.458961 0.648737 0.329198
0.577295 0.694347 0.371817
0.706386 0.73962 0.427558
0.821805 0.778592 0.479622
0.910872 0.805997 0.515282
0.973373 0.81825 0.532403
0.999496 0.819409 0.541329
0.0261692 0.0799725 0.139086
0.101259 0.0772869 0.14548
0.194583 0.0759289 0.14609
0.271473 0.0746777 0.135119
0.332998 0.0730755 0.119799
0.38172 0.0687572 0.100023
0.41619 0.063859 0.0788128
0.426703 0.0597543 0.0596017
0.41854 0.0566873 0.0449378
0.00849927 0.130617 0.176364
0.0940871 0.141756 0.177981
0.224948 0.151858 0.174273
0.338293 0.153414 0.157305
0.415122 0.143221 0.134844
0.468818 0.124727 0.110033
0.50161 0.105531 0.0869764
0.515938 0.08748 0.06421
0.51191 0.0753033 0.0459602
0.00314336 0.190677 0.216083
0.0682841 0.213031 0.21619
0.229023 0.238834 0.213169
0.378775 0.252888 0.198184
0.483925 0.2477 0.172519
0.547753 0.222858 0.139437
0.583856 0.188205 0.106447
0.597177 0.153628 0.0777752
0.59968 0.125124 0.0521401
0.00314336 0.254307 0.242527
0.0616617 0.280552 0.241947
0.213916 0.318425 0.243565
0.395041 0.35201 0.238865
0.532509 0.359823 0.220859
0.633463 0.346487 0.193454
0.685252 0.314839 0.160479
0.704356 0.271519 0.121309
0.706844 0.229664 0.0849317
0.00737011 0.317082 0.260563
0.0535744 0.342199 0.25536
0.200305 0.383124 0.25745
0.385092 0.431388 0.263233
0.551461 0.467262 0.263172
0.692271 0.474845 0.253483
0.786236 0.462089 0.236789
0.825803 0.430732 0.209155
0.839277 0.38938 0.171298
0.0164492 0.376532 0.281651
0.0632486 0.402884 0.280552
0.184985 0.44358 0.282918
0.375448 0.496956 0.294728
0.560601 0.550942 0.308003
0.728038 0.589029 0.317327
0.84712 0.600244 0.319066
0.914549 0.589487 0.308721
0.939055 0.55993 0.279728
0.0394141 0.438087 0.302052
0.0773632 0.460792 0.304082
0.196109 0.503532 0.30956
0.38114 0.559716 0.328237
0.574899 0.619974 0.356634
0.753292 0.674357 0.384482
0.884047 0.706859 0.403937
0.954986 0.709651 0.403891
0.986023 0.695994 0.385412
0.107698 0.510887 0.324117
0.162264 0.534218 0.32546
0.271611 0.572519 0.330282
0.439475 0.627451 0.357259
0.619058 0.686412 0.402991
0.780041 0.736812 0.446204
0.900847 0.772992 0.476463
0.972702 0.784955 0.482673
0.998093 0.780301 0.471931
0.293812 0.603082 0.346349
0.363394 0.62768 0.348302
0.465537 0.663478 0.361532
0.580255 0.70428 0.391073
0.705165 0.746868 0.44036
0.821149 0.784588 0.488472
0.912978 0.810101 0.516564
0.977981 0.820035 0.5243
0.999985 0.818906 0.526802
0.012665 0.0694743 0.151263
0.0722057 0.0675364 0.163104
0.16408 0.063798 0.174701
0.244358 0.0612039 0.17792
0.309483 0.0596628 0.171664
0.361318 0.0585794 0.15584
0.396124 0.0565652 0.132555
0.406577 0.0545205 0.102541
0.399329 0.0530098 0.0728923
0.00488289 0.119295 0.197208
0.0642557 0.129946 0.205844
0.186816 0.135912 0.215549
0.312657 0.133577 0.214618
0.396857 0.125353 0.19733
0.454093 0.11194 0.175189
0.487602 0.0953078 0.147173
0.500786 0.0785229 0.112779
0.491981 0.0676738 0.0772412
0 0.189929 0.255512
0.0425727 0.210315 0.25919
0.18407 0.229023 0.262226
0.345647 0.240528 0.255619
0.459068 0.235309 0.232502
0.527794 0.211719 0.20238
0.567697 0.177188 0.168505
0.581842 0.142367 0.130816
0.580301 0.110323 0.088014
0.00239567 0.267475 0.301747
0.04065 0.292821 0.304479
0.167849 0.322484 0.304845
0.355673 0.346685 0.300084
0.501945 0.354314 0.27982
0.60325 0.340124 0.248569
0.657237 0.304082 0.207065
0.678019 0.254627 0.160662
0.681056 0.209979 0.114382
0.00440986 0.338888 0.326879
0.0391546 0.363149 0.325444
0.159686 0.395789 0.322316
0.346975 0.433341 0.323583
0.522362 0.46363 0.319127
0.666331 0.469627 0.301778
0.759197 0.452049 0.274601
0.796918 0.412299 0.236408
0.807477 0.364218 0.187274
0.0141146 0.400443 0.345647
0.0504005 0.424964 0.344137
0.152773 0.459205 0.336538
0.3393 0.503182 0.336828
0.528984 0.549325 0.34493
0.699413 0.583658 0.351965
0.826429 0.593347 0.351308
0.897337 0.577752 0.336522
0.922698 0.544457 0.303899
0.0340581 0.460395 0.365988
0.0682994 0.482795 0.366934
0.171267 0.519234 0.361456
0.343694 0.565087 0.362127
0.54107 0.619577 0.383673
0.727367 0.672892 0.412268
0.865507 0.704997 0.432685
0.947036 0.708583 0.433158
0.981521 0.694575 0.414023
0.0998856 0.532723 0.386618
0.146975 0.553872 0.385473
0.248966 0.58735 0.381216
0.409827 0.634226 0.392081
0.587716 0.688014 0.427253
0.758968 0.73959 0.471244
0.891615 0.777325 0.501183
0.970626 0.789883 0.503777
0.998306 0.78584 0.491554
0.298833 0.625116 0.399893
0.366583 0.647715 0.401434
0.464637 0.67895 0.408896
0.572045 0.712963 0.423117
0.690898 0.75111 0.459876
0.808927 0.788327 0.505653
0.908217 0.814038 0.530297
0.979324 0.822873 0.531197
1 0.820356 0.527901
0.00360113 0.059617 0.163745
0.0442054 0.0617075 0.179492
0.129747 0.0578012 0.196094
0.211398 0.0536049 0.205875
0.279438 0.0506294 0.207813
0.333211 0.0512398 0.201617
0.368795 0.0510567 0.184024
0.382971 0.0501411 0.153735
0.380713 0.0500649 0.115297
0.00244144 0.106722 0.216312
0.0361486 0.118257 0.22858
0.138186 0.124453 0.244541
0.270939 0.120882 0.255528
0.369543 0.110414 0.253681
0.433768 0.0999313 0.239551
0.47245 0.0866102 0.214557
0.487526 0.0714275 0.177295
0.478431 0.0625315 0.126619
0 0.180133 0.284794
0.0250553 0.200259 0.293584
0.13341 0.21886 0.303944
0.296025 0.228763 0.311513
0.428641 0.222629 0.303868
0.506477 0.201175 0.278676
0.554055 0.170825 0.247776
0.572656 0.135836 0.204089
0.570794 0.101137 0.145922
0.00151064 0.272572 0.353597
0.0265507 0.297505 0.361013
0.120424 0.323827 0.363302
0.298283 0.342077 0.363317
0.461433 0.347387 0.351202
0.569879 0.332815 0.32163
0.63209 0.296818 0.284031
0.660624 0.245182 0.235889
0.667094 0.197681 0.176913
0.0047303 0.357214 0.394583
0.0312047 0.381643 0.398932
0.12488 0.412955 0.399878
0.294453 0.442145 0.399695
0.479561 0.46244 0.395056
0.624796 0.465492 0.374289
0.718547 0.444785 0.340276
0.760281 0.399222 0.289937
0.775128 0.345571 0.230579
0.0146487 0.425025 0.414405
0.0430457 0.44947 0.418051
0.12575 0.482216 0.415244
0.291691 0.516564 0.410025
0.482979 0.550362 0.41178
0.657984 0.577218 0.413016
0.791104 0.583139 0.403204
0.863172 0.560845 0.377508
0.890089 0.522667 0.337606
0.0321965 0.483207 0.432273
0.0623789 0.50602 0.435966
0.147814 0.539818 0.430289
0.298146 0.576043 0.419852
0.491554 0.618753 0.427619
0.682261 0.664057 0.448981
0.831144 0.694362 0.465888
0.925856 0.698375 0.465446
0.967117 0.684749 0.44741
0.0966659 0.555383 0.451423
0.138155 0.576196 0.451728
0.231266 0.608133 0.447623
0.37615 0.644663 0.444846
0.543526 0.686336 0.458595
0.722301 0.734722 0.494865
0.867475 0.773724 0.525399
0.957107 0.788632 0.530541
0.995438 0.787686 0.522454
0.301656 0.647959 0.457145
0.366674 0.668513 0.460746
0.452796 0.694652 0.468452
0.544167 0.719814 0.472663
0.652369 0.750011 0.492012
0.776791 0.786313 0.527993
0.890776 0.814221 0.552361
0.974746 0.825528 0.554665
0.999985 0.824262 0.550866
0.000427253 0.0500496 0.175601
0.0226444 0.0549935 0.195834
0.094789 0.0542916 0.214313
0.174899 0.049424 0.225177
0.243076 0.0457771 0.228656
0.296666 0.046952 0.226291
0.33431 0.0474708 0.21529
0.351019 0.0467994 0.191836
0.354711 0.0471351 0.155947
0.000427253 0.0940414 0.235294
0.0178378 0.105882 0.250584
0.0927138 0.114168 0.26807
0.222385 0.11046 0.28426
0.33109 0.0994278 0.29102
0.404715 0.0898451 0.286534
0.449546 0.0797131 0.269993
0.466865 0.0665141 0.236072
0.462684 0.0580911 0.183383
0 0.170108 0.313634
0.0114443 0.188251 0.325704
0.0853285 0.206363 0.337987
0.230594 0.217639 0.350301
0.377981 0.211963 0.354177
0.47361 0.191852 0.345449
0.534173 0.165408 0.323461
0.561669 0.130465 0.282979
0.564965 0.0946822 0.219669
0.000701915 0.268208 0.395254
0.0148318 0.289113 0.403998
0.0756847 0.313771 0.410285
0.22681 0.332982 0.416449
0.401495 0.338201 0.417716
0.52781 0.323552 0.4047
0.6047 0.291508 0.374548
0.647593 0.244587 0.330922
0.663691 0.194293 0.265141
0.00631724 0.366781 0.455817
0.0251774 0.38996 0.464714
0.0918746 0.419516 0.470039
0.228779 0.445884 0.47219
0.413825 0.460212 0.471214
0.571511 0.459937 0.45832
0.673335 0.439567 0.426566
0.729412 0.395972 0.380194
0.758785 0.34548 0.32195
0.0172885 0.446204 0.486076
0.0394446 0.469963 0.494759
0.10547 0.502159 0.499214
0.242634 0.533242 0.498741
0.424109 0.557809 0.499428
0.60174 0.574914 0.499031
0.738399 0.57673 0.484123
0.813626 0.551125 0.448737
0.848035 0.513603 0.401175
0.0337377 0.506081 0.50161
0.0608377 0.529595 0.508965
0.130678 0.563119 0.510048
0.257008 0.595819 0.504463
0.433478 0.625513 0.503639
0.620645 0.657267 0.513817
0.777859 0.679896 0.521477
0.884047 0.681559 0.513954
0.932525 0.665675 0.493599
0.0957504 0.577935 0.51632
0.131273 0.598733 0.519997
0.213626 0.630549 0.520699
0.339269 0.660517 0.516808
0.484993 0.688014 0.514809
0.655253 0.722911 0.533318
0.812955 0.757641 0.557
0.921569 0.776242 0.564752
0.978485 0.778119 0.560113
0.299733 0.669825 0.517876
0.352056 0.68719 0.524987
0.416464 0.708263 0.537179
0.49012 0.726253 0.539651
0.586206 0.746639 0.542626
0.712932 0.776608 0.559945
0.847395 0.805798 0.581216
0.950805 0.822812 0.591699
0.989746 0.825422 0.593774
0 0.042649 0.182589
0.00819409 0.0483558 0.207767
0.0641489 0.0501259 0.227955
0.138857 0.0467079 0.240024
0.203449 0.0433661 0.24271
0.254536 0.0438087 0.241413
0.294743 0.0443275 0.23505
0.314183 0.0442817 0.215808
0.323583 0.0449073 0.186023
0 0.0816052 0.250797
0.00614939 0.0915389 0.269963
0.0573587 0.101366 0.288701
0.173342 0.100359 0.30692
0.284153 0.0907301 0.317281
0.364538 0.0810407 0.317296
0.417502 0.0733196 0.307622
0.440116 0.0624094 0.280385
0.44419 0.0543832 0.235569
0 0.159945 0.34139
0.00411994 0.175738 0.355062
0.0497749 0.19324 0.367636
0.166964 0.206027 0.379919
0.319219 0.200732 0.389883
0.42945 0.181369 0.391623
0.502739 0.158114 0.38201
0.542306 0.124254 0.352026
0.5552 0.0895247 0.298573
0.000213626 0.261265 0.430121
0.00663767 0.278706 0.440436
0.0417334 0.300298 0.449302
0.155978 0.319707 0.456779
0.326299 0.32726 0.462303
0.465843 0.313313 0.461128
0.56083 0.285924 0.451545
0.623316 0.245029 0.42327
0.659251 0.195804 0.371756
0.00686656 0.365286 0.503197
0.0178531 0.384222 0.511452
0.0560616 0.40798 0.517296
0.153552 0.434119 0.523354
0.330495 0.450294 0.527916
0.500603 0.450675 0.528389
0.619074 0.432731 0.516915
0.69781 0.401617 0.488716
0.749096 0.364309 0.447562
0.0186923 0.455299 0.547921
0.0339513 0.476402 0.557916
0.0808118 0.50573 0.566751
0.185046 0.53463 0.57023
0.351537 0.559945 0.574228
0.530739 0.57319 0.576989
0.676097 0.571817 0.568994
0.762387 0.551644 0.540566
0.814817 0.525826 0.508492
0.0367437 0.52433 0.569192
0.0597086 0.54638 0.578195
0.116258 0.579385 0.58587
0.224094 0.613031 0.590082
0.38291 0.639292 0.592615
0.555093 0.6598 0.59794
0.712734 0.672114 0.599115
0.82504 0.671138 0.588083
0.880735 0.65594 0.564095
0.0953689 0.599298 0.582315
0.123049 0.619623 0.589883
0.19408 0.650507 0.596704
0.301076 0.677989 0.598367
0.430701 0.699367 0.596094
0.582193 0.719448 0.601114
0.737118 0.740673 0.610544
0.861875 0.756191 0.615213
0.937484 0.757733 0.610025
0.281895 0.688304 0.585611
0.309468 0.700191 0.596475
0.354116 0.717144 0.610254
0.419821 0.733623 0.616175
0.509743 0.749981 0.616831
0.630182 0.769207 0.619928
0.76762 0.789258 0.627085
0.890135 0.808087 0.636316
0.956436 0.816556 0.642939
0 0.0390784 0.183078
0.00386053 0.0428626 0.21178
0.0396735 0.0450904 0.235462
0.104768 0.0440986 0.25185
0.165743 0.0425879 0.255268
0.210773 0.041825 0.251911
0.250263 0.0417334 0.247517
0.27538 0.0421149 0.232792
0.296269 0.0432593 0.210636
0 0.0700389 0.260502
0.000747692 0.0766613 0.284428
0.0331731 0.0864881 0.304479
0.129015 0.0892348 0.324422
0.236469 0.0844587 0.337758
0.317769 0.0751354 0.339971
0.374014 0.0666819 0.333974
0.406394 0.0576486 0.31487
0.423407 0.0513008 0.281804
0 0.150225 0.362722
0.00161746 0.163317 0.379187
0.0254673 0.179232 0.392401
0.113313 0.193606 0.404181
0.262226 0.191669 0.417136
0.380316 0.173083 0.42414
0.45568 0.146792 0.420264
0.506752 0.11545 0.403937
0.536324 0.08542 0.369116
0.000183108 0.254368 0.457633
0.00270085 0.269398 0.468849
0.0224918 0.28867 0.47805
0.103624 0.308522 0.485969
0.255924 0.319051 0.493355
0.401892 0.305043 0.498955
0.501991 0.277272 0.500145
0.577874 0.242588 0.490867
0.63769 0.202411 0.466468
0.00622568 0.356878 0.531899
0.0116732 0.373724 0.541268
0.0298314 0.394507 0.549889
0.0943313 0.419211 0.558679
0.24918 0.438911 0.566232
0.423255 0.442695 0.570687
0.546456 0.428611 0.570947
0.642512 0.410224 0.569131
0.71899 0.390509 0.560143
0.0168154 0.449104 0.589807
0.0251926 0.465812 0.597848
0.0524758 0.490028 0.60589
0.124178 0.519661 0.613626
0.272755 0.551492 0.624063
0.457588 0.569314 0.631662
0.60473 0.567346 0.632227
0.705074 0.556832 0.625483
0.777951 0.555535 0.620737
0.0363928 0.52752 0.622782
0.0535439 0.547982 0.632471
0.0960098 0.579309 0.643656
0.184848 0.612757 0.653071
0.332479 0.641749 0.658961
0.499916 0.662715 0.665431
0.650965 0.670283 0.667979
0.762478 0.667781 0.661448
0.828214 0.664775 0.650202
0.0925917 0.615076 0.645823
0.115099 0.632944 0.655512
0.177035 0.661189 0.664424
0.2701 0.688304 0.671092
0.393271 0.710262 0.676127
0.531243 0.725994 0.68014
0.674739 0.73727 0.68191
0.798276 0.744686 0.681498
0.879759 0.742977 0.673091
0.245151 0.700526 0.657725
0.257649 0.709117 0.670466
0.289631 0.72343 0.683513
0.363378 0.742275 0.692149
0.466392 0.762387 0.699519
0.582284 0.775265 0.699519
0.698894 0.782132 0.692653
0.812726 0.79089 0.689036
0.902602 0.79968 0.691386
0 0.0373846 0.180209
0.00131228 0.039704 0.21088
0.0213321 0.0415351 0.237675
0.0737316 0.0426032 0.259007
0.133059 0.042649 0.266178
0.176303 0.0415045 0.26334
0.206241 0.0404974 0.256153
0.23328 0.0404364 0.245991
0.271595 0.041825 0.235554
0 0.0619821 0.261204
0 0.067277 0.28954
0.0170901 0.07393 0.313893
0.0900587 0.0778821 0.336095
0.189837 0.0775464 0.353674
0.270512 0.071046 0.358221
0.322606 0.0615091 0.351492
0.35993 0.0528878 0.337789
0.393042 0.0486152 0.317968
0 0.141222 0.374517
9.15541e-05 0.151766 0.396933
0.010544 0.164797 0.412177
0.0732433 0.179141 0.423148
0.207797 0.181277 0.436561
0.329107 0.166552 0.447272
0.400229 0.136416 0.445121
0.450034 0.104479 0.436377
0.498222 0.0803998 0.421714
0.000320439 0.246189 0.475532
0.00158694 0.260258 0.488655
0.0122072 0.277729 0.499214
0.0643015 0.297948 0.508568
0.187915 0.311681 0.517861
0.335851 0.301167 0.526574
0.440711 0.274891 0.53167
0.516411 0.24242 0.529915
0.591104 0.211643 0.52668
0.00563058 0.347936 0.550179
0.00802625 0.36318 0.560998
0.0165408 0.382025 0.571908
0.0599222 0.406973 0.582986
0.186282 0.433906 0.594919
0.359182 0.44828 0.604868
0.489082 0.441428 0.611276
0.585946 0.42858 0.617258
0.669581 0.422354 0.623194
0.0142367 0.436988 0.61059
0.0185702 0.450004 0.619577
0.0348363 0.474418 0.630716
0.0890059 0.509529 0.643565
0.230915 0.55108 0.659693
0.427924 0.581323 0.672251
0.576852 0.586679 0.674632
0.666865 0.579828 0.674128
0.736828 0.587625 0.682902
0.0319219 0.518578 0.656352
0.0433356 0.535851 0.665873
0.0771954 0.568872 0.676753
0.169223 0.611292 0.689021
0.324575 0.648585 0.702052
0.491142 0.672557 0.712398
0.629618 0.6804 0.716564
0.728099 0.678965 0.71487
0.793225 0.685817 0.716411
0.0901045 0.618265 0.691737
0.111955 0.635233 0.701183
0.16968 0.663676 0.710674
0.264179 0.693202 0.720684
0.395789 0.717983 0.728756
0.530953 0.734798 0.734371
0.65745 0.743526 0.737484
0.75967 0.744579 0.737133
0.828748 0.741421 0.729809
0.220539 0.708644 0.717601
0.236851 0.716625 0.726238
0.278721 0.731701 0.73518
0.363546 0.752407 0.744686
0.474357 0.773022 0.755032
0.580652 0.782864 0.757839
0.67454 0.784894 0.75172
0.767422 0.786984 0.744228
0.853437 0.790417 0.741222
0 0.0366827 0.176577
0 0.0385901 0.207767
0.0123598 0.0401312 0.236118
0.0547646 0.0417639 0.259571
0.110826 0.0425422 0.271504
0.154574 0.0417945 0.272953
0.174456 0.0403754 0.26276
0.197848 0.0398871 0.25449
0.248783 0.0410468 0.253605
0 0.0574807 0.255512
0 0.0624247 0.287938
0.00801099 0.0654307 0.316396
0.0637522 0.0692607 0.34078
0.155108 0.0716106 0.361364
0.235889 0.0681621 0.368917
0.282918 0.0586862 0.362051
0.315114 0.0501717 0.349325
0.357122 0.0466621 0.338506
0 0.133761 0.374517
0 0.143389 0.402609
0.00430304 0.15404 0.421454
0.0485542 0.166506 0.433448
0.162051 0.17113 0.448356
0.280659 0.159609 0.461753
0.351263 0.131228 0.460868
0.395941 0.100237 0.451194
0.450599 0.0786603 0.444511
0.000442512 0.23856 0.483192
0.00131228 0.252079 0.50042
0.00656138 0.266819 0.512322
0.0374609 0.286442 0.522622
0.132036 0.302678 0.533013
0.274372 0.29897 0.543328
0.394354 0.281758 0.552529
0.472831 0.253056 0.554406
0.548089 0.226032 0.557565
0.00550851 0.341268 0.562249
0.00689708 0.354589 0.573419
0.0113832 0.370428 0.585046
0.0406653 0.395148 0.597711
0.145876 0.431235 0.614038
0.320974 0.460243 0.629496
0.46865 0.466239 0.638926
0.57435 0.458564 0.644511
0.647654 0.451469 0.64889
0.0133669 0.429419 0.623331
0.0155795 0.438819 0.633463
0.029099 0.465431 0.646998
0.0821851 0.50782 0.662104
0.237293 0.562005 0.682124
0.448875 0.604517 0.700038
0.600595 0.620233 0.706996
0.68249 0.619654 0.708354
0.734997 0.622202 0.712077
0.0297704 0.512581 0.673793
0.0383459 0.529229 0.684031
0.0760204 0.570855 0.698558
0.200412 0.628183 0.716075
0.379538 0.673564 0.733776
0.547189 0.70013 0.745647
0.680827 0.713695 0.75169
0.760235 0.716136 0.751507
0.80116 0.718944 0.752163
0.0935531 0.619684 0.717372
0.116594 0.637659 0.725826
0.180606 0.66981 0.73431
0.302052 0.706783 0.745571
0.450599 0.73579 0.75819
0.581353 0.752621 0.767407
0.691447 0.760128 0.772656
0.772335 0.760037 0.77261
0.822492 0.756741 0.768597
0.219013 0.712489 0.745907
0.240955 0.721248 0.750683
0.289647 0.73666 0.757122
0.37995 0.756619 0.765759
0.495369 0.77496 0.775647
0.60119 0.78468 0.781125
0.688762 0.788876 0.782788
0.765728 0.791104 0.782986
0.833829 0.792096 0.782193
