LUT预设1/柯达5219&2393/柯达5219&2393尼康专用/Nlog/柯达2393-Nlog.cube
TITLE "Generated by Resolve"
LUT_3D_SIZE 5
0.00444038 0.0312505 0.0263523
0.110536 0.0385901 0.00221256
0.528908 0.0286412 0
0.774762 0 0
0.89012 0 0.337392
0 0.0900587 0.0348821
0.124422 0.111589 0.000503548
0.697169 0.149004 0
0.929335 0.0634165 0.00175479
0.9841 0.129305 0.468376
0 0.409247 0.175235
0 0.482521 0.139605
0.797787 0.605432 0
0.999359 0.604685 0
1 0.623835 0.348196
0 0.624643 0.461646
0 0.629343 0.474449
0.63592 0.79292 0.0881361
0.99498 0.837003 0.141665
1 0.873045 0.456016
0 0.729793 0.776867
0 0.732403 0.783032
0 0.734035 0.787701
0.87306 0.946838 0.675151
1 0.963302 0.720958
0 0.0495308 0.11487
0.119432 0.043595 0.098497
0.574517 0 0.0540017
0.805341 0 0.141131
0.916533 0 0.434424
0 0.138491 0.165484
0.123247 0.146807 0.147814
0.731197 0.136431 0.103243
0.935851 0.106447 0.243565
0.988083 0.179278 0.550652
0 0.478996 0.332326
0 0.561303 0.344289
0.780758 0.613642 0.044831
0.998428 0.620737 0.129503
1 0.638193 0.444633
0 0.658244 0.576532
0 0.663691 0.592371
0.607904 0.814847 0.300542
0.983444 0.854795 0.332433
1 0.882216 0.524407
0 0.732128 0.790478
0 0.735119 0.796963
0 0.736706 0.80119
0.872999 0.950484 0.702541
1 0.965484 0.740307
0.000457771 0.262913 0.6159
0.239628 0.165194 0.624796
0.730938 0.133654 0.64123
0.932967 0.100191 0.679423
0.988556 0.166018 0.73753
0 0.396658 0.662043
0.163821 0.313512 0.660319
0.752941 0.31603 0.664408
0.949645 0.31986 0.68893
0.999832 0.361975 0.738216
0 0.643397 0.745922
0 0.697887 0.750195
0.718288 0.693919 0.646235
0.96022 0.690318 0.634684
1 0.6869 0.67039
0 0.710719 0.785183
0 0.713939 0.790372
0.577005 0.866392 0.670985
0.947066 0.892943 0.657481
1 0.904021 0.69279
0 0.740001 0.836789
0 0.742443 0.841337
0 0.743633 0.844038
0.866117 0.962448 0.794675
0.999603 0.974578 0.813092
0.406561 0.594476 0.907591
0.522408 0.595743 0.903441
0.765728 0.598108 0.89543
0.940536 0.58085 0.885008
0.999939 0.571878 0.879545
0.384909 0.641978 0.911055
0.518288 0.65005 0.907912
0.764874 0.654154 0.899886
0.942702 0.637034 0.889296
0.999985 0.631083 0.883253
0.197528 0.767422 0.919463
0.415122 0.774853 0.910567
0.736522 0.785367 0.894362
0.938842 0.779812 0.881346
1 0.783291 0.882734
0 0.822492 0.927504
0 0.874281 0.947021
0.649805 0.913268 0.89897
0.924163 0.928969 0.886854
0.99971 0.933639 0.886152
0 0.752499 0.894118
0 0.754421 0.896696
0 0.760967 0.902022
0.866407 0.97995 0.925994
0.99324 0.988418 0.925124
0.777111 0.878752 0.998199
0.789914 0.879072 0.997986
0.845212 0.877928 0.995865
0.939025 0.875013 0.992294
0.994339 0.877913 0.988907
0.779141 0.886854 0.998154
0.794812 0.889708 0.998032
0.852537 0.890471 0.996704
0.942229 0.890547 0.993698
0.995163 0.894789 0.990356
0.764309 0.912825 0.997223
0.784543 0.91603 0.99736
0.846876 0.917784 0.996201
0.940459 0.920073 0.992966
0.993088 0.92607 0.990021
0.711498 0.950927 0.997528
0.73817 0.954391 0.99794
0.819623 0.960037 0.995926
0.93315 0.965057 0.990921
0.990967 0.969665 0.987076
0.201236 0.951904 1
0.383108 0.958999 1
0.67277 0.977646 0.999817
0.897917 0.993194 0.995499
0.983963 0.997696 0.992065
