LUT预设1/柯达5219&2393/柯达5219&2393尼康专用/Nlog/柯达5219微调-Nlog.cube
TITLE "Generated by Resolve"
LUT_3D_SIZE 9
0.0213169 0.0276646 0.0486763
0.0325628 0.0281529 0.0453346
0.168688 0.0313268 0.0252232
0.441962 0.0270848 0.00556954
0.786343 0.0148775 0.000228885
0.95259 0.00364691 0.000701915
0.962249 0.00343328 0.000854505
0.962249 0.00343328 0.00215152
0.961349 0.00344854 0.0196536
0.0194095 0.0361791 0.0537881
0.0320745 0.036759 0.0500649
0.187457 0.0395819 0.0243839
0.500908 0.0265965 0.00360113
0.849027 0.0110475 3.0518e-05
0.959945 0.0034638 0.000823987
0.962249 0.00343328 0.000991836
0.962249 0.00343328 0.00894179
0.962081 0.00343328 0.0375525
0.00723278 0.153948 0.101595
0.00704967 0.157305 0.107057
0.211109 0.144823 0.036286
0.784848 0.0821851 0.000564584
0.961868 0.0599069 0.00102235
0.971664 0.159579 0.00254826
0.985443 0.304936 0.00260929
0.976333 0.201114 0.0520943
0.963623 0.0246433 0.272999
4.57771e-05 0.480781 0.168292
3.0518e-05 0.493172 0.18764
3.0518e-05 0.490654 0.193866
0.619333 0.424048 0.0144961
0.98378 0.446387 0.000823987
1 0.643183 0.00518807
1 0.798413 0.0922713
0.999893 0.889464 0.249866
0.998444 0.880919 0.477043
7.62951e-05 0.811994 0.298695
1.5259e-05 0.821591 0.327672
0 0.842374 0.508309
0.0412451 0.762097 0.194919
0.905653 0.757412 0.0383612
0.999817 0.777218 0.00231937
0.999939 0.865019 0.206439
0.995758 0.946242 0.59028
0.993454 0.96022 0.666682
0 0.942672 0.539895
0 0.943374 0.54696
0 0.948608 0.624918
0 0.946273 0.781109
0.347509 0.93286 0.489494
0.984588 0.930449 0.207111
0.999985 0.937835 0.260365
0.996475 0.950561 0.561318
0.992157 0.953323 0.715465
0 0.955993 0.77557
0 0.956146 0.780987
0 0.956222 0.783734
0 0.958755 0.897658
0.0591592 0.960082 0.905577
0.533883 0.971542 0.72607
0.992798 0.978759 0.604044
0.993484 0.979339 0.666697
0.991226 0.972229 0.754574
0 0.958984 0.911925
0 0.95903 0.914473
0 0.959045 0.915953
0 0.95906 0.916945
0.0352483 0.960708 0.963149
0.738155 0.983917 0.94107
0.771344 0.983612 0.86096
0.989746 0.985595 0.789029
0.9897 0.985321 0.806577
0 0.959808 0.959472
0 0.959838 0.960403
0 0.959838 0.960952
0 0.959854 0.961395
0 0.959869 0.961715
0.715404 0.984619 0.962264
0.909285 0.975372 0.95494
0.945357 0.983963 0.912108
0.982544 0.98764 0.869261
0.0206149 0.0280308 0.057969
0.0323644 0.0280003 0.056672
0.165805 0.0303655 0.0318914
0.443915 0.0267491 0.00869764
0.781704 0.0150759 0.000411994
0.950668 0.00367742 0.000686656
0.962249 0.00343328 0.000854505
0.962249 0.00343328 0.00303655
0.961349 0.00343328 0.0230869
0.0186007 0.0380407 0.0616464
0.0312505 0.0378424 0.0614633
0.185779 0.0389563 0.0322576
0.499748 0.0264439 0.00643931
0.845945 0.0113985 0.000274662
0.959152 0.0034638 0.000823987
0.962249 0.00343328 0.00134279
0.962249 0.00343328 0.0107424
0.962112 0.00343328 0.0441138
0.00697337 0.157061 0.108034
0.00686656 0.158923 0.117525
0.205951 0.149065 0.0521553
0.760754 0.101122 0.00262455
0.961578 0.0888991 0.00167849
0.975845 0.203128 0.00274662
0.985794 0.304692 0.00367742
0.975311 0.186679 0.0763714
0.963729 0.0257877 0.286366
4.57771e-05 0.480491 0.172808
3.0518e-05 0.492378 0.19678
6.10361e-05 0.495964 0.251728
0.599283 0.43331 0.0263828
0.984665 0.467277 0.00177005
1 0.661494 0.0233616
1 0.806424 0.129137
0.999817 0.894362 0.285496
0.997909 0.869154 0.491112
7.62951e-05 0.809384 0.292454
1.5259e-05 0.818906 0.321721
0 0.839017 0.527779
0.0301823 0.766796 0.27306
0.896971 0.759228 0.0512245
0.999756 0.779232 0.0103151
0.999832 0.872786 0.276616
0.995315 0.947204 0.605127
0.993286 0.960204 0.672297
0 0.942535 0.539452
0 0.943282 0.546578
0 0.948684 0.626627
0 0.944915 0.789014
0.3131 0.930983 0.519219
0.98323 0.93135 0.25536
0.999817 0.93785 0.307469
0.995941 0.950454 0.58233
0.991974 0.953155 0.722774
0 0.956054 0.777874
0 0.956191 0.783032
0 0.956283 0.786236
0 0.958785 0.899733
0.0761883 0.961028 0.908232
0.509255 0.970977 0.736477
0.99234 0.979141 0.618189
0.993255 0.979187 0.675715
0.991104 0.971893 0.759091
0 0.958999 0.913085
0 0.959045 0.915648
0 0.95906 0.917128
0 0.959091 0.918227
0.0368353 0.960571 0.963302
0.750011 0.984039 0.941772
0.772763 0.983642 0.863554
0.9897 0.985672 0.792569
0.989624 0.985367 0.809247
0 0.959823 0.959884
0 0.959838 0.9608
0 0.959854 0.961379
0 0.959869 0.961822
0 0.959869 0.962142
0.721843 0.984756 0.962127
0.910994 0.975204 0.955123
0.945968 0.983856 0.91281
0.982223 0.987671 0.870573
0.0104372 0.0447852 0.111818
0.0152132 0.0420386 0.126833
0.141527 0.0337224 0.117372
0.324361 0.0316167 0.0531777
0.724208 0.0174258 0.0102693
0.949218 0.0037232 0.00155642
0.962005 0.00343328 0.00222782
0.962142 0.00343328 0.0104829
0.959518 0.00340276 0.0621958
0.0104524 0.0583352 0.119844
0.0149996 0.0568856 0.131487
0.152651 0.0421607 0.135912
0.379171 0.0349432 0.061738
0.771511 0.0153658 0.0202182
0.956893 0.00349432 0.0074464
0.962127 0.00343328 0.0126802
0.962249 0.00343328 0.0364538
0.962356 0.00315862 0.100618
0.0039826 0.190082 0.181659
0.00384527 0.189456 0.190738
0.139116 0.159869 0.205005
0.567803 0.144579 0.115679
0.905608 0.106783 0.0679942
0.970825 0.142458 0.0584421
0.972839 0.161257 0.0885176
0.969162 0.109041 0.212818
0.963989 0.0361944 0.32575
0 0.505516 0.211734
0 0.511543 0.234668
0.00357061 0.469429 0.375067
0.501122 0.441825 0.214679
0.976257 0.506325 0.145205
0.999832 0.682689 0.196979
0.999939 0.824765 0.287434
0.999146 0.898207 0.416754
0.995789 0.816083 0.55024
1.5259e-05 0.81593 0.322438
1.5259e-05 0.824186 0.350774
0 0.822187 0.546487
0.012604 0.781125 0.578363
0.84065 0.751186 0.236805
0.998642 0.784573 0.213184
0.997238 0.896437 0.53167
0.993896 0.947585 0.651652
0.992645 0.959915 0.696376
0 0.943175 0.551354
0 0.944045 0.559533
0 0.949355 0.643412
0.000396735 0.93611 0.808026
0.16408 0.920821 0.65481
0.969772 0.927306 0.454551
0.998337 0.931075 0.472984
0.9935 0.94847 0.665019
0.991348 0.952636 0.748592
0 0.956222 0.784024
0 0.956374 0.789563
0 0.956466 0.793103
0 0.958846 0.903227
0.199832 0.967697 0.910842
0.413367 0.967895 0.778698
0.989212 0.978805 0.671412
0.992386 0.977081 0.709545
0.990616 0.968948 0.776196
0 0.959045 0.915587
0 0.959091 0.918196
0 0.959106 0.919707
0 0.959121 0.920821
0.0344549 0.960143 0.963058
0.774914 0.983902 0.942946
0.764172 0.983368 0.871641
0.989059 0.985733 0.806134
0.989364 0.98497 0.818845
0 0.959838 0.960769
0 0.959869 0.961715
0 0.959869 0.962295
0 0.959884 0.962692
0 0.959899 0.963043
0.726864 0.984863 0.96199
0.914946 0.974838 0.955535
0.945205 0.983169 0.915541
0.981079 0.987701 0.875181
0.00350958 0.117372 0.278248
0.00553903 0.107698 0.295369
0.0868544 0.0497139 0.454292
0.366064 0.0441749 0.248508
0.489082 0.0496834 0.156283
0.783291 0.0146792 0.117403
0.941665 0.00360113 0.107378
0.9617 0.00329595 0.15288
0.96141 0.00489815 0.219883
0.00308232 0.149386 0.306188
0.00604257 0.144411 0.317159
0.0879377 0.0720684 0.454032
0.393057 0.0578622 0.277317
0.538705 0.0684977 0.182559
0.831052 0.0157015 0.147829
0.950286 0.00395209 0.149767
0.963058 0.00448615 0.202884
0.962051 0.010544 0.267155
9.15541e-05 0.294774 0.427207
0.00105287 0.291386 0.424491
0.0771649 0.243 0.422751
0.454719 0.165774 0.394446
0.713527 0.173892 0.293385
0.942657 0.0580148 0.28394
0.964233 0.0536355 0.322698
0.966384 0.0841382 0.387823
0.969512 0.135439 0.432807
0 0.600061 0.462882
0 0.601419 0.48365
0.00454719 0.535241 0.528161
0.402075 0.456275 0.519051
0.850568 0.493431 0.441321
0.99144 0.589258 0.445304
0.994919 0.703807 0.509483
0.994049 0.760433 0.581552
0.991623 0.692973 0.627741
0 0.855268 0.495201
0 0.861494 0.519493
0 0.829221 0.615854
0.064683 0.754116 0.690929
0.751675 0.735271 0.56202
0.991089 0.795392 0.572839
0.993805 0.89221 0.650843
0.992218 0.944167 0.712383
0.991455 0.955016 0.745083
0 0.947509 0.616815
0 0.948547 0.62829
0 0.953201 0.718959
0.0043183 0.925383 0.818219
0.242634 0.904479 0.792859
0.929671 0.903136 0.641001
0.993469 0.916869 0.660975
0.99089 0.945617 0.766125
0.990219 0.951858 0.790722
0 0.956786 0.805325
0 0.956924 0.810788
0 0.957015 0.814054
0 0.958953 0.910094
0.436744 0.971527 0.908598
0.5084 0.966644 0.844343
0.981781 0.971542 0.748119
0.990921 0.968338 0.764981
0.989654 0.9626 0.809857
0 0.959136 0.92166
0 0.959167 0.924132
0 0.959197 0.925673
0 0.959197 0.926696
0.0423743 0.96141 0.962905
0.810941 0.983093 0.944503
0.778149 0.982513 0.88864
0.987274 0.985229 0.832731
0.988754 0.983597 0.838849
0 0.959884 0.962722
0 0.959899 0.963653
0 0.959915 0.964218
0 0.959915 0.96466
0 0.95993 0.964996
0.721874 0.984466 0.962051
0.921752 0.974182 0.956161
0.943313 0.981537 0.921309
0.978393 0.987625 0.885191
0.00521859 0.346059 0.612222
0.00836194 0.333623 0.610483
0.0603342 0.252064 0.6589
0.455985 0.0509346 0.672099
0.643626 0.10927 0.408057
0.757046 0.165255 0.364904
0.90985 0.141161 0.383505
0.965988 0.135744 0.423713
0.971435 0.17966 0.456016
0.00639353 0.377935 0.626795
0.0106661 0.369879 0.626429
0.0675364 0.291951 0.663874
0.468864 0.065156 0.685863
0.667765 0.138399 0.437583
0.784298 0.20177 0.399023
0.929976 0.180529 0.418982
0.971725 0.189288 0.460761
0.975509 0.230106 0.489357
0.00437934 0.498375 0.678233
0.011429 0.495094 0.676722
0.0751812 0.446433 0.665461
0.438849 0.256092 0.724041
0.72079 0.277424 0.538491
0.858152 0.339101 0.496849
0.969573 0.323201 0.516991
0.982406 0.35201 0.558251
0.983764 0.383215 0.579431
1.5259e-05 0.691829 0.736706
4.57771e-05 0.688319 0.742535
0.0179446 0.645121 0.732097
0.336126 0.566293 0.708537
0.752743 0.526116 0.661189
0.935332 0.552773 0.617731
0.987137 0.569421 0.643168
0.988876 0.625299 0.680781
0.988861 0.638865 0.695445
0 0.889342 0.717983
0 0.887297 0.733745
0 0.847105 0.755596
0.0654002 0.778866 0.765896
0.703609 0.740383 0.737179
0.957107 0.771664 0.700648
0.991608 0.844709 0.726055
0.990723 0.901427 0.76939
0.990158 0.904112 0.788708
0 0.95407 0.734691
0 0.954894 0.749844
0 0.956069 0.822721
0.00370794 0.925933 0.833906
0.532143 0.89482 0.832746
0.890028 0.885985 0.769131
0.989334 0.909407 0.779782
0.989364 0.942641 0.820905
0.989181 0.950988 0.828458
0 0.957626 0.840497
0 0.957717 0.844923
0 0.957778 0.847471
0 0.959106 0.919676
0.475944 0.969528 0.909865
0.728313 0.960479 0.889677
0.966232 0.957397 0.81532
0.989151 0.957504 0.824048
0.988632 0.956695 0.84921
0 0.959289 0.931426
0 0.959319 0.933623
0 0.959335 0.934951
0 0.95935 0.935882
0.0588083 0.962036 0.962173
0.82919 0.981872 0.945464
0.821942 0.980179 0.909804
0.983597 0.982406 0.862699
0.986999 0.979797 0.86421
0 0.95996 0.965972
0 0.959976 0.966842
0 0.959991 0.967407
0 0.959991 0.967773
0 0.960006 0.968078
0.723995 0.984543 0.961913
0.928222 0.973495 0.956634
0.941466 0.978668 0.929503
0.974289 0.98674 0.900008
0.0571298 0.646235 0.830686
0.066331 0.639323 0.829557
0.12282 0.593774 0.830121
0.45948 0.433295 0.868406
0.789624 0.256641 0.747478
0.861433 0.379934 0.614633
0.94284 0.448051 0.617884
0.985534 0.488457 0.647166
0.98645 0.496025 0.653147
0.059205 0.661372 0.834958
0.0710002 0.657496 0.834928
0.131731 0.616419 0.834226
0.471092 0.468437 0.869566
0.802518 0.296315 0.759686
0.871809 0.415671 0.632776
0.950149 0.48191 0.637263
0.986206 0.518013 0.66424
0.986877 0.526116 0.669963
0.0460975 0.709529 0.844495
0.0614633 0.708919 0.844388
0.145006 0.681437 0.835706
0.447333 0.589593 0.852308
0.799893 0.430777 0.799344
0.885267 0.514168 0.67628
0.962188 0.565286 0.679316
0.987472 0.591959 0.702831
0.987701 0.598886 0.708247
0.00630198 0.783932 0.863432
0.00955215 0.783841 0.864118
0.0773938 0.764645 0.853056
0.436011 0.723049 0.826078
0.754726 0.634638 0.835447
0.896712 0.658228 0.743175
0.973648 0.683452 0.743984
0.988388 0.700694 0.764157
0.988556 0.709026 0.769329
0 0.893278 0.866728
0 0.891646 0.869123
0.00180056 0.868925 0.868406
0.154406 0.827527 0.854582
0.700221 0.790326 0.834852
0.90338 0.784527 0.805814
0.981918 0.802915 0.804471
0.988754 0.833219 0.822248
0.988632 0.844129 0.827863
0 0.958389 0.88188
0 0.958251 0.887648
0 0.953155 0.888487
0.0170596 0.927306 0.879088
0.55848 0.900893 0.862943
0.875227 0.883513 0.853361
0.981598 0.901579 0.841443
0.988479 0.933562 0.855238
0.988373 0.943038 0.861433
0 0.958495 0.882475
0 0.958556 0.886061
0 0.958938 0.908782
0.000167849 0.959274 0.930953
0.456794 0.967758 0.913191
0.817227 0.95169 0.91017
0.947402 0.946471 0.870207
0.987106 0.95137 0.876204
0.987579 0.954223 0.884382
0 0.959503 0.944564
0 0.959533 0.946395
0 0.959564 0.947509
0 0.959579 0.948333
0.132967 0.966796 0.962188
0.834775 0.980957 0.94609
0.874113 0.975082 0.930419
0.97554 0.975937 0.893095
0.980682 0.973404 0.892821
0 0.960052 0.971038
0 0.960067 0.971847
0 0.960082 0.972366
0 0.960098 0.972747
0 0.960098 0.973022
0.73463 0.984482 0.961608
0.933288 0.972885 0.956909
0.941588 0.974792 0.939788
0.969253 0.983383 0.918685
0.39585 0.836088 0.910643
0.411734 0.834134 0.90985
0.488396 0.820859 0.905669
0.604593 0.778836 0.912978
0.793637 0.67631 0.918166
0.925658 0.625101 0.821225
0.957794 0.682933 0.783352
0.986633 0.721889 0.798108
0.988159 0.725628 0.798886
0.399191 0.840497 0.911635
0.421759 0.839719 0.911025
0.505714 0.827634 0.907393
0.620264 0.788754 0.913848
0.800656 0.692058 0.919997
0.929427 0.644862 0.826276
0.959533 0.7019 0.794003
0.986648 0.737865 0.807813
0.988128 0.74023 0.808057
0.365225 0.852262 0.912917
0.393393 0.852506 0.912383
0.508461 0.843824 0.906935
0.627695 0.813581 0.907759
0.791409 0.737102 0.919448
0.927886 0.686641 0.84239
0.958846 0.738323 0.811444
0.986374 0.768429 0.823423
0.988052 0.76994 0.823499
0.181247 0.871962 0.921706
0.225895 0.873045 0.920256
0.405188 0.868528 0.910643
0.621942 0.850568 0.901549
0.772595 0.805753 0.910307
0.916945 0.757717 0.869444
0.955734 0.795056 0.838483
0.985031 0.813489 0.846906
0.987076 0.813916 0.846815
0.035874 0.907134 0.929152
0.0425879 0.906645 0.929397
0.12224 0.900236 0.925872
0.494652 0.889235 0.906798
0.755245 0.866926 0.899489
0.896239 0.83537 0.89308
0.955428 0.851881 0.867292
0.984253 0.860456 0.872831
0.986038 0.862135 0.873182
0.000122072 0.953719 0.936614
0.000167849 0.953735 0.937087
0.00254826 0.948608 0.934127
0.119265 0.934798 0.927977
0.662135 0.921202 0.906874
0.874159 0.900191 0.903319
0.959091 0.90219 0.893004
0.985794 0.915328 0.894194
0.986893 0.921447 0.895277
0 0.959762 0.957076
0 0.959777 0.9579
0 0.959686 0.954299
0.0422675 0.959838 0.944823
0.567407 0.968872 0.925414
0.839826 0.950607 0.921782
0.940581 0.942946 0.913848
0.983719 0.949767 0.909163
0.985931 0.954299 0.910155
0 0.959854 0.961685
0 0.959884 0.963104
0 0.959899 0.963775
0 0.960189 0.97702
0.429618 0.977371 0.956527
0.831662 0.979889 0.946197
0.915297 0.969985 0.943969
0.965057 0.969131 0.922118
0.970947 0.968292 0.922072
0 0.96022 0.978531
0 0.960235 0.979248
0 0.960235 0.97969
0 0.96025 0.980011
0 0.96025 0.98024
0.774426 0.984649 0.960769
0.935424 0.97261 0.957076
0.946288 0.971527 0.950454
0.964584 0.97731 0.936736
0.735302 0.917693 0.939162
0.739223 0.91725 0.939101
0.756756 0.913298 0.938033
0.790997 0.90222 0.937697
0.839124 0.878752 0.942168
0.915801 0.836347 0.933791
0.960739 0.832792 0.89102
0.975082 0.8551 0.886076
0.978531 0.85716 0.885557
0.738613 0.919142 0.939559
0.744488 0.919051 0.939574
0.765011 0.915587 0.938552
0.79881 0.905226 0.938354
0.845045 0.883467 0.942763
0.919158 0.843336 0.934737
0.96144 0.84152 0.894041
0.974517 0.862135 0.890623
0.977356 0.863676 0.890074
0.733852 0.922316 0.93962
0.741558 0.922545 0.939666
0.765988 0.919585 0.93846
0.802625 0.910567 0.937484
0.846708 0.891966 0.940978
0.916884 0.856107 0.936522
0.960571 0.853346 0.898741
0.973281 0.871687 0.895781
0.975891 0.872877 0.895232
0.704448 0.929305 0.940352
0.713832 0.92961 0.940414
0.747494 0.927169 0.93904
0.798596 0.919753 0.936721
0.847288 0.905547 0.937545
0.910201 0.877089 0.938079
0.957977 0.871534 0.907317
0.971237 0.886915 0.903655
0.973999 0.887739 0.903059
0.620691 0.940719 0.942962
0.634363 0.941176 0.943053
0.685664 0.93904 0.941344
0.772503 0.932799 0.937545
0.843839 0.922377 0.934615
0.901305 0.903365 0.937774
0.953857 0.894728 0.918685
0.969497 0.906065 0.913634
0.972808 0.9066 0.913008
0.363973 0.957626 0.952407
0.40499 0.958648 0.951431
0.51667 0.9579 0.947631
0.67953 0.952728 0.942565
0.811353 0.942473 0.936721
0.892897 0.930098 0.935225
0.947799 0.921355 0.930556
0.970138 0.927733 0.924636
0.974289 0.928618 0.923903
0.110689 0.965133 0.964797
0.133547 0.966964 0.965194
0.259098 0.971283 0.960998
0.536019 0.975387 0.950591
0.737713 0.970092 0.943832
0.866957 0.956909 0.939284
0.939361 0.94754 0.938323
0.972091 0.950011 0.933822
0.976776 0.952499 0.932586
0 0.960266 0.981201
0.000183108 0.960266 0.98085
0.0160983 0.960296 0.977417
0.318898 0.974029 0.968368
0.703059 0.984344 0.955795
0.852567 0.978393 0.950072
0.928344 0.968322 0.949477
0.959976 0.966278 0.943877
0.96495 0.966857 0.943175
0 0.960372 0.986145
0 0.960388 0.986481
0 0.960388 0.986694
0 0.960388 0.986816
0.0494392 0.961242 0.979767
0.833509 0.982284 0.959426
0.932555 0.972915 0.957244
0.953887 0.970245 0.956786
0.961395 0.972076 0.948623
0.877226 0.950515 0.95346
0.878004 0.950439 0.95349
0.880796 0.949355 0.953262
0.88838 0.946578 0.952789
0.90016 0.940993 0.953475
0.920775 0.930007 0.955703
0.955154 0.9149 0.947478
0.968231 0.918029 0.932189
0.969162 0.918929 0.930755
0.878599 0.951156 0.953796
0.879911 0.951217 0.953902
0.883391 0.950271 0.953719
0.891691 0.947753 0.953231
0.903075 0.942519 0.954055
0.923247 0.932006 0.956405
0.956451 0.91783 0.947967
0.968322 0.921187 0.933806
0.968948 0.92163 0.932845
0.877913 0.952087 0.953857
0.879683 0.952209 0.953979
0.883741 0.951385 0.95378
0.893004 0.94905 0.953216
0.904448 0.944228 0.953902
0.923919 0.9346 0.956298
0.956451 0.921035 0.948775
0.968032 0.924224 0.935241
0.968475 0.924559 0.934554
0.875257 0.954131 0.953887
0.877455 0.954391 0.954025
0.882399 0.953704 0.953765
0.893217 0.951644 0.953017
0.905241 0.947509 0.953201
0.923323 0.939452 0.955459
0.954925 0.926772 0.950393
0.967102 0.929259 0.937636
0.967483 0.929519 0.936934
0.864729 0.957855 0.954376
0.86717 0.958114 0.954559
0.873518 0.957427 0.954269
0.887709 0.955383 0.953353
0.903609 0.951751 0.95288
0.922988 0.945174 0.954116
0.95227 0.934295 0.951919
0.966003 0.935531 0.940841
0.9664 0.935866 0.940139
0.836896 0.96463 0.955871
0.842115 0.964843 0.956008
0.851057 0.964096 0.955642
0.871031 0.961868 0.954543
0.895644 0.958358 0.953185
0.921157 0.953201 0.952697
0.948104 0.945052 0.953338
0.964553 0.944427 0.94551
0.965194 0.944762 0.944701
0.774762 0.977142 0.959091
0.782132 0.977264 0.959121
0.799451 0.976486 0.958618
0.828885 0.973968 0.957443
0.867872 0.969635 0.955612
0.909178 0.963943 0.95346
0.943267 0.958114 0.953323
0.963043 0.955703 0.951476
0.96434 0.956161 0.950515
0.718563 0.984649 0.962142
0.730449 0.984787 0.961898
0.755566 0.985 0.961227
0.795727 0.983963 0.960037
0.843931 0.98114 0.958328
0.89247 0.976196 0.956283
0.935622 0.970367 0.955261
0.958633 0.967468 0.955673
0.960357 0.967849 0.955215
0.266941 0.971649 0.974716
0.322423 0.9738 0.972839
0.488365 0.979171 0.968338
0.696635 0.984695 0.963119
0.815793 0.983505 0.960006
0.889021 0.977554 0.957885
0.936019 0.972503 0.957305
0.956847 0.970001 0.958328
0.958755 0.97023 0.956405
