LUT预设1/柯达5219&2393/柯达5219&2393尼康专用/Nlog/柯达5219绿调-Nlog_12.DSC_0430.cube
TITLE "Generated by Resolve"
LUT_3D_SIZE 5
0.0230106 0.030518 0.0598459
0.0726482 0.0442359 0.059617
0.609537 0.084123 0.00523384
0.873487 0.102571 0
0.726345 0.0981003 0.19646
0.0338445 0.0803998 0.0991684
0.0739605 0.0823377 0.0902876
0.623652 0.106706 0.00943008
0.902373 0.118914 0
0.713222 0.118151 0.216892
0 0.624567 0.452293
0 0.62475 0.451896
0.728588 0.570108 0.118334
1 0.633173 0.0860761
1 0.515465 0.0623789
0 0.901366 0.716442
0 0.901366 0.716442
0.000869764 0.906676 0.662287
0.988937 0.906249 0.329107
1 0.835538 0.276829
0 0.893065 0.750652
0 0.892851 0.751476
0 0.892485 0.752972
0.14226 0.912184 0.664027
1 0.94078 0.501045
0.0202335 0.0352331 0.0804456
0.0725414 0.0462348 0.0837873
0.631861 0.0875257 0.0243992
0.818936 0.0929274 0.0588235
0.676631 0.153948 0.250919
0.0335699 0.0950942 0.120058
0.0792401 0.096025 0.109911
0.643915 0.114931 0.0248569
0.845853 0.112078 0.0677806
0.681682 0.171344 0.275425
0 0.62829 0.455055
0 0.629328 0.456382
0.719631 0.567834 0.12192
1 0.633417 0.104234
1 0.497261 0.0551766
0 0.900069 0.722042
0 0.899916 0.722728
1.5259e-05 0.906691 0.671382
0.984344 0.902907 0.352483
1 0.837018 0.342718
0 0.891554 0.757427
0 0.891447 0.758251
0 0.891203 0.75964
0.133227 0.911925 0.684215
1 0.940276 0.518441
0.0202182 0.41886 0.625635
0.0557565 0.295598 0.542062
0.592615 0.173251 0.578958
0.706081 0.257633 0.510124
0.73547 0.243427 0.588449
0.0337835 0.56466 0.737163
0.0749218 0.457404 0.644572
0.599252 0.274876 0.597986
0.752773 0.364279 0.507652
0.758663 0.345083 0.563027
0 0.698619 0.676234
0 0.704921 0.685466
0.549737 0.619852 0.636103
0.969558 0.611032 0.466987
0.949294 0.607446 0.538521
0.000701915 0.892607 0.798917
0.000640879 0.892866 0.799451
0.118929 0.892973 0.811124
0.919066 0.888731 0.639078
1 0.837324 0.58735
0.000411994 0.889937 0.790417
0.000503548 0.890089 0.790921
0.000579843 0.890227 0.791562
0.17026 0.91017 0.777005
0.998962 0.936858 0.613779
0.316289 0.744076 0.842695
0.351675 0.730175 0.839384
0.594232 0.620813 0.863661
0.865339 0.565286 0.786191
0.857511 0.524437 0.777584
0.375723 0.760784 0.845884
0.393957 0.756588 0.844846
0.602075 0.662882 0.861509
0.873106 0.608225 0.797055
0.865354 0.565896 0.786542
0.0781262 0.839872 0.887007
0.152255 0.845777 0.88481
0.645762 0.811704 0.864836
0.896971 0.765255 0.840787
0.887938 0.717571 0.821561
0 0.943236 0.902281
0 0.943862 0.903639
0.261173 0.935119 0.894408
0.867674 0.899565 0.866896
0.964935 0.820691 0.739345
0 0.916808 0.84094
0 0.917113 0.841688
0 0.917449 0.842344
0.527916 0.917601 0.851591
0.969039 0.934493 0.771405
0.717296 0.886091 0.888273
0.727504 0.882521 0.887602
0.79556 0.85008 0.882231
0.906981 0.80412 0.854307
0.896757 0.762493 0.840513
0.728908 0.888747 0.889769
0.738613 0.88629 0.889448
0.798138 0.859159 0.884703
0.909361 0.813275 0.857557
0.899687 0.77203 0.843412
0.761578 0.903105 0.896559
0.774975 0.902327 0.896712
0.791562 0.898085 0.895979
0.912612 0.852155 0.873732
0.911742 0.813107 0.856733
0.366201 0.94464 0.908461
0.417182 0.945449 0.908263
0.656199 0.943008 0.909438
0.879057 0.923415 0.908171
0.934295 0.887098 0.883818
0 0.945891 0.908858
0 0.945891 0.908858
0.048661 0.945464 0.915175
0.608286 0.946258 0.909056
0.93669 0.945098 0.913466
