LUT预设1/柯达5219&2393/柯达5219&2393尼康专用/Nlog/柯达5219基准-Nlog.cube
TITLE "Generated by Resolve"
LUT_3D_SIZE 9
0.0230106 0.030518 0.0598459
0.0230564 0.0305333 0.0598459
0.0723888 0.0441749 0.0596323
0.270817 0.0677348 0.0403449
0.607935 0.084062 0.00531014
0.871473 0.102296 0
0.873487 0.102571 0
0.833906 0.0977798 0.0377661
0.72755 0.0967269 0.195163
0.0230106 0.030518 0.0598459
0.0230106 0.030518 0.0598459
0.0693217 0.0435187 0.0599069
0.254963 0.0665751 0.0422675
0.586084 0.0834058 0.00697337
0.870649 0.102205 0
0.873579 0.10251 0
0.831022 0.0962692 0.0418708
0.722942 0.102068 0.199969
0.033875 0.0794995 0.0985428
0.0338293 0.0800183 0.0988632
0.0742046 0.0815595 0.0896925
0.354131 0.0996262 0.0426032
0.618601 0.105806 0.00965896
0.822385 0.114214 0
0.901473 0.118349 0
0.831144 0.0964065 0.0529335
0.713726 0.117433 0.216159
0 0.318807 0.24535
0 0.320912 0.246754
0 0.319478 0.246189
0.41796 0.294026 0.0972915
0.857572 0.325551 0.0456855
1 0.449149 0.0386969
1 0.436027 0.031281
1 0.355718 0.00727855
0.992004 0.343236 0.0620279
0 0.622095 0.450492
0 0.624903 0.452461
0 0.6224 0.450187
0.0493019 0.581888 0.331899
0.730678 0.567819 0.116564
0.993698 0.605997 0.0662089
1 0.63183 0.0860304
1 0.607492 0.0906081
1 0.514046 0.0618448
0 0.838712 0.645579
0 0.841031 0.648127
0 0.840482 0.647379
0 0.823392 0.620951
0.365408 0.789792 0.415976
0.922011 0.776974 0.184924
1 0.775464 0.105333
1 0.743633 0.099382
1 0.714794 0.213001
0 0.901366 0.716442
0 0.901366 0.716442
0 0.901366 0.716442
0 0.901366 0.716472
0.00105287 0.906523 0.66009
0.608881 0.914885 0.539162
0.98996 0.904677 0.323919
1 0.870909 0.236423
1 0.83389 0.275029
0 0.899641 0.72401
0 0.899611 0.724117
0 0.899519 0.724514
0 0.899275 0.725505
0 0.898726 0.728557
0.0403601 0.907805 0.622751
0.797024 0.938979 0.557351
0.999954 0.9411 0.416022
1 0.926101 0.428107
0 0.893172 0.750225
0 0.89308 0.750607
0 0.892973 0.751003
0 0.892836 0.751553
0 0.892592 0.75256
0 0.89659 0.759457
0.158389 0.912474 0.659663
0.877913 0.937163 0.573846
1 0.94081 0.500114
0.0230106 0.030518 0.0598459
0.0230411 0.0305333 0.0598459
0.0730755 0.0443275 0.0595865
0.280415 0.0684367 0.0392157
0.635508 0.0849317 0.00340276
0.872953 0.102449 0
0.872267 0.102831 0
0.824262 0.0939498 0.0515297
0.720867 0.10425 0.202411
0.0230106 0.030518 0.0598459
0.0230106 0.030518 0.0598459
0.0701762 0.0437171 0.0598459
0.269078 0.0676127 0.040589
0.618982 0.0845045 0.00477607
0.873106 0.102464 0
0.871641 0.102968 0
0.820371 0.092256 0.0568246
0.715618 0.110277 0.207904
0.0337987 0.0816205 0.100023
0.0337835 0.0823072 0.100481
0.0758679 0.0838636 0.0907912
0.353262 0.10135 0.0436255
0.604425 0.106371 0.0113832
0.83035 0.11574 0
0.900008 0.119509 0
0.819928 0.0937209 0.0695964
0.707073 0.125322 0.224186
0 0.32076 0.246601
0 0.323186 0.248219
0 0.321828 0.247654
0.418494 0.296269 0.098024
0.857252 0.328191 0.0459907
1 0.451026 0.0394141
1 0.435492 0.0311894
1 0.354116 0.00700389
0.990204 0.348074 0.0758221
0 0.62504 0.452689
0 0.627543 0.454444
0 0.62536 0.452384
0.0490578 0.583993 0.332509
0.731289 0.569238 0.116823
0.994369 0.606409 0.0660868
1 0.632303 0.0860761
1 0.607446 0.0927291
1 0.510231 0.0601358
0 0.839414 0.646357
0 0.841718 0.64889
0 0.841108 0.648066
0 0.82356 0.621057
0.364446 0.790112 0.41648
0.921248 0.777295 0.185855
1 0.775647 0.105638
1 0.743801 0.103227
1 0.715572 0.226001
0 0.901366 0.716442
0 0.901366 0.716442
0 0.901366 0.716442
0 0.90135 0.716503
0.00077821 0.906538 0.660227
0.605524 0.914549 0.538949
0.989548 0.904509 0.324483
1 0.870939 0.23946
1 0.834531 0.28513
0 0.899336 0.725261
0 0.899184 0.725887
0 0.899046 0.726421
0 0.898787 0.727474
0 0.898207 0.730709
0.038117 0.90808 0.627863
0.795071 0.938704 0.558877
0.999939 0.941085 0.422049
1 0.926177 0.433143
0 0.892943 0.751202
0 0.892821 0.751644
0 0.892714 0.752041
0 0.892576 0.75259
0 0.892332 0.753582
1.5259e-05 0.896406 0.76051
0.158251 0.912444 0.66244
0.876509 0.93698 0.576135
1 0.940734 0.502846
0.0193942 0.0365911 0.0851453
0.0197147 0.0360876 0.0834516
0.0711223 0.0465095 0.0912184
0.270039 0.0733196 0.0673228
0.620722 0.0863508 0.0349737
0.838178 0.100633 0.0294347
0.811551 0.0892348 0.0699626
0.755947 0.0732738 0.154299
0.673945 0.157214 0.2551
0.0192569 0.0368048 0.0857862
0.0196078 0.0362402 0.0839094
0.0694438 0.0460517 0.0898909
0.272694 0.0736553 0.0675212
0.631312 0.0861067 0.0390173
0.835706 0.100938 0.0331121
0.806714 0.0869154 0.0773938
0.750668 0.0780804 0.161578
0.667414 0.165362 0.265675
0.0335241 0.0958877 0.125109
0.033341 0.0967575 0.126101
0.0784009 0.0966354 0.11548
0.32015 0.107713 0.0670024
0.659464 0.117815 0.034165
0.896437 0.141253 0.0285344
0.837858 0.109926 0.0803235
0.766125 0.0967575 0.173968
0.679026 0.175265 0.280476
0 0.326879 0.25774
0 0.328649 0.259495
0 0.32578 0.259617
0.401053 0.301213 0.11017
0.838575 0.329046 0.0534524
0.993561 0.404929 0.0408637
1 0.382986 0.0174105
1 0.356344 0.0133516
0.965454 0.361547 0.194217
0 0.624781 0.453681
0 0.627039 0.456352
0 0.625483 0.456931
0.0456703 0.580636 0.336355
0.718318 0.564233 0.122362
0.992142 0.599496 0.0715343
1 0.632166 0.109133
1 0.603571 0.152514
1 0.494514 0.0543069
0 0.835981 0.645106
0 0.837934 0.648203
0 0.83711 0.647745
0 0.816175 0.620142
0.345052 0.783658 0.41651
0.909392 0.770855 0.191775
1 0.772183 0.131044
1 0.74612 0.186267
1 0.716747 0.305684
0 0.899794 0.723232
0 0.899718 0.723552
0 0.899626 0.723934
0 0.898939 0.726864
0 0.906508 0.674632
0.569787 0.909606 0.545998
0.984756 0.900664 0.351492
1 0.869825 0.297505
1 0.835554 0.348898
0 0.896178 0.738048
0 0.896025 0.738659
0 0.895903 0.739147
0 0.895689 0.740063
0 0.89482 0.744533
0.0242771 0.909483 0.666148
0.766171 0.935592 0.58143
0.999817 0.940963 0.459754
1 0.925338 0.464286
0 0.891463 0.757855
0 0.891386 0.758358
0 0.89134 0.758755
0 0.891249 0.759274
0 0.891096 0.760143
0.000427253 0.895201 0.766964
0.143435 0.912062 0.682826
0.865736 0.935699 0.592325
1 0.94023 0.519921
0.00598154 0.0973373 0.205859
0.00688182 0.0931563 0.198993
0.0468605 0.0836042 0.241199
0.264256 0.0779889 0.314046
0.481514 0.154528 0.266255
0.663294 0.169284 0.270222
0.653941 0.182086 0.287434
0.638636 0.207691 0.328588
0.644724 0.234562 0.405921
0.00706493 0.121645 0.241001
0.00842298 0.117784 0.232898
0.0502937 0.090135 0.255055
0.273365 0.0796674 0.324392
0.493248 0.159609 0.276448
0.655482 0.178973 0.281315
0.648905 0.190463 0.300801
0.635019 0.215213 0.342031
0.647425 0.237186 0.417014
0.0140993 0.232212 0.357717
0.0137484 0.244007 0.371206
0.0619974 0.208179 0.346822
0.309087 0.160037 0.362966
0.559792 0.206943 0.28838
0.809995 0.196414 0.295216
0.767834 0.207233 0.313283
0.712703 0.232883 0.347631
0.679957 0.262013 0.413321
0.00173953 0.392432 0.420203
0.0015259 0.395819 0.423468
0.00750744 0.389212 0.424567
0.290318 0.341848 0.397986
0.647944 0.356359 0.310262
0.920851 0.398535 0.242191
0.974365 0.435004 0.261265
0.947097 0.416876 0.357687
0.88687 0.380987 0.431144
0 0.622278 0.559152
0 0.624674 0.561944
0 0.630945 0.569604
0.0694285 0.585473 0.549462
0.61445 0.578637 0.40589
0.944976 0.613336 0.368246
0.999924 0.614359 0.289815
1 0.521843 0.0888685
1 0.522026 0.156024
0 0.819348 0.703548
0 0.821515 0.706249
0 0.820462 0.706218
0.00366217 0.795621 0.690379
0.182147 0.779507 0.595895
0.844755 0.76817 0.437415
1 0.782742 0.418799
1 0.758373 0.429709
1 0.677226 0.314809
0 0.890211 0.764904
0 0.89015 0.76556
0 0.890105 0.766094
0 0.889311 0.77084
0.0197147 0.899245 0.772351
0.389227 0.898848 0.64007
0.962722 0.893751 0.499855
1 0.868849 0.456153
1 0.837644 0.478798
0 0.89012 0.766415
0 0.890043 0.767025
0 0.889998 0.767452
0 0.889906 0.768139
1.5259e-05 0.88954 0.770932
0.0401617 0.908461 0.753552
0.680964 0.927993 0.63949
0.996292 0.938521 0.541573
1 0.922332 0.533394
0 0.889067 0.773373
0 0.889097 0.773785
0 0.889113 0.774136
0 0.889113 0.774533
0 0.889113 0.775143
0.00540169 0.892973 0.782269
0.123507 0.911116 0.728435
0.83328 0.932601 0.630945
1 0.938918 0.561502
0.0271153 0.468818 0.676722
0.0285496 0.45005 0.659602
0.06009 0.341863 0.590631
0.237568 0.230594 0.662181
0.60058 0.182559 0.622141
0.723888 0.284901 0.528145
0.727077 0.272938 0.542763
0.734691 0.261341 0.570718
0.746563 0.247745 0.609705
0.0312047 0.500816 0.703868
0.0316777 0.481712 0.684718
0.0652628 0.371145 0.614572
0.24448 0.252079 0.67129
0.60679 0.200488 0.628428
0.734096 0.303883 0.535103
0.738415 0.28983 0.552117
0.742962 0.273121 0.578088
0.753185 0.261265 0.615228
0.0425116 0.606882 0.778164
0.0559701 0.599908 0.775006
0.078996 0.493568 0.679454
0.236683 0.349462 0.660563
0.601923 0.287892 0.63946
0.753979 0.379599 0.537896
0.763714 0.377554 0.535622
0.763378 0.366842 0.552422
0.769131 0.356146 0.582361
0.0186313 0.656367 0.7935
0.0182956 0.654368 0.789395
0.052079 0.5944 0.718502
0.247608 0.507073 0.657008
0.581552 0.451957 0.643946
0.803723 0.503761 0.574487
0.861448 0.508736 0.565423
0.844541 0.495888 0.56965
0.824002 0.483192 0.580652
0 0.710231 0.699702
0 0.714794 0.704631
0.000350958 0.71632 0.712169
0.106828 0.65658 0.691554
0.549569 0.627588 0.658503
0.832288 0.64329 0.605692
0.961166 0.633844 0.527687
0.960372 0.630594 0.541436
0.936431 0.613123 0.567361
0 0.841276 0.759884
0 0.843458 0.761929
0 0.848188 0.766964
0.0222019 0.811597 0.750362
0.338598 0.782635 0.737285
0.76347 0.778454 0.660456
0.983459 0.772641 0.599619
0.999725 0.691249 0.439506
0.999603 0.622217 0.281926
0.000518807 0.894423 0.802777
0.000488289 0.894575 0.803128
0.00047303 0.894667 0.803342
0.000350958 0.895476 0.805234
0.138018 0.892485 0.814832
0.421393 0.894957 0.768399
0.914687 0.886702 0.65687
0.999725 0.868818 0.618662
1 0.834287 0.600198
0.000747692 0.89163 0.796445
0.000717174 0.891752 0.796719
0.000717174 0.891859 0.796963
0.000717174 0.891966 0.797253
0.00521859 0.892302 0.799817
0.181277 0.905013 0.808225
0.577585 0.922667 0.725109
0.984497 0.934051 0.643336
0.998367 0.918059 0.624262
0.00062562 0.890532 0.792981
0.000671397 0.890608 0.793271
0.000717174 0.890669 0.7935
0.000747692 0.890715 0.793729
0.00077821 0.890806 0.794079
0.0269322 0.892912 0.80354
0.189761 0.910307 0.782803
0.778164 0.928771 0.688884
0.998138 0.936507 0.623346
0.118349 0.67985 0.831876
0.121523 0.677394 0.831113
0.147204 0.648722 0.822263
0.249134 0.575586 0.822995
0.578668 0.470939 0.855055
0.818265 0.431464 0.77023
0.840589 0.433112 0.746502
0.840772 0.416205 0.750729
0.835523 0.395651 0.739315
0.126421 0.684108 0.832914
0.129549 0.682979 0.832563
0.15639 0.658228 0.824964
0.262333 0.588388 0.826062
0.583627 0.488899 0.859098
0.821775 0.447196 0.77847
0.844709 0.447669 0.756619
0.842542 0.429786 0.75346
0.837125 0.408347 0.740398
0.178973 0.703792 0.836515
0.184817 0.704402 0.836454
0.193835 0.699779 0.834226
0.296452 0.63978 0.824659
0.567742 0.55671 0.854292
0.81883 0.506554 0.792721
0.850874 0.507897 0.760159
0.847074 0.488899 0.75256
0.841917 0.466194 0.741527
0.0666361 0.766003 0.861982
0.0788586 0.767117 0.861692
0.224903 0.752392 0.848539
0.378378 0.721736 0.829007
0.557626 0.645701 0.826001
0.804135 0.604105 0.797269
0.862272 0.613458 0.750286
0.857618 0.593744 0.743618
0.853162 0.570459 0.739391
0.0127718 0.799466 0.871504
0.0148775 0.800122 0.872709
0.0806744 0.794324 0.870314
0.259861 0.782742 0.843091
0.581445 0.744396 0.815106
0.785977 0.711299 0.798947
0.898558 0.71931 0.757092
0.891066 0.696803 0.742763
0.882689 0.670787 0.729442
0 0.894575 0.855024
0 0.898054 0.858534
0 0.893721 0.857771
0.0518196 0.855283 0.843503
0.439719 0.825574 0.82324
0.749813 0.806531 0.802777
0.94255 0.80531 0.75404
0.95581 0.763119 0.69543
0.94995 0.742962 0.684794
0 0.918929 0.845762
0 0.919264 0.846494
0 0.919692 0.84744
0.000595102 0.91928 0.847196
0.213931 0.908583 0.848554
0.607614 0.899733 0.841794
0.875441 0.888716 0.78233
0.981506 0.849836 0.710079
0.999969 0.755734 0.550607
0 0.908339 0.825895
0 0.908598 0.826322
0 0.908721 0.826505
0 0.908934 0.826841
0.0201267 0.907088 0.829923
0.382849 0.91046 0.838956
0.64152 0.924331 0.816114
0.953292 0.930434 0.74667
0.985702 0.915557 0.720424
3.0518e-05 0.900252 0.812787
4.57771e-05 0.900481 0.813123
6.10361e-05 0.900618 0.813336
6.10361e-05 0.900786 0.813596
7.62951e-05 0.900984 0.813886
0.0504768 0.900084 0.824506
0.40911 0.91194 0.823194
0.743832 0.92755 0.758312
0.985107 0.934173 0.701488
0.36141 0.760678 0.845594
0.366781 0.759182 0.845258
0.403052 0.746319 0.842573
0.470161 0.705486 0.842481
0.603311 0.645518 0.863432
0.817792 0.596033 0.830564
0.870268 0.59089 0.79205
0.866361 0.572305 0.787884
0.862043 0.549798 0.783047
0.374319 0.762921 0.846006
0.381537 0.761654 0.845762
0.410773 0.750896 0.843641
0.480812 0.71046 0.843641
0.611551 0.651484 0.863935
0.823285 0.604395 0.83006
0.871565 0.598993 0.79443
0.867887 0.580102 0.789914
0.86363 0.557412 0.784695
0.425483 0.773327 0.848219
0.428229 0.774212 0.848432
0.422736 0.772686 0.848493
0.503883 0.737682 0.846021
0.614267 0.682231 0.861646
0.819409 0.635081 0.840253
0.876677 0.629816 0.803281
0.873686 0.60972 0.797436
0.869535 0.586191 0.790875
0.449653 0.801617 0.857847
0.466285 0.801312 0.857557
0.516655 0.796841 0.855879
0.530266 0.79237 0.855009
0.628717 0.745174 0.859648
0.8038 0.700175 0.857954
0.884565 0.69398 0.821805
0.882185 0.673121 0.815885
0.87924 0.648219 0.808637
0.101884 0.853254 0.889845
0.110796 0.855009 0.889906
0.202197 0.856077 0.885771
0.533791 0.837369 0.869062
0.655543 0.819959 0.867262
0.781415 0.781567 0.870863
0.8981 0.771786 0.8439
0.894347 0.751095 0.83711
0.889189 0.726345 0.830701
0.0296941 0.880644 0.896345
0.0365911 0.87982 0.896513
0.0852369 0.87361 0.895628
0.274266 0.871489 0.886381
0.5691 0.874952 0.881956
0.76936 0.85658 0.881437
0.907805 0.842161 0.86772
0.915602 0.824537 0.8589
0.909148 0.798428 0.841321
0 0.945281 0.9075
0 0.945449 0.907774
0 0.945266 0.907301
0.0342565 0.942397 0.910155
0.291188 0.938155 0.904723
0.673533 0.919463 0.896834
0.868406 0.901991 0.883482
0.948714 0.882383 0.843778
0.950744 0.849821 0.807004
0 0.936706 0.885542
0 0.936797 0.885771
0 0.936889 0.886
0 0.938445 0.889647
0.0466468 0.931945 0.883116
0.432303 0.930404 0.87628
0.739437 0.929412 0.881437
0.926848 0.932586 0.843305
0.973617 0.897963 0.783902
0 0.922042 0.852033
0 0.92224 0.852506
0 0.922393 0.852842
0 0.922499 0.853086
0 0.923033 0.854017
0.0708171 0.917632 0.856001
0.546822 0.920287 0.858183
0.759579 0.928618 0.837003
0.966018 0.935058 0.789242
0.59826 0.839597 0.86833
0.598611 0.839811 0.868376
0.613153 0.83386 0.867658
0.662242 0.811887 0.866407
0.717205 0.770901 0.868757
0.821759 0.734432 0.859815
0.888075 0.725856 0.831403
0.885817 0.70544 0.825177
0.882918 0.680217 0.817929
0.602884 0.841459 0.869123
0.604562 0.841733 0.869291
0.621378 0.835462 0.86862
0.666957 0.814908 0.867521
0.722683 0.774823 0.869322
0.826474 0.739712 0.859724
0.88896 0.730877 0.832731
0.886519 0.710552 0.826612
0.883543 0.685191 0.819364
0.621515 0.845518 0.871305
0.623819 0.846098 0.871595
0.633707 0.842405 0.871229
0.666682 0.827054 0.870207
0.726741 0.789334 0.870619
0.825452 0.753292 0.86244
0.891814 0.743893 0.83624
0.888869 0.723674 0.830076
0.885313 0.698833 0.823178
0.667033 0.855268 0.876539
0.667002 0.856458 0.876921
0.665095 0.857374 0.877058
0.666819 0.854627 0.876478
0.732784 0.824079 0.87396
0.818875 0.785412 0.869673
0.898238 0.774197 0.844739
0.894682 0.754513 0.838346
0.889632 0.729992 0.831876
0.593378 0.884199 0.885985
0.601633 0.884092 0.886107
0.66508 0.878584 0.884581
0.721111 0.872374 0.883925
0.735607 0.866865 0.883085
0.81149 0.833463 0.879179
0.904952 0.815763 0.859907
0.907225 0.797345 0.851194
0.899947 0.773434 0.843748
0.218097 0.918883 0.903975
0.235065 0.919448 0.9037
0.324712 0.919631 0.90132
0.532372 0.914458 0.896925
0.731136 0.898497 0.893828
0.805234 0.884779 0.891783
0.90013 0.862089 0.879149
0.921065 0.845899 0.868635
0.914504 0.822889 0.860304
0.101472 0.927108 0.910277
0.110002 0.92781 0.91017
0.157488 0.927718 0.908507
0.332555 0.928817 0.903532
0.555795 0.931365 0.902098
0.740414 0.926528 0.905211
0.872847 0.912169 0.902937
0.937774 0.899046 0.889006
0.931182 0.877745 0.88014
0 0.945891 0.908858
0 0.945891 0.908858
0 0.945891 0.908873
0.0199435 0.945617 0.912642
0.152972 0.946349 0.91516
0.517021 0.946227 0.908217
0.788464 0.94197 0.914244
0.920775 0.940566 0.911711
0.94847 0.922225 0.890517
0 0.94432 0.904753
0 0.944457 0.905089
0 0.944533 0.905272
0 0.94461 0.90547
0 0.944854 0.906142
0.119127 0.942718 0.907301
0.57377 0.939071 0.895033
0.810086 0.935241 0.897887
0.944976 0.940444 0.871382
0.751629 0.894499 0.892943
0.752102 0.894652 0.893034
0.754055 0.893355 0.892668
0.77113 0.885832 0.89102
0.810285 0.868009 0.887037
0.856168 0.842893 0.878218
0.912047 0.823301 0.861128
0.909346 0.804929 0.853956
0.902937 0.782834 0.846647
0.75259 0.896162 0.893584
0.753002 0.896651 0.893767
0.754208 0.895781 0.893523
0.774166 0.88777 0.891752
0.813565 0.87039 0.887633
0.859281 0.845563 0.87866
0.913207 0.826307 0.862089
0.910216 0.807813 0.854932
0.903868 0.78587 0.847501
0.753491 0.899855 0.894911
0.753521 0.900603 0.895171
0.752895 0.900465 0.895079
0.772869 0.893202 0.89337
0.813886 0.876539 0.88922
0.859388 0.851896 0.880491
0.91487 0.832059 0.864118
0.911955 0.813565 0.856886
0.905669 0.791882 0.849271
0.769619 0.903471 0.89691
0.771313 0.903868 0.897139
0.771572 0.903777 0.897093
0.781338 0.899916 0.896162
0.808896 0.888579 0.893248
0.856779 0.865415 0.885115
0.913634 0.843793 0.869612
0.915434 0.826017 0.861448
0.909239 0.804334 0.853635
0.800763 0.908476 0.900099
0.802838 0.909026 0.900404
0.803067 0.909316 0.900511
0.799664 0.910079 0.900679
0.799985 0.908446 0.900008
0.850828 0.888655 0.893202
0.91046 0.863813 0.879179
0.921294 0.847013 0.869169
0.915251 0.825406 0.861112
0.736538 0.930816 0.906981
0.743206 0.930648 0.907195
0.76672 0.927443 0.906844
0.813611 0.920424 0.905791
0.835416 0.916457 0.904768
0.835889 0.915755 0.904341
0.903456 0.89279 0.891112
0.929778 0.874235 0.878828
0.923232 0.853742 0.871595
0.462089 0.946883 0.908431
0.469627 0.946929 0.90837
0.503914 0.946822 0.908446
0.590723 0.945907 0.909209
0.714199 0.940261 0.910582
0.823224 0.932403 0.911543
0.882536 0.925628 0.909331
0.937713 0.908873 0.894133
0.935225 0.889769 0.884978
0.286717 0.946761 0.911345
0.292744 0.946792 0.911208
0.336034 0.946883 0.910323
0.440543 0.947066 0.908583
0.570138 0.94667 0.908705
0.681743 0.945418 0.910933
0.817334 0.941726 0.916274
0.914549 0.939529 0.914305
0.945357 0.928466 0.903624
0 0.945891 0.908873
0 0.945891 0.908888
0 0.945922 0.90898
0.0178836 0.945785 0.912703
0.0995041 0.946029 0.916091
0.338796 0.946838 0.910445
0.651469 0.945617 0.910384
0.840452 0.941482 0.917556
0.937957 0.945266 0.914137
