LUT预设1/柯达5219&2393/柯达5219&2393尼康专用/Nlog/柯达2393-Nlog.cube
TITLE "Generated by Resolve"
LUT_3D_SIZE 33
0.00444038 0.0312505 0.0263523
0.00482185 0.0313268 0.0263981
0.00570687 0.0315251 0.0264286
0.00863661 0.0318151 0.0263676
0.0140841 0.0323033 0.026215
0.0250706 0.0327916 0.0248875
0.0466926 0.0341955 0.019852
0.074815 0.0363775 0.0103456
0.110536 0.0385901 0.00221256
0.156435 0.0387579 7.62951e-05
0.213596 0.0367895 0
0.276997 0.0343328 0
0.339178 0.0325322 0
0.396414 0.0313573 0
0.446738 0.0302586 0
0.490791 0.02916 0
0.528908 0.0286412 0
0.563104 0.0288853 0
0.596063 0.0282597 0
0.627802 0.0251316 0
0.658091 0.0209049 0
0.689204 0.0143893 0
0.720714 0.00468452 0
0.75082 0.00109865 0
0.774762 0 0
0.795026 0 0.00488289
0.810803 0 0.019852
0.82623 0 0.0618753
0.84007 0 0.112016
0.853284 0 0.167788
0.866651 0 0.222873
0.877958 0 0.279622
0.89012 0 0.337392
0.0040589 0.0316777 0.0264286
0.00442512 0.0317693 0.0264744
0.00527962 0.0319677 0.0265354
0.00823987 0.0322728 0.0265049
0.0137789 0.0327306 0.0263828
0.0251316 0.0332189 0.0249638
0.0471962 0.0346532 0.0197604
0.0758373 0.0368353 0.0100862
0.11223 0.0389868 0.00210575
0.158541 0.0391241 6.10361e-05
0.216693 0.0371099 0
0.280644 0.0347753 0
0.343069 0.0331579 0
0.400046 0.032105 0
0.450172 0.0310369 0
0.493965 0.0300755 0
0.531975 0.029572 0
0.566232 0.0300603 0
0.599161 0.0291295 0
0.630762 0.0256962 0
0.661357 0.0214084 0
0.692454 0.0138857 0
0.72401 0.00466926 0
0.754238 0.000640879 0
0.777584 0 0
0.797406 0 0.00610361
0.81297 0 0.0211948
0.828519 0 0.0657664
0.842161 0 0.116838
0.855329 0 0.172793
0.868467 0 0.228031
0.879881 0 0.285191
0.892149 0 0.343389
0.00321965 0.0326543 0.0266117
0.00355535 0.0327306 0.026627
0.00428778 0.0329595 0.0267185
0.00720226 0.0332494 0.0267338
0.012726 0.0337224 0.0267185
0.0244602 0.0342107 0.0252842
0.0470741 0.0356451 0.0198825
0.0763409 0.0377661 0.010132
0.113283 0.0398413 0.00207523
0.16025 0.0400702 4.57771e-05
0.219257 0.0381781 0
0.284077 0.0361334 0
0.347173 0.0348821 0
0.404379 0.0340734 0
0.454612 0.0332036 0
0.498024 0.0324559 0
0.536126 0.0323949 0
0.570367 0.0332341 0
0.603281 0.0316777 0
0.635035 0.0276951 0
0.665812 0.0228733 0
0.6972 0.0137179 0
0.728664 0.00477607 0
0.759228 0.000228885 0
0.782116 0 0
0.801617 0 0.00709544
0.817395 0 0.0240177
0.832792 0 0.0691691
0.846189 0 0.12137
0.85922 0 0.177829
0.872251 0 0.233875
0.883787 0 0.291707
0.896162 0 0.350118
0.00213626 0.034699 0.0269474
0.00236515 0.0348211 0.0269932
0.00291447 0.0350805 0.0270848
0.0053254 0.0354009 0.0271763
0.0103761 0.0358434 0.0272374
0.0222629 0.0363012 0.0258335
0.0462196 0.0376593 0.0202182
0.0763104 0.039765 0.0103914
0.114199 0.0415961 0.00215152
0.16257 0.0417487 6.10361e-05
0.22298 0.0401007 0
0.289342 0.0385138 0
0.353872 0.0378576 0
0.411933 0.0375982 0
0.462165 0.0373083 0
0.505776 0.0370031 0
0.543862 0.0370794 0
0.578149 0.0378729 0
0.610925 0.035996 0
0.642298 0.0323949 0
0.673335 0.0271305 0
0.705348 0.0155947 0
0.737179 0.00596628 0
0.767666 0 0
0.790646 0 0
0.809796 0 0.0081178
0.825727 0 0.0270542
0.840604 0 0.072755
0.853819 0 0.126711
0.866529 0 0.184512
0.879515 0 0.241367
0.891402 0 0.300511
0.903655 0 0.359808
0.00077821 0.0383154 0.0275425
0.000839246 0.0385138 0.0276036
0.00103761 0.0388495 0.0277256
0.00248722 0.0392309 0.0278477
0.0062562 0.0396429 0.0280156
0.0179446 0.0399939 0.0266423
0.044419 0.0411841 0.0208438
0.0757153 0.0434424 0.0109865
0.115068 0.0446174 0.00239567
0.165896 0.0444495 0.000106813
0.228199 0.0433204 0
0.297734 0.042359 0
0.365057 0.0424048 0
0.424613 0.0434577 0
0.475563 0.0444038 0
0.519463 0.0447395 0
0.557458 0.0444495 0
0.591669 0.0443732 0
0.623682 0.0432441 0
0.654154 0.0411841 0
0.68571 0.0352331 0
0.719005 0.0197299 0
0.751446 0.00813306 0
0.781735 0 0
0.804868 0 0
0.823911 0 0.00918593
0.839933 0 0.0303502
0.854047 0 0.0773785
0.866758 0 0.133867
0.879545 0 0.193942
0.892927 0 0.254108
0.905013 0 0.315847
0.916838 0 0.377997
9.15541e-05 0.0449683 0.02916
0.000106813 0.0452583 0.0292363
0.000122072 0.0456855 0.0293126
0.000488289 0.0462043 0.0293278
0.00184634 0.0466621 0.0291295
0.0111849 0.0469978 0.0274815
0.0409857 0.0478828 0.0217899
0.0762188 0.0499428 0.0109712
0.118334 0.0516213 0.002121
0.17258 0.0518502 4.57771e-05
0.238651 0.051667 0
0.31313 0.0514839 0
0.38468 0.0521553 0
0.446693 0.0545357 0
0.498894 0.0569772 0
0.543023 0.0582437 0
0.580926 0.0579385 0
0.614481 0.0567941 0
0.645884 0.0550088 0
0.676539 0.0523995 0
0.708446 0.046067 0
0.740505 0.0299535 0
0.772473 0.014313 0
0.803906 0.000350958 0
0.828931 0.000244144 0
0.848539 0 0.0111696
0.865232 0 0.0363775
0.87863 0 0.08748
0.891463 0 0.148486
0.903761 0 0.213138
0.916411 0 0.27747
0.92752 0 0.342565
0.938155 0 0.406699
0 0.0560922 0.0320439
0 0.0564889 0.0320592
0 0.0569924 0.0320897
0 0.0576944 0.0320897
3.0518e-05 0.0583352 0.0312963
0.00447089 0.0594034 0.0288853
0.0341344 0.0602274 0.0230869
0.0761273 0.0620279 0.0125582
0.123842 0.0648203 0.00228885
0.185641 0.0663615 1.5259e-05
0.259342 0.0677653 0
0.341756 0.0693828 0
0.418189 0.0715648 0
0.483955 0.0742046 0
0.538247 0.0768292 0
0.583185 0.0789197 0
0.621546 0.0802777 0
0.65449 0.078996 0
0.685985 0.075349 0
0.716503 0.0691844 0
0.746502 0.0587472 0
0.775097 0.0450599 0
0.805219 0.0296635 0
0.837064 0.0139773 0
0.865141 0.00242618 0
0.888624 0 0.0134127
0.90695 0 0.0449378
0.918029 0 0.105303
0.930144 0 0.176989
0.941543 0 0.24831
0.951171 0 0.315862
0.958328 1.5259e-05 0.380926
0.964645 0.000350958 0.441398
0 0.0706798 0.0328679
0 0.0711376 0.032929
0 0.0717174 0.0330358
0 0.0725719 0.0331426
0 0.0737621 0.0326543
0.00062562 0.0757763 0.0308232
0.0211948 0.0780041 0.0234379
0.0718242 0.0807813 0.0108797
0.127214 0.084596 0.00125124
0.199802 0.0888685 4.57771e-05
0.284215 0.0926986 0
0.372396 0.0968643 0
0.453971 0.101167 0
0.522576 0.104433 0
0.578714 0.106737 0
0.624979 0.10837 0
0.663676 0.109697 0
0.695216 0.108614 0
0.725948 0.106172 0
0.755673 0.102174 0
0.784497 0.0927749 0
0.813336 0.0770428 0
0.846693 0.0493324 0
0.879088 0.0238804 0
0.908629 0.00251774 0
0.929244 0.000579843 0.0231174
0.944701 0.000366217 0.0682689
0.955108 0.000488289 0.139239
0.964187 0.000717174 0.210498
0.972351 0.0010071 0.280354
0.978302 0.00164797 0.346502
0.980697 0.00314336 0.408331
0.980682 0.0238193 0.464546
0 0.0900587 0.0348821
0 0.0907759 0.0348974
0 0.0915694 0.0347448
0 0.0927291 0.0343633
0 0.0946517 0.0336004
0 0.097734 0.0316167
0.00234989 0.101106 0.0229648
0.056199 0.105318 0.00672923
0.124422 0.111589 0.000503548
0.207187 0.118074 1.5259e-05
0.299519 0.124468 0
0.393103 0.131228 0
0.479026 0.137972 0
0.551522 0.143221 0
0.610162 0.146761 0
0.657954 0.148959 0
0.697169 0.149004 0
0.72842 0.148913 0
0.758816 0.147356 0
0.788724 0.143862 0
0.816693 0.137011 0
0.844984 0.126497 0
0.874784 0.108476 0
0.903212 0.0858778 0
0.929335 0.0634165 0.00175479
0.945663 0.0582742 0.0252537
0.957183 0.057908 0.0730602
0.965347 0.0618601 0.141131
0.971054 0.0692607 0.212024
0.976364 0.0774853 0.280552
0.980163 0.0893568 0.346548
0.982879 0.105974 0.410391
0.9841 0.129305 0.468376
0 0.11339 0.0370336
0 0.114458 0.0373236
0 0.115694 0.0375219
0 0.117403 0.0376898
0 0.120073 0.037583
0 0.123873 0.0355688
0 0.128878 0.0242771
0.0255283 0.13521 0.00575265
0.106462 0.143191 0.000259403
0.202655 0.152331 0
0.305638 0.161486 0
0.405737 0.170184 0
0.494911 0.179522 0
0.569909 0.187564 0
0.630762 0.193347 0
0.680476 0.197955 0
0.721248 0.201633 0
0.752956 0.20238 0
0.783963 0.201694 0
0.814115 0.199512 0
0.842786 0.194736 0
0.871046 0.187732 0
0.898344 0.178546 0
0.921981 0.168353 0
0.942794 0.159182 0.00399786
0.956664 0.156985 0.0207523
0.967102 0.158312 0.0658732
0.975311 0.162646 0.127687
0.980026 0.171603 0.201419
0.984375 0.181384 0.271901
0.98819 0.193759 0.339544
0.990906 0.208316 0.404364
0.993149 0.221897 0.464942
0 0.147204 0.0463569
0 0.148745 0.0467536
0 0.150454 0.0471962
0 0.152758 0.0470283
0 0.156344 0.0463264
0 0.160967 0.0435187
0 0.166949 0.0316777
0.00605783 0.174441 0.00639353
0.0738842 0.184344 0.000137331
0.189624 0.197726 0
0.302327 0.210971 0
0.409415 0.222995 0
0.504433 0.233402 0
0.583856 0.243 0
0.647196 0.251377 0
0.697963 0.257527 0
0.738888 0.261509 0
0.771145 0.264317 0
0.802258 0.266316 0
0.832273 0.266148 0
0.860151 0.262898 0
0.888655 0.25771 0
0.915953 0.251438 0
0.940032 0.24448 0
0.959884 0.2392 0.00364691
0.974243 0.236851 0.0123598
0.983246 0.238254 0.0516518
0.989105 0.241917 0.107103
0.992508 0.250431 0.1832
0.996033 0.261082 0.257008
0.998459 0.273899 0.326665
0.999939 0.288762 0.392874
0.999817 0.300435 0.453941
0 0.185565 0.0579995
0 0.187381 0.0586099
0 0.189715 0.0591897
0 0.192889 0.0598459
0 0.197192 0.0596933
0 0.203754 0.0582132
0 0.212116 0.0486915
0 0.218814 0.0119631
0.0371252 0.228824 0.00015259
0.161532 0.244511 0
0.290028 0.262501 0
0.407095 0.278645 0
0.50927 0.291783 0
0.592462 0.302327 0
0.657816 0.311162 0
0.709545 0.318532 0
0.751125 0.325139 0
0.783307 0.330358 0
0.814603 0.333577 0
0.845609 0.335546 0
0.874586 0.334524 0
0.902586 0.331777 0
0.929671 0.327779 0
0.955016 0.322393 0
0.974472 0.318883 3.0518e-05
0.988785 0.316396 0.00238041
0.995636 0.317403 0.0319371
0.999603 0.320806 0.0836652
0.999832 0.328328 0.15964
1 0.338354 0.23389
1 0.349813 0.306355
1 0.362509 0.375174
1 0.373816 0.436194
0 0.231327 0.076463
0 0.233341 0.0771954
0 0.235904 0.0779583
0 0.239353 0.0787976
0 0.244617 0.0795605
0 0.252918 0.0792401
0 0.262928 0.0712291
0 0.2701 0.0302739
0.0139773 0.278386 0.00030518
0.120012 0.294591 0
0.268605 0.316838 0
0.399527 0.337346 0
0.510033 0.353552 0
0.597848 0.365667 0
0.666423 0.375296 0
0.719081 0.382483 0
0.760159 0.38938 0
0.793866 0.394232 0
0.825925 0.398352 0
0.856992 0.401648 0
0.886519 0.402686 0
0.914107 0.401801 0
0.940627 0.398962 0
0.965637 0.394842 0
0.984482 0.392355 0
0.996506 0.390845 0.0052491
1 0.390585 0.0225223
1 0.393301 0.0678721
1 0.398108 0.129015
1 0.406867 0.205295
1 0.416007 0.278752
1 0.425757 0.34905
1 0.435889 0.411536
0 0.277928 0.0971389
0 0.280064 0.0981003
0 0.28275 0.0991531
0 0.28658 0.100496
0 0.292653 0.102388
0 0.302205 0.103792
0 0.316426 0.101015
0 0.326802 0.0658885
0.00134279 0.332494 0.0037995
0.073991 0.347173 0
0.241627 0.371862 0
0.38706 0.395315 0
0.508019 0.414466 0
0.602136 0.429221 0
0.674449 0.44033 0
0.728649 0.448692 0
0.769696 0.455772 0
0.803784 0.460487 0
0.836347 0.464775 0
0.868132 0.468727 0
0.897047 0.469947 0
0.924178 0.468666 0
0.950225 0.466178 0
0.974014 0.463188 0
0.993255 0.459876 0
0.999298 0.458686 0.00375372
1 0.457725 0.00994888
1 0.459083 0.0486915
1 0.461631 0.10045
1 0.46833 0.178408
1 0.47541 0.251987
1 0.483131 0.323354
1 0.492424 0.387793
0 0.326345 0.124315
0 0.328328 0.125322
0 0.330983 0.126543
0 0.334844 0.128099
0 0.341009 0.12987
0 0.350729 0.132006
0 0.365072 0.130953
0 0.381308 0.110735
0 0.38674 0.0265812
0.0321965 0.398138 0
0.201511 0.421378 0
0.371923 0.449012 0
0.503182 0.471489 0
0.604532 0.487953 0
0.681605 0.499519 0
0.738354 0.506844 0
0.781552 0.513527 0
0.816846 0.518898 0
0.849363 0.522911 0
0.880247 0.526253 0
0.908034 0.527138 0
0.934234 0.525322 0
0.959213 0.52253 0
0.981186 0.519829 0
0.998138 0.516228 0
0.999939 0.51516 0.000534066
1 0.513848 0.00549325
1 0.51429 0.0344396
1 0.515328 0.0838636
1 0.520714 0.15642
1 0.526741 0.229206
1 0.53373 0.301488
1 0.541268 0.366415
0 0.370321 0.149996
0 0.372107 0.150958
0 0.374441 0.152026
0 0.37789 0.15346
0 0.383185 0.155352
0 0.391836 0.157794
0 0.406226 0.160159
0 0.426886 0.153109
0 0.43711 0.0759899
0.00621042 0.446235 0.00047303
0.160098 0.4692 0
0.356115 0.497826 0
0.500206 0.522194 0
0.607874 0.538689 0
0.688609 0.550484 0
0.747967 0.55787 0
0.791836 0.564141 0
0.826795 0.568414 0
0.858167 0.571145 0
0.888624 0.573205 0
0.916609 0.573129 0
0.942596 0.57171 0
0.966262 0.569802 0
0.987289 0.566812 0
0.998901 0.563867 0
1 0.562127 0
1 0.560815 0.00975052
1 0.560403 0.0297704
1 0.561212 0.0790875
1 0.566018 0.141039
1 0.571038 0.215793
1 0.577569 0.287999
1 0.584054 0.354025
0 0.409247 0.175235
0 0.410819 0.176226
0 0.412802 0.17734
0 0.415641 0.178653
0 0.420157 0.180392
0 0.427543 0.182956
0 0.439658 0.186282
0 0.460914 0.186084
0 0.482521 0.139605
0 0.488365 0.0157778
0.110246 0.509911 0
0.329809 0.539162 0
0.493736 0.565606 0
0.608133 0.582116 0
0.692363 0.593057 0
0.752453 0.599802 0
0.797787 0.605432 0
0.833432 0.609003 0
0.864973 0.610758 0
0.896147 0.61178 0
0.924041 0.611643 0
0.949233 0.61062 0
0.972747 0.608988 0
0.993011 0.606638 0
0.999359 0.604685 0
1 0.602792 0
1 0.601572 0.0106508
1 0.600687 0.0219883
1 0.602029 0.0728313
1 0.606195 0.130266
1 0.611063 0.209277
1 0.61735 0.280781
1 0.623835 0.348196
0 0.444907 0.199939
0 0.446159 0.200839
0 0.447684 0.20177
0 0.449851 0.20296
0 0.453376 0.204715
0 0.459129 0.207034
0 0.468833 0.210208
0 0.486275 0.212558
0 0.515343 0.197284
0 0.527337 0.0650645
0.052491 0.544274 0
0.288457 0.5738 0
0.475715 0.600305 0
0.600778 0.618082 0
0.69044 0.628702 0
0.752972 0.635019 0
0.799969 0.639933 0
0.837568 0.643046 0
0.870253 0.644617 0
0.902129 0.645151 0
0.929183 0.645396 0
0.954467 0.644602 0
0.978286 0.643488 0
0.996765 0.642405 0
0.999817 0.640986 0
1 0.639307 0.00241093
1 0.6383 0.00747692
1 0.63801 0.0230716
1 0.639368 0.066804
1 0.643198 0.128237
1 0.648493 0.209781
1 0.654994 0.279835
1 0.661936 0.346883
0 0.473457 0.222248
0 0.474693 0.223163
0 0.475898 0.224063
0 0.47744 0.225071
0 0.479835 0.226474
0 0.483635 0.228504
0 0.490745 0.23183
0 0.504402 0.236561
0 0.531411 0.235889
0 0.563714 0.155901
0.0260014 0.573632 0.0104982
0.230518 0.600229 0
0.443351 0.62652 0
0.581628 0.645289 0
0.679576 0.656565 0
0.748211 0.663462 0
0.798016 0.66743 0
0.837934 0.669917 0
0.871305 0.671794 0
0.903044 0.67364 0
0.931365 0.674083 0
0.958206 0.67393 0
0.981292 0.673793 0
0.998703 0.672999 0
1 0.671824 9.15541e-05
1 0.670665 0.00366217
1 0.669856 0.00425727
1 0.670832 0.0301366
1 0.673167 0.0677653
1 0.677806 0.139132
1 0.683497 0.22092
1 0.690898 0.285725
1 0.698558 0.350881
0 0.501656 0.249714
0 0.502754 0.250813
0 0.503731 0.251835
0 0.504891 0.252949
0 0.506508 0.254368
0 0.509087 0.256245
0 0.513893 0.259312
0 0.523476 0.264149
0 0.543801 0.268681
0 0.584772 0.243046
0 0.600275 0.0620432
0.151904 0.621988 0.00103761
0.39205 0.648371 0
0.550057 0.668238 0
0.659007 0.680568 0
0.735439 0.688167 0
0.790661 0.692744 0
0.83444 0.695964 0
0.870298 0.698283 0
0.904219 0.700099 0
0.934234 0.701396 0
0.961105 0.702419 0
0.984207 0.702983 0
0.999954 0.70312 0
0.999954 0.703182 0.00157168
1 0.702144 0.00207523
1 0.702037 0.0125582
1 0.704005 0.0433661
1 0.706737 0.0847944
1 0.711818 0.160311
1 0.7178 0.234134
1 0.72517 0.298268
1 0.732509 0.360189
0 0.530312 0.282139
0 0.531365 0.28365
0 0.532174 0.284871
0 0.532982 0.286107
0 0.533715 0.287312
0 0.535012 0.288808
0 0.537774 0.291432
0 0.54374 0.29601
0 0.556848 0.302998
0 0.588312 0.30576
0 0.626749 0.205432
0.0591745 0.639124 0.0243381
0.3131 0.666209 0.000595102
0.502983 0.688045 0
0.627756 0.701488 0
0.714992 0.710124 0
0.777432 0.715465 0
0.826368 0.720348 0
0.86508 0.723613 0
0.901183 0.726146 0
0.933776 0.728191 0
0.962997 0.729824 0
0.985885 0.731273 0.000442512
0.999893 0.732662 0.000686656
0.999954 0.733547 0.00030518
1 0.733227 0.00416571
1 0.734478 0.0307317
1 0.737285 0.0581826
1 0.740307 0.115175
1 0.745724 0.185428
1 0.752361 0.250889
1 0.759304 0.314244
1 0.766674 0.371939
0 0.557473 0.321248
0 0.558495 0.322805
0 0.559365 0.324132
0 0.560021 0.325307
0 0.560739 0.326528
0 0.561303 0.327657
0 0.562158 0.329091
0 0.564965 0.332128
0 0.57258 0.338567
0 0.592798 0.350378
0 0.636042 0.324269
0.0069276 0.656031 0.127535
0.184848 0.67834 0.0197757
0.436149 0.702998 0.00578317
0.584802 0.719478 0.00157168
0.685695 0.730327 0
0.75639 0.736767 0
0.811551 0.742794 0
0.854322 0.746853 0
0.894377 0.750683 0
0.929747 0.753979 0.0010071
0.959915 0.756588 0.000946059
0.983612 0.758709 0.000106813
1 0.761181 0
0.999893 0.762692 0.00663767
1 0.76379 0.0280919
1 0.765911 0.0511025
1 0.769543 0.0894331
1 0.772778 0.149706
1 0.778729 0.21297
1 0.786221 0.272389
1 0.792782 0.333715
1 0.799802 0.386801
0 0.582452 0.364981
0 0.583383 0.36672
0 0.584176 0.368368
0 0.584848 0.369604
0 0.58558 0.371038
0 0.586221 0.372427
0 0.586862 0.373968
0 0.587488 0.375494
0 0.590646 0.378943
0 0.601617 0.3879
0 0.630961 0.399481
0 0.669093 0.303365
0.0465858 0.689647 0.0969711
0.32462 0.714412 0.0230106
0.522286 0.734417 0.00776684
0.645441 0.747951 0.00480659
0.727886 0.75523 0.00622568
0.789212 0.762341 0.0068513
0.836881 0.768215 0.00741588
0.879805 0.773327 0.00627146
0.919264 0.777279 0.00332647
0.953216 0.780224 0.000564584
0.979461 0.78291 0.00328069
0.997452 0.78645 0.0182956
0.999313 0.788342 0.0350652
1 0.789807 0.0537881
1 0.792279 0.0870832
1 0.796201 0.13846
1 0.799786 0.191882
1 0.805829 0.24622
1 0.812665 0.302602
1 0.818769 0.357076
1 0.825452 0.407797
0 0.604959 0.412024
0 0.605814 0.414221
0 0.606485 0.415885
0 0.607111 0.417517
0 0.607736 0.419135
0 0.608255 0.420493
0 0.608774 0.422034
0 0.609369 0.423804
0 0.609949 0.425589
0 0.613443 0.42945
0 0.628412 0.44097
0 0.669581 0.438254
0.000137331 0.702251 0.270787
0.150759 0.724498 0.113939
0.429984 0.748287 0.0547189
0.586084 0.764858 0.0321355
0.686915 0.774792 0.0257725
0.760311 0.782681 0.0208286
0.816175 0.789593 0.0176089
0.862989 0.795651 0.0195773
0.905226 0.800855 0.0218662
0.941649 0.805097 0.027985
0.970016 0.80827 0.0392767
0.992782 0.811688 0.0509804
0.998459 0.813519 0.064683
0.999756 0.816175 0.102937
1 0.819364 0.145205
1 0.82324 0.192126
1 0.827512 0.236286
1 0.833082 0.284199
1 0.839353 0.335775
1 0.844907 0.383474
1 0.851438 0.431586
0 0.624643 0.461646
0 0.625315 0.463432
0 0.625986 0.465248
0 0.626627 0.466865
0 0.627161 0.468223
0 0.627741 0.469795
0 0.628275 0.471351
0 0.62884 0.472923
0 0.629343 0.474449
0 0.630014 0.476493
0 0.634165 0.480964
0 0.654841 0.495842
0 0.705928 0.4542
0.0121157 0.735058 0.266117
0.269139 0.75816 0.151034
0.5075 0.779248 0.103441
0.63592 0.79292 0.0881361
0.723156 0.802274 0.0807965
0.788815 0.810254 0.0760204
0.840726 0.81677 0.0724956
0.886381 0.822507 0.0674296
0.926314 0.827283 0.0686046
0.957717 0.830686 0.0894484
0.984237 0.834363 0.113863
0.99498 0.837003 0.141665
0.999207 0.839673 0.174228
1 0.842786 0.210834
1 0.847166 0.246494
1 0.851179 0.285084
1 0.856367 0.329503
1 0.862104 0.370321
1 0.867308 0.414206
1 0.873045 0.456016
0 0.644205 0.510842
0 0.644938 0.512688
0 0.64564 0.514519
0 0.646265 0.516106
0 0.646754 0.517403
0 0.647349 0.518975
0 0.647807 0.520241
0 0.648295 0.521752
0 0.648783 0.523262
0 0.649332 0.525002
0 0.649866 0.526741
0 0.654612 0.531899
0 0.682857 0.548653
0 0.740047 0.46479
0.0462959 0.766842 0.291279
0.377584 0.787732 0.216159
0.566049 0.806058 0.18085
0.677134 0.818753 0.166812
0.756558 0.827878 0.160143
0.815167 0.835279 0.161547
0.864713 0.841672 0.163882
0.908766 0.846616 0.17052
0.941711 0.850187 0.186831
0.971832 0.853635 0.205249
0.989487 0.856901 0.22797
0.997269 0.859571 0.248295
1 0.862394 0.27393
1 0.86659 0.305348
1 0.870436 0.339803
1 0.875227 0.373754
1 0.880034 0.410925
1 0.885695 0.448402
1 0.889937 0.484413
0 0.66125 0.55906
0 0.661921 0.561135
0 0.66247 0.562722
0 0.662959 0.564263
0 0.663462 0.56582
0 0.66389 0.567117
0 0.664302 0.568414
0 0.664744 0.56994
0 0.665202 0.571481
0 0.66566 0.573007
0 0.666087 0.574533
0 0.666606 0.576303
0 0.672801 0.582162
0 0.712062 0.598276
0 0.772549 0.480842
0.156771 0.796765 0.337957
0.458213 0.816358 0.289738
0.61236 0.833143 0.270161
0.713359 0.844465 0.264317
0.783703 0.853193 0.266102
0.838544 0.86067 0.269474
0.887098 0.866636 0.272847
0.923537 0.870848 0.279728
0.956817 0.874144 0.289357
0.980148 0.876951 0.3028
0.992996 0.879469 0.320058
0.999924 0.881926 0.341451
0.999954 0.885374 0.365225
0.999985 0.889891 0.390295
1 0.894133 0.421149
1 0.89839 0.453529
1 0.90222 0.482658
1 0.906523 0.515892
0 0.676448 0.605829
0 0.676982 0.607477
0 0.677531 0.60911
0 0.677989 0.610513
0 0.67837 0.611688
0 0.678798 0.613077
0 0.679164 0.614252
0 0.679545 0.615412
0 0.679896 0.616587
