LUT预设1/柯达5219&2393/柯达5219&2393尼康专用/Nlog/柯达2393冷调-Nlog.cube
TITLE "Generated by Resolve"
LUT_3D_SIZE 33
0.00799573 0.0541085 0.0473793
0.00807202 0.0541085 0.047364
0.00852979 0.054139 0.047303
0.00982681 0.0542153 0.0470283
0.0136721 0.0543679 0.0464179
0.0232853 0.054612 0.0449989
0.0428321 0.0550088 0.0417792
0.0785992 0.0560006 0.0336919
0.125856 0.0575418 0.0194858
0.185809 0.0572366 0.00721752
0.260578 0.0537881 0.00201419
0.33846 0.0486458 0.000381476
0.410697 0.0430152 4.57771e-05
0.473671 0.0377356 0
0.527459 0.0327764 0
0.573312 0.0281224 0
0.612894 0.0233616 0
0.646952 0.0187839 0
0.678386 0.0136721 0
0.709072 0.0104372 9.15541e-05
0.739406 0.00758373 4.57771e-05
0.768383 0.00340276 0.000595102
0.795575 0.00180056 0.00787366
0.820584 0.000350958 0.0248112
0.841764 1.5259e-05 0.0544442
0.858717 0 0.104723
0.87396 0 0.160906
0.887831 0 0.221241
0.900755 0 0.280949
0.912551 0 0.342107
0.92369 0 0.403021
0.934188 0 0.461982
0.944625 1.5259e-05 0.515923
0.00796521 0.0541695 0.0473945
0.0080415 0.0541695 0.0473793
0.00848402 0.0542 0.0473182
0.0099031 0.0542916 0.0470588
0.0140383 0.0544442 0.0463722
0.0240177 0.0546578 0.044892
0.0446021 0.0550698 0.041474
0.0816358 0.0561379 0.0327459
0.129717 0.0576638 0.0183413
0.191577 0.0570382 0.00674449
0.267048 0.0534371 0.00183108
0.344945 0.0482032 0.000335698
0.416739 0.0425879 3.0518e-05
0.479011 0.0373541 0
0.532052 0.0323949 0
0.577188 0.0276799 0
0.616327 0.0229496 0
0.650446 0.0182498 0
0.681651 0.0130922 0
0.712154 0.0102083 9.15541e-05
0.742443 0.007187 4.57771e-05
0.77145 0.00328069 0.00135805
0.798672 0.00155642 0.00875868
0.823011 0.000320439 0.0281529
0.843748 0 0.0596628
0.8607 0 0.110796
0.875593 0 0.167849
0.889326 0 0.228351
0.902129 0 0.287984
0.913924 0 0.349447
0.924971 0 0.410132
0.935439 0 0.46894
0.945953 1.5259e-05 0.52253
0.00775158 0.05449 0.0475319
0.00781262 0.05449 0.0475166
0.00828565 0.054551 0.0474098
0.00965896 0.054612 0.0471656
0.0138857 0.0547799 0.046479
0.0239872 0.0549935 0.0449683
0.0450904 0.0554208 0.0414588
0.0829938 0.0565347 0.0324102
0.131579 0.0580606 0.0178988
0.194797 0.0572824 0.00654612
0.270665 0.0537118 0.00173953
0.348791 0.0484474 0.00030518
0.4206 0.0428779 3.0518e-05
0.482689 0.0376745 0
0.535409 0.0326543 0
0.580209 0.0278935 0
0.619058 0.0230869 0
0.653223 0.018204 0
0.684306 0.0129091 0
0.714778 0.0102235 0.000106813
0.744945 0.00708019 4.57771e-05
0.773983 0.00328069 0.00181582
0.801343 0.00143435 0.00932326
0.825238 0.000320439 0.0302281
0.84564 0 0.063447
0.86276 0 0.11487
0.877317 0 0.172839
0.890852 0 0.23299
0.903548 0 0.293141
0.91548 0 0.354849
0.926299 0 0.415518
0.936645 0 0.473854
0.947036 3.0518e-05 0.527169
0.0071107 0.0554665 0.0478981
0.00717174 0.0554971 0.0478828
0.00761425 0.0555581 0.0477913
0.00891127 0.0556497 0.0475319
0.0129702 0.0558328 0.0468605
0.0232242 0.0560311 0.0452888
0.04477 0.0564584 0.0417029
0.0836347 0.0575875 0.0324712
0.132952 0.0591897 0.0178378
0.197284 0.0584726 0.00645457
0.274083 0.055024 0.00167849
0.352773 0.0499886 0.000289921
0.424826 0.0445563 3.0518e-05
0.487129 0.0392767 0
0.539696 0.0341955 0
0.584543 0.0291142 0
0.62327 0.0241093 0
0.657176 0.0189364 0
0.688258 0.0132601 0
0.718685 0.0106508 0.000106813
0.748837 0.00726329 4.57771e-05
0.778119 0.0034638 0.00228885
0.805554 0.00141909 0.00984207
0.829099 0.000335698 0.0323033
0.849378 0 0.0668345
0.866499 0 0.118868
0.880827 0 0.178042
0.89427 0 0.238636
0.906844 0 0.299397
0.918563 0 0.361212
0.929259 0 0.421912
0.939422 0 0.479912
0.94963 3.0518e-05 0.533211
0.00588998 0.0576333 0.0487526
0.00593576 0.0577096 0.0487526
0.00631724 0.0577859 0.0486763
0.00750744 0.0579385 0.0484016
0.0111696 0.0581369 0.0476997
0.0212558 0.058381 0.0460517
0.0430915 0.0588235 0.0423438
0.0835431 0.0599374 0.03299
0.134539 0.061677 0.0180056
0.20032 0.0612192 0.00645457
0.278538 0.0581826 0.00164797
0.358511 0.0535592 0.000274662
0.431525 0.0485389 3.0518e-05
0.494209 0.0433356 0
0.546883 0.0380102 0
0.591699 0.0325628 0
0.63035 0.0272221 0
0.664225 0.0215 0
0.695293 0.0154421 1.5259e-05
0.72575 0.0124666 0.000106813
0.756054 0.00834669 4.57771e-05
0.785565 0.00416571 0.0028687
0.813474 0.00157168 0.0106203
0.836957 0.000411994 0.0348516
0.856916 0 0.0718547
0.873991 0 0.125414
0.888167 0 0.185946
0.901259 0 0.247333
0.913603 0 0.308858
0.925032 0 0.371191
0.935378 0 0.431983
0.94522 1.5259e-05 0.489708
0.955154 4.57771e-05 0.543084
0.00421149 0.0621042 0.0506294
0.00421149 0.0622568 0.0507057
0.00450141 0.0624094 0.0506294
0.00544747 0.0625772 0.0503243
0.00819409 0.0628672 0.0495918
0.017319 0.0632334 0.0476539
0.0383459 0.0637827 0.0437476
0.0820172 0.0649424 0.0340276
0.136538 0.0669718 0.018555
0.205356 0.0671397 0.00648508
0.286122 0.064744 0.0016022
0.368154 0.0608682 0.000259403
0.442756 0.0565652 3.0518e-05
0.506157 0.0518044 0
0.559365 0.0466621 0
0.604425 0.0412299 0
0.642878 0.0354772 0
0.676356 0.0293126 0
0.707195 0.0228733 4.57771e-05
0.737926 0.0179446 0.000122072
0.768734 0.0115511 4.57771e-05
0.798932 0.00595102 0.00366217
0.827436 0.00202945 0.01178
0.850843 0.000579843 0.0391852
0.87071 0 0.0792706
0.887495 0 0.135592
0.901366 0 0.198077
0.914076 0 0.261143
0.926009 0 0.324041
0.936889 0 0.387076
0.946532 0 0.448081
0.955764 0.000137331 0.50547
0.964462 0.000686656 0.558206
0.00213626 0.0702831 0.0542
0.00210575 0.070634 0.0543221
0.00227359 0.0708629 0.0542458
0.0028687 0.0711528 0.0539254
0.00421149 0.0715496 0.0531319
0.0114137 0.0721447 0.0506905
0.0295872 0.0730602 0.0460822
0.0754711 0.0746777 0.0356909
0.138186 0.0771649 0.0191196
0.21326 0.0783398 0.00640879
0.298344 0.0771496 0.00151064
0.384115 0.0744182 0.000228885
0.460716 0.0711376 4.57771e-05
0.525856 0.0674601 0
0.579782 0.0630808 0
0.624613 0.0581979 0
0.662852 0.0526284 0
0.696025 0.0462501 0
0.726589 0.0391699 4.57771e-05
0.75761 0.030808 7.62951e-05
0.789502 0.0195773 3.0518e-05
0.820722 0.0102083 0.00497444
0.850019 0.00302129 0.0141909
0.872862 0.000961318 0.0470893
0.892531 3.0518e-05 0.0928511
0.908888 3.0518e-05 0.152819
0.922225 4.57771e-05 0.218173
0.934249 7.62951e-05 0.283131
0.945418 0.000106813 0.347723
0.955581 0.00015259 0.411322
0.964218 0.000289921 0.471916
0.971923 0.00103761 0.528222
0.978225 0.0039826 0.579889
0.000503548 0.0861219 0.0608225
0.00047303 0.0868086 0.0610971
0.000503548 0.0872511 0.0611124
0.000640879 0.0877546 0.0607767
0.000961318 0.0883955 0.0598306
0.00537118 0.0892348 0.0562448
0.0182956 0.0906539 0.0493935
0.0544594 0.0940566 0.0381476
0.1299 0.0974746 0.0189212
0.221012 0.100374 0.00576791
0.316121 0.101686 0.00128176
0.407019 0.101289 0.000228885
0.487205 0.099733 4.57771e-05
0.554604 0.0977493 0
0.610025 0.0951858 0
0.655467 0.0920119 0
0.693553 0.0879988 0
0.725902 0.0827497 0
0.756405 0.0759136 1.5259e-05
0.787076 0.0646067 0
0.818677 0.047715 0
0.850416 0.0298924 0.00662242
0.880064 0.0141604 0.0190433
0.901839 0.00918593 0.0585641
0.920119 0.00688182 0.110735
0.934997 0.00674449 0.173831
0.946944 0.00712596 0.239948
0.957229 0.00788891 0.306401
0.966125 0.0087892 0.371847
0.973999 0.00994888 0.43505
0.979294 0.0172274 0.492943
0.982635 0.0312505 0.545663
0.985183 0.0516518 0.59469
0 0.113985 0.0721447
0 0.115145 0.0725109
0 0.115999 0.0726024
0 0.11667 0.0721447
0 0.117678 0.0710307
0.00132753 0.118624 0.0661021
0.00810254 0.1196 0.0540627
0.0382849 0.123064 0.0357366
0.0924544 0.131441 0.0186313
0.193851 0.138582 0.00392157
0.314733 0.14258 0.000961318
0.421698 0.144915 0.000213626
0.510964 0.146334 3.0518e-05
0.582849 0.147112 0
0.640574 0.147585 0
0.687068 0.14728 0
0.725261 0.146273 0
0.757565 0.143923 0
0.786954 0.140124 0
0.815564 0.134371 0
0.843961 0.125277 0.000167849
0.871275 0.113954 0.00598154
0.895735 0.101381 0.01944
0.915236 0.0946822 0.0546731
0.930816 0.0920882 0.10631
0.943236 0.0924697 0.167559
0.9523 0.0964065 0.235004
0.959991 0.102907 0.301183
0.966796 0.111452 0.365789
0.972793 0.121569 0.428855
0.977691 0.134295 0.487755
0.981842 0.149157 0.542611
0.985458 0.166217 0.593347
0 0.153201 0.0873732
0 0.154818 0.0880293
0 0.155901 0.0882429
0 0.157031 0.0879988
0 0.158602 0.0869764
3.0518e-05 0.160357 0.0830549
0.000885023 0.161273 0.0685435
0.0183261 0.161791 0.0353704
0.0692454 0.171893 0.0142519
0.142992 0.184588 0.00384527
0.264866 0.194125 0.000793469
0.395209 0.200198 0.000137331
0.509209 0.20354 1.5259e-05
0.595575 0.206104 0
0.659464 0.208606 0
0.708476 0.21059 0
0.747799 0.212055 0
0.780423 0.212238 0
0.809796 0.211307 0
0.837995 0.208377 0
0.865217 0.203983 0.00106813
0.890959 0.198901 0.00492866
0.913069 0.194278 0.0179294
0.931411 0.191928 0.0416724
0.945617 0.191897 0.0887465
0.95668 0.19321 0.146349
0.964508 0.197055 0.216266
0.971176 0.203937 0.287617
0.977264 0.212619 0.356725
0.982727 0.222812 0.421317
0.98703 0.234562 0.4813
0.990417 0.246433 0.537423
0.993301 0.258808 0.588754
0 0.203021 0.109499
0 0.204822 0.110277
0 0.206256 0.110887
0 0.207874 0.110887
0 0.210071 0.109987
0 0.213275 0.107942
0 0.215534 0.0952621
0.00453193 0.212985 0.0525521
0.0530709 0.21738 0.0096437
0.123308 0.233799 0.00268559
0.218173 0.25008 0.000579843
0.341054 0.263142 9.15541e-05
0.469551 0.271427 0
0.57966 0.275227 0
0.660945 0.277607 0
0.718593 0.280308 0
0.761532 0.283299 0
0.795514 0.285664 0
0.825422 0.286854 0
0.854353 0.285771 0
0.881834 0.28394 0.000549325
0.908415 0.280552 0.0015259
0.930266 0.278889 0.0121767
0.948714 0.277424 0.0285496
0.962234 0.278447 0.0703136
0.972808 0.280262 0.123781
0.97998 0.283757 0.190387
0.985321 0.290425 0.264546
0.989776 0.298802 0.338399
0.993515 0.308553 0.410285
0.996002 0.319509 0.471138
0.997635 0.330312 0.526741
0.998764 0.34078 0.57731
0 0.259144 0.13724
0 0.261601 0.138567
0 0.263294 0.139498
0 0.265629 0.140673
0 0.268727 0.141176
0 0.273045 0.139895
0 0.277562 0.131197
7.62951e-05 0.276799 0.0936141
0.0277104 0.269673 0.0131685
0.118959 0.286336 0.00158694
0.199634 0.306935 0.000320439
0.305028 0.325933 6.10361e-05
0.423804 0.340841 0
0.539544 0.350256 0
0.637308 0.35462 0
0.710536 0.356558 0
0.763668 0.357931 0
0.803601 0.359319 0
0.836332 0.360845 0
0.866621 0.361685 0
0.894911 0.361517 0
0.92163 0.359915 0.00129702
0.94345 0.359442 0.0093843
0.961593 0.358846 0.025803
0.975174 0.359625 0.0578317
0.984909 0.361456 0.10724
0.990829 0.364828 0.167514
0.994247 0.370596 0.239048
0.996704 0.377142 0.311025
0.998428 0.384924 0.382818
0.999222 0.393668 0.449454
0.99971 0.403342 0.50695
0.999954 0.41236 0.558282
0 0.319615 0.172091
0 0.321935 0.173556
0 0.323751 0.174685
0 0.326177 0.176059
0 0.3299 0.178088
0 0.334997 0.178424
0 0.341802 0.174731
0 0.345525 0.14667
0.00920119 0.333989 0.0446021
0.0981918 0.341863 0.00137331
0.205249 0.364218 9.15541e-05
0.295521 0.385962 1.5259e-05
0.399466 0.405188 0
0.507485 0.420111 0
0.606683 0.429557 0
0.68954 0.433875 0
0.754421 0.43534 0
0.803845 0.43537 0
0.841245 0.43537 0
0.87451 0.435431 0
0.90486 0.434775 0
0.931044 0.434348 0.00292973
0.95375 0.433616 0.0071107
0.97145 0.433661 0.0234836
0.984894 0.434058 0.0449836
0.992386 0.435935 0.0917525
0.996078 0.43827 0.147311
0.997925 0.442191 0.215824
0.999146 0.447074 0.285725
0.999786 0.452476 0.354864
0.999924 0.459174 0.421347
0.999985 0.466941 0.481529
1 0.474723 0.536507
0 0.377676 0.210559
0 0.379843 0.21207
0 0.381506 0.213199
0 0.383795 0.214633
0 0.387213 0.216754
0 0.393057 0.220386
0 0.400565 0.219486
0 0.408835 0.204562
0.00106813 0.403433 0.111604
0.0557259 0.396841 0.00283818
0.207828 0.418906 9.15541e-05
0.308919 0.442496 1.5259e-05
0.399496 0.463615 0
0.494774 0.481453 0
0.587182 0.494789 0
0.669978 0.502724 0
0.740429 0.506386 0
0.796368 0.506447 0
0.839948 0.504952 0
0.878279 0.502831 0
0.911025 0.500984 0.000640879
0.938308 0.499687 0.00201419
0.961273 0.498497 0.00549325
0.978256 0.498512 0.0185092
0.990097 0.498817 0.0391546
0.996109 0.499901 0.0784619
0.998154 0.50161 0.131838
0.999191 0.504036 0.196612
0.999771 0.507576 0.266285
0.999985 0.51165 0.333822
1 0.51664 0.397436
1 0.52285 0.457069
1 0.530007 0.513085
0 0.427176 0.245197
0 0.429191 0.246586
0 0.430655 0.247745
0 0.43267 0.249668
0 0.436057 0.252399
0 0.441428 0.256336
0 0.449546 0.260151
0 0.460334 0.255268
0 0.46685 0.199802
0.0158694 0.45301 0.0316167
0.186465 0.469947 0.00102235
0.332723 0.494041 0
0.419776 0.515572 0
0.500801 0.533791 0
0.582788 0.548394 0
0.659434 0.558923 0
0.727092 0.564935 0
0.784665 0.566506 0
0.833219 0.564584 0
0.875929 0.561654 0.000137331
0.912154 0.558526 0.000335698
0.942962 0.555337 0.000213626
0.965515 0.55407 0.00660716
0.982559 0.552789 0.0147402
0.992584 0.552926 0.039353
0.997696 0.553155 0.0709392
0.998932 0.554604 0.12488
0.999573 0.556481 0.184695
0.999939 0.559289 0.253681
1 0.562631 0.319844
1 0.566598 0.383383
1 0.57229 0.439704
1 0.578622 0.494194
0 0.465187 0.271733
0 0.466773 0.272847
0 0.468208 0.274083
0 0.47013 0.276081
0 0.473564 0.279942
0 0.479072 0.285985
0 0.487846 0.294499
0 0.500847 0.300923
0 0.516213 0.280201
0.00263981 0.511208 0.122621
0.13637 0.514778 0.0043183
0.339483 0.539345 6.10361e-05
0.450721 0.560693 0
0.52108 0.577737 0
0.589075 0.591669 0
0.656428 0.602152 0
0.718929 0.609186 0
0.7729 0.612924 0
0.821378 0.613458 1.5259e-05
0.866575 0.611185 1.5259e-05
0.907637 0.607385 1.5259e-05
0.942 0.603693 0.00337224
0.967346 0.601007 0.00888075
0.984787 0.599069 0.0190585
0.993927 0.598962 0.043061
0.998169 0.598795 0.0733196
0.999207 0.599817 0.123262
0.999664 0.601572 0.181125
0.999954 0.603983 0.248371
1 0.606912 0.312871
1 0.611017 0.375967
1 0.616434 0.432166
1 0.622141 0.484199
0 0.49752 0.298207
0 0.498741 0.299275
0 0.500023 0.300587
0 0.501717 0.302678
0 0.504814 0.306813
0 0.509972 0.314
0 0.518532 0.325124
0 0.532372 0.339376
0 0.551278 0.342214
4.57771e-05 0.56286 0.252323
0.0543832 0.553277 0.038117
0.308019 0.576013 0.00273136
0.46714 0.597101 6.10361e-05
0.546258 0.612421 0
0.604334 0.624582 0
0.660166 0.634256 0
0.715282 0.641718 0.000106813
0.764569 0.646448 4.57771e-05
0.81059 0.648798 0
0.854688 0.648783 0
0.896178 0.64712 0.00177005
0.935119 0.644297 0.00497444
0.965713 0.640558 0.0084535
0.984421 0.638804 0.0257877
0.994781 0.637552 0.0440528
0.998413 0.637736 0.0795911
0.999359 0.638804 0.123552
0.99971 0.640772 0.183261
0.999985 0.643122 0.250797
1 0.646082 0.314015
1 0.650507 0.375036
1 0.656184 0.431128
1 0.661875 0.482368
0 0.525567 0.324865
0 0.526696 0.32607
0 0.527626 0.327153
0 0.529076 0.329122
0 0.53164 0.332769
0 0.536004 0.339193
0 0.543877 0.350835
0 0.557397 0.369924
0 0.578485 0.391959
0 0.601816 0.366079
0.012192 0.596216 0.165225
0.228717 0.603815 0.0141146
0.450248 0.625376 0.00192264
0.561547 0.640528 0.0012665
0.620768 0.651743 0.00105287
0.667369 0.660822 0.000640879
0.713405 0.668055 0.000244144
0.758312 0.67306 6.10361e-05
0.801404 0.676768 0.000762951
0.842924 0.679026 0.00173953
0.883925 0.679179 0.00262455
0.924849 0.677516 0.00430304
0.958083 0.674998 0.0155642
0.981414 0.672419 0.0292515
0.994095 0.67068 0.0502174
0.998306 0.670573 0.089128
0.999313 0.671534 0.132174
0.99971 0.674098 0.194583
0.999985 0.677028 0.258915
1 0.680613 0.320943
1 0.685542 0.379187
1 0.691615 0.435096
1 0.697719 0.484764
0 0.5514 0.353765
0 0.552499 0.355306
0 0.553338 0.356481
0 0.554696 0.358434
0 0.556695 0.361456
0 0.560235 0.366796
0 0.566766 0.376883
0 0.578454 0.3953
0 0.598856 0.425193
0 0.62771 0.444846
9.15541e-05 0.639796 0.336522
0.101213 0.633356 0.100481
0.386358 0.650355 0.0176242
0.551492 0.665492 0.00440986
0.63209 0.675853 0.00183108
0.678492 0.684382 0.0019379
0.715419 0.691508 0.00363165
0.753765 0.697246 0.00460822
0.792782 0.701839 0.00469978
0.831815 0.705165 0.00402838
0.870756 0.70721 0.00448615
0.91107 0.707927 0.0102388
0.947845 0.706142 0.0184329
0.976104 0.703838 0.0294347
0.99176 0.702556 0.061799
0.997971 0.701503 0.0986954
0.999084 0.702663 0.150576
0.99968 0.705409 0.212161
0.999985 0.709087 0.272587
1 0.713359 0.333165
1 0.718853 0.388022
1 0.725139 0.442435
1 0.731579 0.490852
0 0.57644 0.387457
0 0.577569 0.388983
0 0.5785 0.390234
0 0.579461 0.391638
0 0.580972 0.393896
0 0.583505 0.397833
0 0.588174 0.405142
0 0.597025 0.419577
0 0.614054 0.447349
0 0.644022 0.489281
0 0.673487 0.468971
0.0205539 0.670329 0.273671
0.26247 0.674876 0.0797894
0.502953 0.689723 0.026276
0.625025 0.700175 0.0131685
0.685893 0.707835 0.0110475
0.721965 0.714275 0.01149
0.752621 0.719997 0.0113527
0.785779 0.725353 0.0132143
0.82121 0.730159 0.0159762
0.856962 0.733837 0.0165408
0.895705 0.736202 0.0153964
0.934386 0.736629 0.0189059
0.966201 0.736171 0.0387427
0.988418 0.734768 0.0659648
0.997208 0.733349 0.109697
0.998795 0.734279 0.171847
0.999634 0.736904 0.233433
0.999985 0.741192 0.291417
1 0.746075 0.349187
1 0.751873 0.401297
1 0.758206 0.452567
1 0.764553 0.500221
0 0.60029 0.428061
0 0.601404 0.430014
0 0.602121 0.431327
0 0.602884 0.43267
0 0.603693 0.434104
0 0.604974 0.436301
0 0.607675 0.440696
0 0.613291 0.449516
0 0.624979 0.467964
0 0.648692 0.504234
0 0.688731 0.546181
6.10361e-05 0.70486 0.453666
0.103075 0.699672 0.234928
0.396567 0.708156 0.0828717
0.585931 0.71986 0.0388342
0.677119 0.728283 0.0310674
0.725567 0.735164 0.0330358
0.756313 0.741131 0.0357824
0.783597 0.7467 0.0371405
0.812696 0.75172 0.0363012
0.845151 0.755917 0.0327001
0.881193 0.759869 0.0362707
0.917769 0.76231 0.0412757
0.951736 0.7635 0.0505837
0.977981 0.763943 0.0754406
0.993072 0.764294 0.12752
0.997711 0.765133 0.187137
0.99939 0.768246 0.250172
0.999985 0.772854 0.311681
1 0.778408 0.366186
1 0.784451 0.416617
1 0.790494 0.464347
1 0.796567 0.510582
0 0.623575 0.471962
0 0.624582 0.474037
0 0.625238 0.475364
0 0.625879 0.476768
0 0.626352 0.477745
0 0.626795 0.478813
0 0.627512 0.480354
0 0.630076 0.484611
0 0.63679 0.494835
0 0.652338 0.517983
0 0.685985 0.564691
0 0.727886 0.571588
0.00842298 0.731792 0.430991
0.220859 0.730816 0.23064
0.495399 0.739406 0.11162
0.644785 0.748257 0.0708476
0.71754 0.755337 0.0618143
0.757519 0.761807 0.0648966
0.784848 0.767941 0.0710155
0.808118 0.773648 0.0759899
0.834882 0.778759 0.0776532
0.867826 0.783185 0.0744335
0.90277 0.786557 0.070161
0.935988 0.789273 0.0830396
0.964706 0.791196 0.109422
0.98674 0.792401 0.148348
0.994888 0.793713 0.205737
0.998535 0.796613 0.270054
0.999924 0.800885 0.333089
1 0.806317 0.385504
1 0.8121 0.43653
1 0.817716 0.479698
1 0.823316 0.522789
0 0.644526 0.515541
0 0.645319 0.517464
0 0.645945 0.51899
0 0.646448 0.520241
0 0.646922 0.521447
0 0.647379 0.522637
0 0.647807 0.523766
0 0.64828 0.525063
0 0.650355 0.528572
0 0.658503 0.539971
0 0.679698 0.56878
0 0.728145 0.623346
9.15541e-05 0.758175 0.577523
0.0594797 0.75816 0.419089
0.334966 0.760784 0.251408
0.571405 0.768673 0.1561
0.689021 0.776364 0.123461
0.749065 0.783078 0.118502
0.784527 0.789349 0.122545
0.807828 0.795239 0.128084
0.829648 0.800763 0.132113
0.857527 0.805798 0.133837
0.888731 0.810101 0.136477
0.920165 0.813443 0.142718
0.949569 0.815976 0.155978
0.976226 0.818219 0.187015
0.989609 0.819928 0.237827
0.996582 0.822385 0.297139
0.999527 0.826352 0.351995
1 0.831434 0.406836
1 0.836744 0.454765
1 0.842054 0.497581
1 0.846937 0.535973
0 0.66305 0.560067
0 0.663905 0.562112
0 0.664469 0.56347
0 0.664942 0.564584
0 0.6654 0.565713
0 0.665797 0.56672
0 0.666178 0.567742
0 0.66656 0.56875
0 0.667033 0.570108
0 0.668711 0.572854
0 0.678645 0.585428
0 0.707927 0.618769
0 0.767269 0.662699
0.00564584 0.78378 0.577356
0.145907 0.785183 0.434165
0.431006 0.789868 0.294621
0.628229 0.797604 0.211505
0.724468 0.804501 0.186282
0.77615 0.811276 0.188144
0.807446 0.817243 0.198779
0.829511 0.822812 0.209445
0.851652 0.827909 0.215595
0.877745 0.832288 0.217258
0.906508 0.835966 0.220111
0.934508 0.839017 0.23032
0.962661 0.84184 0.249897
0.981598 0.844114 0.284276
0.992645 0.846998 0.324178
0.998154 0.850645 0.373419
0.999969 0.855314 0.426352
0.999985 0.860426 0.472877
1 0.865751 0.517159
1 0.869856 0.551141
0 0.680354 0.602518
0 0.681102 0.604349
0 0.681636 0.605692
0 0.68217 0.607019
0 0.682582 0.608087
0 0.682933 0.608972
0 0.683314 0.61001
0 0.683696 0.611032
0 0.684077 0.612222
0 0.684565 0.613611
0 0.686198 0.616297
0 0.698894 0.630961
0 0.742275 0.670329
0 0.795895 0.679576
0.0400397 0.806745 0.585
0.247776 0.810468 0.467948
0.499657 0.816388 0.359564
0.659983 0.823362 0.295003
0.748272 0.830137 0.274189
0.797757 0.836408 0.276967
0.82887 0.842176 0.286976
0.851591 0.847425 0.29659
0.873274 0.852125 0.303441
0.896788 0.856168 0.308888
0.921462 0.85951 0.316915
0.948821 0.862226 0.324819
0.970748 0.864652 0.340673
0.985809 0.86717 0.368002
0.995163 0.870237 0.404959
0.999451 0.873976 0.445624
0.999847 0.878752 0.491554
1 0.883146 0.53225
1 0.887221 0.567697
0 0.696056 0.642786
0 0.696757 0.644694
0 0.697246 0.646006
0 0.697673 0.647242
0 0.698039 0.648264
0 0.698344 0.649104
0 0.698711 0.650126
0 0.699031 0.651118
0 0.699351 0.652094
0 0.699733 0.653254
0 0.700084 0.654414
0 0.701869 0.657206
0 0.719036 0.673976
0 0.781735 0.715923
0.00411994 0.820005 0.690318
0.107652 0.829587 0.605478
0.339483 0.835172 0.512444
0.551949 0.841749 0.428412
0.690654 0.84828 0.375677
0.7729 0.854398 0.358007
0.820249 0.860227 0.361944
0.850538 0.865675 0.372915
0.872526 0.870451 0.381399
0.891371 0.874556 0.388083
0.911864 0.877897 0.392264
0.936843 0.880537 0.396872
0.95906 0.882856 0.406424
0.976852 0.884978 0.420951
0.989792 0.88751 0.44358
0.997574 0.890913 0.475364
0.999374 0.89485 0.512657
0.999939 0.898695 0.549157
1 0.902739 0.585367
0 0.709895 0.681025
0 0.71043 0.682597
0 0.710887 0.683955
0 0.711208 0.684916
0 0.711528 0.685878
0 0.711833 0.686824
0 0.712062 0.687541
0 0.712306 0.688411
0 0.712566 0.689265
0 0.71281 0.690105
0 0.713085 0.691112
0 0.713405 0.692271
0 0.715373 0.69482
0 0.739528 0.713588
0 0.814191 0.7476
0.0250553 0.842206 0.705104
0.189059 0.851667 0.637003
0.416892 0.858671 0.565301
0.598779 0.865278 0.494499
0.722576 0.871046 0.44828
0.797742 0.876554 0.433173
0.843 0.882078 0.437186
0.871717 0.887114 0.446693
0.889281 0.891051 0.456748
0.906172 0.894316 0.463386
0.927657 0.896819 0.465904
0.948196 0.898939 0.469474
0.96669 0.900984 0.477165
0.982498 0.903349 0.491569
0.994095 0.906004 0.510521
0.998077 0.909102 0.53782
0.999619 0.912749 0.570565
0.999985 0.916304 0.601236
0 0.720775 0.714412
0 0.721233 0.715755
0 0.721599 0.716915
0 0.721889 0.717754
0 0.722148 0.718563
0 0.722408 0.719387
0 0.722637 0.720043
0 0.722866 0.720836
0 0.723079 0.721477
