LUT预设1/柯达5219&2393/柯达5219&2393尼康专用/Nlog/柯达2393-Nlog.cube
TITLE "Generated by Resolve"
LUT_3D_SIZE 9
0.00444038 0.0312505 0.0263523
0.0140841 0.0323033 0.026215
0.110536 0.0385901 0.00221256
0.339178 0.0325322 0
0.528908 0.0286412 0
0.658091 0.0209049 0
0.774762 0 0
0.84007 0 0.112016
0.89012 0 0.337392
0.00077821 0.0383154 0.0275425
0.0062562 0.0396429 0.0280156
0.115068 0.0446174 0.00239567
0.365057 0.0424048 0
0.557458 0.0444495 0
0.68571 0.0352331 0
0.804868 0 0
0.866758 0 0.133867
0.916838 0 0.377997
0 0.0900587 0.0348821
0 0.0946517 0.0336004
0.124422 0.111589 0.000503548
0.479026 0.137972 0
0.697169 0.149004 0
0.816693 0.137011 0
0.929335 0.0634165 0.00175479
0.971054 0.0692607 0.212024
0.9841 0.129305 0.468376
0 0.231327 0.076463
0 0.244617 0.0795605
0.0139773 0.278386 0.00030518
0.510033 0.353552 0
0.760159 0.38938 0
0.886519 0.402686 0
0.984482 0.392355 0
1 0.398108 0.129015
1 0.435889 0.411536
0 0.409247 0.175235
0 0.420157 0.180392
0 0.482521 0.139605
0.493736 0.565606 0
0.797787 0.605432 0
0.924041 0.611643 0
0.999359 0.604685 0
1 0.602029 0.0728313
1 0.623835 0.348196
0 0.530312 0.282139
0 0.533715 0.287312
0 0.556848 0.302998
0.3131 0.666209 0.000595102
0.777432 0.715465 0
0.933776 0.728191 0
0.999954 0.733547 0.00030518
1 0.740307 0.115175
1 0.766674 0.371939
0 0.624643 0.461646
0 0.627161 0.468223
0 0.629343 0.474449
0 0.705928 0.4542
0.63592 0.79292 0.0881361
0.886381 0.822507 0.0674296
0.99498 0.837003 0.141665
1 0.851179 0.285084
1 0.873045 0.456016
0 0.690272 0.64947
0 0.69218 0.655818
0 0.693553 0.660395
0 0.69482 0.664714
0.0198978 0.82295 0.53782
0.771893 0.887633 0.433173
0.952499 0.907134 0.448676
0.999786 0.917311 0.498558
1 0.930724 0.581247
0 0.729793 0.776867
0 0.731182 0.780438
0 0.732403 0.783032
0 0.733288 0.785382
0 0.734035 0.787701
0.389334 0.904692 0.693584
0.87306 0.946838 0.675151
0.98526 0.95555 0.687892
1 0.963302 0.720958
0.00158694 0.0342565 0.0351873
0.0117494 0.0346075 0.0345006
0.113863 0.0392615 0.00737011
0.347082 0.0230106 0
0.539956 0.0108034 0
0.674586 0.000732433 0
0.781231 0 0.00497444
0.844373 0 0.138643
0.894209 0 0.352987
3.0518e-05 0.0414893 0.0369116
0.00294499 0.0426947 0.0370642
0.118395 0.0462806 0.00924697
0.375494 0.0336767 0
0.571359 0.0233158 0
0.708766 0.00482185 0
0.813581 0 0.0107881
0.873365 0 0.168429
0.922316 0 0.398749
0 0.0946517 0.0486
0 0.100435 0.0485695
0.129854 0.117113 0.00694286
0.487373 0.136004 0
0.708598 0.136339 0
0.835004 0.114321 0
0.935363 0.0648356 0.0278172
0.970336 0.081117 0.249973
0.985153 0.140948 0.485328
0 0.245029 0.0951247
0 0.260548 0.102098
0.0145724 0.289296 0.00749218
0.515312 0.357565 0
0.768841 0.387335 0
0.901015 0.399283 0
0.989319 0.395361 0.00814832
1 0.405676 0.173022
1 0.441917 0.43006
0 0.423438 0.198886
0 0.435309 0.206546
0 0.499474 0.172793
0.491585 0.568689 0
0.799146 0.603861 0
0.93048 0.610849 0
0.999756 0.606775 0.0011902
1 0.606775 0.105333
1 0.627863 0.368322
0 0.541344 0.31075
0 0.545205 0.317281
0 0.570474 0.339025
0.30544 0.67306 0.0106661
0.771328 0.718044 0
0.933867 0.73164 0.00241093
0.999832 0.736996 0.0109712
1 0.744991 0.160052
1 0.770428 0.39173
0 0.631357 0.484276
0 0.634302 0.492195
0 0.636744 0.499184
0 0.715496 0.478843
0.63122 0.797665 0.129152
0.882124 0.827008 0.110506
0.993576 0.840986 0.188373
1 0.854627 0.31519
1 0.875517 0.470726
0 0.693248 0.660334
0 0.694957 0.665766
0 0.696239 0.669978
0 0.697551 0.674464
0.0205997 0.826795 0.55172
0.771069 0.890517 0.452659
0.950774 0.909697 0.467506
0.999756 0.919326 0.512627
1 0.932235 0.59057
0 0.730419 0.77995
0 0.732113 0.783764
0 0.733364 0.786572
0 0.734234 0.7888
0 0.734936 0.790921
0.397665 0.906371 0.699138
0.874083 0.947799 0.681682
0.985107 0.956542 0.694224
1 0.963928 0.725811
0 0.0495308 0.11487
0 0.0486 0.115755
0.119432 0.043595 0.098497
0.37116 0.00781262 0.0616312
0.574517 0 0.0540017
0.706523 0 0.0750134
0.805341 0 0.141131
0.868727 0 0.260929
0.916533 0 0.434424
0 0.0609293 0.123003
0 0.0610208 0.12639
0.130388 0.0570535 0.110948
0.406989 0.0218967 0.0762798
0.620996 0 0.0805982
0.752743 0 0.10898
0.84651 0 0.182773
0.905028 0 0.310689
0.948531 0 0.490806
0 0.138491 0.165484
0 0.145449 0.174365
0.123247 0.146807 0.147814
0.509972 0.153277 0.107332
0.731197 0.136431 0.103243
0.855512 0.120195 0.147463
0.935851 0.106447 0.243565
0.972259 0.12639 0.385504
0.988083 0.179278 0.550652
0 0.313527 0.235782
0 0.335195 0.253681
0.000640879 0.343862 0.177111
0.508507 0.378897 0.0661936
0.773602 0.397787 0.0620432
0.907164 0.412116 0.0970626
0.983764 0.416358 0.17969
0.999969 0.427314 0.331243
1 0.457572 0.497551
0 0.478996 0.332326
0 0.493172 0.348501
0 0.561303 0.344289
0.459358 0.590143 0.0865644
0.780758 0.613642 0.044831
0.923308 0.623163 0.0701152
0.998428 0.620737 0.129503
1 0.620615 0.276448
1 0.638193 0.444633
0 0.581659 0.441779
0 0.58706 0.453101
0 0.622156 0.487831
0.241398 0.70071 0.210285
0.740658 0.735348 0.123476
0.910536 0.74699 0.115557
0.996674 0.751354 0.185977
1 0.75964 0.309422
1 0.780316 0.461585
0 0.658244 0.576532
0 0.661357 0.585443
0 0.663691 0.592371
0 0.746227 0.574823
0.607904 0.814847 0.300542
0.862425 0.842313 0.297368
0.983444 0.854795 0.332433
1 0.865843 0.41004
1 0.882216 0.524407
0 0.703105 0.696239
0 0.704952 0.702296
0 0.706218 0.706569
0 0.707073 0.710216
0.019913 0.839155 0.605997
0.762402 0.899016 0.51902
0.942992 0.916426 0.525231
0.999359 0.925048 0.55938
1 0.93608 0.62063
0 0.732128 0.790478
0 0.733974 0.794354
0 0.735119 0.796963
0 0.736019 0.799115
0 0.736706 0.80119
0.409598 0.910628 0.718761
0.872999 0.950484 0.702541
0.983398 0.95906 0.712657
1 0.965484 0.740307
0 0.172503 0.383566
0 0.140841 0.378683
0.152331 0.0618143 0.365194
0.452323 0.027863 0.365057
0.663905 7.62951e-05 0.385092
0.7897 0 0.409659
0.883711 0 0.449653
0.939422 0 0.515038
0.97406 0.000274662 0.61088
0 0.202228 0.411963
0 0.174258 0.411749
0.166613 0.0941634 0.397696
0.490791 0.0679789 0.399222
0.696681 0.0221256 0.419455
0.824018 0.00799573 0.452445
0.919478 0 0.499367
0.966476 0.000289921 0.563867
0.985656 0.0209049 0.646143
0 0.297017 0.47013
0 0.295583 0.478828
0.109972 0.211872 0.445029
0.526619 0.213245 0.438346
0.74197 0.206271 0.450202
0.862501 0.200748 0.476921
0.940963 0.199802 0.510872
0.977646 0.217227 0.574426
0.994842 0.254444 0.653422
0 0.446036 0.525689
0 0.465019 0.543969
0.00238041 0.441764 0.495445
0.493843 0.44477 0.438025
0.750439 0.459068 0.435218
0.885679 0.470817 0.450019
0.968429 0.46865 0.479362
0.99971 0.467872 0.529488
1 0.489387 0.601068
0 0.568902 0.581155
0 0.585107 0.599664
0 0.646448 0.60351
0.417136 0.642069 0.456077
0.741711 0.65626 0.42591
0.886412 0.661875 0.426291
0.977264 0.656321 0.445243
1 0.64622 0.486442
1 0.657938 0.560433
0 0.64332 0.642252
0 0.649195 0.651759
0 0.692668 0.686992
0.205264 0.746639 0.508995
0.699382 0.769787 0.44979
0.870573 0.777813 0.444846
0.97705 0.780789 0.458961
1 0.784497 0.500908
1 0.796887 0.570504
0 0.694789 0.704051
0 0.696361 0.709087
0 0.697337 0.712459
0 0.791455 0.700298
0.580758 0.84303 0.514961
0.834684 0.866117 0.508049
0.961807 0.875196 0.514733
0.999924 0.882216 0.545769
1 0.89189 0.605966
0 0.715908 0.754635
0 0.716976 0.758358
0 0.717708 0.761044
0 0.718318 0.763348
0.0479591 0.859815 0.691539
0.747723 0.912734 0.621973
0.930922 0.9281 0.619959
0.997482 0.934554 0.635416
1 0.942809 0.674327
0 0.735515 0.812055
0 0.737255 0.815167
0 0.738323 0.817273
0 0.739132 0.818952
0 0.739788 0.8206
0.426154 0.918212 0.758251
0.869993 0.955276 0.741176
0.979248 0.963928 0.747982
0.999924 0.968963 0.769955
0.000457771 0.262913 0.6159
0.00218204 0.218799 0.618723
0.239628 0.165194 0.624796
0.546365 0.151247 0.630137
0.730938 0.133654 0.64123
0.850309 0.114748 0.660609
0.932967 0.100191 0.679423
0.971145 0.120241 0.701717
0.988556 0.166018 0.73753
4.57771e-05 0.287098 0.628733
0.00254826 0.245624 0.633921
0.241703 0.19588 0.639582
0.562219 0.186358 0.64358
0.744503 0.176684 0.65507
0.859205 0.167147 0.671092
0.937484 0.164187 0.687419
0.974456 0.182956 0.711208
0.991333 0.223636 0.746853
0 0.396658 0.662043
0 0.376028 0.665431
0.163821 0.313512 0.660319
0.556497 0.31545 0.658091
0.752941 0.31603 0.664408
0.871 0.319036 0.675898
0.949645 0.31986 0.68893
0.98761 0.336019 0.710674
0.999832 0.361975 0.738216
0 0.549615 0.71017
0 0.55964 0.718639
0.0157015 0.522316 0.694697
0.506752 0.519829 0.662409
0.74023 0.530892 0.656062
0.874739 0.537285 0.659007
0.959319 0.530327 0.660624
0.998428 0.523156 0.668498
1 0.53698 0.694743
0 0.643397 0.745922
0 0.665492 0.760647
0 0.697887 0.750195
0.432914 0.685191 0.668467
0.718288 0.693919 0.646235
0.86595 0.697612 0.640909
0.96022 0.690318 0.634684
1 0.679011 0.640345
1 0.6869 0.67039
0 0.682155 0.76492
0 0.691264 0.773846
0 0.756069 0.801572
0.258656 0.779324 0.68838
0.679301 0.797513 0.647288
0.851331 0.806165 0.639399
0.957855 0.80798 0.636179
0.999939 0.809552 0.646815
1 0.816663 0.674754
0 0.710719 0.785183
0 0.711696 0.787564
0 0.713939 0.790372
0 0.829282 0.785611
0.577005 0.866392 0.670985
0.816449 0.886275 0.660624
0.947066 0.892943 0.657481
0.999146 0.897383 0.665324
1 0.904021 0.69279
0 0.72607 0.80383
0 0.72665 0.805768
0 0.727016 0.807111
0 0.727306 0.808225
0.084062 0.882673 0.767605
0.739651 0.926574 0.718441
0.920241 0.939834 0.711818
0.993591 0.94548 0.717433
1 0.951644 0.741405
0 0.740001 0.836789
0 0.741466 0.83949
0 0.742443 0.841337
0 0.743145 0.842817
0 0.743633 0.844038
0.457679 0.929091 0.811749
0.866117 0.962448 0.794675
0.973861 0.970352 0.799496
0.999603 0.974578 0.813092
0.0731975 0.363104 0.785397
0.132189 0.359319 0.785672
0.359228 0.351385 0.784115
0.603433 0.349401 0.783108
0.761593 0.350103 0.786603
0.867628 0.352239 0.792828
0.944778 0.349493 0.797269
0.984039 0.360769 0.805295
0.999695 0.382345 0.814969
0.0638895 0.386847 0.791577
0.124422 0.384573 0.792935
0.367071 0.379446 0.790829
0.610681 0.380194 0.790295
0.767193 0.384009 0.79353
0.87422 0.387488 0.799207
0.950469 0.383917 0.803006
0.987137 0.393286 0.809735
0.999847 0.413031 0.817975
0.0169985 0.475074 0.804456
0.0589303 0.47245 0.805631
0.319371 0.465675 0.798291
0.59733 0.472404 0.793133
0.763134 0.479347 0.795651
0.875044 0.482551 0.797238
0.953536 0.476463 0.796506
0.992279 0.475273 0.799649
1 0.487938 0.806745
7.62951e-05 0.61883 0.824674
0.000396735 0.616464 0.828946
0.204273 0.604578 0.8121
0.560388 0.612879 0.793469
0.744335 0.619455 0.788205
0.866361 0.618845 0.784039
0.951858 0.60827 0.777768
0.996094 0.598779 0.776852
1 0.605035 0.785977
0 0.728161 0.850477
0 0.732326 0.852827
0.0717937 0.723003 0.830671
0.504952 0.725521 0.794034
0.718822 0.733227 0.78201
0.856016 0.733989 0.774151
0.948852 0.727474 0.766079
0.997635 0.719463 0.765621
1 0.726574 0.777356
0 0.750149 0.857969
0 0.766751 0.86482
0 0.803418 0.863981
0.378439 0.809781 0.800519
0.682353 0.823484 0.778866
0.841321 0.832074 0.772686
0.9458 0.833036 0.764965
0.996887 0.832456 0.766094
1 0.841062 0.778866
0 0.721233 0.836591
0 0.723323 0.839109
0 0.751537 0.859449
0.0319219 0.861875 0.845808
0.598413 0.888945 0.792493
0.808835 0.904433 0.780606
0.934554 0.910384 0.777081
0.994217 0.913497 0.775021
1 0.917906 0.788373
0 0.732891 0.843198
0 0.733349 0.844892
0 0.733639 0.846036
0 0.737911 0.85008
0.253941 0.907195 0.843687
0.740459 0.941497 0.816266
0.911437 0.952605 0.807401
0.984466 0.956939 0.808148
0.999908 0.961822 0.821469
0 0.745998 0.865049
0 0.747494 0.867277
0 0.748501 0.868757
0 0.749218 0.869856
0 0.749783 0.870771
0.512642 0.943374 0.875486
0.863462 0.970611 0.860151
0.967391 0.977768 0.860334
0.998413 0.982177 0.86836
0.406561 0.594476 0.907591
0.429114 0.595239 0.907027
0.522408 0.595743 0.903441
0.650996 0.597055 0.898192
0.765728 0.598108 0.89543
0.863478 0.593194 0.89102
0.940536 0.58085 0.885008
0.987869 0.569268 0.880049
0.999939 0.571878 0.879545
0.408072 0.606165 0.909575
0.433692 0.609369 0.909926
0.530556 0.611521 0.906844
0.657298 0.614054 0.902251
0.769757 0.615381 0.899458
0.867613 0.610529 0.894453
0.943328 0.598215 0.889281
0.989929 0.588129 0.88423
0.999969 0.592004 0.884077
0.384909 0.641978 0.911055
0.415213 0.646555 0.911604
0.518288 0.65005 0.907912
0.649622 0.65362 0.903517
0.764874 0.654154 0.899886
0.866239 0.649348 0.89279
0.942702 0.637034 0.889296
0.98938 0.627314 0.883192
0.999985 0.631083 0.883253
0.314504 0.704189 0.914076
0.358511 0.707729 0.914
0.482628 0.711482 0.908705
0.628824 0.715908 0.901396
0.751995 0.717784 0.897276
0.859815 0.713817 0.891646
0.941283 0.703502 0.884504
0.988922 0.696345 0.879683
0.999985 0.700465 0.880827
0.197528 0.767422 0.919463
0.252979 0.770962 0.918669
0.415122 0.774853 0.910567
0.59939 0.781003 0.901198
0.736522 0.785367 0.894362
0.852079 0.78526 0.88864
0.938842 0.779812 0.881346
0.988922 0.777173 0.880262
1 0.783291 0.882734
0.0263218 0.826978 0.931716
0.0473335 0.830167 0.930907
0.252506 0.835355 0.917296
0.537301 0.84625 0.901762
0.708156 0.855283 0.893263
0.838819 0.861738 0.887831
0.934585 0.862745 0.881209
0.98587 0.862486 0.879057
0.999985 0.868559 0.881743
0 0.822492 0.927504
0 0.836362 0.934615
0 0.874281 0.947021
0.358373 0.896269 0.915022
0.649805 0.913268 0.89897
0.811643 0.925002 0.890425
0.924163 0.928969 0.886854
0.982208 0.929808 0.883925
0.99971 0.933639 0.886152
0 0.740322 0.881056
0 0.740841 0.882277
0 0.74139 0.883162
0 0.865965 0.951598
0.468452 0.935332 0.920806
0.757382 0.956039 0.906569
0.905653 0.964752 0.900832
0.974655 0.968933 0.897414
0.997818 0.972152 0.90222
0 0.752499 0.894118
0 0.753658 0.895674
0 0.754421 0.896696
0 0.754955 0.897444
0 0.760967 0.902022
0.589487 0.959838 0.937331
0.866407 0.97995 0.925994
0.960403 0.986023 0.921523
0.99324 0.988418 0.925124
0.633707 0.762585 0.972152
0.64033 0.763088 0.972
0.664118 0.762585 0.970611
0.715984 0.762005 0.968139
0.787259 0.760723 0.96524
0.862394 0.757412 0.960235
0.931655 0.74905 0.954833
0.978195 0.741115 0.950271
0.999283 0.743542 0.948669
0.63743 0.767834 0.97319
0.644602 0.769512 0.973617
0.67039 0.770306 0.972686
0.722942 0.770672 0.970611
0.794263 0.770062 0.968017
0.868727 0.767575 0.962997
0.936049 0.760632 0.958618
0.97995 0.754803 0.954528
0.999542 0.759136 0.953094
0.633265 0.779568 0.973342
0.642191 0.782162 0.973999
0.669505 0.78378 0.973358
0.723491 0.785107 0.971588
0.795743 0.785489 0.969055
0.870939 0.784024 0.963882
0.938323 0.778622 0.960388
0.980667 0.774395 0.956695
0.999741 0.778485 0.956008
0.620172 0.804196 0.972961
0.631449 0.807614 0.973938
0.660914 0.81004 0.973419
0.717891 0.812711 0.971496
0.792615 0.81442 0.968673
0.869902 0.814588 0.963928
0.939116 0.810864 0.960601
0.980865 0.808911 0.957168
0.999817 0.81294 0.957565
0.591714 0.840589 0.972595
0.606012 0.843687 0.973465
0.641779 0.84686 0.972717
0.704494 0.850797 0.970428
0.783856 0.854078 0.967498
0.865385 0.856168 0.963439
0.937804 0.854353 0.959381
0.980636 0.85536 0.955871
0.9991 0.861143 0.9561
0.538247 0.879652 0.971878
0.554726 0.883421 0.972808
0.604623 0.887907 0.971756
0.677623 0.893263 0.969131
0.764279 0.898283 0.965576
0.854627 0.902144 0.96083
0.933196 0.90248 0.956863
0.977615 0.904341 0.956115
0.997131 0.908385 0.955047
0.396094 0.911788 0.978439
0.422919 0.915145 0.978958
0.503395 0.92079 0.97612
0.615412 0.929213 0.972351
0.725383 0.937484 0.966537
0.834669 0.944198 0.961807
0.922759 0.947768 0.956847
0.972946 0.949554 0.956741
0.996033 0.952483 0.954635
0 0.902358 0.9953
0.000808728 0.910979 0.998062
0.0392615 0.929671 0.998093
0.413108 0.943389 0.985794
0.639857 0.957717 0.976181
0.794781 0.969787 0.968551
0.90692 0.976165 0.962936
0.96582 0.980682 0.958663
0.993179 0.98146 0.960479
0 0.757549 0.912032
0 0.758694 0.913497
0 0.759365 0.914412
0 0.76173 0.916136
0.121324 0.94461 0.998825
0.687892 0.974258 0.980117
0.874113 0.987457 0.971023
0.955795 0.992233 0.966461
0.989151 0.99379 0.966537
0.777111 0.878752 0.998199
0.77995 0.879271 0.998199
0.789914 0.879072 0.997986
0.81062 0.878477 0.99707
0.845212 0.877928 0.995865
0.889876 0.877607 0.994766
0.939025 0.875013 0.992294
0.973632 0.875151 0.99089
0.994339 0.877913 0.988907
0.780255 0.882078 0.998276
0.784482 0.883406 0.998322
0.794385 0.883787 0.998062
0.815991 0.883803 0.99736
0.850858 0.883772 0.996536
0.893736 0.884489 0.995407
0.94139 0.882765 0.993133
0.97499 0.883604 0.991989
0.995178 0.886168 0.989593
0.779141 0.886854 0.998154
0.784131 0.888853 0.998215
0.794812 0.889708 0.998032
0.817243 0.890105 0.997513
0.852537 0.890471 0.996704
0.895232 0.891615 0.995743
0.942229 0.890547 0.993698
0.976043 0.892134 0.992096
0.995163 0.894789 0.990356
0.774151 0.896819 0.997757
0.780011 0.899229 0.997848
0.791531 0.900633 0.997772
0.814618 0.901411 0.997497
0.851011 0.902144 0.996521
0.894896 0.903685 0.995789
0.941985 0.90309 0.993622
0.976593 0.905608 0.991592
0.994354 0.908415 0.990738
0.764309 0.912825 0.997223
0.770733 0.914641 0.997375
0.784543 0.91603 0.99736
0.808789 0.916915 0.99736
0.846876 0.917784 0.996201
0.892683 0.919585 0.995575
0.940459 0.920073 0.992966
0.976562 0.922972 0.990478
0.993088 0.92607 0.990021
0.747341 0.9299 0.996735
0.754314 0.932052 0.997055
0.77052 0.934005 0.997086
0.79794 0.935363 0.997101
0.838926 0.936614 0.996063
0.887724 0.938643 0.994675
0.937224 0.940978 0.991974
0.975113 0.942779 0.988556
0.991836 0.945586 0.987076
0.711498 0.950927 0.997528
0.719615 0.952514 0.997925
0.73817 0.954391 0.99794
0.77377 0.957031 0.997452
0.819623 0.960037 0.995926
0.878065 0.963104 0.993423
0.93315 0.965057 0.990921
0.971298 0.967926 0.988983
0.990967 0.969665 0.987076
0.634363 0.963516 0.999069
0.64419 0.96492 0.999176
0.668833 0.967041 0.99913
0.717296 0.970947 0.998749
0.781445 0.975662 0.997681
0.857618 0.980056 0.996323
0.923964 0.984085 0.991287
0.96585 0.98584 0.990036
0.987488 0.988373 0.988876
0.201236 0.951904 1
0.25803 0.953643 1
0.383108 0.958999 1
0.541772 0.968277 0.999985
0.67277 0.977646 0.999817
0.796277 0.986252 0.998764
0.897917 0.993194 0.995499
0.958587 0.995956 0.990173
0.983963 0.997696 0.992065
