LUT预设1/柯达5219&2393/柯达5219&2393尼康专用/Nlog/柯达5219微调-Nlog.cube
TITLE "Generated by Resolve"
LUT_3D_SIZE 5
0.0213169 0.0276646 0.0486763
0.168688 0.0313268 0.0252232
0.786343 0.0148775 0.000228885
0.962249 0.00343328 0.000854505
0.961349 0.00344854 0.0196536
0.00723278 0.153948 0.101595
0.211109 0.144823 0.036286
0.961868 0.0599069 0.00102235
0.985443 0.304936 0.00260929
0.963623 0.0246433 0.272999
7.62951e-05 0.811994 0.298695
0 0.842374 0.508309
0.905653 0.757412 0.0383612
0.999939 0.865019 0.206439
0.993454 0.96022 0.666682
0 0.955993 0.77557
0 0.956222 0.783734
0.0591592 0.960082 0.905577
0.992798 0.978759 0.604044
0.991226 0.972229 0.754574
0 0.959808 0.959472
0 0.959838 0.960952
0 0.959869 0.961715
0.909285 0.975372 0.95494
0.982544 0.98764 0.869261
0.0104372 0.0447852 0.111818
0.141527 0.0337224 0.117372
0.724208 0.0174258 0.0102693
0.962005 0.00343328 0.00222782
0.959518 0.00340276 0.0621958
0.0039826 0.190082 0.181659
0.139116 0.159869 0.205005
0.905608 0.106783 0.0679942
0.972839 0.161257 0.0885176
0.963989 0.0361944 0.32575
1.5259e-05 0.81593 0.322438
0 0.822187 0.546487
0.84065 0.751186 0.236805
0.997238 0.896437 0.53167
0.992645 0.959915 0.696376
0 0.956222 0.784024
0 0.956466 0.793103
0.199832 0.967697 0.910842
0.989212 0.978805 0.671412
0.990616 0.968948 0.776196
0 0.959838 0.960769
0 0.959869 0.962295
0 0.959899 0.963043
0.914946 0.974838 0.955535
0.981079 0.987701 0.875181
0.00521859 0.346059 0.612222
0.0603342 0.252064 0.6589
0.643626 0.10927 0.408057
0.90985 0.141161 0.383505
0.971435 0.17966 0.456016
0.00437934 0.498375 0.678233
0.0751812 0.446433 0.665461
0.72079 0.277424 0.538491
0.969573 0.323201 0.516991
0.983764 0.383215 0.579431
0 0.889342 0.717983
0 0.847105 0.755596
0.703609 0.740383 0.737179
0.991608 0.844709 0.726055
0.990158 0.904112 0.788708
0 0.957626 0.840497
0 0.957778 0.847471
0.475944 0.969528 0.909865
0.966232 0.957397 0.81532
0.988632 0.956695 0.84921
0 0.95996 0.965972
0 0.959991 0.967407
0 0.960006 0.968078
0.928222 0.973495 0.956634
0.974289 0.98674 0.900008
0.39585 0.836088 0.910643
0.488396 0.820859 0.905669
0.793637 0.67631 0.918166
0.957794 0.682933 0.783352
0.988159 0.725628 0.798886
0.365225 0.852262 0.912917
0.508461 0.843824 0.906935
0.791409 0.737102 0.919448
0.958846 0.738323 0.811444
0.988052 0.76994 0.823499
0.035874 0.907134 0.929152
0.12224 0.900236 0.925872
0.755245 0.866926 0.899489
0.955428 0.851881 0.867292
0.986038 0.862135 0.873182
0 0.959762 0.957076
0 0.959686 0.954299
0.567407 0.968872 0.925414
0.940581 0.942946 0.913848
0.985931 0.954299 0.910155
0 0.96022 0.978531
0 0.960235 0.97969
0 0.96025 0.98024
0.935424 0.97261 0.957076
0.964584 0.97731 0.936736
0.877226 0.950515 0.95346
0.880796 0.949355 0.953262
0.90016 0.940993 0.953475
0.955154 0.9149 0.947478
0.969162 0.918929 0.930755
0.877913 0.952087 0.953857
0.883741 0.951385 0.95378
0.904448 0.944228 0.953902
0.956451 0.921035 0.948775
0.968475 0.924559 0.934554
0.864729 0.957855 0.954376
0.873518 0.957427 0.954269
0.903609 0.951751 0.95288
0.95227 0.934295 0.951919
0.9664 0.935866 0.940139
0.774762 0.977142 0.959091
0.799451 0.976486 0.958618
0.867872 0.969635 0.955612
0.943267 0.958114 0.953323
0.96434 0.956161 0.950515
0.266941 0.971649 0.974716
0.488365 0.979171 0.968338
0.815793 0.983505 0.960006
0.936019 0.972503 0.957305
0.958755 0.97023 0.956405
