LUT预设1/柯达5219&2393/柯达5219&2393尼康专用/Nlog/柯达2393冷调-Nlog.cube
TITLE "Generated by Resolve"
LUT_3D_SIZE 9
0.00799573 0.0541085 0.0473793
0.0136721 0.0543679 0.0464179
0.125856 0.0575418 0.0194858
0.410697 0.0430152 4.57771e-05
0.612894 0.0233616 0
0.739406 0.00758373 4.57771e-05
0.841764 1.5259e-05 0.0544442
0.900755 0 0.280949
0.944625 1.5259e-05 0.515923
0.00588998 0.0576333 0.0487526
0.0111696 0.0581369 0.0476997
0.134539 0.061677 0.0180056
0.431525 0.0485389 3.0518e-05
0.63035 0.0272221 0
0.756054 0.00834669 4.57771e-05
0.856916 0 0.0718547
0.913603 0 0.308858
0.955154 4.57771e-05 0.543084
0 0.113985 0.0721447
0 0.117678 0.0710307
0.0924544 0.131441 0.0186313
0.510964 0.146334 3.0518e-05
0.725261 0.146273 0
0.843961 0.125277 0.000167849
0.930816 0.0920882 0.10631
0.966796 0.111452 0.365789
0.985458 0.166217 0.593347
0 0.319615 0.172091
0 0.3299 0.178088
0.00920119 0.333989 0.0446021
0.399466 0.405188 0
0.754421 0.43534 0
0.90486 0.434775 0
0.984894 0.434058 0.0449836
0.999146 0.447074 0.285725
1 0.474723 0.536507
0 0.49752 0.298207
0 0.504814 0.306813
0 0.551278 0.342214
0.46714 0.597101 6.10361e-05
0.715282 0.641718 0.000106813
0.896178 0.64712 0.00177005
0.994781 0.637552 0.0440528
0.999985 0.643122 0.250797
1 0.661875 0.482368
0 0.60029 0.428061
0 0.603693 0.434104
0 0.624979 0.467964
0.103075 0.699672 0.234928
0.725567 0.735164 0.0330358
0.845151 0.755917 0.0327001
0.977981 0.763943 0.0754406
0.999985 0.772854 0.311681
1 0.796567 0.510582
0 0.680354 0.602518
0 0.682582 0.608087
0 0.684077 0.612222
0 0.742275 0.670329
0.499657 0.816388 0.359564
0.82887 0.842176 0.286976
0.921462 0.85951 0.316915
0.995163 0.870237 0.404959
1 0.887221 0.567697
0 0.729763 0.743511
0 0.7308 0.747158
0 0.731487 0.749615
0 0.732143 0.75227
0.00273136 0.859541 0.785229
0.669993 0.904189 0.615518
0.903365 0.920439 0.574014
0.96643 0.929625 0.592691
0.999405 0.938094 0.644816
0 0.756741 0.831968
0 0.75761 0.834302
0 0.758129 0.835706
0 0.758511 0.836988
0 0.758877 0.838346
0.226581 0.919478 0.858991
0.796948 0.953902 0.78262
0.956634 0.962814 0.753918
0.988342 0.968399 0.774701
0.00737011 0.0551461 0.0525673
0.0132296 0.0553445 0.0514687
0.127337 0.0584115 0.0246433
0.413321 0.0399786 0.000183108
0.617777 0.0147097 0
0.745312 0.00297551 0.000564584
0.843748 0 0.0765698
0.902449 0 0.294057
0.946014 1.5259e-05 0.522469
0.00547799 0.0588846 0.054139
0.0110781 0.0594339 0.0533913
0.137377 0.0631113 0.0239261
0.436118 0.0447089 0.000137331
0.637095 0.0170443 0.000228885
0.764019 0.00358587 0.00427253
0.859892 0 0.101061
0.916182 0 0.326345
0.957214 6.10361e-05 0.552117
0 0.117327 0.0783246
0 0.121447 0.0793317
0.0997787 0.1355 0.0257572
0.516487 0.148455 7.62951e-05
0.731106 0.14548 3.0518e-05
0.850568 0.123079 0.00689708
0.931823 0.100969 0.138674
0.967453 0.121248 0.382834
0.986007 0.175402 0.599817
0 0.32665 0.18294
0 0.337774 0.191089
0.00782788 0.344213 0.0631571
0.414725 0.409751 4.57771e-05
0.76321 0.434943 0
0.909102 0.436835 0.00418097
0.984237 0.439399 0.0728923
0.999084 0.451987 0.306508
1 0.479011 0.542916
0 0.50309 0.30811
0 0.511147 0.317998
0 0.563333 0.372152
0.474815 0.601221 0.00196841
0.718685 0.642603 0.000366217
0.89987 0.648325 0.00485237
0.99411 0.640955 0.0649577
0.999969 0.646571 0.271534
1 0.66482 0.491264
0 0.604959 0.440818
0 0.608728 0.448005
0 0.630243 0.481346
0.0905623 0.708232 0.28278
0.72636 0.738628 0.0514076
0.84445 0.75935 0.0557717
0.976791 0.766979 0.103243
0.999985 0.776226 0.33257
1 0.79939 0.519463
0 0.683207 0.611429
0 0.685618 0.617655
0 0.687297 0.622309
0 0.746181 0.676066
0.495277 0.820157 0.385382
0.829129 0.845182 0.308705
0.921157 0.862074 0.336126
0.994995 0.872343 0.417929
1 0.888808 0.574838
0 0.730571 0.746944
0 0.731716 0.750973
0 0.732403 0.753414
0 0.73312 0.756313
0.00296025 0.86125 0.78674
0.66923 0.905898 0.625513
0.904341 0.921721 0.58117
0.966598 0.930816 0.599771
0.999405 0.93904 0.649683
0 0.757122 0.83331
0 0.758022 0.835706
0 0.758541 0.837186
0 0.758953 0.838468
0 0.759289 0.839811
0.23621 0.920485 0.860517
0.797742 0.95465 0.78677
0.957061 0.963409 0.757305
0.988388 0.968948 0.777966
0.00106813 0.0721752 0.149966
0.00376898 0.0705577 0.148104
0.130159 0.0653086 0.133227
0.427619 0.0355688 0.105867
0.645548 0.000900282 0.120516
0.769131 1.5259e-05 0.164828
0.85922 0 0.257801
0.917998 0 0.406409
0.959655 4.57771e-05 0.577829
0.000595102 0.0790112 0.157794
0.00277714 0.0782177 0.160281
0.143984 0.0723278 0.147433
0.454948 0.043534 0.126665
0.668971 0.00207523 0.150439
0.789837 3.0518e-05 0.200977
0.877958 0 0.298192
0.933852 1.5259e-05 0.446448
0.971496 0.00129702 0.609873
0 0.164431 0.204318
0 0.168521 0.21004
0.122454 0.164187 0.183398
0.530221 0.171054 0.153918
0.744747 0.159731 0.171313
0.85951 0.150027 0.234455
0.930907 0.14612 0.340825
0.968917 0.166262 0.48864
0.988663 0.211017 0.641215
0 0.38851 0.310826
0 0.401099 0.323613
0.0028687 0.408545 0.296162
0.473396 0.43006 0.12369
0.773907 0.446006 0.125658
0.901427 0.458564 0.175921
0.973831 0.463249 0.275837
0.998001 0.469749 0.431235
1 0.491722 0.58883
0 0.548394 0.428962
0 0.557656 0.442161
0 0.606836 0.474556
0.393744 0.630777 0.211093
0.718807 0.655848 0.133776
0.897017 0.660319 0.153384
0.98378 0.658579 0.25774
0.999756 0.659342 0.393027
1 0.67306 0.541115
0 0.638529 0.549065
0 0.64332 0.559609
0 0.663111 0.580636
0.0397345 0.746609 0.518486
0.711559 0.759091 0.246021
0.832181 0.775708 0.234424
0.96762 0.779721 0.284977
0.999893 0.789105 0.433768
1 0.806073 0.561395
0 0.70103 0.671733
0 0.7037 0.67895
0 0.70518 0.68336
0 0.763226 0.708705
0.453407 0.837964 0.530983
0.822324 0.857572 0.42359
0.914595 0.872724 0.436957
0.993423 0.880171 0.490837
1 0.89305 0.606348
0 0.734813 0.767285
0 0.735775 0.770993
0 0.736309 0.77322
0 0.736812 0.775494
0.00605783 0.866453 0.790265
0.657008 0.912184 0.674144
0.904082 0.926467 0.617792
0.965728 0.934417 0.629038
0.999329 0.941756 0.670756
0 0.75816 0.838911
0 0.759075 0.841505
0 0.759609 0.843046
0 0.760021 0.844388
0 0.760357 0.845731
0.262196 0.92285 0.864363
0.794781 0.956954 0.804562
0.956847 0.965072 0.770245
0.988022 0.970367 0.788708
4.57771e-05 0.20412 0.462852
0.00103761 0.187686 0.460472
0.156619 0.0983902 0.451286
0.488487 0.0676585 0.457954
0.695018 0.0298161 0.479088
0.818891 0.0125887 0.512917
0.911238 0.00352483 0.560845
0.962707 0.00486763 0.621836
0.989761 0.0156252 0.703578
0 0.222583 0.47982
0.00123598 0.207996 0.482444
0.173007 0.118837 0.476112
0.515953 0.0966049 0.48481
0.714778 0.0640269 0.507378
0.838682 0.0298009 0.544686
0.926741 0.0132753 0.592203
0.970504 0.0253758 0.648325
0.9879 0.0749828 0.717067
0 0.330846 0.53489
0 0.329824 0.540688
0.105592 0.248753 0.516579
0.533654 0.248066 0.514458
0.746715 0.242924 0.530587
0.861311 0.240421 0.557229
0.936461 0.241276 0.592798
0.975921 0.258183 0.650416
0.995132 0.2916 0.716884
0 0.504433 0.602213
0 0.514961 0.612146
0.00724804 0.500923 0.578103
0.484245 0.492882 0.517723
0.7449 0.506157 0.515785
0.874449 0.516014 0.530999
0.956695 0.513039 0.559625
0.9944 0.508309 0.605234
1 0.522164 0.666392
0 0.627268 0.66807
0 0.635843 0.67808
0 0.683085 0.68397
0.369589 0.680064 0.568032
0.714199 0.691325 0.509071
0.865934 0.69427 0.513375
0.959579 0.691279 0.532525
0.997848 0.68452 0.5682
1 0.690822 0.635523
0 0.687343 0.721401
0 0.691096 0.727886
0 0.714076 0.743709
0.151507 0.77319 0.639277
0.6477 0.794446 0.569238
0.817014 0.804211 0.528756
0.95227 0.805173 0.541329
0.998154 0.80975 0.584924
1 0.819181 0.644602
0 0.722087 0.764492
0 0.723293 0.7682
0 0.72398 0.770413
0 0.799084 0.777737
0.476341 0.862486 0.68986
0.802243 0.878187 0.595407
0.907164 0.889403 0.591394
0.990631 0.893568 0.610224
1 0.901656 0.670634
0 0.7411 0.804273
0 0.741939 0.807263
0 0.742428 0.809094
0 0.742809 0.810712
0.0304265 0.876936 0.799298
0.648585 0.924849 0.764721
0.900343 0.935058 0.68748
0.963134 0.942061 0.692592
0.999008 0.947707 0.720043
0 0.760342 0.852644
0 0.761212 0.855039
0 0.761715 0.856489
0 0.762066 0.857588
0 0.762371 0.858732
0.31458 0.927749 0.87245
0.786877 0.962371 0.848096
0.955398 0.968826 0.800839
0.986831 0.973648 0.814572
0.0135042 0.290166 0.683787
0.0204318 0.275776 0.686
0.222309 0.237095 0.691569
0.549859 0.227237 0.69514
0.740429 0.219379 0.704982
0.851041 0.21384 0.718151
0.928267 0.212146 0.733318
0.970855 0.226459 0.755367
0.991836 0.259892 0.788373
0.0120089 0.307378 0.690806
0.0209049 0.295003 0.695598
0.237125 0.259693 0.701839
0.565927 0.25272 0.705837
0.751461 0.248035 0.71635
0.859693 0.24567 0.728801
0.934401 0.246372 0.74435
0.975265 0.261585 0.766552
0.994598 0.294728 0.796933
0.00125124 0.421241 0.715496
0.00224308 0.41622 0.720546
0.165011 0.370443 0.718364
0.551965 0.369406 0.715084
0.751461 0.372763 0.721782
0.865461 0.377035 0.731807
0.942382 0.376806 0.74342
0.983291 0.385321 0.76202
0.999008 0.406195 0.787457
0 0.591684 0.759564
0 0.598077 0.764843
0.0338903 0.571115 0.750576
0.494072 0.566705 0.718029
0.732341 0.576623 0.712673
0.859663 0.579858 0.714778
0.94638 0.572488 0.716518
0.990341 0.563943 0.726818
0.999939 0.569879 0.752224
0 0.686519 0.796872
0 0.696162 0.803174
0 0.722606 0.797421
0.411795 0.71339 0.726879
0.704204 0.722469 0.705623
0.846647 0.725963 0.700481
0.944198 0.720302 0.698238
0.992554 0.713069 0.707301
1 0.717311 0.736156
0 0.715602 0.813321
0 0.719463 0.817487
0 0.75935 0.833326
0.232975 0.798291 0.750652
0.657221 0.815473 0.717052
0.823438 0.825208 0.701427
0.938445 0.827634 0.699519
0.992081 0.828336 0.709224
0.999985 0.834455 0.739727
0 0.732296 0.823728
0 0.733181 0.82591
0 0.734173 0.827573
4.57771e-05 0.837156 0.839551
0.547173 0.878798 0.75465
0.766247 0.898878 0.753002
0.909331 0.905119 0.716869
0.985489 0.907393 0.724315
0.999878 0.912596 0.75198
0 0.747723 0.842252
0 0.74844 0.844388
0 0.748867 0.84567
0 0.749172 0.846693
0.0934615 0.89308 0.835569
0.677226 0.937667 0.836744
0.886488 0.94612 0.777234
0.960525 0.951705 0.771634
0.997818 0.956222 0.788785
0 0.763241 0.872297
0 0.764065 0.874296
0 0.764523 0.875486
0 0.764874 0.876356
0 0.765133 0.877165
0.38381 0.935821 0.890608
0.790265 0.969436 0.897398
0.951461 0.974441 0.846387
0.984573 0.978653 0.854093
0.123705 0.443641 0.835721
0.145724 0.442374 0.83595
0.321523 0.435447 0.832624
0.581125 0.43534 0.829602
0.750362 0.438758 0.831724
0.857572 0.441001 0.83566
0.936019 0.43592 0.837964
0.979522 0.435401 0.843229
0.997818 0.447272 0.852674
0.122423 0.457908 0.840208
0.149599 0.459342 0.8421
0.338704 0.455131 0.838956
0.59353 0.457938 0.836378
0.758099 0.463218 0.839048
0.863355 0.465919 0.842359
0.940002 0.460288 0.844129
0.982101 0.458839 0.848463
0.998459 0.469993 0.857847
0.0820325 0.523323 0.848035
0.109346 0.527153 0.850217
0.30338 0.523613 0.84535
0.581018 0.528878 0.838483
0.751797 0.53547 0.838956
0.860075 0.536675 0.840116
0.939712 0.528511 0.839521
0.983902 0.522011 0.842069
0.998993 0.528374 0.851484
0.0225834 0.646708 0.865446
0.044007 0.64979 0.867094
0.217166 0.644205 0.856519
0.5411 0.649134 0.839582
0.73019 0.654826 0.833295
0.84799 0.653346 0.829648
0.935012 0.643626 0.825895
0.983429 0.634318 0.826947
0.999664 0.634958 0.83769
0 0.749615 0.883391
0.00360113 0.752544 0.885023
0.0941024 0.748409 0.871397
0.480858 0.750179 0.840604
0.703471 0.758114 0.828061
0.834684 0.759472 0.823117
0.930999 0.753491 0.818128
0.983764 0.748272 0.820096
0.999802 0.751873 0.833646
0 0.770474 0.884901
0 0.77998 0.889418
0.00282292 0.81268 0.894957
0.344823 0.823819 0.849714
0.663905 0.838041 0.828412
0.818021 0.846098 0.823392
0.924605 0.84799 0.81886
0.98172 0.847196 0.821118
0.999542 0.852171 0.834409
0 0.741207 0.866682
0 0.742565 0.868574
0 0.759991 0.880781
0.0356603 0.869657 0.892302
0.580392 0.898268 0.844633
0.78117 0.912871 0.838819
0.906996 0.91902 0.829862
0.975708 0.921172 0.828916
0.998322 0.924605 0.839673
0 0.753918 0.875517
0 0.75462 0.877211
0 0.755016 0.878172
0 0.755657 0.879103
0.227756 0.915328 0.894255
0.709529 0.946517 0.876341
0.872007 0.958785 0.876097
0.958724 0.961913 0.853422
0.994934 0.965179 0.862531
0 0.767315 0.894087
0 0.768154 0.895766
0 0.768612 0.896757
0 0.768948 0.897505
0 0.769223 0.898161
0.46067 0.946883 0.922744
0.809552 0.976013 0.933181
0.94197 0.981384 0.901473
0.982208 0.984298 0.899428
0.413687 0.64535 0.937652
0.42443 0.646159 0.937545
0.496849 0.645502 0.934325
0.621576 0.645899 0.929351
0.74107 0.646021 0.925475
0.840833 0.642649 0.920897
0.922179 0.630625 0.916869
0.974197 0.618387 0.913405
0.997406 0.616114 0.914183
0.420172 0.653971 0.939727
0.434607 0.656855 0.940352
0.508354 0.657862 0.937667
0.632319 0.659419 0.93312
0.747951 0.659968 0.929778
0.846632 0.656886 0.925414
0.925872 0.645212 0.921233
0.975906 0.633722 0.918166
0.997818 0.633249 0.919356
0.402975 0.678325 0.940749
0.419898 0.682139 0.941604
0.499138 0.684153 0.938888
0.628046 0.686564 0.933928
0.745281 0.687526 0.930282
0.845411 0.684871 0.925948
0.925673 0.674235 0.92108
0.976043 0.663523 0.918395
0.997986 0.663539 0.920302
0.354055 0.728237 0.94258
0.373999 0.732113 0.943481
0.467842 0.734615 0.939834
0.610132 0.737972 0.93341
0.735058 0.740261 0.928618
0.839612 0.738842 0.924773
0.92285 0.731548 0.918608
0.975235 0.723735 0.916808
0.997955 0.725231 0.919692
0.256275 0.788327 0.945861
0.281758 0.791806 0.946563
0.401266 0.795316 0.941253
0.578149 0.80061 0.932464
0.719036 0.804974 0.926665
0.831067 0.806867 0.922469
0.919402 0.804211 0.916701
0.973297 0.801175 0.91635
0.99765 0.803571 0.919402
0.0797894 0.839261 0.954635
0.0977646 0.842649 0.955673
0.245212 0.848066 0.947906
0.515709 0.858 0.934279
0.690425 0.867323 0.926101
0.817639 0.873671 0.920897
0.914061 0.875166 0.916899
0.970764 0.87541 0.915343
0.996063 0.87837 0.918227
0 0.840238 0.950591
0 0.847929 0.955459
0.0065919 0.877775 0.967666
0.318608 0.901122 0.947631
0.632502 0.917983 0.931777
0.788846 0.928527 0.924056
0.901869 0.933806 0.91899
0.964797 0.935805 0.91783
0.993088 0.938399 0.920974
0 0.758679 0.902968
0 0.759289 0.904082
0 0.75964 0.904768
0 0.855192 0.960433
0.444389 0.937469 0.9514
0.731075 0.957519 0.937804
0.880766 0.967132 0.933318
0.95465 0.971817 0.928862
0.989105 0.973785 0.930526
0 0.772473 0.915801
0 0.77319 0.917006
0 0.773617 0.917739
0 0.773877 0.918166
0 0.774731 0.918975
0.552834 0.960601 0.963882
0.833127 0.981613 0.95523
0.933242 0.988434 0.955489
0.979889 0.990112 0.944335
0.62237 0.785046 0.988174
0.625452 0.785733 0.988251
0.645365 0.785443 0.987442
0.694347 0.785519 0.985626
0.765072 0.785382 0.983261
0.840467 0.783597 0.979614
0.913146 0.778851 0.975677
0.964034 0.772931 0.972808
0.993378 0.771725 0.971862
0.627298 0.790082 0.988937
0.632319 0.792004 0.989212
0.654627 0.792859 0.988632
0.703639 0.793805 0.987121
0.773754 0.794324 0.985046
0.847547 0.793667 0.981674
0.918441 0.789563 0.978653
0.967025 0.784939 0.975937
0.994415 0.785458 0.975082
0.624277 0.798795 0.988998
0.63035 0.801663 0.98938
0.654246 0.80322 0.988922
0.704494 0.805051 0.987533
0.775189 0.806363 0.985504
0.849409 0.8065 0.982147
0.920012 0.803189 0.979477
0.968277 0.799817 0.97673
0.994858 0.800855 0.976135
0.612024 0.819791 0.988769
0.619013 0.823056 0.989273
0.644831 0.825437 0.988861
0.698726 0.828305 0.987335
0.771984 0.831098 0.985168
0.847944 0.832288 0.981903
0.91957 0.830167 0.978836
0.968353 0.82855 0.976226
0.994324 0.830839 0.975906
0.587472 0.851423 0.988022
0.595193 0.854444 0.988495
0.624125 0.857084 0.98793
0.68397 0.860777 0.986343
0.762661 0.864912 0.984039
0.842542 0.867399 0.980346
0.917189 0.867414 0.97731
0.966751 0.867292 0.974609
0.99237 0.870192 0.974594
0.537804 0.888136 0.987808
0.549447 0.891325 0.988342
0.584085 0.894545 0.987732
0.655894 0.899565 0.985656
0.743496 0.904799 0.982162
0.831525 0.90811 0.978439
0.911513 0.910033 0.974731
0.963546 0.911254 0.973053
0.990539 0.913954 0.972168
0.405585 0.917006 0.991821
0.428061 0.919371 0.992126
0.486534 0.923384 0.990951
0.594965 0.930678 0.987793
0.706142 0.938674 0.982849
0.810727 0.945495 0.978821
0.901595 0.949706 0.973754
0.958846 0.951736 0.972839
0.987945 0.954055 0.971237
0.00402838 0.913359 0.999252
0.00726329 0.917678 0.999466
0.0625315 0.931136 0.999237
0.383886 0.943252 0.99559
0.620859 0.957305 0.989654
0.771084 0.968063 0.983871
0.884428 0.975052 0.978378
0.951202 0.979263 0.974472
0.982727 0.981353 0.973602
0 0.77496 0.928969
0 0.77557 0.929717
0 0.77615 0.930282
0 0.776547 0.930694
0.103319 0.944335 0.999756
0.662394 0.973892 0.993027
0.850019 0.986999 0.98558
0.938262 0.99205 0.980255
0.977386 0.994202 0.978485
0.756054 0.889006 0.999863
0.757626 0.889632 0.999847
0.764843 0.889326 0.999817
0.786358 0.889189 0.999741
0.82034 0.888808 0.999451
0.865797 0.888487 0.998993
0.915953 0.887892 0.998398
0.959258 0.887587 0.997269
0.986191 0.889174 0.996506
0.760357 0.892653 0.999832
0.763073 0.893996 0.999832
0.771695 0.894408 0.999802
0.793652 0.894804 0.999725
0.827253 0.894896 0.999542
0.872496 0.895094 0.999252
0.92079 0.894835 0.998871
0.962356 0.895552 0.997803
0.986954 0.897459 0.997421
0.759731 0.896162 0.999832
0.763287 0.8981 0.999817
0.77258 0.898985 0.999786
0.79501 0.899702 0.99971
0.829084 0.900145 0.999527
0.874098 0.900771 0.999222
0.922576 0.900877 0.998825
0.963195 0.902159 0.997696
0.98703 0.904204 0.997497
0.755749 0.904494 0.999802
0.759838 0.90631 0.999786
0.769757 0.907256 0.999756
0.793286 0.908263 0.999664
0.828214 0.90898 0.999496
0.873777 0.910018 0.999146
0.922744 0.910964 0.998688
0.963211 0.91284 0.997406
0.986465 0.915038 0.99736
0.747662 0.916136 0.999756
0.752178 0.918059 0.999741
0.762966 0.919326 0.99971
0.788144 0.920699 0.999634
0.82472 0.92166 0.99942
0.871656 0.922942 0.998947
0.921294 0.924941 0.998383
0.962341 0.926757 0.996994
0.985779 0.928634 0.99675
0.73286 0.932326 0.99971
0.737804 0.934127 0.99971
0.749554 0.9355 0.99968
0.777325 0.937255 0.999619
0.816571 0.93904 0.999313
0.86717 0.940887 0.998581
0.918608 0.943557 0.997955
0.960525 0.945296 0.996399
0.984817 0.946685 0.995987
0.701045 0.950912 0.999817
0.707088 0.952697 0.999832
0.721386 0.954376 0.999802
0.7523 0.956664 0.999664
0.798642 0.959564 0.999283
0.855528 0.962905 0.998459
0.912917 0.965469 0.99736
0.95761 0.96733 0.996384
0.983566 0.968917 0.995331
0.62739 0.963165 0.999954
0.635203 0.964446 0.999954
0.654902 0.966186 0.999939
0.697292 0.969467 0.999863
0.760586 0.974838 0.99968
0.829831 0.978821 0.999313
0.900267 0.982406 0.99794
0.952239 0.985122 0.996674
0.980774 0.987106 0.995529
0.234241 0.954055 1
0.262959 0.955245 1
0.367269 0.958724 1
0.516609 0.966903 1
0.652232 0.975753 0.999985
0.770382 0.984451 0.999786
0.874159 0.990814 0.999176
0.942123 0.994369 0.997208
0.976425 0.996918 0.996002
