LUT预设1/柯达5219&2393/柯达5219&2393尼康专用/Nlog/柯达5219绿调-Nlog_12.DSC_0430.cube
TITLE "Generated by Resolve"
LUT_3D_SIZE 33
0.0230106 0.030518 0.0598459
0.0230106 0.030518 0.0598459
0.0230106 0.030518 0.0598459
0.0230106 0.030518 0.0598459
0.0230564 0.0305333 0.0598459
0.0231937 0.0305791 0.0598764
0.0261692 0.0315557 0.0602731
0.0428168 0.0366522 0.0611582
0.0726482 0.0442359 0.059617
0.110506 0.0514534 0.0561685
0.155703 0.057557 0.0522469
0.209033 0.0628214 0.0472267
0.271809 0.0678111 0.040238
0.34406 0.0726787 0.0312352
0.426017 0.0771496 0.0215763
0.515267 0.0808728 0.012665
0.609537 0.084123 0.00523384
0.707195 0.088777 0.00112917
0.795514 0.0952621 4.57771e-05
0.855314 0.100649 0
0.871778 0.102327 0
0.873549 0.10251 0
0.873579 0.10251 0
0.873549 0.102525 0
0.873487 0.102571 0
0.871168 0.10309 0
0.866773 0.103838 0.00178531
0.853559 0.104479 0.0124361
0.833143 0.0974594 0.0388647
0.806531 0.0867933 0.0767224
0.777523 0.0711681 0.122164
0.752102 0.0789349 0.160189
0.726345 0.0981003 0.19646
0.0230106 0.030518 0.0598459
0.0230106 0.030518 0.0598459
0.0230106 0.030518 0.0598459
0.0230106 0.030518 0.0598459
0.0230564 0.0305333 0.0598459
0.0231937 0.0305791 0.0598764
0.0262913 0.0316014 0.0602884
0.0436408 0.0368811 0.0611582
0.0737011 0.0444953 0.0595254
0.112016 0.0516823 0.0560464
0.157321 0.0577401 0.0521096
0.21117 0.0630045 0.047013
0.274205 0.0679789 0.0399481
0.347005 0.0728618 0.0308537
0.429633 0.0773327 0.0211795
0.5196 0.0810254 0.0122988
0.613901 0.0843366 0.00503548
0.71194 0.0890059 0.000961318
0.799619 0.095613 4.57771e-05
0.856214 0.10074 0
0.872435 0.102388 0
0.873564 0.10251 0
0.873579 0.10251 0
0.873533 0.102541 0
0.873487 0.102571 0
0.871 0.103136 0
0.865995 0.103868 0.00248722
0.85301 0.104524 0.0128023
0.831647 0.096849 0.041001
0.804883 0.0859693 0.0792706
0.77586 0.0702678 0.124788
0.750729 0.0799115 0.162249
0.724315 0.100404 0.198627
0.0230106 0.030518 0.0598459
0.0230106 0.030518 0.0598459
0.0230106 0.030518 0.0598459
0.0230106 0.030518 0.0598459
0.0230564 0.0305333 0.0598459
0.0231785 0.0305791 0.0598764
0.0261997 0.0315709 0.0602731
0.0434577 0.0368353 0.0611582
0.073518 0.0444495 0.059556
0.111727 0.0516365 0.0560769
0.156924 0.0576944 0.0521401
0.210346 0.0629435 0.0471046
0.273121 0.0679026 0.0400854
0.345739 0.0727855 0.0310216
0.428351 0.0772717 0.0213169
0.51783 0.0809644 0.0124514
0.613062 0.0843214 0.00514229
0.710994 0.0889296 0.0009308
0.8 0.0956588 3.0518e-05
0.856107 0.100725 0
0.872679 0.102419 0
0.873579 0.10251 0
0.873579 0.10251 0
0.873549 0.102541 0
0.873503 0.102571 0
0.870939 0.103151 0
0.865538 0.103883 0.00291447
0.852781 0.104555 0.0128939
0.831083 0.0965744 0.0418097
0.804135 0.0855726 0.0804456
0.775097 0.0698711 0.125963
0.750103 0.0803998 0.16318
0.723339 0.101503 0.199664
0.0230106 0.030518 0.0598459
0.0230106 0.030518 0.0598459
0.0230106 0.030518 0.0598459
0.0230106 0.030518 0.0598459
0.0230259 0.030518 0.0598459
0.0231022 0.0305486 0.0598611
0.0258183 0.0314488 0.0602274
0.0424659 0.0365606 0.0611734
0.0721294 0.0441444 0.059678
0.109667 0.0513161 0.0562448
0.153841 0.0573587 0.0524147
0.205859 0.0625467 0.0475624
0.26717 0.0674754 0.0408026
0.338201 0.0723125 0.0319829
0.419928 0.0768749 0.0222324
0.510094 0.0806897 0.013138
0.605356 0.084062 0.0056611
0.704707 0.0885328 0.000991836
0.796933 0.0954147 3.0518e-05
0.854719 0.100587 0
0.872557 0.102403 0
0.873579 0.10251 0
0.873579 0.10251 0
0.873564 0.102525 0
0.873549 0.102525 0
0.870954 0.103166 0
0.865415 0.103929 0.00308232
0.85301 0.10454 0.0124971
0.830625 0.0962844 0.0424659
0.803555 0.0852369 0.0813001
0.774533 0.0696117 0.126848
0.74963 0.0808881 0.163928
0.722454 0.102556 0.20058
0.0230106 0.030518 0.0598459
0.0230106 0.030518 0.0598459
0.0230106 0.030518 0.0598459
0.0230106 0.030518 0.0598459
0.0230106 0.030518 0.0598459
0.0230106 0.030518 0.0598459
0.0251164 0.03122 0.0601511
0.0403754 0.0359503 0.0611582
0.0693828 0.043534 0.0599069
0.105547 0.05066 0.056611
0.147921 0.0566873 0.0529488
0.197543 0.0618143 0.0484016
0.255299 0.0666056 0.0422217
0.323796 0.071397 0.0338293
0.403586 0.0760662 0.0240787
0.492378 0.0800488 0.0147707
0.586999 0.0834363 0.0069276
0.68603 0.0875563 0.00149538
0.782223 0.0943313 0.000137331
0.845747 0.0997635 0
0.870695 0.102205 0
0.873457 0.102495 0
0.873579 0.10251 0
0.873564 0.102525 0
0.873579 0.10251 0
0.870924 0.103212 0
0.865217 0.103944 0.00331121
0.853376 0.104463 0.0119326
0.830427 0.0960403 0.04271
0.803449 0.0850996 0.0813764
0.774456 0.0697032 0.126909
0.749599 0.0812543 0.164065
0.721935 0.103212 0.201038
0.0230106 0.030518 0.0598459
0.0230106 0.030518 0.0598459
0.0230106 0.030518 0.0598459
0.0230106 0.030518 0.0598459
0.0230106 0.030518 0.0598459
0.0230106 0.030518 0.0598459
0.0242924 0.0309453 0.060029
0.0370794 0.0349584 0.0610361
0.0654307 0.0426032 0.0602121
0.100069 0.0497292 0.0571145
0.139498 0.0556649 0.053666
0.185321 0.0607004 0.0495918
0.238865 0.0653239 0.0441444
0.302571 0.0700084 0.0365301
0.377523 0.0746777 0.0271611
0.461707 0.0788586 0.0177157
0.552514 0.0823529 0.0093843
0.64744 0.0857404 0.00283818
0.742748 0.0914473 0.00047303
0.82182 0.0975662 0
0.865919 0.101701 0
0.873137 0.102464 0
0.873579 0.10251 0
0.873579 0.10251 0
0.873579 0.10251 0
0.870939 0.103288 0
0.865278 0.103944 0.00337224
0.8542 0.104295 0.0107881
0.830533 0.0957656 0.0424659
0.803296 0.0848859 0.0814832
0.774151 0.0699931 0.127275
0.748882 0.0821088 0.165042
0.720211 0.105196 0.202945
0.0239719 0.0323186 0.0616007
0.0240024 0.0323644 0.0616464
0.0240024 0.0323644 0.0616464
0.0239567 0.0322881 0.0615854
0.0238804 0.0321202 0.0614176
0.023682 0.0317693 0.0610819
0.023743 0.0312963 0.0605478
0.0327153 0.0336461 0.0608072
0.0615244 0.0416419 0.0604715
0.0971084 0.0492256 0.0573587
0.135653 0.0551919 0.0539864
0.178454 0.0600443 0.0502327
0.228046 0.0644694 0.0453803
0.28542 0.0688792 0.0387121
0.351904 0.0732891 0.0302586
0.427237 0.0774701 0.0211032
0.509316 0.0810101 0.0126345
0.596674 0.0835889 0.00579843
0.689555 0.0878462 0.00164797
0.782269 0.0940414 0
0.853468 0.100359 0
0.870466 0.102174 0
0.873472 0.102495 0
0.873579 0.10251 0
0.873579 0.10251 0
0.870619 0.103395 0
0.864225 0.103929 0.00418097
0.85272 0.103975 0.0124361
0.827695 0.094667 0.0466316
0.800092 0.0839246 0.0865339
0.77055 0.0700847 0.132723
0.744091 0.0854963 0.171145
0.714809 0.111192 0.209262
0.0292821 0.0441901 0.0722667
0.0293889 0.0444495 0.0724804
0.0294041 0.0444495 0.0724804
0.0292821 0.0441138 0.0722057
0.0289769 0.0433051 0.0715038
0.028397 0.0420691 0.0703136
0.0274357 0.0402838 0.0685588
0.0321202 0.0399786 0.0669718
0.064271 0.0472114 0.0651255
0.109438 0.0556649 0.0602579
0.157839 0.0616159 0.054963
0.207416 0.0656901 0.0491951
0.256718 0.0689708 0.0430915
0.306645 0.0720531 0.036759
0.360433 0.0751507 0.0297398
0.420279 0.0783093 0.0221408
0.485817 0.0810864 0.0147707
0.557412 0.0827649 0.00894179
0.638621 0.0852216 0.0031281
0.729717 0.0899519 0
0.821591 0.0971542 0
0.860563 0.101289 0
0.872908 0.102663 0
0.874296 0.102861 0
0.874311 0.102892 0
0.869902 0.103868 0
0.861006 0.103914 0.00697337
0.848005 0.103059 0.0183108
0.820874 0.092134 0.0571908
0.791653 0.0820325 0.0999008
0.761761 0.0709697 0.145861
0.734966 0.092195 0.182422
0.706859 0.120043 0.218708
0.0338445 0.0803998 0.0991684
0.0338293 0.0811475 0.0997024
0.033814 0.0814221 0.0999008
0.0337987 0.0813611 0.0998398
0.0337987 0.0809339 0.0995193
0.0338293 0.0801404 0.0989395
0.033875 0.07953 0.0985122
0.0364996 0.0797589 0.0981613
0.0739605 0.0823377 0.0902876
0.136782 0.0877241 0.0788434
0.2047 0.0927901 0.0681926
0.278752 0.0969558 0.0558938
0.3561 0.100435 0.0426947
0.433402 0.10309 0.031342
0.506798 0.104692 0.0224918
0.570703 0.105806 0.0153353
0.623652 0.106706 0.00943008
0.664118 0.106966 0.00527962
0.710719 0.108614 0.00221256
0.764004 0.111238 0.000106813
0.82414 0.115099 0
0.880659 0.121599 0
0.90518 0.123507 0
0.907942 0.12192 0
0.902373 0.118914 0
0.892973 0.11577 0
0.878477 0.111238 0.00492866
0.862654 0.105852 0.0104524
0.830869 0.0964218 0.0536812
0.800076 0.0862898 0.0972457
0.768719 0.0725872 0.144717
0.742077 0.0924392 0.180728
0.713222 0.118151 0.216892
0.0235142 0.130098 0.133211
0.0232395 0.131014 0.133822
0.0231174 0.13138 0.134066
0.0231022 0.131411 0.134081
0.023209 0.130983 0.133761
0.0233921 0.130282 0.133257
0.0237278 0.12903 0.132357
0.0238804 0.129061 0.132311
0.0543374 0.127901 0.122271
0.140215 0.130053 0.101152
0.237263 0.133211 0.0838941
0.332937 0.13753 0.0672923
0.433753 0.141726 0.0504005
0.536019 0.145373 0.0365606
0.634485 0.149401 0.0254826
0.725719 0.154833 0.0158083
0.807797 0.16228 0.00747692
0.872831 0.17229 0.00170901
0.917662 0.184573 0.000396735
0.947707 0.192828 0
0.965454 0.197345 0
0.968505 0.192523 0
0.972457 0.188525 0
0.974716 0.184771 0
0.970626 0.177951 0
0.964675 0.17026 0
0.957641 0.164477 0.000274662
0.948501 0.159472 0.00361639
0.919905 0.154314 0.0308232
0.884428 0.137682 0.0724346
0.8421 0.113924 0.128283
0.806363 0.113146 0.175616
0.770672 0.126757 0.217563
0.00849927 0.184985 0.168017
0.00830091 0.186267 0.168795
0.00822461 0.186801 0.169116
0.00822461 0.186923 0.169192
0.00828565 0.186725 0.16907
0.00851453 0.185809 0.168521
0.00880446 0.184573 0.167788
0.00874342 0.184909 0.167987
0.0188907 0.183337 0.161196
0.0906996 0.182345 0.133959
0.225406 0.180911 0.103502
0.351705 0.182101 0.0798962
0.466651 0.185428 0.0610819
0.578256 0.189685 0.047013
0.682048 0.195544 0.036759
0.777035 0.204517 0.0282902
0.862303 0.216999 0.0202029
0.932906 0.235325 0.0125124
0.976928 0.261006 0.00581369
1 0.285359 0.00164797
1 0.303624 0.00103761
1 0.296498 0.0009308
1 0.285222 0.00077821
1 0.272404 0.000518807
1 0.259556 0.000167849
1 0.248142 0
1 0.238697 0
0.999695 0.231662 0
0.997055 0.228504 0
0.982498 0.227924 0.0226444
0.959991 0.223606 0.0590219
0.91928 0.19646 0.137255
0.879957 0.185657 0.201007
0 0.249348 0.206134
0 0.250645 0.206851
0 0.251301 0.207202
0 0.251484 0.207263
0 0.251026 0.206943
0 0.25034 0.206455
0 0.248753 0.205447
0 0.249226 0.205676
0.00015259 0.248203 0.204334
0.0333562 0.243427 0.178088
0.152926 0.239673 0.137987
0.321523 0.236027 0.100893
0.45832 0.236591 0.0737011
0.575967 0.240345 0.057969
0.684855 0.247013 0.0478523
0.783795 0.257465 0.0403449
0.871885 0.272114 0.0339361
0.941344 0.293233 0.0281071
0.980789 0.321004 0.0229648
1 0.352193 0.0187228
1 0.38558 0.0156863
1 0.383261 0.0142824
1 0.377218 0.012314
1 0.368383 0.00996414
1 0.352956 0.0069276
1 0.336141 0.00517281
1 0.317098 0.00343328
1 0.301213 0.00163272
1 0.288609 0.000244144
1 0.286244 0.000213626
0.997482 0.286595 0.0110323
0.986007 0.291691 0.056672
0.960586 0.282521 0.1308
0 0.320943 0.246677
0 0.322454 0.247623
0 0.322957 0.247944
0 0.323217 0.248127
0 0.323079 0.248096
0 0.322164 0.247608
0 0.32076 0.24686
0 0.320851 0.246967
0 0.321706 0.247547
0.00427253 0.313313 0.228702
0.0688487 0.306737 0.187274
0.238056 0.299428 0.140902
0.415747 0.295888 0.0985275
0.547707 0.297581 0.0724651
0.660822 0.30312 0.0586099
0.763485 0.312947 0.0507668
0.856794 0.327321 0.0459449
0.931014 0.34818 0.042359
0.97644 0.375357 0.0401923
1 0.409339 0.0391241
1 0.450706 0.0392767
1 0.452918 0.0380865
1 0.450813 0.0365759
1 0.445701 0.0346838
1 0.437888 0.0319677
1 0.425055 0.0277256
1 0.405554 0.0216068
1 0.381506 0.0144503
1 0.357717 0.0078584
1 0.342687 0.0047303
1 0.334493 0.0043946
1 0.336767 0.00679026
0.992126 0.344762 0.061799
0 0.397314 0.294331
0 0.399023 0.295369
0 0.399954 0.295903
0 0.399969 0.295872
0 0.399954 0.29575
0 0.399039 0.294987
0 0.397589 0.293812
0 0.396826 0.293111
0 0.400702 0.295781
0 0.391196 0.284031
0.0189212 0.379828 0.242329
0.130968 0.370779 0.195331
0.32961 0.364401 0.145815
0.502907 0.361883 0.101137
0.625544 0.364187 0.0745708
0.729885 0.371313 0.0607767
0.825925 0.382605 0.0537118
0.907469 0.401328 0.0516518
0.965362 0.426184 0.0519722
0.998383 0.457359 0.0542
0.999908 0.495033 0.0581674
1 0.507668 0.0600748
1 0.510674 0.060029
1 0.507057 0.0585336
1 0.50248 0.0567483
1 0.495674 0.0541695
1 0.486046 0.0504921
1 0.465019 0.0425269
1 0.438285 0.032517
1 0.407889 0.0220493
1 0.387503 0.0158389
1 0.376989 0.0132143
1 0.382162 0.0220188
0 0.475959 0.342763
0 0.477775 0.344106
0 0.478416 0.344579
0 0.478828 0.344884
0 0.47892 0.344945
0 0.478111 0.344366
0 0.476753 0.343359
0 0.475441 0.342367
0 0.479515 0.345144
0 0.47396 0.340627
0.000167849 0.458564 0.308034
0.0538796 0.446067 0.254459
0.211398 0.436774 0.201572
0.425895 0.433234 0.152178
0.583459 0.431815 0.104982
0.698314 0.434455 0.0774701
0.789319 0.441657 0.0623331
0.874754 0.45597 0.0563058
0.943679 0.475029 0.055848
0.990097 0.500175 0.0601816
0.999237 0.532631 0.0692912
1 0.552987 0.0776989
1 0.560037 0.0806744
1 0.556481 0.0790723
1 0.552254 0.0771191
1 0.547631 0.0750439
1 0.542016 0.0725872
1 0.532158 0.0683146
1 0.513222 0.0605325
1 0.480369 0.0482338
1 0.449271 0.0365606
1 0.424369 0.0270542
1 0.416251 0.0267338
0 0.55404 0.400595
0 0.555505 0.401679
0 0.556512 0.402426
0 0.556985 0.402762
0 0.556802 0.402594
0 0.556207 0.402106
0 0.555123 0.401221
0 0.553491 0.399908
0 0.555886 0.401709
0 0.556512 0.402121
0 0.539284 0.377798
0.0128328 0.523735 0.319448
0.108614 0.510842 0.266728
0.310719 0.505501 0.213825
0.520851 0.50425 0.1579
0.66128 0.502724 0.109667
0.762814 0.505165 0.0802014
0.843854 0.513008 0.066041
0.914855 0.525795 0.0595102
0.971572 0.543847 0.0594034
0.996979 0.568505 0.0670634
1 0.591699 0.0786603
1 0.601022 0.0844282
1 0.598276 0.0844892
1 0.59443 0.0842908
1 0.590478 0.0841382
1 0.586069 0.0847944
1 0.580606 0.0852064
1 0.570153 0.0838941
1 0.552605 0.0782025
1 0.518959 0.0638743
1 0.483421 0.0486458
1 0.460624 0.0404669
0 0.624567 0.452293
0 0.625971 0.453315
0 0.626978 0.454047
0 0.627482 0.454398
0 0.627405 0.454292
0 0.626947 0.453864
0 0.626062 0.453101
0 0.624704 0.451957
0 0.62475 0.451896
0 0.630503 0.456321
0 0.616892 0.44303
0.00204471 0.598749 0.395941
0.0467689 0.58497 0.335149
0.181048 0.575387 0.279225
0.423392 0.574807 0.234485
0.607935 0.571618 0.168185
0.728588 0.570108 0.118334
0.815869 0.571283 0.0873121
0.889082 0.577371 0.0697642
0.95198 0.589258 0.0628672
0.993591 0.607599 0.0661936
1 0.63035 0.0782635
1 0.640848 0.08542
1 0.637644 0.0859236
1 0.633173 0.0860761
1 0.628428 0.0861524
1 0.622766 0.0866255
1 0.616846 0.0867628
1 0.608972 0.0909438
1 0.599008 0.092668
1 0.580346 0.0970169
1 0.5514 0.081239
1 0.515465 0.0623789
0 0.688106 0.504173
0 0.689097 0.505058
0 0.690028 0.505898
0 0.690257 0.506081
0 0.690654 0.506416
0 0.690425 0.506249
0 0.689754 0.505699
0 0.68867 0.504845
0 0.687465 0.503883
0 0.694072 0.50927
0 0.686595 0.502602
0 0.667796 0.469352
0.0132601 0.65333 0.408835
0.0968338 0.64123 0.349981
0.29575 0.636774 0.30161
0.522332 0.636408 0.248127
0.678004 0.63241 0.183444
0.785809 0.629099 0.1299
0.867567 0.629374 0.093492
0.932082 0.634226 0.0747234
0.98204 0.646632 0.0699931
0.996735 0.665415 0.0780041
1 0.675563 0.0848096
1 0.673701 0.0865644
1 0.668742 0.0864271
1 0.663355 0.086305
1 0.657389 0.0861982
1 0.651377 0.0883192
1 0.644785 0.09337
1 0.638056 0.104631
1 0.627695 0.118929
1 0.606943 0.117968
1 0.57705 0.111574
0 0.74551 0.555459
0 0.746624 0.556451
0 0.747158 0.556939
0 0.747646 0.557382
0 0.747768 0.557504
0 0.748012 0.557748
0 0.747692 0.557504
0 0.746929 0.556893
0 0.745602 0.555825
0 0.748425 0.558373
0 0.749386 0.559289
0 0.733059 0.539712
0 0.716945 0.483894
0.0428779 0.704112 0.424598
0.172213 0.694881 0.366186
0.410513 0.695872 0.328649
0.605493 0.692683 0.266148
0.742931 0.687282 0.19707
0.841871 0.68307 0.138766
0.911696 0.6813 0.0990311
0.965759 0.687648 0.0823072
0.990677 0.699718 0.0810712
1 0.708156 0.0844282
1 0.709178 0.0873426
1 0.703624 0.0868391
1 0.697887 0.0864271
1 0.691783 0.0861677
1 0.685313 0.0895094
1 0.678599 0.0927443
1 0.672724 0.110826
1 0.666133 0.128466
1 0.656443 0.157443
1 0.63856 0.170932
0 0.795651 0.600824
0 0.79675 0.601831
0 0.797574 0.602564
0 0.797818 0.602792
0 0.798291 0.603189
0 0.798413 0.60325
0 0.798383 0.603128
0 0.797971 0.602564
0 0.797024 0.601419
0 0.796841 0.600977
0 0.802808 0.606851
0 0.791699 0.594476
0 0.774777 0.559228
0.00987259 0.762371 0.498482
0.0845502 0.751492 0.439384
0.279515 0.747127 0.395148
0.498695 0.747112 0.350668
0.669123 0.746014 0.297368
0.796216 0.741115 0.230655
0.892485 0.732616 0.148638
0.949294 0.732418 0.114153
0.984009 0.737667 0.0958419
1 0.743755 0.0890211
1 0.747189 0.0898604
1 0.740887 0.0897383
1 0.734508 0.0896315
1 0.727199 0.0905165
1 0.719234 0.0918898
1 0.711086 0.094728
1 0.703288 0.107195
1 0.695613 0.11783
1 0.690776 0.169589
1 0.682597 0.20798
0 0.840604 0.647669
0 0.84155 0.648707
0 0.842252 0.649485
0 0.84271 0.649989
0 0.842924 0.650217
0 0.843091 0.650385
0 0.843412 0.650721
0 0.843305 0.650568
0 0.842451 0.649561
0 0.841611 0.648539
0 0.846586 0.653864
0 0.841917 0.648707
0 0.826123 0.624491
0.00102235 0.813291 0.576272
0.0317845 0.802319 0.517632
0.148562 0.793637 0.46183
0.355306 0.791852 0.41944
0.568658 0.79324 0.383307
0.726375 0.79176 0.333669
0.843885 0.785229 0.255085
0.919936 0.779355 0.189532
0.971633 0.777951 0.143435
0.998795 0.779721 0.117128
1 0.783902 0.11017
1 0.777234 0.106264
1 0.770047 0.10277
1 0.762173 0.0997177
1 0.754055 0.0964065
1 0.745312 0.0995499
1 0.736645 0.104814
1 0.729351 0.129488
1 0.723491 0.17171
1 0.716335 0.213519
0 0.875959 0.686961
0 0.876371 0.687434
0 0.87657 0.687663
0 0.876783 0.687907
0 0.876982 0.688136
0 0.877073 0.688258
0 0.87715 0.688334
0 0.877134 0.688319
0 0.876982 0.688151
0 0.876417 0.687541
0 0.876585 0.68777
0 0.879103 0.690639
0 0.869871 0.679057
0 0.857939 0.646799
0.00424201 0.848356 0.597025
0.0551003 0.837201 0.533776
0.198611 0.831449 0.483497
0.430915 0.832914 0.455039
0.631006 0.83563 0.425132
0.773678 0.833036 0.366735
0.875364 0.825589 0.288792
0.947845 0.819059 0.218112
0.992096 0.815839 0.166888
0.999588 0.81767 0.145083
1 0.811933 0.135348
1 0.80473 0.126741
1 0.796841 0.118929
1 0.788128 0.113771
1 0.778988 0.111681
1 0.769924 0.111452
1 0.762387 0.143771
1 0.754421 0.168902
1 0.747997 0.218906
0 0.895247 0.709331
0 0.895689 0.709834
0 0.89601 0.710216
0 0.896239 0.71046
0 0.896452 0.710719
0 0.896559 0.710842
0 0.896666 0.710964
0 0.896773 0.711086
0 0.896925 0.711269
0 0.897078 0.711452
0 0.89749 0.71194
0 0.898802 0.713466
0 0.898405 0.712978
0 0.896178 0.706172
0 0.887816 0.670893
0.00169375 0.87718 0.606043
0.0663767 0.868238 0.551751
0.249683 0.865248 0.513741
0.495338 0.86978 0.490837
0.678309 0.873381 0.466331
0.812177 0.869505 0.40351
0.909911 0.861448 0.32166
0.977554 0.852644 0.24303
0.997574 0.848447 0.197742
1 0.8448 0.177661
1 0.838651 0.163592
1 0.830045 0.15378
1 0.821134 0.145571
1 0.812207 0.138369
1 0.803204 0.14786
1 0.793835 0.159121
1 0.784756 0.177127
1 0.777127 0.224811
0 0.899733 0.714549
0 0.899825 0.714656
0 0.89987 0.714702
0 0.899901 0.714733
0 0.899931 0.714778
0 0.899962 0.714794
0 0.899992 0.714839
0 0.900008 0.714855
0 0.900023 0.714885
0 0.900053 0.714916
0 0.90013 0.715007
0 0.900343 0.715267
0 0.900633 0.715618
0 0.900526 0.715038
0 0.901198 0.70515
0 0.898894 0.665919
0.0132906 0.895125 0.619089
0.0961318 0.892531 0.572854
0.282918 0.893126 0.538323
0.523293 0.897459 0.522652
0.716152 0.899825 0.492226
0.843915 0.897475 0.434852
0.938949 0.891066 0.360616
0.989502 0.882246 0.288472
0.999512 0.876982 0.246387
1 0.870375 0.222232
1 0.861814 0.207996
1 0.852827 0.193927
1 0.843503 0.18967
1 0.833768 0.186816
1 0.823774 0.180117
1 0.81529 0.210681
1 0.807111 0.248615
0 0.901366 0.716442
0 0.901366 0.716442
0 0.901366 0.716442
0 0.901366 0.716442
0 0.901366 0.716442
0 0.901366 0.716442
0 0.901366 0.716442
0 0.901366 0.716442
0 0.901366 0.716442
0 0.901366 0.716442
0 0.901366 0.716442
0 0.901366 0.716442
0 0.901366 0.716472
0 0.90132 0.71667
0 0.903655 0.717189
0 0.907134 0.702861
0.000869764 0.906676 0.662287
0.0304417 0.904906 0.61825
0.132998 0.903578 0.572473
0.350088 0.907683 0.550134
0.598886 0.915282 0.541238
0.761517 0.920027 0.513527
0.881071 0.920668 0.466377
0.955139 0.913176 0.391592
0.988937 0.906249 0.329107
1 0.899107 0.285634
1 0.891005 0.261143
1 0.882063 0.251011
1 0.872618 0.239231
1 0.862638 0.225589
1 0.853452 0.23508
1 0.844663 0.255146
1 0.835538 0.276829
0 0.901366 0.716442
0 0.901366 0.716442
0 0.901366 0.716442
0 0.901366 0.716442
0 0.901366 0.716442
0 0.901366 0.716442
0 0.901366 0.716442
0 0.901366 0.716442
0 0.901366 0.716442
0 0.90135 0.716503
0 0.901335 0.716609
0 0.901305 0.716701
0 0.901289 0.716777
0 0.901167 0.717372
0 0.901366 0.71754
0 0.906233 0.717418
0 0.908339 0.68986
0.00689708 0.908049 0.651652
0.0480812 0.906523 0.605142
0.174578 0.908827 0.56553
0.448478 0.919036 0.56228
0.663218 0.929976 0.559808
0.802228 0.938201 0.541314
0.902647 0.936477 0.482765
0.966567 0.930282 0.413382
0.997955 0.922866 0.353613
1 0.916014 0.316533
1 0.908217 0.299748
1 0.89926 0.282399
1 0.890486 0.286427
1 0.881361 0.290578
1 0.871916 0.294911
1 0.86247 0.309911
0 0.901137 0.71751
0 0.901137 0.717494
0 0.901137 0.717479
0 0.901137 0.717479
0 0.901137 0.717464
0 0.901137 0.717479
0 0.901137 0.717464
0 0.901137 0.717479
0 0.901137 0.717479
0 0.901137 0.717494
0 0.901137 0.71751
0 0.901122 0.71754
0 0.901152 0.717418
0 0.901213 0.71722
0 0.901106 0.717617
0 0.902068 0.71783
0 0.907408 0.711254
0 0.908461 0.678477
0.00932326 0.907622 0.639124
0.0581674 0.905974 0.586801
0.257298 0.912352 0.563897
0.538354 0.924025 0.568658
0.710887 0.934661 0.558541
0.835889 0.939635 0.527306
0.928679 0.940139 0.477119
0.986175 0.938354 0.419547
1 0.93637 0.375082
1 0.931441 0.364309
1 0.923842 0.353689
1 0.914992 0.343542
1 0.905806 0.333867
1 0.896742 0.339864
1 0.887449 0.348791
0 0.900465 0.720272
0 0.900435 0.720409
0 0.90042 0.720516
0 0.900404 0.720577
0 0.900374 0.720699
0 0.900359 0.720775
0 0.900343 0.720836
0 0.900313 0.720958
0 0.900282 0.72108
