LUT预设1/柯达5219&2393/柯达5219&2393尼康专用/Nlog/柯达2393冷调-Nlog.cube
TITLE "Generated by Resolve"
LUT_3D_SIZE 5
0.00799573 0.0541085 0.0473793
0.125856 0.0575418 0.0194858
0.612894 0.0233616 0
0.841764 1.5259e-05 0.0544442
0.944625 1.5259e-05 0.515923
0 0.113985 0.0721447
0.0924544 0.131441 0.0186313
0.725261 0.146273 0
0.930816 0.0920882 0.10631
0.985458 0.166217 0.593347
0 0.49752 0.298207
0 0.551278 0.342214
0.715282 0.641718 0.000106813
0.994781 0.637552 0.0440528
1 0.661875 0.482368
0 0.680354 0.602518
0 0.684077 0.612222
0.499657 0.816388 0.359564
0.921462 0.85951 0.316915
1 0.887221 0.567697
0 0.756741 0.831968
0 0.758129 0.835706
0 0.758877 0.838346
0.796948 0.953902 0.78262
0.988342 0.968399 0.774701
0.00106813 0.0721752 0.149966
0.130159 0.0653086 0.133227
0.645548 0.000900282 0.120516
0.85922 0 0.257801
0.959655 4.57771e-05 0.577829
0 0.164431 0.204318
0.122454 0.164187 0.183398
0.744747 0.159731 0.171313
0.930907 0.14612 0.340825
0.988663 0.211017 0.641215
0 0.548394 0.428962
0 0.606836 0.474556
0.718807 0.655848 0.133776
0.98378 0.658579 0.25774
1 0.67306 0.541115
0 0.70103 0.671733
0 0.70518 0.68336
0.453407 0.837964 0.530983
0.914595 0.872724 0.436957
1 0.89305 0.606348
0 0.75816 0.838911
0 0.759609 0.843046
0 0.760357 0.845731
0.794781 0.956954 0.804562
0.988022 0.970367 0.788708
0.0135042 0.290166 0.683787
0.222309 0.237095 0.691569
0.740429 0.219379 0.704982
0.928267 0.212146 0.733318
0.991836 0.259892 0.788373
0.00125124 0.421241 0.715496
0.165011 0.370443 0.718364
0.751461 0.372763 0.721782
0.942382 0.376806 0.74342
0.999008 0.406195 0.787457
0 0.686519 0.796872
0 0.722606 0.797421
0.704204 0.722469 0.705623
0.944198 0.720302 0.698238
1 0.717311 0.736156
0 0.732296 0.823728
0 0.734173 0.827573
0.547173 0.878798 0.75465
0.909331 0.905119 0.716869
0.999878 0.912596 0.75198
0 0.763241 0.872297
0 0.764523 0.875486
0 0.765133 0.877165
0.790265 0.969436 0.897398
0.984573 0.978653 0.854093
0.413687 0.64535 0.937652
0.496849 0.645502 0.934325
0.74107 0.646021 0.925475
0.922179 0.630625 0.916869
0.997406 0.616114 0.914183
0.402975 0.678325 0.940749
0.499138 0.684153 0.938888
0.745281 0.687526 0.930282
0.925673 0.674235 0.92108
0.997986 0.663539 0.920302
0.256275 0.788327 0.945861
0.401266 0.795316 0.941253
0.719036 0.804974 0.926665
0.919402 0.804211 0.916701
0.99765 0.803571 0.919402
0 0.840238 0.950591
0.0065919 0.877775 0.967666
0.632502 0.917983 0.931777
0.901869 0.933806 0.91899
0.993088 0.938399 0.920974
0 0.772473 0.915801
0 0.773617 0.917739
0 0.774731 0.918975
0.833127 0.981613 0.95523
0.979889 0.990112 0.944335
0.756054 0.889006 0.999863
0.764843 0.889326 0.999817
0.82034 0.888808 0.999451
0.915953 0.887892 0.998398
0.986191 0.889174 0.996506
0.759731 0.896162 0.999832
0.77258 0.898985 0.999786
0.829084 0.900145 0.999527
0.922576 0.900877 0.998825
0.98703 0.904204 0.997497
0.747662 0.916136 0.999756
0.762966 0.919326 0.99971
0.82472 0.92166 0.99942
0.921294 0.924941 0.998383
0.985779 0.928634 0.99675
0.701045 0.950912 0.999817
0.721386 0.954376 0.999802
0.798642 0.959564 0.999283
0.912917 0.965469 0.99736
0.983566 0.968917 0.995331
0.234241 0.954055 1
0.367269 0.958724 1
0.652232 0.975753 0.999985
0.874159 0.990814 0.999176
0.976425 0.996918 0.996002
