LUT预设1/柯达5219&2393/柯达5219&2393尼康专用/Nlog/柯达5219绿调-Nlog_12.DSC_0430.cube
TITLE "Generated by Resolve"
LUT_3D_SIZE 9
0.0230106 0.030518 0.0598459
0.0230564 0.0305333 0.0598459
0.0726482 0.0442359 0.059617
0.271809 0.0678111 0.040238
0.609537 0.084123 0.00523384
0.871778 0.102327 0
0.873487 0.102571 0
0.833143 0.0974594 0.0388647
0.726345 0.0981003 0.19646
0.0230106 0.030518 0.0598459
0.0230106 0.030518 0.0598459
0.0693828 0.043534 0.0599069
0.255299 0.0666056 0.0422217
0.586999 0.0834363 0.0069276
0.870695 0.102205 0
0.873579 0.10251 0
0.830427 0.0960403 0.04271
0.721935 0.103212 0.201038
0.0338445 0.0803998 0.0991684
0.0337987 0.0809339 0.0995193
0.0739605 0.0823377 0.0902876
0.3561 0.100435 0.0426947
0.623652 0.106706 0.00943008
0.82414 0.115099 0
0.902373 0.118914 0
0.830869 0.0964218 0.0536812
0.713222 0.118151 0.216892
0 0.320943 0.246677
0 0.323079 0.248096
0 0.321706 0.247547
0.415747 0.295888 0.0985275
0.856794 0.327321 0.0459449
1 0.450706 0.0392767
1 0.437888 0.0319677
1 0.357717 0.0078584
0.992126 0.344762 0.061799
0 0.624567 0.452293
0 0.627405 0.454292
0 0.62475 0.451896
0.0467689 0.58497 0.335149
0.728588 0.570108 0.118334
0.993591 0.607599 0.0661936
1 0.633173 0.0860761
1 0.608972 0.0909438
1 0.515465 0.0623789
0 0.840604 0.647669
0 0.842924 0.650217
0 0.842451 0.649561
0 0.826123 0.624491
0.355306 0.791852 0.41944
0.919936 0.779355 0.189532
1 0.777234 0.106264
1 0.745312 0.0995499
1 0.716335 0.213519
0 0.901366 0.716442
0 0.901366 0.716442
0 0.901366 0.716442
0 0.901366 0.716472
0.000869764 0.906676 0.662287
0.598886 0.915282 0.541238
0.988937 0.906249 0.329107
1 0.872618 0.239231
1 0.835538 0.276829
0 0.899611 0.724086
0 0.899519 0.724514
0 0.899382 0.725032
0 0.899138 0.726024
0 0.898466 0.729335
0.0360418 0.907927 0.627497
0.789563 0.938643 0.559213
0.999939 0.941131 0.418173
1 0.927016 0.430457
0 0.893065 0.750652
0 0.892943 0.751095
0 0.892851 0.751476
0 0.892714 0.752041
0 0.892485 0.752972
0 0.895735 0.759228
0.14226 0.912184 0.664027
0.871458 0.936934 0.577401
1 0.94078 0.501045
0.0230106 0.030518 0.0598459
0.0230564 0.0305333 0.0598459
0.0734569 0.044419 0.059556
0.280705 0.0684672 0.0391852
0.636133 0.0849928 0.00343328
0.873137 0.102464 0
0.872419 0.1028 0
0.824338 0.0939803 0.0514076
0.720317 0.104875 0.202991
0.0230106 0.030518 0.0598459
0.0230106 0.030518 0.0598459
0.0702831 0.0437476 0.0598459
0.268376 0.0675669 0.0406806
0.618173 0.0844892 0.00485237
0.873075 0.102464 0
0.871839 0.102922 0
0.820783 0.0924086 0.0562448
0.715267 0.110689 0.208255
0.0337682 0.0824445 0.100603
0.0337682 0.0831617 0.101091
0.0758679 0.0845808 0.0912795
0.356634 0.10219 0.043473
0.612314 0.107454 0.0109102
0.831525 0.116594 0
0.901213 0.119997 0
0.820966 0.0941024 0.068452
0.707134 0.125353 0.224201
0 0.322896 0.247944
0 0.325353 0.249546
0 0.324056 0.248997
0.41677 0.298405 0.0992447
0.857069 0.329839 0.0461891
1 0.453117 0.0400854
1 0.438346 0.0321965
1 0.356817 0.00773632
0.990646 0.34905 0.0733043
0 0.62742 0.454429
0 0.630289 0.456443
0 0.627604 0.454002
0.047013 0.586694 0.33521
0.729946 0.571588 0.118318
0.994522 0.608255 0.0661021
1 0.633906 0.0861372
1 0.609125 0.0928969
1 0.512276 0.060914
0 0.841581 0.648737
0 0.843885 0.651286
0 0.843366 0.650553
0 0.826337 0.624582
0.355871 0.792325 0.419883
0.919753 0.779767 0.190112
1 0.777493 0.106538
1 0.74551 0.102739
1 0.717113 0.225269
0 0.901366 0.716442
0 0.901366 0.716442
0 0.901366 0.716442
0 0.901366 0.716487
0.000656138 0.906691 0.662211
0.597452 0.915084 0.540932
0.988632 0.906294 0.329809
1 0.872663 0.241749
1 0.836118 0.285954
0 0.89926 0.725536
0 0.899107 0.726146
0 0.898985 0.726665
0 0.898726 0.727703
0 0.898039 0.731106
0.0345312 0.908156 0.631495
0.788785 0.93843 0.560204
0.999908 0.941115 0.423285
1 0.927077 0.435111
0 0.892851 0.751522
0 0.892729 0.751995
0 0.892638 0.752346
0 0.8925 0.752911
0 0.892241 0.753933
3.0518e-05 0.895659 0.760143
0.143572 0.912184 0.666239
0.870665 0.936782 0.579141
1 0.940719 0.503197
0.0202335 0.0352331 0.0804456
0.0205386 0.0347601 0.0787518
0.0725414 0.0462348 0.0837873
0.276463 0.072343 0.0600443
0.631861 0.0875257 0.0243992
0.845914 0.101839 0.0201724
0.818936 0.0929274 0.0588235
0.760586 0.0692149 0.147936
0.676631 0.153948 0.250919
0.0200809 0.0354467 0.0812085
0.0204318 0.0348974 0.079118
0.070634 0.0457008 0.0824292
0.278843 0.0725719 0.0600748
0.643641 0.0878157 0.0260014
0.843565 0.101717 0.0240635
0.814801 0.0907454 0.0653086
0.756054 0.0734874 0.154162
0.670405 0.161654 0.260853
0.0335699 0.0950942 0.120058
0.0335546 0.0961166 0.121218
0.0792401 0.096025 0.109911
0.317647 0.104784 0.0583963
0.643915 0.114931 0.0248569
0.899199 0.140719 0.0196231
0.845853 0.112078 0.0677806
0.770397 0.0923476 0.165896
0.681682 0.171344 0.275425
0 0.330114 0.25478
0 0.331914 0.256779
0 0.329259 0.256733
0.403906 0.303349 0.1075
0.841489 0.331304 0.0516976
0.997284 0.422751 0.0411841
1 0.391394 0.0193484
1 0.355459 0.0117952
0.969787 0.362905 0.176822
0 0.62829 0.455055
0 0.6309 0.456992
0 0.629328 0.456382
0.0440223 0.584421 0.336294
0.719631 0.567834 0.12192
0.993072 0.602014 0.0689097
1 0.633417 0.104234
1 0.607065 0.148409
1 0.497261 0.0551766
0 0.839353 0.646372
0 0.841489 0.648997
0 0.840497 0.6486
0 0.82031 0.622217
0.340383 0.786816 0.419196
0.909316 0.774258 0.194842
1 0.774395 0.12546
1 0.747173 0.171588
1 0.719783 0.30396
0 0.900069 0.722042
0 0.899992 0.722377
0 0.899916 0.722728
0 0.899336 0.7252
1.5259e-05 0.906691 0.671382
0.568261 0.910933 0.544945
0.984344 0.902907 0.352483
1 0.871611 0.291386
1 0.837018 0.342718
0 0.896468 0.736904
0 0.896315 0.737514
0 0.896193 0.738003
0 0.895979 0.738872
0 0.895018 0.743496
0.0225681 0.909422 0.66421
0.762585 0.935653 0.579995
0.999817 0.941024 0.456779
1 0.926452 0.462852
0 0.891554 0.757427
0 0.891493 0.757916
0 0.891447 0.758251
0 0.891356 0.75877
0 0.891203 0.75964
0.000289921 0.894636 0.76582
0.133227 0.911925 0.684215
0.861021 0.935607 0.59321
1 0.940276 0.518441
0.00645457 0.0817273 0.180896
0.00683604 0.0786603 0.175937
0.0488746 0.075761 0.224613
0.262501 0.0810559 0.280934
0.483345 0.148165 0.242161
0.680018 0.150317 0.249119
0.666163 0.16611 0.266621
0.646067 0.195575 0.309331
0.641276 0.230182 0.389487
0.00732433 0.103578 0.212955
0.00881971 0.101549 0.206882
0.0513619 0.0813306 0.236606
0.270481 0.0824598 0.290349
0.495537 0.1523 0.251835
0.671305 0.16025 0.260075
0.656382 0.177295 0.279286
0.641505 0.204196 0.324163
0.644083 0.233371 0.402014
0.0154116 0.207385 0.32369
0.0150607 0.217227 0.334447
0.0633402 0.191196 0.319432
0.309789 0.15787 0.326101
0.574838 0.194125 0.263249
0.822385 0.182528 0.271504
0.775601 0.188418 0.292851
0.717052 0.218219 0.330465
0.674571 0.254307 0.398184
0.00270085 0.380102 0.396994
0.00248722 0.383658 0.400671
0.00674449 0.378805 0.402457
0.295018 0.338338 0.369467
0.649561 0.337041 0.263142
0.91606 0.370733 0.188632
0.986313 0.433005 0.195331
0.958877 0.415778 0.316732
0.896696 0.374258 0.418128
0 0.621942 0.551797
0 0.62443 0.554513
0 0.62977 0.562051
0.058732 0.587396 0.534295
0.629694 0.578103 0.374701
0.958267 0.617304 0.343587
0.999969 0.631373 0.305089
1 0.52285 0.078233
1 0.509056 0.108782
0 0.821942 0.699535
0 0.82417 0.702174
0 0.823163 0.702037
0.00151064 0.799298 0.685405
0.186435 0.781979 0.575448
0.85098 0.770275 0.410925
1 0.78262 0.387854
1 0.759243 0.40798
1 0.688273 0.329091
0 0.890929 0.760281
0 0.890745 0.760998
0 0.890623 0.761563
0 0.889677 0.766293
0.00939956 0.901091 0.766598
0.403586 0.900984 0.62855
0.964614 0.896468 0.485161
1 0.870573 0.439521
1 0.838804 0.464179
0 0.890562 0.763241
0 0.890501 0.763821
0 0.89044 0.764263
0 0.890364 0.764889
0 0.889845 0.76788
0.0328222 0.908782 0.745769
0.683955 0.928618 0.632837
0.996185 0.938933 0.532494
1 0.923766 0.525841
0 0.889128 0.771664
0 0.889158 0.772076
0 0.889174 0.772366
0 0.889189 0.772763
0 0.889174 0.773434
0.00343328 0.892607 0.77966
0.1178 0.911116 0.726024
0.8309 0.932738 0.627787
1 0.939116 0.55639
0.0202182 0.41886 0.625635
0.0234226 0.401038 0.61004
0.0557565 0.295598 0.542062
0.246387 0.19379 0.631876
0.592615 0.173251 0.578958
0.705791 0.266789 0.499214
0.706081 0.257633 0.510124
0.717006 0.252216 0.540398
0.73547 0.243427 0.588449
0.025864 0.452644 0.657618
0.0277256 0.434913 0.639963
0.0608225 0.325414 0.567224
0.25391 0.21471 0.641321
0.599771 0.189593 0.585092
0.717098 0.285756 0.504692
0.717983 0.275456 0.518441
0.725811 0.263478 0.548608
0.73962 0.248478 0.592187
0.0337835 0.56466 0.737163
0.0438544 0.560052 0.735943
0.0749218 0.457404 0.644572
0.246509 0.317586 0.635538
0.599252 0.274876 0.597986
0.751095 0.365743 0.508309
0.752773 0.364279 0.507652
0.753902 0.353658 0.528099
0.758663 0.345083 0.563027
0.0158236 0.626123 0.759091
0.0157931 0.627802 0.759594
0.044892 0.569406 0.692622
0.244404 0.482231 0.628672
0.587106 0.439017 0.611627
0.812451 0.494148 0.546609
0.870878 0.495018 0.542473
0.853834 0.482673 0.548486
0.823804 0.473106 0.56173
0 0.698619 0.676234
0 0.701778 0.679377
0 0.704921 0.685466
0.0926833 0.645212 0.668299
0.549737 0.619852 0.636103
0.842176 0.635721 0.576898
0.969558 0.611032 0.466987
0.974014 0.615595 0.472099
0.949294 0.607446 0.538521
0 0.837781 0.752621
0 0.840055 0.754849
0 0.842786 0.757794
0.0210117 0.808835 0.743267
0.306081 0.782544 0.728923
0.769253 0.77818 0.63801
0.990326 0.783444 0.593103
1 0.710613 0.460182
0.999802 0.618433 0.252155
0.000701915 0.892607 0.798917
0.000671397 0.89276 0.799222
0.000640879 0.892866 0.799451
0.000793469 0.893645 0.801846
0.118929 0.892973 0.811124
0.388434 0.896544 0.755505
0.919066 0.888731 0.639078
0.999924 0.870253 0.600504
1 0.837324 0.58735
0.000732433 0.890379 0.793118
0.000701915 0.890547 0.793408
0.000686656 0.890639 0.793591
0.000671397 0.890745 0.793866
0.00363165 0.891142 0.796185
0.150362 0.905043 0.804089
0.580087 0.922774 0.713268
0.985779 0.934752 0.629267
0.999146 0.919661 0.611887
0.000411994 0.889937 0.790417
0.000457771 0.890028 0.790692
0.000503548 0.890089 0.790921
0.000534066 0.890135 0.79115
0.000579843 0.890227 0.791562
0.0200961 0.892424 0.799786
0.17026 0.91017 0.777005
0.77908 0.929076 0.681132
0.998962 0.936858 0.613779
0.0957351 0.671748 0.829755
0.0975204 0.670604 0.829343
0.127794 0.627894 0.813275
0.23032 0.537148 0.808942
0.588205 0.420829 0.838911
0.813367 0.405859 0.735668
0.828214 0.406729 0.715663
0.828428 0.390585 0.721538
0.833234 0.374548 0.738735
0.103944 0.67602 0.830991
0.10695 0.675029 0.830579
0.135027 0.637278 0.816159
0.242603 0.54847 0.810773
0.593393 0.435813 0.840543
0.815656 0.420218 0.741619
0.831724 0.421057 0.722377
0.83267 0.405066 0.729793
0.833906 0.387015 0.736675
0.148241 0.695567 0.835676
0.156527 0.695933 0.835325
0.17113 0.686519 0.829435
0.267063 0.599939 0.803861
0.575265 0.506233 0.833051
0.812558 0.482078 0.754162
0.8392 0.486976 0.72813
0.839765 0.470314 0.734386
0.83682 0.447959 0.72755
0.0437324 0.757488 0.859403
0.0569009 0.756741 0.857496
0.187442 0.739986 0.841459
0.352117 0.695293 0.80975
0.558694 0.612604 0.803967
0.803311 0.58793 0.763027
0.857053 0.599527 0.723445
0.85095 0.580941 0.717998
0.844602 0.558282 0.713558
0.00761425 0.797696 0.860563
0.00872816 0.798535 0.861845
0.0546426 0.791211 0.862257
0.252064 0.76376 0.826932
0.569162 0.723445 0.791455
0.792004 0.70045 0.771496
0.905562 0.711055 0.732448
0.894453 0.688502 0.7187
0.88571 0.662272 0.707942
0 0.884855 0.835843
0 0.887816 0.839002
0 0.889601 0.842863
0.0374304 0.849653 0.826276
0.420447 0.817838 0.80705
0.750484 0.801205 0.783322
0.944091 0.788281 0.716823
0.968795 0.746853 0.651362
0.967544 0.725277 0.628473
0 0.914 0.835966
0 0.914229 0.836362
0 0.914519 0.836912
0 0.914839 0.837598
0.208087 0.905013 0.841794
0.590448 0.899321 0.833951
0.877638 0.888685 0.763973
0.98764 0.861891 0.708431
0.999893 0.778592 0.574762
0 0.904402 0.819272
0 0.904616 0.819654
0 0.904768 0.819913
0 0.904936 0.820188
0.0144808 0.903731 0.82269
0.353063 0.908431 0.833539
0.618555 0.923812 0.801953
0.958038 0.930938 0.728511
0.988144 0.917113 0.704921
0.000122072 0.897566 0.808621
0.000106813 0.897658 0.808835
0.000122072 0.89781 0.809049
0.000137331 0.897948 0.809262
0.000137331 0.898146 0.809552
0.0439307 0.897902 0.819745
0.368383 0.910994 0.817227
0.740063 0.927382 0.74612
0.988052 0.934478 0.686534
0.316289 0.744076 0.842695
0.318456 0.743389 0.842496
0.351675 0.730175 0.839384
0.430426 0.685435 0.839811
0.594232 0.620813 0.863661
0.820249 0.570657 0.822126
0.865339 0.565286 0.786191
0.86157 0.546777 0.782193
0.857511 0.524437 0.777584
0.323903 0.74786 0.843412
0.326284 0.748012 0.843397
0.362707 0.735256 0.840345
0.442557 0.691035 0.840543
0.601328 0.627619 0.864073
0.825116 0.579644 0.821836
0.867048 0.5738 0.787991
0.863172 0.555444 0.784039
0.858961 0.533089 0.779446
0.375723 0.760784 0.845884
0.37969 0.761471 0.846021
0.393957 0.756588 0.844846
0.469261 0.721523 0.842542
0.602075 0.662882 0.861509
0.820554 0.613703 0.833661
0.873106 0.608225 0.797055
0.869581 0.588952 0.792157
0.865354 0.565896 0.786542
0.341253 0.79823 0.859648
0.365942 0.797436 0.858549
0.477256 0.788083 0.852583
0.502373 0.781903 0.851774
0.613367 0.732555 0.858015
0.804456 0.686427 0.8551
0.882887 0.680247 0.817792
0.880461 0.659464 0.811658
0.877379 0.634989 0.804761
0.0781262 0.839872 0.887007
0.0834211 0.841993 0.887449
0.152255 0.845777 0.88481
0.466896 0.832654 0.868879
0.645762 0.811704 0.864836
0.780316 0.774487 0.869184
0.896971 0.765255 0.840787
0.89305 0.744289 0.833448
0.887938 0.717571 0.821561
0.0078584 0.891264 0.896727
0.0107881 0.890929 0.896803
0.0507057 0.878584 0.895811
0.229786 0.869215 0.886671
0.564324 0.868818 0.87834
0.758694 0.852781 0.876829
0.912001 0.838788 0.85658
0.919203 0.818875 0.840208
0.912032 0.792737 0.824872
0 0.943236 0.902281
0 0.943633 0.903166
0 0.943862 0.903639
0.0165408 0.939788 0.899626
0.261173 0.935119 0.894408
0.658885 0.917159 0.886015
0.867674 0.899565 0.866896
0.956054 0.858839 0.79295
0.964935 0.820691 0.739345
0 0.930953 0.872114
0 0.931167 0.872602
0 0.931319 0.872969
0 0.933211 0.877211
0.0356909 0.926711 0.870863
0.420356 0.925536 0.867277
0.723659 0.927367 0.870832
0.929335 0.931807 0.82533
0.973846 0.909834 0.786465
0 0.916808 0.84094
0 0.917006 0.841413
0 0.917113 0.841688
0 0.917281 0.842054
0 0.917449 0.842344
0.0598001 0.912749 0.847593
0.527916 0.917601 0.851591
0.746242 0.9281 0.821668
0.969039 0.934493 0.771405
0.568307 0.821973 0.863264
0.570977 0.821424 0.863188
0.585351 0.815686 0.862104
0.630091 0.791989 0.860731
0.69482 0.745586 0.867048
0.820768 0.708293 0.854734
0.885313 0.70074 0.823941
0.883009 0.680217 0.817975
0.880003 0.655116 0.810605
0.574212 0.82388 0.863783
0.577752 0.823713 0.863783
0.59028 0.819089 0.862852
0.636347 0.795544 0.861708
0.701244 0.749615 0.867689
0.824796 0.714061 0.854185
0.885969 0.706065 0.825467
0.883574 0.685283 0.819425
0.880598 0.660288 0.8121
0.59234 0.831891 0.865843
0.594263 0.832532 0.86598
0.59617 0.831281 0.865492
0.642191 0.811078 0.864561
0.705943 0.767407 0.868086
0.822156 0.730694 0.858518
0.887907 0.722438 0.830228
0.88542 0.701656 0.824094
0.882475 0.676402 0.816815
0.635035 0.844938 0.871458
0.638163 0.845548 0.871794
0.642878 0.84509 0.87187
0.645731 0.841001 0.871855
0.713039 0.807416 0.871015
0.813169 0.767514 0.866896
0.894759 0.757839 0.840131
0.891432 0.737591 0.833799
0.887114 0.712596 0.827039
0.474311 0.884718 0.886458
0.50016 0.884657 0.885588
0.588525 0.876387 0.882933
0.700114 0.863554 0.88043
0.713527 0.858732 0.879988
0.803372 0.821683 0.876509
0.904936 0.806699 0.856184
0.904372 0.787442 0.848005
0.897169 0.763134 0.840696
0.148409 0.905669 0.903014
0.157427 0.906889 0.902968
0.204959 0.911391 0.902251
0.444465 0.909926 0.895735
0.699138 0.894942 0.891646
0.799268 0.878416 0.889601
0.900282 0.857588 0.877592
0.919738 0.84126 0.866911
0.913146 0.818006 0.858534
0.0383307 0.931792 0.910246
0.0448157 0.931914 0.91043
0.0846571 0.929564 0.910979
0.253956 0.92723 0.905364
0.521828 0.927382 0.900587
0.72314 0.924498 0.903578
0.865217 0.912108 0.902663
0.937865 0.898405 0.888395
0.930983 0.876616 0.879286
0 0.945891 0.908858
0 0.945891 0.908858
0 0.945891 0.908858
0.00256352 0.945876 0.909819
0.111803 0.945724 0.915007
0.474525 0.946014 0.906966
0.771923 0.940978 0.911345
0.92015 0.939376 0.902907
0.959579 0.901732 0.84239
0 0.940978 0.896223
0 0.940978 0.896223
0 0.940993 0.896269
0 0.941039 0.896376
0 0.94136 0.897108
0.105226 0.936721 0.893614
0.566323 0.933837 0.885283
0.798306 0.93283 0.885893
0.948592 0.938842 0.852872
0.717296 0.886091 0.888273
0.717845 0.886137 0.888319
0.727504 0.882521 0.887602
0.755367 0.872312 0.885664
0.79556 0.85008 0.882231
0.847471 0.820951 0.873716
0.906981 0.80412 0.854307
0.903639 0.785565 0.847288
0.896757 0.762493 0.840513
0.720653 0.886931 0.888731
0.723278 0.886671 0.888792
0.73315 0.883223 0.888136
0.758511 0.874128 0.886397
0.798428 0.852338 0.882963
0.851041 0.824048 0.873793
0.907759 0.806851 0.855253
0.904433 0.788357 0.84828
0.897642 0.765286 0.841382
0.728908 0.888747 0.889769
0.730968 0.88893 0.889937
0.738613 0.88629 0.889448
0.757092 0.879545 0.888151
0.798138 0.859159 0.884703
0.851026 0.831266 0.875669
0.909361 0.813275 0.857557
0.906355 0.794827 0.850507
0.899687 0.77203 0.843412
0.751141 0.893309 0.892393
0.7523 0.893965 0.892683
0.752697 0.893858 0.892699
0.753017 0.892821 0.892409
0.794827 0.876326 0.888991
0.848905 0.849027 0.880613
0.91313 0.828977 0.863249
0.910979 0.810468 0.855863
0.90454 0.788113 0.848219
0.761578 0.903105 0.896559
0.765332 0.903288 0.896757
0.774975 0.902327 0.896712
0.781079 0.9019 0.896712
0.791562 0.898085 0.895979
0.842374 0.87657 0.889372
0.912612 0.852155 0.873732
0.917967 0.835081 0.864759
0.911742 0.813107 0.856733
0.631022 0.930388 0.90425
0.638163 0.930602 0.904448
0.680369 0.928267 0.904204
0.75259 0.920623 0.903395
0.81117 0.913283 0.902464
0.829526 0.908644 0.901259
0.902388 0.883711 0.888411
0.927687 0.867277 0.876371
0.921004 0.845777 0.86862
0.366201 0.94464 0.908461
0.375357 0.944976 0.908461
0.417182 0.945449 0.908263
0.514611 0.946105 0.908034
0.656199 0.943008 0.909438
0.812879 0.930343 0.910109
0.879057 0.923415 0.908171
0.93846 0.906661 0.892805
0.934295 0.887098 0.883818
0.121569 0.946105 0.915206
0.127245 0.946136 0.915068
0.16939 0.946334 0.914305
0.308156 0.946777 0.911055
0.513329 0.946807 0.908766
0.670985 0.945541 0.910689
0.801602 0.942412 0.915923
0.911421 0.940002 0.914992
0.94548 0.928512 0.903548
0 0.945891 0.908858
0 0.945891 0.908858
0 0.945891 0.908858
0 0.945891 0.908888
0.048661 0.945464 0.915175
0.23386 0.9467 0.912764
0.608286 0.946258 0.909056
0.828656 0.941817 0.916503
0.93669 0.945098 0.913466
