LUT预设1/柯达5219&2393/柯达5219&2393尼康专用/Nlog/柯达5219基准-Nlog.cube
TITLE "Generated by Resolve"
LUT_3D_SIZE 5
0.0230106 0.030518 0.0598459
0.0723888 0.0441749 0.0596323
0.607935 0.084062 0.00531014
0.873487 0.102571 0
0.72755 0.0967269 0.195163
0.033875 0.0794995 0.0985428
0.0742046 0.0815595 0.0896925
0.618601 0.105806 0.00965896
0.901473 0.118349 0
0.713726 0.117433 0.216159
0 0.622095 0.450492
0 0.6224 0.450187
0.730678 0.567819 0.116564
1 0.63183 0.0860304
1 0.514046 0.0618448
0 0.901366 0.716442
0 0.901366 0.716442
0.00105287 0.906523 0.66009
0.98996 0.904677 0.323919
1 0.83389 0.275029
0 0.893172 0.750225
0 0.892973 0.751003
0 0.892592 0.75256
0.158389 0.912474 0.659663
1 0.94081 0.500114
0.0193942 0.0365911 0.0851453
0.0711223 0.0465095 0.0912184
0.620722 0.0863508 0.0349737
0.811551 0.0892348 0.0699626
0.673945 0.157214 0.2551
0.0335241 0.0958877 0.125109
0.0784009 0.0966354 0.11548
0.659464 0.117815 0.034165
0.837858 0.109926 0.0803235
0.679026 0.175265 0.280476
0 0.624781 0.453681
0 0.625483 0.456931
0.718318 0.564233 0.122362
1 0.632166 0.109133
1 0.494514 0.0543069
0 0.899794 0.723232
0 0.899626 0.723934
0 0.906508 0.674632
0.984756 0.900664 0.351492
1 0.835554 0.348898
0 0.891463 0.757855
0 0.89134 0.758755
0 0.891096 0.760143
0.143435 0.912062 0.682826
1 0.94023 0.519921
0.0271153 0.468818 0.676722
0.06009 0.341863 0.590631
0.60058 0.182559 0.622141
0.727077 0.272938 0.542763
0.746563 0.247745 0.609705
0.0425116 0.606882 0.778164
0.078996 0.493568 0.679454
0.601923 0.287892 0.63946
0.763714 0.377554 0.535622
0.769131 0.356146 0.582361
0 0.710231 0.699702
0.000350958 0.71632 0.712169
0.549569 0.627588 0.658503
0.961166 0.633844 0.527687
0.936431 0.613123 0.567361
0.000518807 0.894423 0.802777
0.00047303 0.894667 0.803342
0.138018 0.892485 0.814832
0.914687 0.886702 0.65687
1 0.834287 0.600198
0.00062562 0.890532 0.792981
0.000717174 0.890669 0.7935
0.00077821 0.890806 0.794079
0.189761 0.910307 0.782803
0.998138 0.936507 0.623346
0.36141 0.760678 0.845594
0.403052 0.746319 0.842573
0.603311 0.645518 0.863432
0.870268 0.59089 0.79205
0.862043 0.549798 0.783047
0.425483 0.773327 0.848219
0.422736 0.772686 0.848493
0.614267 0.682231 0.861646
0.876677 0.629816 0.803281
0.869535 0.586191 0.790875
0.101884 0.853254 0.889845
0.202197 0.856077 0.885771
0.655543 0.819959 0.867262
0.8981 0.771786 0.8439
0.889189 0.726345 0.830701
0 0.945281 0.9075
0 0.945266 0.907301
0.291188 0.938155 0.904723
0.868406 0.901991 0.883482
0.950744 0.849821 0.807004
0 0.922042 0.852033
0 0.922393 0.852842
0 0.923033 0.854017
0.546822 0.920287 0.858183
0.966018 0.935058 0.789242
0.751629 0.894499 0.892943
0.754055 0.893355 0.892668
0.810285 0.868009 0.887037
0.912047 0.823301 0.861128
0.902937 0.782834 0.846647
0.753491 0.899855 0.894911
0.752895 0.900465 0.895079
0.813886 0.876539 0.88922
0.91487 0.832059 0.864118
0.905669 0.791882 0.849271
0.800763 0.908476 0.900099
0.803067 0.909316 0.900511
0.799985 0.908446 0.900008
0.91046 0.863813 0.879179
0.915251 0.825406 0.861112
0.462089 0.946883 0.908431
0.503914 0.946822 0.908446
0.714199 0.940261 0.910582
0.882536 0.925628 0.909331
0.935225 0.889769 0.884978
0 0.945891 0.908873
0 0.945922 0.90898
0.0995041 0.946029 0.916091
0.651469 0.945617 0.910384
0.937957 0.945266 0.914137
