LUT预设1/柯达5219&2393/柯达5219&2393尼康专用/Nlog/柯达5219基准-Nlog.cube
TITLE "Generated by Resolve"
LUT_3D_SIZE 33
0.0230106 0.030518 0.0598459
0.0230106 0.030518 0.0598459
0.0230106 0.030518 0.0598459
0.0230106 0.030518 0.0598459
0.0230564 0.0305333 0.0598459
0.0231937 0.0305791 0.0598764
0.0261387 0.0315557 0.0602731
0.0426337 0.0365911 0.0611734
0.0723888 0.0441749 0.0596323
0.110124 0.0513924 0.0562142
0.155215 0.0575113 0.0522927
0.208423 0.0627604 0.0472877
0.270817 0.0677348 0.0403449
0.343145 0.0726177 0.0313573
0.424735 0.0770886 0.0217136
0.513817 0.080827 0.0127871
0.607935 0.084062 0.00531014
0.705776 0.0887007 0.0011902
0.79411 0.09514 4.57771e-05
0.854887 0.100603 0
0.871473 0.102296 0
0.873533 0.10251 0
0.873579 0.10251 0
0.873549 0.102525 0
0.873487 0.102571 0
0.871275 0.103059 0
0.867109 0.103822 0.00146487
0.85391 0.104463 0.0122072
0.833906 0.0977798 0.0377661
0.807355 0.0871901 0.0754406
0.778363 0.0716259 0.120851
0.752789 0.0784314 0.159167
0.72755 0.0967269 0.195163
0.0230106 0.030518 0.0598459
0.0230106 0.030518 0.0598459
0.0230106 0.030518 0.0598459
0.0230106 0.030518 0.0598459
0.0230564 0.0305333 0.0598459
0.0231937 0.0305791 0.0598764
0.026276 0.0316014 0.0602884
0.0434424 0.0368353 0.0611582
0.0734417 0.0444343 0.059556
0.111635 0.0516213 0.0560769
0.156832 0.0576944 0.0521553
0.210559 0.0629587 0.0470741
0.273457 0.0679332 0.0400397
0.34609 0.0728008 0.0309758
0.428519 0.0772717 0.0213016
0.518135 0.0809796 0.0124208
0.612284 0.0842603 0.00511177
0.710277 0.0889143 0.00102235
0.798199 0.095491 4.57771e-05
0.855787 0.100694 0
0.872221 0.102373 0
0.873564 0.10251 0
0.873579 0.10251 0
0.873549 0.102541 0
0.873487 0.102571 0
0.871077 0.103105 0
0.866331 0.103853 0.00218204
0.853239 0.104509 0.012665
0.83241 0.0971542 0.0399023
0.805722 0.0863813 0.0779736
0.776699 0.0707256 0.123476
0.7514 0.0794232 0.161227
0.725536 0.0990158 0.19733
0.0230106 0.030518 0.0598459
0.0230106 0.030518 0.0598459
0.0230106 0.030518 0.0598459
0.0230106 0.030518 0.0598459
0.0230564 0.0305333 0.0598459
0.0231785 0.0305791 0.0598764
0.0261845 0.0315709 0.0602731
0.0433967 0.03682 0.0611582
0.0733501 0.044419 0.0595712
0.111467 0.0515908 0.0560922
0.156603 0.0576638 0.0521706
0.209873 0.0628977 0.0471504
0.272633 0.0678721 0.0401465
0.344701 0.0727245 0.0311589
0.42707 0.0772106 0.0214542
0.517266 0.0809339 0.0125124
0.611444 0.0842451 0.00521859
0.709789 0.0888685 0.000976577
0.798566 0.0955367 4.57771e-05
0.855787 0.100694 0
0.87245 0.102388 0
0.873564 0.10251 0
0.873579 0.10251 0
0.873549 0.102541 0
0.873503 0.102571 0
0.871015 0.103136 0
0.865965 0.103868 0.002533
0.853117 0.104524 0.0126497
0.831662 0.0968032 0.0409857
0.804776 0.085893 0.0794385
0.775937 0.0703288 0.124651
0.750805 0.0799115 0.162142
0.724361 0.100359 0.198581
0.0230106 0.030518 0.0598459
0.0230106 0.030518 0.0598459
0.0230106 0.030518 0.0598459
0.0230106 0.030518 0.0598459
0.0230259 0.030518 0.0598459
0.0231022 0.0305486 0.0598611
0.025803 0.0314488 0.0602274
0.0424048 0.0365301 0.0611734
0.0719921 0.0441138 0.059678
0.109483 0.0512856 0.05626
0.153536 0.0573281 0.0524453
0.2056 0.0625315 0.0475929
0.266682 0.0674449 0.0408637
0.337316 0.0722667 0.032105
0.419196 0.0768444 0.0223239
0.508629 0.0806439 0.0132753
0.603708 0.0839857 0.00575265
0.702998 0.0884565 0.00105287
0.79556 0.0952926 3.0518e-05
0.854383 0.100557 0
0.872541 0.102403 0
0.873579 0.10251 0
0.873579 0.10251 0
0.873564 0.102525 0
0.873549 0.102525 0
0.871015 0.103151 0
0.865736 0.103929 0.0027924
0.853269 0.104524 0.0123445
0.83122 0.0965286 0.0416266
0.804379 0.0856641 0.0800031
0.775357 0.0700694 0.125536
0.750332 0.080415 0.16289
0.723461 0.101396 0.199496
0.0230106 0.030518 0.0598459
0.0230106 0.030518 0.0598459
0.0230106 0.030518 0.0598459
0.0230106 0.030518 0.0598459
0.0230106 0.030518 0.0598459
0.0230106 0.030518 0.0598459
0.0251316 0.03122 0.0601511
0.0403906 0.0359503 0.0611582
0.0693217 0.0435187 0.0599069
0.10547 0.0506447 0.0566262
0.147677 0.0566567 0.0529641
0.197223 0.0617838 0.0484321
0.254963 0.0665751 0.0422675
0.323232 0.0713664 0.0338903
0.403067 0.076051 0.0241398
0.491142 0.0800031 0.0148775
0.586084 0.0834058 0.00697337
0.685695 0.087541 0.00151064
0.780941 0.0942245 0.000137331
0.845441 0.099733 0
0.870649 0.102205 0
0.873457 0.102495 0
0.873579 0.10251 0
0.873564 0.102525 0
0.873579 0.10251 0
0.871 0.103197 0
0.865538 0.103929 0.0030518
0.853605 0.104448 0.0118105
0.831022 0.0962692 0.0418708
0.804089 0.08542 0.0803845
0.775113 0.0700542 0.125887
0.750286 0.0808118 0.163012
0.722942 0.102068 0.199969
0.0230106 0.030518 0.0598459
0.0230106 0.030518 0.0598459
0.0230106 0.030518 0.0598459
0.0230106 0.030518 0.0598459
0.0230106 0.030518 0.0598459
0.0230106 0.030518 0.0598459
0.0243076 0.0309453 0.0600443
0.0371252 0.0349737 0.0610361
0.0654154 0.0426032 0.0602121
0.100053 0.0497292 0.0571145
0.139483 0.0556649 0.053666
0.185306 0.0607004 0.0495918
0.238895 0.0653239 0.0441291
0.302235 0.0699779 0.0365759
0.377249 0.0746624 0.0272068
0.46157 0.0788586 0.017731
0.552148 0.0823377 0.00941482
0.646876 0.0857252 0.00288396
0.742199 0.0914168 0.00047303
0.821347 0.0975204 0
0.865766 0.101686 0
0.873121 0.102464 0
0.873579 0.10251 0
0.873579 0.10251 0
0.873579 0.10251 0
0.871 0.103258 0
0.865553 0.103944 0.00314336
0.854414 0.104295 0.0106813
0.831128 0.0959945 0.0416419
0.803998 0.0852216 0.0803845
0.774838 0.0703288 0.126192
0.749477 0.0817426 0.164141
0.721279 0.10399 0.201785
0.0239414 0.0322576 0.0615549
0.0239719 0.0323033 0.0616007
0.0239719 0.0323033 0.0616007
0.0239414 0.0322423 0.0615396
0.0238499 0.0320745 0.061387
0.0236667 0.0317235 0.0610513
0.023743 0.031281 0.0605325
0.0328222 0.0336767 0.0608225
0.0615549 0.0416571 0.0604715
0.0970779 0.0492256 0.0573587
0.13547 0.0551766 0.0540017
0.178271 0.060029 0.0502632
0.227893 0.0644541 0.0453956
0.285054 0.0688487 0.0387579
0.351904 0.0732738 0.0302586
0.427451 0.0774701 0.021088
0.50956 0.0810101 0.0126192
0.596643 0.0835889 0.00579843
0.689525 0.0878462 0.00166323
0.782315 0.0940414 0
0.853376 0.100343 0
0.87042 0.102174 0
0.873472 0.102495 0
0.873579 0.10251 0
0.873579 0.10251 0
0.87068 0.10338 0
0.864469 0.103929 0.0039826
0.85301 0.103975 0.0122377
0.828367 0.0949264 0.0456855
0.800824 0.0842451 0.0854047
0.771389 0.0704051 0.131441
0.744823 0.0849928 0.170108
0.715999 0.109865 0.207935
0.02916 0.0439002 0.0720073
0.0292821 0.0441901 0.0722515
0.0292821 0.0441901 0.0722515
0.02916 0.0438544 0.0719768
0.0288396 0.0430304 0.0712444
0.028275 0.0417945 0.0700847
0.0273442 0.0400702 0.0683757
0.032166 0.0398108 0.0667887
0.0642252 0.0470588 0.0650034
0.109071 0.0554818 0.0601816
0.157198 0.0614328 0.0549325
0.2065 0.0655222 0.0492409
0.25568 0.0688334 0.043183
0.306035 0.0719768 0.0368048
0.359869 0.0750896 0.0298009
0.419577 0.0782177 0.0222019
0.485054 0.0810254 0.0148165
0.556802 0.0826886 0.00898756
0.638041 0.0851453 0.00317388
0.729564 0.0898604 0
0.821851 0.0970474 0
0.860319 0.101137 0
0.872633 0.10251 0
0.874022 0.102724 0
0.874144 0.10277 0
0.869841 0.103792 0
0.86128 0.103914 0.00663767
0.848234 0.103105 0.018143
0.821363 0.0923476 0.0564889
0.792187 0.0822003 0.0990921
0.762493 0.0712291 0.144732
0.735622 0.0915999 0.181521
0.707668 0.119112 0.217762
0.033875 0.0794995 0.0985428
0.0338598 0.0802472 0.0990768
0.0338445 0.0806592 0.0993515
0.0338293 0.0805829 0.0992905
0.0338293 0.0800183 0.0988632
0.0338445 0.0792248 0.0982834
0.0338903 0.0786297 0.0978714
0.0365759 0.0789044 0.0975357
0.0742046 0.0815595 0.0896925
0.136431 0.0869917 0.0784314
0.203754 0.0920424 0.0678874
0.27744 0.0961776 0.0556802
0.354131 0.0996262 0.0426032
0.430503 0.102235 0.0313725
0.502525 0.103807 0.0226596
0.565972 0.104921 0.0155337
0.618601 0.105806 0.00965896
0.659693 0.106065 0.00546273
0.706935 0.107668 0.00228885
0.76112 0.110292 0.000122072
0.822385 0.114214 0
0.878828 0.120684 0
0.903853 0.122713 0
0.906783 0.121218 0
0.901473 0.118349 0
0.892088 0.115297 0
0.877943 0.110964 0.00492866
0.862394 0.105791 0.0104372
0.831144 0.0964065 0.0529335
0.800214 0.0863203 0.0966812
0.769116 0.0728618 0.143771
0.742412 0.0920424 0.180011
0.713726 0.117433 0.216159
0.0238499 0.12903 0.132494
0.0235752 0.129931 0.133104
0.0234531 0.130312 0.133349
0.0234379 0.130343 0.133364
0.0234989 0.130053 0.13315
0.0237125 0.129213 0.13254
0.0240482 0.127977 0.131655
0.0242466 0.127993 0.131594
0.0552834 0.126909 0.121462
0.140749 0.129015 0.100511
0.236927 0.132357 0.0835431
0.331853 0.136675 0.0670787
0.432334 0.140887 0.0502174
0.534371 0.144533 0.0363775
0.632532 0.148486 0.0253147
0.723278 0.15378 0.0157015
0.804135 0.160952 0.00747692
0.868193 0.170687 0.00177005
0.912764 0.18265 0.000427253
0.943221 0.190799 0
0.961349 0.195041 0
0.966018 0.190555 0
0.97113 0.18706 0
0.973342 0.183291 0
0.968887 0.176364 0
0.962768 0.168734 0
0.955398 0.16289 0.000381476
0.9467 0.158068 0.00328069
0.918044 0.152865 0.0310063
0.882994 0.136828 0.0721447
0.839719 0.111223 0.129183
0.804486 0.111467 0.175158
0.768612 0.125048 0.216693
0.0087129 0.183703 0.167254
0.00854505 0.184756 0.16788
0.00846876 0.18529 0.168215
0.00846876 0.185412 0.168292
0.00857557 0.185 0.168048
0.00877394 0.184298 0.16762
0.0091249 0.182849 0.166766
0.00900282 0.183413 0.167102
0.0198215 0.181628 0.159884
0.0927443 0.180941 0.132784
0.227451 0.179553 0.102693
0.352331 0.180865 0.079469
0.466957 0.184268 0.0607767
0.578027 0.18851 0.0467689
0.681727 0.194339 0.0364996
0.776165 0.203006 0.0280156
0.861845 0.215488 0.0198367
0.932128 0.233616 0.0121309
0.976547 0.259174 0.00538643
1 0.283619 0.0012665
1 0.301686 0.000762951
1 0.294469 0.000686656
1 0.283085 0.000579843
1 0.270191 0.000396735
1 0.257389 0.000137331
1 0.246189 0
1 0.237003 0
0.999725 0.229862 0
0.996994 0.227115 0
0.982208 0.226291 0.0228885
0.959442 0.222477 0.0593118
0.917876 0.194171 0.138018
0.878386 0.182971 0.201297
0 0.247547 0.205142
0 0.248829 0.205844
0 0.249485 0.20621
0 0.249653 0.206256
0 0.24921 0.205936
0 0.248249 0.20528
0 0.246921 0.20441
0 0.24744 0.204669
0.000259403 0.246036 0.202976
0.0347143 0.241688 0.176654
0.155871 0.23798 0.136629
0.323674 0.234241 0.0998703
0.459434 0.234928 0.0731518
0.576944 0.238712 0.0576028
0.685267 0.24538 0.0475624
0.784054 0.256031 0.0400702
0.872068 0.270665 0.0336004
0.941482 0.291783 0.0277104
0.980667 0.319387 0.0225223
1 0.350439 0.0181888
1 0.38352 0.0150759
1 0.381094 0.0135805
1 0.375326 0.0117189
1 0.366339 0.00933852
1 0.35079 0.00631724
1 0.333928 0.00463874
1 0.314961 0.00309758
1 0.299092 0.00148013
1 0.286854 0.000244144
1 0.284642 0.000228885
0.997604 0.285145 0.0104829
0.985565 0.290166 0.0583047
0.959838 0.280629 0.131746
0 0.318807 0.24535
0 0.320012 0.246098
0 0.320821 0.246616
0 0.321065 0.246799
0 0.320912 0.246754
0 0.320012 0.246281
0 0.318624 0.245563
0 0.318441 0.245502
0 0.319478 0.246189
0.00463874 0.310842 0.226673
0.071046 0.304707 0.185641
0.241871 0.297459 0.139239
0.41796 0.294026 0.0972915
0.549081 0.295613 0.0717479
0.662181 0.301259 0.0581826
0.764874 0.311162 0.0504616
0.857572 0.325551 0.0456855
0.931167 0.346334 0.0420233
0.976654 0.373663 0.0397345
1 0.407721 0.0385595
1 0.449149 0.0386969
1 0.451301 0.0374762
1 0.448814 0.0358434
1 0.443931 0.0340276
1 0.436027 0.031281
1 0.423194 0.027039
1 0.402991 0.0207065
1 0.378958 0.013611
1 0.355718 0.00727855
1 0.341131 0.00437934
1 0.33283 0.00407416
1 0.335668 0.00666819
0.992004 0.343236 0.0620279
0 0.394919 0.292882
0 0.396612 0.293904
0 0.397208 0.29424
0 0.397559 0.294408
0 0.397543 0.29427
0 0.396628 0.293507
0 0.395163 0.292332
0 0.394491 0.291691
0 0.397879 0.294057
0 0.388602 0.282078
0.0199741 0.377386 0.240024
0.135134 0.368154 0.193072
0.333883 0.362203 0.143954
0.505165 0.359731 0.0996414
0.626917 0.362173 0.0737469
0.731106 0.369451 0.0603342
0.826932 0.380819 0.0535134
0.908782 0.399771 0.051545
0.965896 0.424689 0.0518502
0.998596 0.455634 0.0539254
0.999924 0.49369 0.0576944
1 0.505989 0.0593576
1 0.509148 0.0593271
1 0.505318 0.0577401
1 0.500969 0.0560616
1 0.494148 0.0534981
1 0.484413 0.0498207
1 0.462928 0.0417029
1 0.436255 0.031754
1 0.405722 0.0212863
1 0.385489 0.0151675
1 0.375753 0.0128786
1 0.381079 0.0218051
0 0.473411 0.340871
0 0.475212 0.342199
0 0.475853 0.342672
0 0.476265 0.342977
0 0.476341 0.343038
0 0.475502 0.342428
0 0.474144 0.341436
0 0.472465 0.340169
0 0.477089 0.343343
0 0.471122 0.338491
0.000183108 0.455879 0.305425
0.0562142 0.443046 0.251682
0.216388 0.434318 0.19913
0.430198 0.430838 0.149935
0.586114 0.429465 0.103136
0.699702 0.432242 0.0764172
0.790402 0.439612 0.061738
0.875731 0.453803 0.0559701
0.944625 0.473075 0.0557107
0.990738 0.498466 0.0601968
0.999283 0.531258 0.0693675
1 0.551507 0.0776532
1 0.558694 0.0805524
1 0.555138 0.0789044
1 0.550698 0.0768749
1 0.546044 0.0747234
1 0.540673 0.0722515
1 0.530739 0.0678416
1 0.511559 0.0598611
1 0.478004 0.0472419
1 0.446967 0.0356298
1 0.422461 0.0263523
1 0.414618 0.0261997
0 0.551476 0.398688
0 0.552926 0.399771
0 0.553948 0.400519
0 0.554421 0.400854
0 0.554208 0.400671
0 0.553613 0.400183
0 0.552499 0.399283
0 0.550912 0.398001
0 0.553506 0.399954
0 0.553643 0.399969
0 0.536431 0.375006
0.0141756 0.52105 0.316686
0.113802 0.508324 0.264057
0.316884 0.50277 0.211078
0.523781 0.501839 0.155825
0.66273 0.500465 0.108507
0.763958 0.503075 0.0794995
0.84509 0.511131 0.0656596
0.916075 0.524178 0.0593576
0.972168 0.542351 0.0594186
0.99704 0.567269 0.0671244
1 0.590234 0.0786145
1 0.599481 0.0842908
1 0.596902 0.0843061
1 0.593057 0.0840467
1 0.588891 0.0837873
1 0.584405 0.0842908
1 0.579004 0.0846265
1 0.568048 0.0829938
1 0.550011 0.0770886
1 0.516838 0.0630961
1 0.481559 0.0479744
1 0.459281 0.0400702
0 0.622095 0.450492
0 0.623499 0.451514
0 0.624491 0.452232
0 0.624643 0.452323
0 0.624903 0.452461
0 0.624414 0.452018
0 0.623545 0.451255
0 0.622171 0.450095
0 0.6224 0.450187
0 0.627985 0.454475
0 0.613947 0.440711
0.00234989 0.595972 0.392691
0.0493019 0.581888 0.331899
0.187961 0.572564 0.276356
0.428626 0.57229 0.231113
0.610834 0.569146 0.165667
0.730678 0.567819 0.116564
0.81709 0.569223 0.0864271
0.890211 0.57557 0.069337
0.952926 0.587472 0.0627146
0.993698 0.605997 0.0662089
1 0.628763 0.0782635
1 0.639445 0.0853895
1 0.636271 0.0858778
1 0.63183 0.0860304
1 0.626947 0.0860761
1 0.621515 0.0865949
1 0.615641 0.0867475
1 0.607492 0.0906081
1 0.597543 0.0918135
1 0.578027 0.0955367
1 0.549538 0.0804761
1 0.514046 0.0618448
0 0.685817 0.502144
0 0.686809 0.503014
0 0.687739 0.503853
0 0.687968 0.504036
0 0.68835 0.504356
0 0.688106 0.504173
0 0.687388 0.503594
0 0.686305 0.502724
0 0.685145 0.501793
0 0.691768 0.507179
0 0.683482 0.499763
0 0.665049 0.465934
0.0143435 0.65069 0.405371
0.100206 0.638315 0.346258
0.303288 0.634501 0.298802
0.528161 0.633982 0.244282
0.681163 0.629999 0.179995
0.787701 0.626825 0.127443
0.868498 0.627344 0.0922255
0.933013 0.632502 0.074052
0.982895 0.644907 0.069688
0.996963 0.66389 0.0779889
1 0.674144 0.0848707
1 0.672374 0.0865644
1 0.667414 0.0864424
1 0.661891 0.0863355
1 0.656123 0.0862287
1 0.649897 0.0882429
1 0.643503 0.0933547
1 0.636728 0.104082
1 0.626291 0.118273
1 0.604822 0.116152
1 0.574472 0.108812
0 0.743297 0.553445
0 0.744411 0.554452
0 0.74522 0.555184
0 0.745418 0.555383
0 0.745815 0.555734
0 0.745769 0.555734
0 0.745434 0.555474
0 0.744656 0.554879
0 0.743603 0.554055
0 0.746502 0.556664
0 0.747234 0.557397
0 0.730251 0.536934
0 0.714565 0.480308
0.0453498 0.701427 0.42092
0.177493 0.692317 0.362448
0.417929 0.693645 0.325551
0.610208 0.690532 0.26244
0.746349 0.684993 0.192767
0.844205 0.680537 0.134646
0.912886 0.679118 0.0968338
0.966567 0.685695 0.0809186
0.990982 0.6981 0.0804761
1 0.706584 0.0842298
1 0.707485 0.0872358
1 0.702205 0.0867323
1 0.696315 0.0862898
1 0.690257 0.0860304
1 0.684016 0.0893416
1 0.677211 0.0926986
1 0.671397 0.110658
1 0.664866 0.129015
1 0.655055 0.157122
1 0.636896 0.169421
0 0.793439 0.598825
0 0.794537 0.599832
0 0.795361 0.600565
0 0.795605 0.600778
0 0.796078 0.60119
0 0.796185 0.601236
0 0.796139 0.601099
0 0.795697 0.600519
0 0.79472 0.599374
0 0.794644 0.599039
0 0.800381 0.604669
0 0.788907 0.591821
0 0.772076 0.555138
0.0113375 0.759365 0.494102
0.0893263 0.748898 0.435645
0.287465 0.744823 0.391775
0.505226 0.744762 0.346716
0.674144 0.743099 0.291936
0.799084 0.73817 0.225498
0.893675 0.730312 0.14609
0.950179 0.730434 0.112627
0.98439 0.736004 0.0951247
1 0.742214 0.0888075
1 0.74551 0.0897383
1 0.739269 0.0896162
1 0.732692 0.0894636
1 0.725704 0.0903182
1 0.717769 0.0918135
1 0.709529 0.0944381
1 0.702007 0.107439
1 0.694286 0.117327
1 0.689219 0.168368
1 0.680674 0.206027
0 0.838712 0.645579
0 0.839658 0.646632
0 0.840131 0.647135
0 0.840589 0.647654
0 0.841031 0.648127
0 0.841199 0.648295
0 0.84126 0.648356
0 0.841154 0.648188
0 0.840482 0.647379
0 0.839658 0.646372
0 0.844831 0.651896
0 0.839673 0.646204
0 0.823392 0.620951
0.00128176 0.810987 0.572137
0.0345312 0.799741 0.513039
0.156298 0.791333 0.457893
0.365408 0.789792 0.415976
0.574899 0.791287 0.379355
0.730877 0.789563 0.328359
0.847211 0.78262 0.248997
0.922011 0.776974 0.184924
0.972412 0.775937 0.140642
0.998901 0.777981 0.11545
1 0.782086 0.10898
1 0.775464 0.105333
1 0.768307 0.102022
1 0.760647 0.0993057
1 0.752361 0.0961929
1 0.743633 0.099382
1 0.734997 0.104891
1 0.727733 0.128817
1 0.721965 0.171664
1 0.714794 0.213001
0 0.875029 0.685878
0 0.875441 0.686351
0 0.875654 0.686595
0 0.875853 0.686824
0 0.876051 0.687068
0 0.876143 0.687175
0 0.876204 0.687236
0 0.876188 0.687221
0 0.87599 0.686992
0 0.87538 0.686336
0 0.875807 0.686854
0 0.878004 0.689357
0 0.868009 0.676555
0 0.855863 0.643076
0.00537118 0.846204 0.592416
0.0593881 0.835111 0.529488
0.208499 0.829694 0.479927
0.441291 0.831312 0.451804
0.638361 0.833631 0.420768
0.779263 0.830991 0.361044
0.878737 0.823392 0.282719
0.949889 0.816983 0.212833
0.992767 0.814084 0.163165
0.999664 0.816159 0.14258
1 0.8103 0.133242
1 0.803052 0.124895
1 0.79501 0.117128
1 0.786511 0.112154
1 0.777386 0.110323
1 0.768109 0.110369
1 0.7608 0.142443
1 0.752819 0.168963
1 0.746578 0.218418
0 0.89427 0.708202
0 0.894713 0.708705
0 0.895033 0.709072
0 0.895247 0.709331
0 0.895369 0.709453
0 0.895582 0.709697
0 0.895689 0.709819
0 0.895796 0.709957
0 0.895933 0.710124
0 0.896162 0.710399
0 0.896513 0.710811
0 0.898054 0.712596
0 0.897505 0.711925
0 0.894621 0.703593
0 0.886076 0.66714
0.0040589 0.875425 0.601877
0.0743877 0.866453 0.547646
0.262654 0.863722 0.51046
0.506767 0.868482 0.487968
0.68632 0.871885 0.462318
0.81706 0.867628 0.397757
0.913115 0.859251 0.315206
0.979126 0.850568 0.237369
0.997925 0.846662 0.193484
1 0.843015 0.174563
1 0.836805 0.160876
1 0.828275 0.151186
1 0.819547 0.143404
1 0.810422 0.136294
1 0.801495 0.145602
1 0.79237 0.157824
1 0.783123 0.175723
1 0.775708 0.223575
0 0.89958 0.714366
0 0.899657 0.714443
0 0.899687 0.714488
0 0.899718 0.714534
0 0.899763 0.714565
0 0.899794 0.714611
0 0.899809 0.714626
0 0.899825 0.714641
0 0.89984 0.714672
0 0.899886 0.714717
0 0.899962 0.714824
0 0.900221 0.715114
0 0.900526 0.71548
0 0.900374 0.714778
0 0.900542 0.703166
0 0.897704 0.662028
0.015198 0.893568 0.614664
0.104524 0.890974 0.568826
0.297505 0.891859 0.535149
0.534905 0.896223 0.519661
0.723262 0.898222 0.487083
0.84892 0.89543 0.427817
0.941466 0.888884 0.353719
0.990402 0.880125 0.28249
0.999588 0.875257 0.24242
1 0.868605 0.218982
1 0.860044 0.205097
1 0.851072 0.191333
1 0.841825 0.186969
1 0.832135 0.185077
1 0.822171 0.179355
1 0.813642 0.208789
1 0.805341 0.247105
0 0.901366 0.716442
0 0.901366 0.716442
0 0.901366 0.716442
0 0.901366 0.716442
0 0.901366 0.716442
0 0.901366 0.716442
0 0.901366 0.716442
0 0.901366 0.716442
0 0.901366 0.716442
0 0.901366 0.716442
0 0.901366 0.716442
0 0.901366 0.716442
0 0.901366 0.716472
0 0.90132 0.716655
0 0.903883 0.717174
0 0.907057 0.700725
0.00105287 0.906523 0.66009
0.0328985 0.904677 0.615656
0.140749 0.90341 0.570443
0.36347 0.907591 0.549264
0.608881 0.914885 0.539162
0.768063 0.919264 0.509712
0.886 0.919402 0.460838
0.95845 0.911528 0.385046
0.98996 0.904677 0.323919
1 0.897429 0.281483
1 0.889296 0.257252
1 0.880354 0.247623
1 0.870909 0.236423
1 0.861112 0.223194
1 0.851881 0.231525
1 0.842954 0.252186
1 0.83389 0.275029
0 0.901366 0.716442
0 0.901366 0.716442
0 0.901366 0.716442
0 0.901366 0.716442
0 0.901366 0.716442
0 0.901366 0.716442
0 0.901366 0.716442
0 0.901366 0.716442
0 0.901366 0.716442
0 0.901366 0.716442
0 0.901366 0.716442
0 0.90135 0.716533
0 0.90132 0.71664
0 0.901198 0.717189
0 0.901442 0.717418
0 0.906569 0.717174
0 0.908339 0.687617
0.00833143 0.907958 0.649195
0.0520027 0.906493 0.602411
0.186084 0.909194 0.564752
0.460914 0.919554 0.562264
0.669963 0.930358 0.558938
0.808682 0.93846 0.540078
0.906889 0.936248 0.479698
0.968963 0.929702 0.408804
0.998489 0.921965 0.349554
1 0.914824 0.313008
1 0.906783 0.296239
1 0.89778 0.27921
1 0.88896 0.282246
1 0.879835 0.287404
1 0.870375 0.292454
1 0.860914 0.307576
0 0.901122 0.71754
0 0.901122 0.717525
0 0.901122 0.717525
0 0.901122 0.71751
0 0.901122 0.717525
0 0.901122 0.717525
0 0.901122 0.717525
0 0.901122 0.717525
0 0.901122 0.71754
0 0.901122 0.717556
0 0.901122 0.717571
0 0.901106 0.717617
0 0.901137 0.717479
0 0.901167 0.717357
0 0.901076 0.717769
0 0.902251 0.717968
0 0.907561 0.709789
0 0.908476 0.676417
0.0108492 0.9075 0.636225
0.064271 0.905974 0.583597
0.271962 0.912779 0.562799
0.551583 0.92459 0.568276
0.7187 0.935012 0.557504
0.841291 0.939437 0.524514
0.932097 0.939452 0.472618
0.987167 0.937331 0.415106
1 0.935042 0.371389
1 0.929992 0.359792
1 0.922225 0.349981
1 0.913344 0.340505
1 0.904204 0.331716
1 0.895232 0.337041
1 0.885939 0.346517
0 0.900557 0.719875
0 0.900526 0.720012
0 0.900496 0.720134
0 0.900481 0.720211
0 0.900465 0.720272
0 0.900435 0.720394
0 0.90042 0.72047
0 0.900389 0.720592
0 0.900359 0.720714
