LUT预设1/柯达5219&2393/柯达5219&2393尼康专用/Nlog/柯达5219微调-Nlog.cube
TITLE "Generated by Resolve"
LUT_3D_SIZE 33
0.0213169 0.0276646 0.0486763
0.0216983 0.0276493 0.0486305
0.0229191 0.0275883 0.0484627
0.0259251 0.0276036 0.0478218
0.0325628 0.0281529 0.0453346
0.0449836 0.029221 0.0407568
0.0713512 0.0307469 0.0337072
0.117998 0.0311284 0.0289311
0.168688 0.0313268 0.0252232
0.224598 0.0311894 0.0213321
0.287953 0.0304265 0.0162203
0.360143 0.0290379 0.0103456
0.441962 0.0270848 0.00556954
0.529747 0.0244755 0.00306706
0.619593 0.0213626 0.0018616
0.706401 0.0180667 0.000991836
0.786343 0.0148775 0.000228885
0.853834 0.0102388 0.000106813
0.902113 0.00675975 0.000228885
0.935317 0.00436408 0.000488289
0.95259 0.00364691 0.000701915
0.958556 0.00349432 0.000793469
0.9617 0.00343328 0.000854505
0.962249 0.00343328 0.000854505
0.962249 0.00343328 0.000854505
0.962249 0.00343328 0.000854505
0.962249 0.00343328 0.0009308
0.962249 0.00343328 0.00129702
0.962249 0.00343328 0.00215152
0.962249 0.00343328 0.00337224
0.962219 0.00343328 0.00500496
0.962203 0.00343328 0.00848402
0.961349 0.00344854 0.0196536
0.0212863 0.0278172 0.0488136
0.0216678 0.0278172 0.0487831
0.0229343 0.0277256 0.0486458
0.0260014 0.0277562 0.0479896
0.0327611 0.0283207 0.0454414
0.0454871 0.0294499 0.0407721
0.0729229 0.0309758 0.0337072
0.120027 0.031342 0.0288853
0.171237 0.0315099 0.0251316
0.227741 0.0313268 0.0211185
0.291539 0.0304723 0.0159304
0.36492 0.0290074 0.0099794
0.447303 0.026978 0.00534066
0.536233 0.0242771 0.00296025
0.626154 0.0211185 0.00180056
0.712703 0.0178073 0.0009308
0.792294 0.0146334 0.000183108
0.859358 0.00982681 9.15541e-05
0.905791 0.00646983 0.000259403
0.936996 0.00428778 0.000503548
0.954131 0.00357061 0.000732433
0.95906 0.00347906 0.000808728
0.961776 0.00343328 0.000854505
0.962249 0.00343328 0.000854505
0.962249 0.00343328 0.000854505
0.962249 0.00343328 0.000854505
0.962249 0.00343328 0.000946059
0.962249 0.00343328 0.00137331
0.962249 0.00343328 0.00238041
0.962249 0.00343328 0.00364691
0.962219 0.00343328 0.00541695
0.962203 0.00343328 0.00886549
0.961334 0.00344854 0.0207675
0.0211948 0.0283513 0.0493629
0.0215915 0.028336 0.0493172
0.0228733 0.0282444 0.0492103
0.0259556 0.0282444 0.0485695
0.0328832 0.0288853 0.0460212
0.0459602 0.0301366 0.0413062
0.0746014 0.0317998 0.0341497
0.122271 0.0320592 0.029099
0.174136 0.0321202 0.0251469
0.231937 0.0318151 0.0209049
0.297108 0.0307927 0.0155032
0.372091 0.0291142 0.00944533
0.455573 0.0268711 0.0049897
0.545556 0.0240024 0.00282292
0.63624 0.0207523 0.00172427
0.72311 0.0174105 0.000854505
0.802228 0.0141299 0.000122072
0.868498 0.00910964 9.15541e-05
0.911803 0.00601205 0.000289921
0.940597 0.00410468 0.000549325
0.95584 0.00352483 0.000747692
0.959838 0.0034638 0.000823987
0.961913 0.00343328 0.000854505
0.962249 0.00343328 0.000854505
0.962249 0.00343328 0.000854505
0.962249 0.00343328 0.000869764
0.962249 0.00343328 0.00103761
0.962249 0.00343328 0.00181582
0.962249 0.00343328 0.00315862
0.962249 0.00343328 0.00450141
0.962219 0.00343328 0.00646983
0.962219 0.00343328 0.00994888
0.961456 0.00343328 0.0226139
0.0208896 0.0298924 0.0505837
0.0212863 0.0299077 0.0506142
0.0225681 0.0298619 0.0505531
0.0256657 0.0297856 0.0500191
0.032929 0.030518 0.0473182
0.0465858 0.0319524 0.0425574
0.0769513 0.033753 0.0352331
0.125978 0.0339361 0.0296483
0.17911 0.0338445 0.0251926
0.238865 0.0332036 0.0205081
0.30695 0.0317235 0.0146944
0.385061 0.0294804 0.00849927
0.471244 0.0267185 0.00442512
0.562509 0.0234989 0.00259403
0.6542 0.0200961 0.00158694
0.741955 0.0166476 0.000701915
0.820676 0.0131533 3.0518e-05
0.883925 0.00787366 0.000106813
0.922683 0.00520333 0.000366217
0.946731 0.0037995 0.00062562
0.95816 0.00347906 0.000793469
0.960784 0.00344854 0.000839246
0.962081 0.00343328 0.000854505
0.962249 0.00343328 0.000869764
0.962249 0.00343328 0.000885023
0.962249 0.00343328 0.00102235
0.962249 0.00343328 0.00154116
0.962249 0.00343328 0.00296025
0.962249 0.00343328 0.00508125
0.962249 0.00343328 0.00663767
0.962234 0.00343328 0.00877394
0.962219 0.00343328 0.012604
0.961822 0.00343328 0.0261845
0.0194095 0.0361791 0.0537881
0.0197604 0.0362707 0.0538186
0.0209354 0.0362554 0.0537881
0.023682 0.0362249 0.0535592
0.0320745 0.036759 0.0500649
0.0473487 0.0377966 0.0448768
0.0803693 0.0393378 0.0374456
0.131746 0.0398413 0.0302434
0.187457 0.0395819 0.0243839
0.251575 0.0381018 0.0189822
0.325322 0.0351263 0.0128023
0.409995 0.0309911 0.00689708
0.500908 0.0265965 0.00360113
0.595209 0.0225071 0.00213626
0.687449 0.0188296 0.00117494
0.773083 0.0150912 0.000427253
0.849027 0.0110475 3.0518e-05
0.905074 0.00646983 0.000259403
0.936126 0.00447089 0.000518807
0.953094 0.00363165 0.000717174
0.959945 0.0034638 0.000823987
0.961486 0.00343328 0.000839246
0.962173 0.00343328 0.000869764
0.962249 0.00343328 0.000915541
0.962249 0.00343328 0.000991836
0.962249 0.00343328 0.00138857
0.962249 0.00343328 0.00256352
0.962249 0.00343328 0.0052491
0.962249 0.00343328 0.00894179
0.962249 0.00343328 0.0108186
0.962249 0.00343328 0.0148623
0.962249 0.00343328 0.0215
0.962081 0.00343328 0.0375525
0.0168917 0.0472877 0.0594492
0.0171206 0.0475166 0.0595865
0.0180362 0.0476844 0.059678
0.0200656 0.0478218 0.0597086
0.0272526 0.0484932 0.0563668
0.0447852 0.0488594 0.0502785
0.0855268 0.049012 0.041474
0.141863 0.0496529 0.0321813
0.203235 0.0493019 0.0239567
0.275395 0.04654 0.0171817
0.35874 0.0413062 0.0102541
0.452964 0.0340124 0.00485237
0.551339 0.0267491 0.00251774
0.649042 0.0211032 0.00144961
0.740963 0.0167849 0.00062562
0.822812 0.0124666 0.000122072
0.891066 0.00767529 0.000106813
0.932769 0.00469978 0.000488289
0.952102 0.00367742 0.000701915
0.960082 0.00344854 0.000823987
0.961822 0.00344854 0.000854505
0.962112 0.00344854 0.000854505
0.962249 0.00344854 0.000915541
0.962249 0.0034638 0.00108339
0.962249 0.00344854 0.00148013
0.962249 0.00343328 0.00299077
0.962249 0.00343328 0.00691234
0.962264 0.00343328 0.014313
0.962264 0.00343328 0.026566
0.96228 0.00343328 0.0319066
0.96228 0.00343328 0.0364843
0.962295 0.00343328 0.0433967
0.962448 0.0033875 0.0612497
0.0128786 0.0686046 0.070573
0.0129091 0.0691691 0.0709239
0.0132906 0.0695659 0.0712596
0.0141756 0.0699168 0.0717784
0.0167544 0.0710613 0.0709087
0.0281682 0.072282 0.0650797
0.0811933 0.0691844 0.0489204
0.157366 0.0671244 0.0366064
0.234318 0.0656138 0.0259861
0.324102 0.0607919 0.0161135
0.423789 0.0525216 0.00767529
0.530571 0.0408179 0.00331121
0.635935 0.0291142 0.00166323
0.733654 0.0205539 0.000656138
0.819898 0.0137484 0.00015259
0.887465 0.00840772 0.00015259
0.934813 0.00447089 0.00047303
0.95314 0.00386053 0.000717174
0.960052 0.0037232 0.000823987
0.96202 0.00395209 0.000854505
0.962188 0.00457771 0.000854505
0.962234 0.00540169 0.000900282
0.962264 0.0061799 0.0010071
0.962264 0.00660716 0.0016022
0.962264 0.00581369 0.00291447
0.962264 0.00511177 0.0068513
0.962264 0.00460822 0.0169833
0.962295 0.00410468 0.0338903
0.962371 0.0037232 0.0633097
0.96257 0.00375372 0.0786297
0.962844 0.00357061 0.0908522
0.963058 0.00328069 0.0998398
0.963439 0.00314336 0.114122
0.00929274 0.105699 0.0870069
0.00927749 0.106661 0.08748
0.00935378 0.107317 0.0881361
0.00955215 0.107881 0.0893111
0.010071 0.108858 0.0907301
0.01178 0.111345 0.0894331
0.0372168 0.112505 0.0686961
0.140307 0.10277 0.0441138
0.250141 0.096376 0.0271763
0.369329 0.088365 0.0140993
0.49659 0.0754864 0.00570687
0.620111 0.0581979 0.00244144
0.730907 0.0412451 0.000854505
0.823774 0.0273442 0.000198367
0.891463 0.0178836 0.000198367
0.933684 0.0128176 0.000457771
0.955169 0.0120241 0.000747692
0.960266 0.0138552 0.000823987
0.962127 0.017319 0.000869764
0.962524 0.0232547 0.000885023
0.962875 0.0344854 0.000946059
0.963607 0.0500496 0.0011902
0.964599 0.067689 0.00144961
0.96527 0.0770428 0.00224308
0.965484 0.07776 0.0040589
0.96495 0.0654917 0.00775158
0.964218 0.0538491 0.0192416
0.963653 0.0437018 0.0381933
0.962966 0.0316777 0.0686809
0.963912 0.0238651 0.116487
0.964034 0.0148165 0.151354
0.963806 0.00781262 0.18027
0.963684 0.00541695 0.192096
0.00723278 0.153948 0.101595
0.007187 0.155169 0.102083
0.00715648 0.155962 0.102892
0.0071107 0.156619 0.104463
0.00704967 0.157305 0.107057
0.0071107 0.159182 0.10988
0.0107729 0.164721 0.0978866
0.0694743 0.157473 0.0648051
0.211109 0.144823 0.036286
0.359472 0.134615 0.0150301
0.513619 0.120867 0.00535592
0.660945 0.10219 0.00201419
0.784848 0.0821851 0.000564584
0.876936 0.0642405 0.000289921
0.930846 0.0548714 0.000534066
0.954833 0.0541543 0.000823987
0.961868 0.0599069 0.00102235
0.964187 0.0737926 0.00140383
0.966308 0.0950179 0.0018616
0.968566 0.123339 0.00228885
0.971664 0.159579 0.00254826
0.975875 0.201999 0.00244144
0.980484 0.248569 0.00166323
0.983734 0.284123 0.00151064
0.985443 0.304936 0.00260929
0.98558 0.30721 0.00411994
0.982803 0.275883 0.0120851
0.980011 0.243122 0.0278935
0.976333 0.201114 0.0520943
0.972595 0.152422 0.105104
0.968322 0.101274 0.169177
0.964233 0.0477302 0.236622
0.963623 0.0246433 0.272999
0.00508125 0.212482 0.115557
0.00502022 0.214023 0.116182
0.00495918 0.215045 0.117327
0.00488289 0.215991 0.119371
0.00476081 0.216907 0.123095
0.00460822 0.218341 0.127626
0.00448615 0.222721 0.129625
0.0144503 0.222065 0.0889906
0.118166 0.208087 0.0626535
0.303014 0.194049 0.0270848
0.474083 0.180957 0.00665293
0.638575 0.167559 0.00172427
0.785031 0.154772 0.00111391
0.89102 0.148119 0.00189212
0.948104 0.152651 0.00262455
0.968963 0.166903 0.00306706
0.973724 0.187274 0.00325017
0.97673 0.214954 0.0031281
0.980346 0.248371 0.00247196
0.984466 0.287968 0.00128176
0.988739 0.333089 0.000274662
0.992386 0.379934 0.000869764
0.995529 0.428244 0.000976577
0.997681 0.475502 0.000488289
0.998871 0.51809 0.000366217
0.999466 0.55552 0.000701915
0.999512 0.568719 0.0041352
0.999146 0.553338 0.0150454
0.998566 0.518776 0.0319371
0.996262 0.452583 0.0691691
0.988769 0.361929 0.14815
0.980346 0.25774 0.235889
0.971344 0.155673 0.320836
0.00149538 0.285679 0.131075
0.00148013 0.287968 0.131899
0.00143435 0.289769 0.133501
0.00137331 0.291386 0.136522
0.00128176 0.292836 0.141161
0.00115969 0.294652 0.148089
0.000991836 0.297414 0.155993
0.00144961 0.299306 0.131365
0.0348974 0.285618 0.0853742
0.180591 0.272786 0.0606699
0.402609 0.257008 0.0192569
0.581552 0.241718 0.00363165
0.733928 0.232975 0.00169375
0.859297 0.2327 0.002121
0.938445 0.244312 0.00244144
0.974823 0.26891 0.00205997
0.985702 0.303197 0.000976577
0.98967 0.345693 0.000396735
0.993027 0.390158 0.000610361
0.995804 0.435569 0.000869764
0.99794 0.480995 0.00062562
0.999054 0.523064 0.000366217
0.999664 0.5635 0.000747692
0.999954 0.603845 0.00143435
1 0.643244 0.00335698
1 0.680873 0.0056611
1 0.714519 0.00872816
1 0.734142 0.0183108
1 0.738674 0.0362707
1 0.715587 0.0728618
0.999573 0.656092 0.149981
0.99675 0.572427 0.240009
0.990234 0.4551 0.345663
0.000701915 0.376761 0.148089
0.000671397 0.37966 0.14905
0.000656138 0.381994 0.151141
0.00062562 0.384314 0.155291
0.000579843 0.386496 0.162081
0.000534066 0.388861 0.17229
0.000457771 0.391211 0.184268
0.00047303 0.394171 0.184497
0.00491341 0.378424 0.116182
0.0627604 0.362615 0.084184
0.272877 0.352529 0.052842
0.511513 0.333974 0.0155795
0.680156 0.318196 0.00270085
0.810101 0.31519 0.00077821
0.908232 0.324086 0.000564584
0.966537 0.345571 0.000411994
0.989456 0.378668 0.000564584
0.994751 0.427375 0.000869764
0.997818 0.480446 0.000549325
0.999298 0.535027 0.000259403
0.999878 0.58526 0.00132753
0.999985 0.628351 0.00321965
1 0.66482 0.0091249
1 0.69926 0.0155947
1 0.732174 0.0252842
1 0.764004 0.0361944
1 0.794003 0.0493935
1 0.82002 0.0699321
1 0.839734 0.101518
1 0.853284 0.150607
0.999878 0.834623 0.238834
0.999222 0.794903 0.320943
0.998169 0.731655 0.396292
4.57771e-05 0.480781 0.168292
4.57771e-05 0.484031 0.169635
4.57771e-05 0.486763 0.172381
3.0518e-05 0.489662 0.177737
3.0518e-05 0.493172 0.18764
1.5259e-05 0.496208 0.201297
0 0.498878 0.219394
0 0.500984 0.236561
3.0518e-05 0.490654 0.193866
0.0132143 0.460334 0.0990921
0.11136 0.453696 0.0886549
0.384054 0.445975 0.0493629
0.619333 0.424048 0.0144961
0.766964 0.40795 0.00218204
0.87158 0.408606 0.000274662
0.945083 0.422354 0.000534066
0.98378 0.446387 0.000823987
0.994629 0.484474 0.00047303
0.998932 0.533227 0.000274662
0.999893 0.58793 0.00143435
1 0.643183 0.00518807
1 0.693233 0.0147402
1 0.734173 0.0349889
1 0.769085 0.0610971
1 0.798413 0.0922713
1 0.82443 0.123461
1 0.848386 0.156512
0.999969 0.870329 0.199191
0.999893 0.889464 0.249866
0.999771 0.906065 0.310307
0.999481 0.913054 0.367056
0.999069 0.903487 0.422004
0.998444 0.880919 0.477043
1.5259e-05 0.585153 0.192691
3.0518e-05 0.588342 0.194568
3.0518e-05 0.591211 0.198154
3.0518e-05 0.594064 0.205081
1.5259e-05 0.598215 0.217014
1.5259e-05 0.602899 0.236332
0 0.607034 0.261295
0 0.608118 0.287556
0 0.603983 0.284199
0.000671397 0.568795 0.169696
0.0271611 0.548363 0.1019
0.198398 0.552728 0.098436
0.509422 0.546105 0.0528572
0.717327 0.520821 0.0161898
0.839475 0.50312 0.00241093
0.919356 0.504112 0.000320439
0.969665 0.519265 0.000122072
0.990005 0.544976 7.62951e-05
0.998199 0.578927 0.000610361
0.999939 0.620874 0.00299077
1 0.670466 0.00834669
1 0.722637 0.0310521
1 0.770825 0.0658579
1 0.811093 0.13286
1 0.844678 0.210742
0.999939 0.868132 0.267643
0.999832 0.887037 0.315328
0.999603 0.903975 0.358633
0.999237 0.918822 0.401328
0.998764 0.931395 0.443137
0.998291 0.939773 0.475181
0.997711 0.942824 0.507561
0.99704 0.939803 0.541192
0.000488289 0.677974 0.221103
0.000503548 0.680659 0.22266
0.00047303 0.683482 0.226535
0.000396735 0.686488 0.234531
0.000228885 0.691524 0.25005
0.000122072 0.696544 0.273289
3.0518e-05 0.7028 0.307301
0 0.705821 0.3449
0 0.702388 0.36791
0.000106813 0.683436 0.310857
0.0031281 0.639094 0.143786
0.0566873 0.636728 0.128222
0.329549 0.649271 0.119738
0.626581 0.640345 0.0601511
0.801938 0.611383 0.0165713
0.897948 0.590341 0.000961318
0.951614 0.593835 0.000167849
0.98088 0.610574 0.000137331
0.995178 0.632761 0.000595102
0.999619 0.659602 0.00201419
1 0.692363 0.0101778
1 0.734432 0.0307622
1 0.780682 0.0778821
1 0.826764 0.17496
0.999939 0.866575 0.289906
0.999557 0.893782 0.376898
0.998993 0.911467 0.430716
0.998444 0.924941 0.469413
0.997909 0.93579 0.501122
0.997299 0.94522 0.532479
0.99675 0.951156 0.554513
0.996216 0.954787 0.573434
0.995636 0.955993 0.593652
0.000198367 0.752728 0.258488
0.000167849 0.755032 0.260319
0.00015259 0.757458 0.264378
0.000122072 0.760006 0.272465
9.15541e-05 0.76437 0.288212
4.57771e-05 0.770047 0.314839
1.5259e-05 0.777386 0.354681
0 0.783566 0.403662
0 0.77995 0.440803
0 0.772015 0.435966
0.000518807 0.736645 0.303304
0.0151827 0.704219 0.153429
0.130327 0.715526 0.174014
0.472282 0.72874 0.155612
0.720226 0.718975 0.0773632
0.871092 0.689387 0.0203403
0.935775 0.673121 0.00462348
0.971374 0.676295 0.000640879
0.990402 0.691432 0.000320439
0.998535 0.711482 0.00163272
0.999969 0.733333 0.00543221
0.999985 0.757656 0.0163272
1 0.788663 0.055314
1 0.825254 0.125597
0.999908 0.864424 0.258824
0.999359 0.898344 0.398047
0.99826 0.919387 0.476432
0.99733 0.934157 0.529335
0.996567 0.943679 0.560342
0.995865 0.951156 0.585992
0.99527 0.955978 0.605188
0.994766 0.958709 0.621393
0.994263 0.959915 0.638025
7.62951e-05 0.811994 0.298695
7.62951e-05 0.81384 0.300862
6.10361e-05 0.815564 0.304784
3.0518e-05 0.818173 0.312963
1.5259e-05 0.821591 0.327672
0 0.826307 0.352712
0 0.833356 0.394217
0 0.841642 0.453559
0 0.842374 0.508309
0 0.833707 0.525093
0 0.820829 0.487007
0.002121 0.781064 0.305898
0.0412451 0.762097 0.194919
0.258259 0.782147 0.231205
0.599619 0.793362 0.20061
0.798276 0.780468 0.0999313
0.905653 0.757412 0.0383612
0.960266 0.745892 0.0108644
0.986099 0.747662 0.00190738
0.997177 0.760021 0.000976577
0.999817 0.777218 0.00231937
0.999954 0.793637 0.0124971
1 0.812589 0.0348363
1 0.836118 0.0921187
0.999939 0.865019 0.206439
0.999512 0.894392 0.34995
0.998322 0.918196 0.465492
0.996979 0.935317 0.54432
0.995758 0.946242 0.59028
0.994904 0.953292 0.618418
0.994324 0.957153 0.6365
0.993912 0.959182 0.650721
0.993454 0.96022 0.666682
3.0518e-05 0.861128 0.344488
3.0518e-05 0.862501 0.346746
3.0518e-05 0.863966 0.350454
3.0518e-05 0.865812 0.357137
3.0518e-05 0.868513 0.369711
1.5259e-05 0.872801 0.392264
0 0.878447 0.430106
0 0.885939 0.489403
0 0.890837 0.560525
0 0.882933 0.59678
0 0.87512 0.594369
1.5259e-05 0.855909 0.509544
0.0096437 0.822614 0.324773
0.0957351 0.818082 0.260166
0.423239 0.841062 0.300999
0.687144 0.847898 0.241581
0.847288 0.833555 0.140917
0.935927 0.8159 0.0608988
0.978897 0.805997 0.01561
0.995468 0.808347 0.00389105
0.99942 0.819318 0.00349432
0.999893 0.831205 0.00767529
1 0.842145 0.022034
1 0.85536 0.068101
1 0.872633 0.153307
0.999649 0.895232 0.297887
0.998688 0.91722 0.438193
0.99707 0.934081 0.53286
0.995453 0.94638 0.600824
0.994354 0.953277 0.636194
0.993729 0.956466 0.656657
0.993317 0.958114 0.671458
0.992905 0.958846 0.686732
0 0.903349 0.401572
0 0.904418 0.403647
0 0.905241 0.406714
0 0.906203 0.411124
0 0.907668 0.419547
0 0.910292 0.435874
0 0.914641 0.466438
0 0.920104 0.518685
0 0.925902 0.595529
0 0.923323 0.660624
0 0.914595 0.669718
0 0.907927 0.655497
0.000320439 0.8878 0.537362
0.0262303 0.862928 0.369665
0.208026 0.869917 0.342947
0.524895 0.889342 0.376333
0.752575 0.89456 0.31252
0.888487 0.882673 0.187625
0.963668 0.865232 0.0728923
0.992065 0.855924 0.0228122
0.998535 0.8598 0.0106508
0.999756 0.868101 0.0118715
1 0.875425 0.0260014
1 0.881712 0.0554665
1 0.889967 0.134676
0.999893 0.902724 0.265248
0.999207 0.918074 0.40119
0.997559 0.93286 0.507927
0.995712 0.944732 0.59147
0.994171 0.952071 0.642374
0.993393 0.954757 0.668589
0.992905 0.956085 0.685924
0.992523 0.956512 0.700603
0 0.928908 0.469047
0 0.929732 0.471153
0 0.930449 0.473274
0 0.931075 0.475395
0 0.931853 0.479118
0 0.932982 0.487358
0 0.93518 0.506462
0 0.938796 0.545892
0 0.943008 0.613214
0 0.945998 0.699886
0 0.940688 0.733104
0 0.935134 0.730983
0 0.929686 0.703914
0.00341802 0.913939 0.579767
0.0553597 0.898619 0.436957
0.306889 0.90808 0.423148
0.600153 0.923705 0.444495
0.808454 0.927977 0.393179
0.924727 0.918914 0.255634
0.981674 0.901778 0.102007
0.995605 0.896529 0.0547189
0.999268 0.899107 0.0416419
0.999969 0.904418 0.0476997
1 0.910185 0.0926223
1 0.915755 0.180316
0.999939 0.921462 0.288457
0.999237 0.928679 0.388846
0.998077 0.936889 0.486183
0.996307 0.944869 0.567636
0.994385 0.950988 0.634455
0.993393 0.953017 0.669139
0.992645 0.953918 0.694545
0.992264 0.954192 0.710918
0 0.942672 0.539895
0 0.942916 0.542382
0 0.943099 0.544167
0 0.943236 0.545571
0 0.943374 0.54696
0 0.943481 0.547951
0 0.943923 0.553948
0 0.945464 0.575265
0 0.948608 0.624918
0 0.952392 0.70695
0 0.952926 0.781292
0 0.949233 0.787091
0 0.946273 0.781109
4.57771e-05 0.942336 0.745983
0.00907912 0.932006 0.631327
0.099443 0.92488 0.513115
0.347509 0.93286 0.489494
0.670939 0.947433 0.515801
0.85919 0.950301 0.46836
0.94992 0.940658 0.331258
0.984588 0.930449 0.207111
0.996765 0.927108 0.139605
0.999664 0.92874 0.135332
0.999985 0.933074 0.180011
0.999985 0.937835 0.260365
0.999634 0.941024 0.343694
0.999008 0.943893 0.420844
0.998001 0.947127 0.494133
0.996475 0.950561 0.561318
0.994766 0.95346 0.622629
0.993561 0.953964 0.663142
0.992706 0.953735 0.693553
0.992157 0.953323 0.715465
0 0.948592 0.606714
0 0.94873 0.609033
0 0.948806 0.610681
0 0.948898 0.612329
0 0.948959 0.613306
0 0.94902 0.614618
0 0.94905 0.615228
0 0.949218 0.618433
0 0.950454 0.641871
0 0.953399 0.703471
0 0.956497 0.794553
0 0.956619 0.833463
0 0.954818 0.830839
9.15541e-05 0.953262 0.822431
0.000274662 0.950957 0.786938
0.0124514 0.944808 0.682521
0.106889 0.940551 0.576837
0.400259 0.950607 0.553414
0.74403 0.964492 0.596292
0.889876 0.964752 0.534752
0.959442 0.957656 0.420417
0.98851 0.951873 0.326482
0.998047 0.950072 0.28368
0.999771 0.951827 0.295689
0.99968 0.954513 0.340078
0.999222 0.956619 0.40412
0.998535 0.957626 0.466072
0.997467 0.957839 0.520821
0.99617 0.958389 0.574273
0.994705 0.958663 0.623926
0.99353 0.957549 0.663584
0.992737 0.956161 0.693355
0.992065 0.954574 0.718639
0 0.952026 0.669856
0 0.952087 0.671489
0 0.952148 0.673152
0 0.952193 0.67425
0 0.952239 0.675334
0 0.952285 0.676417
0 0.9523 0.67689
0 0.952346 0.677714
0 0.952407 0.679393
0 0.953536 0.705348
0 0.9561 0.778592
0 0.958068 0.861662
0 0.95816 0.871321
0.000350958 0.95761 0.865705
0.00155642 0.956939 0.857099
0.00215152 0.95584 0.823011
0.0104524 0.952636 0.732769
0.10016 0.950454 0.630381
0.474662 0.962982 0.627939
0.766186 0.972549 0.646464
0.911284 0.974029 0.600534
0.969757 0.97052 0.516197
0.99234 0.96669 0.442298
0.998459 0.965362 0.409979
0.999054 0.966537 0.422492
0.998581 0.968093 0.466072
0.997665 0.968383 0.513298
0.996521 0.968292 0.559487
0.995346 0.9673 0.600916
0.994247 0.965743 0.638834
0.993332 0.963516 0.670771
0.992615 0.960906 0.698253
0.991989 0.958282 0.722148
0 0.954345 0.72549
0 0.954421 0.727489
0 0.954498 0.729198
0 0.954543 0.730327
0 0.954589 0.731456
0 0.954635 0.732601
0 0.954681 0.73344
0 0.954711 0.734279
0 0.954726 0.734829
0 0.954772 0.735821
0 0.955703 0.76524
0 0.957732 0.844923
0 0.958785 0.899092
0.000564584 0.95874 0.898665
0.00515755 0.958526 0.892683
0.010956 0.958221 0.884596
0.0108339 0.957534 0.854398
0.0231327 0.955642 0.778317
0.150408 0.957336 0.692103
0.501488 0.968643 0.684459
0.801068 0.977523 0.695155
0.93434 0.979202 0.662211
0.978302 0.977172 0.59173
0.994415 0.974746 0.531044
0.997406 0.973831 0.508156
0.997375 0.974304 0.522774
0.996536 0.975326 0.558007
0.995361 0.975662 0.599252
0.994263 0.975113 0.637644
0.993378 0.973907 0.669886
0.992752 0.971191 0.69366
0.992233 0.968231 0.714092
0.991775 0.965011 0.732738
0 0.955993 0.77557
0 0.956039 0.777295
0 0.956085 0.778759
0 0.9561 0.779751
0 0.956146 0.780987
0 0.956161 0.78172
0 0.956176 0.782467
0 0.956207 0.783215
0 0.956222 0.783734
0 0.956237 0.784482
0 0.956268 0.785275
0 0.957076 0.817533
0 0.958755 0.897658
0.000106813 0.959136 0.921569
0.0138705 0.959106 0.917708
0.0447242 0.959243 0.912734
0.0591592 0.960082 0.905577
0.0444343 0.958785 0.878767
0.0451667 0.957382 0.81622
0.203296 0.961044 0.746426
0.533883 0.971542 0.72607
0.834226 0.980514 0.738109
0.951171 0.981796 0.710353
0.983734 0.98024 0.649042
0.992798 0.978759 0.604044
0.995148 0.978393 0.592325
0.995209 0.978439 0.603784
0.994446 0.978882 0.631662
0.993484 0.979339 0.666697
0.99266 0.978515 0.698955
0.992065 0.97702 0.722103
0.991608 0.975006 0.739986
0.991226 0.972229 0.754574
0 0.957153 0.819654
0 0.957183 0.821088
0 0.957198 0.82211
0 0.957229 0.823133
0 0.957244 0.823957
0 0.957259 0.824765
0 0.957275 0.825406
0 0.95729 0.826032
0 0.957305 0.826658
0 0.957321 0.827115
0 0.957321 0.827558
0 0.957336 0.828183
0 0.958099 0.862745
0 0.959274 0.930724
0.00920119 0.959411 0.936584
0.0932479 0.963363 0.932982
0.176287 0.967742 0.927001
0.207309 0.968658 0.920501
0.144488 0.965331 0.89926
0.09131 0.960632 0.845396
0.221668 0.963958 0.78294
0.59826 0.975753 0.766384
0.874723 0.983322 0.781643
0.959487 0.983825 0.750454
0.98349 0.982589 0.699641
0.991424 0.981613 0.666514
0.9935 0.981323 0.657542
0.993439 0.981521 0.668681
0.992874 0.981628 0.691569
0.992142 0.981613 0.720394
0.991547 0.981079 0.743236
0.991089 0.979553 0.759686
0.990692 0.977874 0.773144
0 0.957992 0.857908
0 0.958022 0.859007
0 0.958038 0.859953
0 0.958053 0.860731
0 0.958068 0.861357
0 0.958068 0.861982
0 0.958083 0.862455
0 0.958099 0.862943
0 0.958099 0.863264
0 0.958114 0.863752
0 0.958114 0.864118
0 0.958129 0.8645
0 0.958129 0.86479
0 0.958801 0.899641
6.10361e-05 0.959564 0.947936
0.0881056 0.962615 0.947723
0.311925 0.973587 0.939116
0.434134 0.976791 0.932296
0.429511 0.976562 0.927443
0.307378 0.971984 0.911803
0.166171 0.965576 0.865843
0.288396 0.968215 0.808682
0.6607 0.979294 0.80737
0.882109 0.98436 0.81207
0.961334 0.985046 0.783307
0.984619 0.984268 0.744152
0.990936 0.98349 0.716686
0.992325 0.983185 0.708858
0.992187 0.983352 0.718425
0.991638 0.983566 0.739605
0.991119 0.983337 0.758694
0.990646 0.98291 0.774838
