LUT预设1/LUT全系打包/阿勒泰系列lut/709专用（不拍灰片用这个）/动漫肤色优化.cube
TITLE "Generated by Resolve"
LUT_3D_SIZE 9
0.0297246 0.0142824 0.00292973
0.0870069 0.0181582 0.00514229
0.167407 0.0208286 0.00488289
0.25008 0.0225223 0.00329595
0.328405 0.020798 0.00318914
0.403342 0.0167086 0.00355535
0.45478 0.0119326 0.00177005
0.464164 0.00756847 0.00149538
0.463645 0.00810254 0.00167849
0.0261845 0.0583658 0.00190738
0.067689 0.0759442 0.002121
0.221042 0.0893111 0.0158236
0.349569 0.100587 0.022385
0.442451 0.0942397 0.016434
0.522622 0.0912947 0.016556
0.57258 0.0997482 0.0298314
0.581964 0.0947127 0.029633
0.576791 0.0885634 0.0261387
0.0452277 0.117784 7.62951e-05
0.0705882 0.138506 0.000213626
0.153796 0.168887 0.000900282
0.373968 0.182605 0.0172885
0.54667 0.176837 0.0429541
0.62417 0.187274 0.053315
0.674846 0.204105 0.0715343
0.691569 0.201099 0.0757916
0.685512 0.193423 0.0726482
0.0860609 0.206302 0.00189212
0.09897 0.223224 0.00112917
0.146868 0.259861 0
0.285389 0.288212 0.000717174
0.558129 0.288319 0.0317998
0.721248 0.30106 0.0952316
0.79144 0.313954 0.124178
0.815702 0.312154 0.132815
0.811856 0.303456 0.129595
0.130343 0.316747 0.021973
0.137484 0.32221 0.0190738
0.18616 0.366949 0.0170596
0.284489 0.403281 0.0105135
0.485573 0.406607 0.0142672
0.697795 0.402945 0.055314
0.863172 0.419715 0.132586
0.922881 0.421836 0.160464
0.935882 0.414267 0.166995
0.183291 0.435172 0.0532082
0.181903 0.428946 0.0512856
0.235767 0.475608 0.0558022
0.329732 0.516274 0.0433814
0.471855 0.540566 0.0395514
0.638788 0.526009 0.0510567
0.807462 0.510491 0.080766
0.958984 0.516243 0.141314
1 0.509438 0.16788
0.249195 0.560265 0.0966049
0.243366 0.548257 0.0920882
0.282353 0.578912 0.0923018
0.369741 0.625162 0.0805982
0.483131 0.661814 0.078584
0.616312 0.664225 0.0815442
0.757488 0.629389 0.0850385
0.911711 0.602335 0.100923
1 0.594324 0.124865
0.322072 0.686183 0.145556
0.31458 0.673671 0.140291
0.330999 0.682002 0.13814
0.410208 0.72639 0.122972
0.504646 0.761898 0.114214
0.611933 0.77969 0.111131
0.736675 0.758282 0.105623
0.869047 0.717266 0.104814
0.976471 0.689708 0.113298
0.348348 0.727626 0.164019
0.347738 0.726726 0.163592
0.356558 0.732677 0.163684
0.42359 0.773831 0.152712
0.50901 0.815763 0.139635
0.608469 0.847913 0.130465
0.723186 0.84686 0.120241
0.830945 0.827726 0.11928
0.931762 0.794354 0.121096
0.0248112 0.0117494 0.0486305
0.0794385 0.01149 0.0427405
0.147936 0.0141146 0.0393988
0.222614 0.0104677 0.0323796
0.298878 0.0119478 0.0311284
0.376577 0.0117952 0.0295567
0.430091 0.00622568 0.0206607
0.441077 0.0027924 0.0138857
0.440269 0.00289921 0.0134737
0.0175631 0.0637217 0.0667735
0.0781872 0.0815442 0.077409
0.19968 0.0984665 0.0743114
0.323598 0.107378 0.0772259
0.424567 0.112505 0.0811322
0.503929 0.109651 0.0772717
0.552254 0.096849 0.0652323
0.560586 0.0862898 0.055787
0.55375 0.0785992 0.0491646
0.0221408 0.121645 0.0507362
0.0770886 0.15053 0.0591745
0.200793 0.190829 0.0526894
0.408698 0.212131 0.0888075
0.547295 0.218067 0.108186
0.629862 0.21912 0.103334
0.683543 0.221576 0.104341
0.696315 0.210559 0.10042
0.688716 0.200473 0.0948959
0.0504311 0.190082 0.0325322
0.0986191 0.220676 0.0391089
0.180728 0.277699 0.0362707
0.334447 0.301656 0.0285344
0.575311 0.30634 0.0693828
0.729244 0.3187 0.123552
0.801831 0.32845 0.143664
0.825162 0.322469 0.144381
0.816648 0.309407 0.137957
0.113451 0.286793 0.0310674
0.131258 0.305104 0.0332647
0.199359 0.369619 0.0397803
0.3019 0.409812 0.0301366
0.493996 0.409247 0.0271305
0.696895 0.40473 0.0628519
0.863584 0.422995 0.138811
0.923766 0.424903 0.165759
0.935439 0.414313 0.170108
0.176394 0.413108 0.0526284
0.177813 0.414969 0.0515145
0.234104 0.469093 0.0623484
0.329198 0.514534 0.0516518
0.470359 0.537987 0.0439765
0.632578 0.522194 0.050782
0.802823 0.506355 0.0801556
0.953933 0.513802 0.14168
1 0.506645 0.169436
0.243275 0.546944 0.0948806
0.23856 0.537881 0.0903792
0.277165 0.571374 0.0921492
0.363546 0.618662 0.0805371
0.476631 0.656962 0.0778515
0.610178 0.659754 0.0801556
0.753292 0.626032 0.084596
0.90753 0.598169 0.100389
1 0.590555 0.125811
0.318074 0.678904 0.14406
0.311101 0.667536 0.138674
0.326894 0.676219 0.136355
0.40412 0.720455 0.121889
0.49836 0.756146 0.112551
0.606912 0.774304 0.110109
0.730694 0.754788 0.105028
0.864622 0.713375 0.104128
0.976242 0.685222 0.112734
0.348165 0.727367 0.163897
0.347326 0.726055 0.163348
0.353994 0.730373 0.163363
0.419852 0.771206 0.153017
0.505379 0.813519 0.139712
0.603601 0.846265 0.130739
0.719173 0.844343 0.119966
0.827955 0.825132 0.118654
0.929915 0.791714 0.120577
0.0199741 0.0171817 0.115236
0.0646067 0.0131838 0.105699
0.139712 0.00721752 0.0942397
0.209293 0.0040589 0.0782177
0.284566 0.00733959 0.0711681
0.359823 0.00839246 0.0692302
0.417609 0.00460822 0.0596017
0.435355 0.00318914 0.0533455
0.432792 0.00238041 0.0507057
0.0169528 0.0680858 0.145998
0.0499733 0.0857862 0.164523
0.164172 0.0877699 0.15729
0.281041 0.0957351 0.142687
0.38706 0.0994583 0.139452
0.471946 0.102022 0.136614
0.530266 0.0935073 0.121721
0.540795 0.0777447 0.104021
0.534279 0.068864 0.0953384
0.0186618 0.13286 0.163027
0.0433661 0.154986 0.174838
0.159564 0.196094 0.198764
0.346654 0.228367 0.209796
0.501366 0.247089 0.214725
0.600534 0.254459 0.215137
0.662028 0.243183 0.201038
0.681422 0.218662 0.179507
0.675288 0.205142 0.165743
0.023682 0.199802 0.152956
0.047776 0.218845 0.155413
0.169787 0.284886 0.178561
0.36202 0.337819 0.180255
0.598657 0.36994 0.228702
0.729046 0.382239 0.252445
0.800671 0.382025 0.2495
0.828946 0.362142 0.230564
0.826032 0.34432 0.213794
0.0453193 0.269825 0.121355
0.0694591 0.278096 0.11342
0.205798 0.363485 0.144167
0.349493 0.441276 0.147326
0.544488 0.448997 0.140047
0.744106 0.46099 0.177432
0.899382 0.484855 0.238499
0.957519 0.482033 0.25771
0.967971 0.465064 0.25272
0.112459 0.356435 0.0970321
0.122103 0.355184 0.0887007
0.238682 0.440452 0.126024
0.357931 0.530312 0.137591
0.506508 0.563592 0.118486
0.665064 0.552682 0.113359
0.827131 0.544793 0.141192
0.975982 0.55375 0.195682
1 0.541421 0.216526
0.204685 0.472465 0.105196
0.203418 0.46894 0.0997024
0.266224 0.528893 0.128603
0.373999 0.620417 0.147967
0.49369 0.670298 0.119951
0.626276 0.675883 0.112825
0.764523 0.644907 0.113802
0.914107 0.618128 0.128328
1 0.607324 0.147189
0.295979 0.620859 0.148836
0.291279 0.617166 0.142748
0.314672 0.641703 0.151888
0.403494 0.714504 0.165118
0.501534 0.757855 0.143221
0.609842 0.779156 0.127504
0.730312 0.759487 0.112612
0.863569 0.717968 0.112184
0.975418 0.689006 0.120577
0.334905 0.69453 0.171572
0.336706 0.701137 0.169177
0.34725 0.716869 0.170581
0.416907 0.766812 0.1682
0.504829 0.813474 0.154284
0.601495 0.846906 0.13959
0.716365 0.845136 0.123644
0.825452 0.824231 0.119692
0.928023 0.790021 0.120638
0.0175479 0.0259403 0.186389
0.050248 0.0198672 0.173587
0.12491 0.0129244 0.167712
0.199115 0.00540169 0.149966
0.279042 0.00373846 0.128267
0.353292 0.00323491 0.116304
0.411261 0.00204471 0.104097
0.432441 0.00300603 0.0989242
0.428809 0.00135805 0.0952316
0.0167849 0.0803845 0.23125
0.0409552 0.09691 0.247791
0.117861 0.0991073 0.243732
0.249378 0.0912642 0.225559
0.36379 0.0869306 0.200259
0.454276 0.0881514 0.189578
0.519081 0.0907454 0.177615
0.535531 0.0792401 0.159106
0.529229 0.069337 0.149081
0.0187533 0.140795 0.256046
0.0357366 0.162295 0.270649
0.104234 0.203433 0.30399
0.266819 0.219242 0.307439
0.43595 0.228351 0.286046
0.557351 0.239429 0.284169
0.631403 0.23801 0.274403
0.660075 0.215167 0.247974
0.656199 0.201175 0.232883
0.0240024 0.214252 0.275746
0.0341955 0.227466 0.280827
0.0988022 0.282582 0.31603
0.27924 0.341176 0.348608
0.504311 0.375784 0.349722
0.652018 0.399634 0.36524
0.73579 0.403937 0.370214
0.783093 0.370977 0.332174
0.785611 0.349447 0.309239
0.0305028 0.28748 0.274968
0.0372931 0.290867 0.267659
0.107027 0.347463 0.289967
0.313359 0.437629 0.329427
0.531548 0.489723 0.33077
0.755032 0.530251 0.393576
0.871336 0.548821 0.42504
0.917754 0.529686 0.405692
0.930983 0.508522 0.382422
0.047303 0.358618 0.246799
0.0538491 0.354406 0.233356
0.135882 0.403784 0.242374
0.336706 0.514244 0.289799
0.520806 0.590173 0.296468
0.70457 0.593576 0.28368
0.874449 0.619837 0.336889
1 0.647456 0.411002
1 0.637232 0.418311
0.103777 0.434714 0.202365
0.107958 0.425772 0.188525
0.189548 0.464485 0.198505
0.359442 0.583963 0.263233
0.510674 0.679362 0.285054
0.6663 0.700145 0.255955
0.812879 0.694759 0.253437
0.946914 0.689189 0.281437
1 0.688884 0.31342
0.21323 0.530922 0.181765
0.215564 0.524544 0.170825
0.260288 0.545754 0.177707
0.394202 0.669535 0.264164
0.515801 0.758618 0.284382
0.639582 0.79733 0.255451
0.770581 0.801694 0.232181
0.892393 0.773724 0.220615
0.984833 0.749035 0.225055
0.278996 0.592065 0.181125
0.285527 0.598932 0.177951
0.301869 0.613626 0.180743
0.408042 0.724987 0.256321
0.520912 0.817182 0.281498
0.624018 0.861692 0.24712
0.737896 0.876509 0.216526
0.846571 0.863661 0.198032
0.94255 0.832059 0.187762
0.0161288 0.0364843 0.26183
0.0413214 0.0280461 0.242542
0.103593 0.021622 0.237278
0.184375 0.0152895 0.234211
0.26067 0.00517281 0.211139
0.340764 0.000854505 0.183429
0.414206 0.00167849 0.165072
0.436515 0.0015259 0.154467
0.4318 6.10361e-05 0.151293
0.0170291 0.0985275 0.312764
0.0372015 0.111345 0.32488
0.0895857 0.112932 0.32192
0.202487 0.110231 0.315511
0.330663 0.0920424 0.291814
0.440269 0.0785534 0.259129
0.516594 0.07953 0.237308
0.539818 0.073167 0.216709
0.532815 0.0643473 0.205173
0.0193637 0.157626 0.342397
0.0347601 0.175662 0.360174
0.0806897 0.216175 0.38735
0.197665 0.229114 0.3953
0.369375 0.226917 0.378637
0.522484 0.223972 0.349538
0.616846 0.226749 0.332158
0.655909 0.216266 0.312474
0.655436 0.203784 0.298192
0.0243229 0.224292 0.368826
0.0332189 0.234821 0.371221
0.076173 0.285344 0.400473
0.198856 0.342611 0.44802
0.393866 0.366644 0.457877
0.585504 0.380835 0.434867
0.696635 0.383368 0.424628
0.754543 0.364233 0.402121
0.759899 0.343862 0.380758
0.0307927 0.299931 0.383108
0.0346838 0.301411 0.37821
0.0735943 0.34873 0.401999
0.206134 0.427131 0.454185
0.424308 0.492287 0.494942
0.651911 0.528084 0.502098
0.787976 0.545098 0.506722
0.855055 0.528725 0.490929
0.872343 0.502373 0.466178
0.0376135 0.373816 0.385641
0.0383612 0.369436 0.377997
0.0710918 0.405844 0.387976
0.219348 0.490867 0.424811
0.459144 0.587427 0.465324
0.680293 0.632837 0.478904
0.881498 0.676127 0.545464
0.98764 0.694087 0.577234
1 0.672694 0.559014
0.0536202 0.442527 0.363882
0.0527199 0.433249 0.351797
0.0852216 0.457755 0.352392
0.24361 0.543252 0.378454
0.484092 0.660609 0.434531
0.658289 0.722942 0.4421
0.829679 0.732891 0.446265
0.975372 0.756451 0.492256
1 0.778164 0.540322
0.102113 0.514031 0.317922
0.104051 0.506294 0.30544
0.135348 0.517479 0.29926
0.294423 0.599634 0.329747
0.503655 0.727367 0.408865
0.645502 0.805005 0.431327
0.79089 0.825101 0.407614
0.922377 0.822416 0.409979
0.996323 0.819226 0.433967
0.150439 0.550729 0.274266
0.162173 0.549538 0.259037
0.185504 0.554238 0.248325
0.335546 0.639811 0.29424
0.510887 0.778073 0.389746
0.635493 0.864759 0.422187
0.756313 0.900282 0.395666
0.879881 0.909087 0.378241
0.975662 0.892012 0.364889
0.0151675 0.0492103 0.335821
0.0354314 0.0375677 0.313817
0.0836042 0.0318303 0.304982
0.162127 0.0272221 0.307759
0.242359 0.0164034 0.301808
0.309773 0.00187686 0.268238
0.395041 0.00120546 0.243229
0.422126 0.000289921 0.231342
0.4206 0 0.22678
0.0171359 0.115572 0.388434
0.035462 0.12517 0.398566
0.0724956 0.125368 0.393164
0.158511 0.124834 0.391501
0.2766 0.115312 0.383886
0.393851 0.0897688 0.355093
0.497215 0.0684367 0.317067
0.542199 0.0594797 0.288136
0.531701 0.0505684 0.277211
0.0201114 0.175601 0.420264
0.0344701 0.191974 0.434791
0.0718395 0.230213 0.458793
0.154086 0.241276 0.465202
0.292424 0.242283 0.467308
0.456641 0.229587 0.445792
0.595285 0.215671 0.409277
0.656977 0.206806 0.381109
0.660945 0.197131 0.36614
0.0250248 0.239704 0.443397
0.0330358 0.248478 0.44715
0.0693217 0.293797 0.47425
0.168566 0.350454 0.51809
0.310842 0.373678 0.544137
0.500252 0.372793 0.527016
0.660273 0.370962 0.490578
0.74168 0.356863 0.464027
0.753918 0.340276 0.444816
0.0311437 0.30779 0.461631
0.0345006 0.308431 0.456931
0.0661784 0.350149 0.479011
0.165637 0.424262 0.532097
0.335363 0.494774 0.595468
0.537057 0.514839 0.594583
0.724743 0.526879 0.572229
0.82031 0.516075 0.553399
0.846067 0.491661 0.530602
0.0382086 0.379812 0.472526
0.0388952 0.375051 0.465049
0.0649424 0.407919 0.48014
0.156817 0.485664 0.527871
0.349294 0.575555 0.589715
0.587686 0.636698 0.619699
0.790524 0.662486 0.628794
0.906905 0.674784 0.636011
0.952529 0.660014 0.622156
0.0492714 0.452186 0.476951
0.0476844 0.443366 0.466804
0.0656748 0.462333 0.471275
0.15671 0.539284 0.50573
0.357534 0.635859 0.550774
0.616312 0.72343 0.589471
0.811551 0.761608 0.610101
0.992325 0.802152 0.672679
1 0.820386 0.701869
0.0653239 0.518563 0.458091
0.0632639 0.510796 0.449088
0.0746014 0.517784 0.445518
0.169039 0.585626 0.461799
0.387442 0.684092 0.496284
0.614191 0.790661 0.555367
0.783215 0.85008 0.573129
0.938766 0.858 0.57789
0.999817 0.871077 0.610788
0.0797894 0.549584 0.426352
0.0826581 0.548043 0.413901
0.0912795 0.550973 0.403067
0.186328 0.612375 0.40766
0.430182 0.71693 0.444099
0.624216 0.841657 0.529809
0.757565 0.913436 0.550576
0.894194 0.937636 0.539437
0.991073 0.935256 0.535988
0.014435 0.057084 0.379263
0.0326696 0.0409705 0.353872
0.0713817 0.0377813 0.347753
0.141024 0.0348974 0.35584
0.220569 0.0243381 0.356786
0.298039 0.00999466 0.343999
0.358709 0.00303655 0.313878
0.376303 0.000259403 0.299184
0.376547 4.57771e-05 0.292561
0.016968 0.126802 0.439872
0.0343023 0.134585 0.450111
0.0621195 0.131945 0.443961
0.123964 0.131014 0.446357
0.221134 0.126528 0.442054
0.334783 0.110887 0.435294
0.44239 0.0773022 0.401587
0.498283 0.0468452 0.368002
0.489464 0.0390478 0.359152
0.0205997 0.189273 0.476921
0.0340581 0.204517 0.496147
0.0656443 0.236301 0.523461
0.122164 0.246387 0.524086
0.225055 0.249287 0.530327
0.3608 0.242725 0.528481
0.518181 0.221561 0.508659
0.619699 0.195972 0.467018
0.634806 0.182773 0.448859
0.0254673 0.251133 0.51107
0.0329137 0.258305 0.51873
0.0664683 0.301991 0.548089
0.144427 0.354543 0.58378
0.25359 0.37847 0.607904
0.387564 0.378897 0.616541
0.56939 0.368902 0.591806
0.711543 0.350698 0.55285
0.745113 0.334401 0.527184
0.0323491 0.316274 0.536797
0.0353552 0.315908 0.53228
0.0646677 0.355627 0.54992
0.145403 0.423072 0.597665
0.2907 0.497734 0.662882
0.430213 0.512352 0.686122
0.613031 0.512261 0.665507
0.774014 0.505516 0.631678
0.828595 0.488212 0.604929
0.0399176 0.384451 0.544747
0.0403906 0.379324 0.538231
0.0630961 0.407782 0.55082
0.134356 0.476234 0.596033
0.28806 0.566567 0.665965
0.479759 0.629618 0.722759
0.670954 0.648966 0.723674
0.841337 0.656931 0.705852
0.917754 0.646952 0.688075
0.0507515 0.455482 0.555184
0.049424 0.447227 0.546212
0.0631418 0.462303 0.552239
0.132464 0.535012 0.595224
0.276936 0.627024 0.65388
0.506325 0.710536 0.710643
0.733104 0.761379 0.738155
0.917906 0.787747 0.756817
0.990372 0.796353 0.765499
0.0639506 0.526787 0.558343
0.0623941 0.518883 0.549187
0.0697948 0.523171 0.547112
0.129671 0.585306 0.575692
0.259861 0.676936 0.620996
0.506889 0.765743 0.663798
0.745617 0.845685 0.708598
0.933562 0.882612 0.732937
1 0.904372 0.769177
0.0703136 0.558419 0.542611
0.0700389 0.556023 0.532067
0.0732128 0.557916 0.523537
0.121874 0.609918 0.537911
0.277577 0.70396 0.566598
0.515953 0.800946 0.608499
0.736278 0.901381 0.670924
0.895689 0.962982 0.694423
0.997436 0.971588 0.696712
0.0137331 0.0573587 0.384253
0.0316472 0.0394751 0.35671
0.06804 0.0374762 0.353216
0.137011 0.0339208 0.359304
0.214603 0.0232547 0.361807
0.291707 0.0129854 0.358328
0.350835 0.00323491 0.327535
0.363378 0.000228885 0.310567
0.362158 0.000137331 0.308293
0.016556 0.126558 0.44564
0.0335088 0.134066 0.45803
0.0587167 0.130556 0.454047
0.113893 0.129595 0.456672
0.203601 0.124788 0.455146
0.310536 0.112673 0.451118
0.415503 0.0827344 0.43006
0.461753 0.0468605 0.39556
0.45539 0.037995 0.383963
0.0204013 0.191211 0.492836
0.0333715 0.205447 0.514
0.0627756 0.233143 0.543313
0.108675 0.243168 0.546319
0.191806 0.248005 0.55494
0.31017 0.242939 0.55613
0.457755 0.227863 0.549661
0.564309 0.196536 0.521019
0.580148 0.179263 0.507012
0.0255589 0.253788 0.539635
0.0328374 0.260746 0.551324
0.0644388 0.303029 0.58201
0.13048 0.352728 0.615488
0.218601 0.374884 0.638941
0.328298 0.377447 0.656565
0.471901 0.370855 0.656306
0.630854 0.351171 0.632151
0.687419 0.33312 0.609827
0.0329442 0.319417 0.57322
0.0355993 0.318654 0.57406
0.0634928 0.357885 0.596887
0.132418 0.421317 0.64387
0.251911 0.490898 0.704555
0.379416 0.512673 0.73695
0.506249 0.510002 0.745403
0.667567 0.496422 0.727901
0.76527 0.483497 0.698482
0.0409247 0.38587 0.591119
0.0412909 0.38088 0.587564
0.062211 0.408026 0.604181
0.1234 0.471061 0.651225
0.249165 0.558419 0.723354
0.425315 0.626627 0.790341
0.557275 0.646311 0.817792
0.721263 0.640192 0.794522
0.854887 0.632471 0.772259
0.0514534 0.455528 0.61387
0.0502632 0.447669 0.606165
0.0614633 0.459297 0.611917
0.119554 0.523369 0.653834
0.237125 0.612924 0.720287
0.424247 0.699931 0.797238
0.620722 0.757305 0.849317
0.819623 0.777462 0.850431
0.949294 0.780896 0.837613
0.0648203 0.529641 0.633463
0.0631876 0.521309 0.626001
0.0688029 0.523522 0.62501
0.11928 0.580789 0.656306
0.223529 0.669627 0.711894
0.40856 0.757137 0.77554
0.649775 0.833967 0.831937
0.882887 0.88751 0.866728
0.992889 0.908232 0.88806
0.0721752 0.567559 0.631739
0.0717937 0.565759 0.624475
0.074052 0.567742 0.619104
0.110506 0.612528 0.639155
0.207401 0.70396 0.688731
0.379843 0.792554 0.736446
0.635477 0.877317 0.782269
0.857359 0.954604 0.827665
0.998245 0.991226 0.858473
0.0133364 0.0584115 0.386999
0.0316014 0.039353 0.3561
0.0671092 0.0371252 0.35256
0.136843 0.0321355 0.357321
0.213703 0.0221866 0.360723
0.291249 0.0134279 0.357977
0.349828 0.00215152 0.325734
0.362188 0.00015259 0.309636
0.362692 0.00015259 0.308934
0.0161898 0.125505 0.444648
0.0332189 0.133623 0.458015
0.0578317 0.129 0.45301
0.113558 0.127962 0.454505
0.202167 0.122683 0.454047
0.308125 0.111162 0.45008
0.413993 0.0802472 0.429145
0.45687 0.0464637 0.394736
0.450752 0.0370336 0.383276
0.0200809 0.189944 0.491707
0.0329595 0.203876 0.512612
0.0618906 0.230335 0.541543
0.107591 0.240787 0.546181
0.188739 0.24564 0.553506
0.305287 0.240299 0.55491
0.447456 0.225757 0.550439
0.555032 0.195041 0.525887
0.571344 0.176745 0.509438
0.0255283 0.253101 0.539849
0.0325933 0.259571 0.550927
0.0634775 0.30074 0.583276
0.127581 0.351095 0.618006
0.211017 0.371695 0.641032
0.319158 0.374563 0.657755
0.454124 0.3682 0.660639
0.60621 0.349767 0.646159
0.665339 0.330556 0.626703
0.0328679 0.318608 0.577371
0.0349432 0.316899 0.578485
0.0621195 0.355673 0.600504
0.128862 0.418814 0.649882
0.240436 0.485054 0.71075
0.364828 0.510552 0.746059
0.481392 0.508583 0.761883
0.62385 0.494545 0.749722
0.717388 0.477531 0.727993
0.0409552 0.385016 0.6
0.0410925 0.379675 0.598535
0.0611124 0.406134 0.616739
0.120531 0.468315 0.664775
0.238102 0.554513 0.737041
0.411337 0.624796 0.809339
0.538094 0.645289 0.850065
0.648066 0.635904 0.837659
0.787167 0.619898 0.814664
0.0513161 0.453742 0.627573
0.0501106 0.445792 0.623713
0.0610513 0.457069 0.633204
0.113634 0.516976 0.677653
0.221714 0.605005 0.746883
0.398459 0.694484 0.829236
0.585519 0.758373 0.900008
0.742077 0.77641 0.90866
0.900236 0.768277 0.892836
0.0644846 0.527901 0.659037
0.0627604 0.519066 0.654505
0.067277 0.519707 0.65594
0.112795 0.572686 0.691539
0.208164 0.658396 0.752438
0.36759 0.748074 0.829786
0.592844 0.828061 0.907835
0.835676 0.890242 0.954665
0.977905 0.904433 0.958602
0.0725872 0.569024 0.673899
0.072343 0.56788 0.673823
0.074052 0.568673 0.67303
0.107866 0.610819 0.695918
0.197009 0.700572 0.751949
0.339467 0.790677 0.81973
0.556054 0.876295 0.892897
0.803601 0.950332 0.947646
0.985779 0.9953 0.978821
