LUT预设1/LUT全系打包/阿勒泰系列lut/709专用（不拍灰片用这个）/动漫709.cube
TITLE "Generated by Resolve"
LUT_3D_SIZE 9
0.0290532 0.0145571 0.00218204
0.0868849 0.0182193 0.00491341
0.167193 0.0209354 0.00442512
0.24976 0.0226902 0.00260929
0.328008 0.0210117 0.00225834
0.402853 0.016968 0.00241093
0.454246 0.0122225 0.00047303
0.46363 0.0078584 0.00015259
0.463111 0.00839246 0.000335698
0.0260166 0.0584115 0.00196841
0.0674296 0.0760204 0.00205997
0.213382 0.0903182 0.00668345
0.343999 0.101015 0.0144198
0.441413 0.0945754 0.0146487
0.521904 0.0916457 0.0151827
0.571817 0.10013 0.028336
0.581201 0.0950942 0.0281071
0.576043 0.0889448 0.0246128
0.0448768 0.117876 0.000244144
0.0701457 0.138628 0.000320439
0.153216 0.16907 0.000762951
0.363073 0.180865 0.00608835
0.528054 0.174334 0.018967
0.614404 0.186633 0.039826
0.668864 0.203967 0.0629282
0.688258 0.201343 0.0707713
0.682933 0.193759 0.0686198
0.0854353 0.206455 0.00215152
0.0982834 0.223407 0.00138857
0.146029 0.26009 1.5259e-05
0.284367 0.288548 0.000381476
0.543374 0.283833 0.0169985
0.685893 0.292042 0.054139
0.758755 0.306172 0.0841382
0.789181 0.306615 0.0991531
0.789075 0.299138 0.100191
0.129458 0.31696 0.0224155
0.136568 0.322438 0.0194858
0.185061 0.367239 0.01738
0.283192 0.403662 0.0105135
0.484108 0.407111 0.0135195
0.690761 0.401068 0.0485847
0.820996 0.406622 0.0868849
0.876982 0.40824 0.108263
0.890837 0.401328 0.11458
0.182147 0.435447 0.0538186
0.180774 0.429221 0.0518807
0.234485 0.475944 0.0563058
0.328206 0.516716 0.0435645
0.47013 0.541115 0.0392157
0.637018 0.526635 0.0501106
0.80531 0.510933 0.0789197
0.924773 0.504082 0.106279
0.967437 0.493645 0.115877
0.247822 0.560601 0.0973831
0.242008 0.548577 0.0928511
0.280888 0.579278 0.0929732
0.368017 0.625635 0.0809949
0.481193 0.662394 0.078584
0.614282 0.664881 0.0810254
0.755444 0.630106 0.0839399
0.909667 0.603098 0.0993057
0.99292 0.590539 0.113329
0.32047 0.686564 0.146471
0.312993 0.674052 0.141192
0.329366 0.682399 0.138979
0.408331 0.726894 0.123552
0.502556 0.762493 0.114473
0.609689 0.780377 0.110979
0.734386 0.75903 0.104936
0.866743 0.718074 0.103563
0.974182 0.690547 0.11165
0.34667 0.728023 0.164965
0.346075 0.727123 0.164538
0.354864 0.733089 0.164599
0.421683 0.774319 0.153429
0.506859 0.816358 0.140078
0.606104 0.8486 0.130556
0.720714 0.847639 0.119844
0.828428 0.828565 0.118425
0.929259 0.795224 0.119814
0.0250095 0.0116884 0.0486152
0.0794537 0.0115358 0.0422522
0.147677 0.0142977 0.0383154
0.222065 0.0108034 0.0306096
0.298054 0.0124361 0.028687
0.375463 0.0124361 0.0264286
0.428748 0.00698863 0.0170138
0.439658 0.00360113 0.0101015
0.438849 0.00370794 0.00968948
0.0176852 0.0636606 0.0670481
0.078172 0.0815442 0.0774243
0.199298 0.0986038 0.0736553
0.323262 0.107546 0.0765545
0.424109 0.112734 0.0801709
0.50338 0.109941 0.0760662
0.551644 0.0971695 0.063859
0.559945 0.0866255 0.0543526
0.553109 0.0789349 0.0477302
0.0220035 0.121645 0.051133
0.0768292 0.150591 0.0593881
0.20029 0.190997 0.052491
0.393011 0.20943 0.071397
0.534264 0.215869 0.0911574
0.624338 0.218723 0.0955062
0.680476 0.221729 0.0997024
0.694667 0.210941 0.0976883
0.687404 0.2009 0.0926375
0.0500038 0.190158 0.0329747
0.098085 0.220798 0.0394141
0.17995 0.277913 0.0363775
0.333455 0.301991 0.0280919
0.556878 0.300267 0.0506294
0.694072 0.308827 0.0825971
0.769711 0.320348 0.104265
0.79884 0.316747 0.110994
0.794873 0.305226 0.109773
0.112703 0.286976 0.0315099
0.130449 0.305303 0.0336767
0.198337 0.369894 0.0400854
0.300633 0.410193 0.0301061
0.492576 0.409751 0.0263828
0.68957 0.402686 0.0558175
0.821363 0.409689 0.0930343
0.877897 0.411139 0.113573
0.890684 0.401389 0.117906
0.175326 0.413367 0.0532082
0.17673 0.415229 0.0520943
0.232853 0.469413 0.0628367
0.327703 0.514961 0.0518349
0.46865 0.538521 0.0436408
0.630808 0.52282 0.049836
0.80061 0.506752 0.0782483
0.919799 0.50164 0.106706
0.965576 0.490806 0.116884
0.241932 0.547265 0.0956436
0.237232 0.538201 0.0911269
0.275715 0.57174 0.0928206
0.361852 0.61912 0.0809339
0.474723 0.657526 0.0778668
0.608164 0.66041 0.0796521
0.751263 0.626749 0.0835126
0.905501 0.598932 0.0987716
0.991562 0.586206 0.112963
0.316487 0.679286 0.144961
0.309529 0.667918 0.139574
0.325277 0.676616 0.137194
0.402258 0.720943 0.122484
0.496284 0.756741 0.11281
0.604685 0.774975 0.109972
0.728405 0.755535 0.104356
0.862333 0.714183 0.102876
0.973953 0.686061 0.11107
0.346502 0.727764 0.164843
0.345663 0.726452 0.164294
0.352316 0.730785 0.164294
0.41796 0.771695 0.153735
0.503243 0.814115 0.140154
0.601251 0.846952 0.130846
0.716686 0.845121 0.119585
0.825452 0.825956 0.117815
0.927413 0.792584 0.119295
0.0205844 0.0169833 0.115419
0.0650797 0.0130617 0.105531
0.139925 0.00723278 0.0933852
0.209186 0.00424201 0.0766766
0.284123 0.00769055 0.0689708
0.359106 0.00889601 0.0663767
0.416632 0.0052491 0.0561837
0.434272 0.00387579 0.0497444
0.431708 0.00306706 0.0471199
0.0175479 0.0678569 0.146471
0.0505379 0.0855879 0.164904
0.164431 0.0877394 0.156863
0.280781 0.095964 0.141238
0.386404 0.0999008 0.137087
0.470954 0.102632 0.133501
0.529 0.094255 0.118013
0.539422 0.0785534 0.100069
0.532891 0.0696727 0.091371
0.0191043 0.132662 0.16376
0.0437324 0.154803 0.17554
0.15967 0.196048 0.198978
0.346456 0.228458 0.209415
0.500984 0.247288 0.213931
0.600015 0.254719 0.214054
0.661418 0.243488 0.199756
0.680781 0.218997 0.178103
0.674632 0.205478 0.164309
0.0238346 0.199664 0.153857
0.0478218 0.218753 0.156237
0.169528 0.284916 0.178973
0.36144 0.338018 0.17998
0.574762 0.361181 0.202731
0.70338 0.372869 0.221576
0.785946 0.377829 0.230625
0.821866 0.360922 0.220874
0.820584 0.343679 0.206134
0.0450752 0.26981 0.122286
0.0691081 0.278111 0.114214
0.205158 0.363638 0.144579
0.348516 0.441566 0.147341
0.543313 0.449409 0.139345
0.727993 0.454093 0.161425
0.854887 0.467857 0.189883
0.91191 0.465599 0.205356
0.925353 0.45066 0.202411
0.111788 0.356558 0.0978256
0.121386 0.355322 0.0894179
0.237736 0.440681 0.126497
0.35668 0.530663 0.137819
0.504967 0.56408 0.118166
0.663417 0.553262 0.112444
0.824933 0.545098 0.139284
0.941512 0.540246 0.160433
0.985595 0.523781 0.162921
0.203616 0.472709 0.105913
0.20235 0.469184 0.100404
0.265034 0.529183 0.129244
0.372534 0.620813 0.148425
0.491875 0.670832 0.119997
0.624323 0.676509 0.112352
0.762539 0.645594 0.112764
0.912108 0.618875 0.126757
0.992523 0.603845 0.136767
0.294591 0.62118 0.14966
0.289876 0.617502 0.143572
0.313222 0.642054 0.152697
0.401801 0.714946 0.165759
0.499565 0.758404 0.143511
0.60766 0.779812 0.127382
0.728038 0.760235 0.111955
0.861311 0.718761 0.110964
0.973159 0.689845 0.118944
0.333364 0.694896 0.172488
0.335134 0.701503 0.170108
0.345632 0.71725 0.171511
0.415076 0.767285 0.168948
0.502739 0.814054 0.154757
0.599176 0.847578 0.139712
0.713909 0.845899 0.123278
0.82295 0.825055 0.118853
0.925521 0.79089 0.119356
0.018555 0.0256046 0.18677
0.0511482 0.0195926 0.173693
0.125643 0.0127565 0.167224
0.199557 0.00538643 0.14876
0.279088 0.00392157 0.126299
0.353002 0.00358587 0.113634
0.410681 0.00254826 0.100877
0.431739 0.00355535 0.0955062
0.428092 0.00190738 0.0918288
0.0178531 0.0800031 0.231968
0.0420081 0.0965286 0.248463
0.11873 0.0988327 0.2439
0.249851 0.0912184 0.224628
0.363745 0.0871443 0.19823
0.453834 0.0885634 0.18674
0.518318 0.0913252 0.174182
0.534615 0.079881 0.155398
0.528298 0.0699931 0.145342
0.0197147 0.140414 0.257038
0.0366674 0.161913 0.271641
0.105058 0.203098 0.304814
0.267277 0.21912 0.307286
0.435706 0.228595 0.284428
0.556619 0.239918 0.281544
0.63035 0.238666 0.271092
0.658808 0.21593 0.244205
0.654887 0.201953 0.229023
0.0247959 0.213886 0.277012
0.0349432 0.227115 0.282078
0.0994125 0.282277 0.317189
0.279423 0.341085 0.348989
0.504036 0.375891 0.349233
0.651621 0.399832 0.364446
0.735317 0.404181 0.369192
0.782498 0.371283 0.330907
0.784985 0.349767 0.307897
0.0310216 0.287175 0.276432
0.0377508 0.290593 0.269078
0.107271 0.347265 0.291218
0.313115 0.437659 0.329885
0.530953 0.489937 0.330434
0.726543 0.51667 0.362966
0.84062 0.53402 0.38941
0.90045 0.522652 0.38439
0.919585 0.504616 0.367864
0.0474098 0.358434 0.248325
0.0538949 0.354253 0.234791
0.135653 0.403738 0.243519
0.33608 0.514382 0.290303
0.519814 0.590478 0.296391
0.70338 0.594003 0.282933
0.863096 0.614176 0.32578
0.968231 0.623346 0.359579
0.994904 0.612787 0.362325
0.103349 0.434699 0.203693
0.107485 0.425788 0.189776
0.188891 0.464591 0.199451
0.358495 0.584176 0.263813
0.509407 0.679713 0.285267
0.664744 0.700648 0.255558
0.811215 0.695338 0.252506
0.945251 0.689815 0.280095
0.998184 0.684886 0.304158
0.212299 0.53109 0.182773
0.214603 0.524727 0.171786
0.259236 0.545983 0.178515
0.392996 0.669825 0.264866
0.514321 0.759014 0.28481
0.637781 0.797864 0.255421
0.768582 0.80235 0.231617
0.890333 0.774441 0.219547
0.982773 0.749798 0.223636
0.277821 0.592325 0.181994
0.284306 0.599207 0.178805
0.300618 0.613916 0.181567
0.406653 0.725322 0.257115
0.519265 0.817609 0.282094
0.622019 0.862257 0.247333
0.735668 0.877195 0.216266
0.844221 0.864424 0.197314
0.940169 0.832883 0.186603
0.0175631 0.035996 0.262425
0.0426337 0.0276188 0.242893
0.104768 0.0212863 0.237156
0.185382 0.0150607 0.233433
0.261372 0.00512703 0.209613
0.341039 0.0010071 0.181094
0.414099 0.00201419 0.162036
0.43624 0.0019379 0.151202
0.431525 0.00047303 0.148043
0.0185245 0.0979934 0.313726
0.0386816 0.110811 0.325795
0.0909285 0.112474 0.322499
0.203586 0.109926 0.315297
0.331365 0.0919814 0.29041
0.440452 0.0787518 0.256596
0.51635 0.0799268 0.234043
0.539376 0.0736553 0.213123
0.532341 0.0648508 0.201572
0.0207828 0.157076 0.343633
0.0361944 0.175113 0.361425
0.0820325 0.215656 0.38854
0.198764 0.228733 0.39585
0.370016 0.22681 0.37789
0.522454 0.224201 0.347372
0.616358 0.227207 0.329122
0.655177 0.216831 0.30898
0.654643 0.204379 0.294575
0.0256352 0.223743 0.370336
0.0344854 0.234287 0.372732
0.0773327 0.284855 0.401968
0.199802 0.342214 0.449119
0.394385 0.366491 0.457877
0.585229 0.381079 0.433265
0.695888 0.383856 0.422034
0.753506 0.364874 0.39884
0.75877 0.344549 0.377249
0.0318914 0.299428 0.384878
0.0357366 0.300923 0.37995
0.0745251 0.348272 0.403738
0.20679 0.426795 0.455543
0.424475 0.492195 0.495338
0.651606 0.528191 0.501579
0.787579 0.545296 0.505943
0.854566 0.528969 0.489921
0.871809 0.502647 0.465034
0.0384527 0.373358 0.387625
0.0391699 0.368994 0.37995
0.0717632 0.405447 0.389883
0.219608 0.490654 0.426215
0.458839 0.587472 0.465766
0.679713 0.633051 0.478553
0.85185 0.660014 0.514107
0.953155 0.674952 0.538231
0.981903 0.659983 0.530068
0.054078 0.442176 0.365942
0.0531472 0.432914 0.353796
0.0854963 0.457481 0.354284
0.243442 0.543175 0.379767
0.483452 0.660746 0.435035
0.657343 0.723232 0.442008
0.82858 0.733288 0.445594
0.968307 0.75285 0.485405
0.99968 0.764752 0.51838
0.102022 0.513863 0.319814
0.103914 0.506157 0.307256
0.135088 0.517388 0.300923
0.293797 0.59971 0.330861
0.502724 0.727581 0.409445
0.644297 0.805341 0.431525
0.789441 0.825574 0.407248
0.920821 0.822965 0.40914
0.994812 0.819776 0.432914
0.14995 0.550713 0.275898
0.161593 0.549554 0.260548
0.184833 0.554299 0.249699
0.334615 0.639994 0.295186
0.509743 0.778347 0.390433
0.634104 0.865125 0.422599
0.754635 0.900786 0.395621
0.878019 0.909697 0.377722
0.973724 0.892683 0.363973
0.0170138 0.0485847 0.336629
0.0371557 0.0370031 0.314397
0.0852064 0.031342 0.305196
0.163607 0.0268254 0.307393
0.243656 0.0161288 0.300755
0.310735 0.00177005 0.266453
0.395575 0.00131228 0.24062
0.422492 0.00047303 0.228458
0.420935 6.10361e-05 0.223896
0.019028 0.114885 0.389624
0.0373388 0.124498 0.399695
0.0742657 0.124758 0.394049
0.160098 0.124331 0.391821
0.277943 0.114977 0.383291
0.394812 0.089662 0.353323
0.497688 0.0685893 0.314183
0.542351 0.0597848 0.284718
0.531838 0.0508736 0.273793
0.0219425 0.174914 0.421744
0.0363012 0.191287 0.436271
0.073579 0.229541 0.460258
0.155657 0.240711 0.466209
0.293721 0.241886 0.46743
0.457481 0.229465 0.444526
0.595514 0.215869 0.406638
0.656825 0.207187 0.377783
0.6607 0.197559 0.362676
0.0267338 0.239017 0.445136
0.0347143 0.247807 0.44889
0.0709087 0.293156 0.47599
0.169986 0.349889 0.519554
0.312032 0.373251 0.544884
0.500938 0.372656 0.526406
0.660227 0.371191 0.488472
0.741222 0.357305 0.461036
0.753338 0.34078 0.441566
0.0326848 0.307134 0.46363
0.035996 0.30779 0.458885
0.0675822 0.349538 0.48098
0.166857 0.423713 0.533867
0.336324 0.494377 0.596643
0.537514 0.514702 0.594598
0.724422 0.527138 0.570657
0.819562 0.516548 0.550866
0.845167 0.492226 0.527642
0.0395361 0.379202 0.474754
0.0401923 0.374441 0.467231
0.0661479 0.40734 0.482322
0.157809 0.485161 0.529885
0.349889 0.575235 0.591073
0.587701 0.636667 0.619944
0.789212 0.662272 0.626978
0.906523 0.674968 0.635279
0.952071 0.660243 0.621241
0.0503395 0.451621 0.479362
0.0487221 0.442817 0.469169
0.0666361 0.461814 0.47361
0.157397 0.538857 0.507866
0.357717 0.63566 0.552178
0.61593 0.723507 0.589776
0.810971 0.761822 0.609751
0.9626 0.784634 0.641672
0.998199 0.799832 0.664942
0.0660258 0.518105 0.460578
0.0639506 0.510338 0.45153
0.0752117 0.517357 0.447913
0.169314 0.585336 0.463905
0.387152 0.684047 0.49752
0.613519 0.790814 0.555856
0.782284 0.85037 0.573053
0.937697 0.858381 0.577279
0.998779 0.871458 0.61004
0.0801862 0.549218 0.428763
0.0829938 0.547707 0.416266
0.0915389 0.550668 0.405356
0.186221 0.612207 0.409613
0.429511 0.717021 0.44509
0.623301 0.841871 0.530373
0.756405 0.913756 0.550774
0.892821 0.938079 0.539132
0.989609 0.93576 0.535317
0.0165255 0.0563668 0.380209
0.034638 0.0403143 0.354574
0.0732433 0.0371862 0.348165
0.142809 0.0343786 0.355779
0.222248 0.0239109 0.356085
0.299504 0.00970474 0.342565
0.359838 0.00291447 0.311818
0.377295 0.000198367 0.29691
0.377493 0 0.290272
0.0191348 0.126024 0.441215
0.0364538 0.133806 0.451392
0.0641947 0.131212 0.445045
0.125933 0.130358 0.447044
0.222919 0.125994 0.442054
0.336339 0.110521 0.434348
0.443595 0.0771649 0.399481
0.499214 0.0468605 0.365164
0.490379 0.0390631 0.356313
0.0227207 0.188479 0.478569
0.0362097 0.203708 0.49781
0.0677653 0.235508 0.525124
0.124132 0.24567 0.525444
0.226856 0.248676 0.53106
0.362341 0.242283 0.528252
0.51931 0.221393 0.507027
0.620356 0.196063 0.464256
0.63534 0.182925 0.445823
0.0275425 0.250324 0.513008
0.0349889 0.257496 0.520653
0.0684825 0.301198 0.550042
0.146288 0.353811 0.58555
0.255268 0.377844 0.609155
0.389029 0.378424 0.616968
0.570352 0.368719 0.590784
0.711894 0.350835 0.550393
0.745235 0.334661 0.524269
0.0343023 0.315465 0.538979
0.0372778 0.315114 0.534432
0.0664836 0.354864 0.552087
0.147066 0.42237 0.59971
0.292149 0.497139 0.664485
0.431464 0.511894 0.686992
0.613779 0.512078 0.665095
0.77409 0.505684 0.62977
0.828367 0.488548 0.602365
0.0416419 0.383688 0.547158
0.0420996 0.378576 0.540597
0.0647135 0.407065 0.553185
0.135836 0.475563 0.598321
0.289281 0.566018 0.667826
0.480659 0.629236 0.723857
0.671382 0.648844 0.723674
0.841093 0.657145 0.704417
0.917159 0.647349 0.685847
0.0522621 0.454765 0.557794
0.0509041 0.446525 0.548775
0.0645762 0.461616 0.554788
0.13373 0.534386 0.597726
0.277897 0.62652 0.655985
0.506798 0.710277 0.711833
0.733059 0.761379 0.738262
0.917205 0.787701 0.755764
0.990051 0.796506 0.764889
0.0651865 0.526131 0.56112
0.0636149 0.518242 0.551919
0.0709697 0.522545 0.549813
0.130663 0.584741 0.578317
0.260502 0.676509 0.623285
0.506935 0.765606 0.665034
0.74522 0.845777 0.708873
0.932982 0.882826 0.732586
0.999603 0.904295 0.768322
0.0713359 0.557824 0.545403
0.0710155 0.555444 0.534844
0.0741283 0.557366 0.526268
0.122591 0.60943 0.540566
0.277806 0.70367 0.568719
0.515618 0.800931 0.609674
0.735607 0.901534 0.671366
0.894789 0.963256 0.694362
0.996445 0.971923 0.6963
0.0158541 0.0566262 0.385214
0.0336309 0.038819 0.357412
0.0699474 0.0368658 0.353658
0.138827 0.0333867 0.359274
0.216327 0.0228122 0.361151
0.293278 0.0126497 0.357
0.352087 0.00306706 0.325582
0.364492 0.000106813 0.308446
0.363256 3.0518e-05 0.306172
0.0187533 0.125765 0.446998
0.0357214 0.133272 0.459342
0.0608682 0.129809 0.455177
0.115953 0.128908 0.45745
0.205509 0.124208 0.455299
0.312245 0.11223 0.450416
0.416938 0.0824903 0.428305
0.462974 0.0467384 0.393118
0.456596 0.0378882 0.381491
0.0226291 0.190387 0.49453
0.0356298 0.204608 0.515724
0.0650492 0.232303 0.545022
0.110826 0.242374 0.547784
0.19382 0.247303 0.555932
0.311986 0.242374 0.556329
0.459281 0.227512 0.548669
0.565499 0.196399 0.518898
0.581277 0.179171 0.504616
0.0278019 0.252918 0.541634
0.035111 0.259876 0.553338
0.0666514 0.302159 0.584054
0.13257 0.351919 0.617411
0.220554 0.374151 0.640467
0.330129 0.376806 0.65745
0.473472 0.370398 0.656199
0.631998 0.350988 0.63064
0.688319 0.333074 0.607675
0.035111 0.318547 0.575494
0.0377661 0.317784 0.576318
0.0655833 0.357031 0.599176
0.134401 0.420508 0.646082
0.253727 0.490166 0.706462
0.381079 0.512047 0.738247
0.507729 0.509514 0.745907
0.66865 0.496178 0.727138
0.765957 0.483467 0.696757
0.0429236 0.385016 0.593622
0.0432898 0.380041 0.590051
0.0641642 0.407202 0.606683
0.125261 0.470253 0.653696
0.250843 0.557702 0.725567
0.426749 0.626047 0.791913
0.558511 0.645853 0.818708
0.722057 0.639979 0.794278
0.855207 0.632517 0.770794
0.0532998 0.454704 0.616617
0.0520943 0.446845 0.608865
0.0632639 0.458488 0.614618
0.121233 0.522591 0.656519
0.238605 0.612238 0.722744
0.425437 0.699382 0.799084
0.621576 0.756954 0.85034
0.819989 0.777371 0.850278
0.949172 0.781064 0.836332
0.0664836 0.528847 0.636439
0.0648508 0.520516 0.628931
0.0704356 0.522744 0.627909
0.120775 0.580056 0.659175
0.224796 0.668971 0.714611
0.409461 0.756664 0.777615
0.650187 0.833738 0.833005
0.882811 0.887526 0.866728
0.992447 0.908232 0.887404
0.0736706 0.566812 0.634791
0.0732586 0.565011 0.627512
0.0754711 0.56701 0.62211
0.111818 0.611841 0.642145
0.208453 0.703365 0.691585
0.380484 0.792142 0.738705
0.635523 0.87718 0.783429
0.856992 0.954681 0.827939
0.997772 0.991379 0.858289
0.0154726 0.0576791 0.387961
0.0335851 0.0386969 0.356802
0.0690166 0.0365148 0.353017
0.138659 0.0316014 0.357275
0.215427 0.0217441 0.360067
0.292805 0.0130922 0.356664
0.351064 0.00198367 0.323781
0.363287 3.0518e-05 0.307515
0.36379 4.57771e-05 0.306813
0.0183871 0.124712 0.446006
0.0354314 0.13283 0.459327
0.0599832 0.128252 0.454139
0.115618 0.127275 0.455268
0.204074 0.122103 0.4542
0.309834 0.110719 0.449378
0.415442 0.0799878 0.427375
0.458106 0.0463417 0.392325
0.451972 0.0369268 0.380835
0.0222934 0.18912 0.4934
0.0352178 0.203037 0.514321
0.0641642 0.22948 0.543236
0.109758 0.239994 0.547646
0.190768 0.244938 0.554498
0.307118 0.239734 0.555123
0.449027 0.225391 0.549508
0.556298 0.194873 0.523842
0.572519 0.176623 0.507118
0.0277714 0.252232 0.541848
0.0348669 0.258686 0.552941
0.0657054 0.29987 0.585321
0.129686 0.350271 0.619944
0.213016 0.370947 0.642588
0.321019 0.373907 0.658701
0.455772 0.367712 0.660655
0.607507 0.349508 0.644877
0.666438 0.330419 0.624781
0.0350652 0.317723 0.57966
0.0371557 0.316014 0.580758
0.0642557 0.354803 0.602808
0.130907 0.417975 0.65214
0.242344 0.484291 0.712718
0.366583 0.509896 0.747463
0.483024 0.508034 0.762585
0.625177 0.494194 0.74934
0.718425 0.477348 0.726726
0.0430152 0.384146 0.602533
0.0431525 0.378805 0.601038
0.0631418 0.40528 0.619257
0.122484 0.467475 0.667277
0.239902 0.55375 0.73933
0.412924 0.624155 0.811032
0.539574 0.644739 0.851164
0.649302 0.635508 0.837995
0.788022 0.61973 0.81384
0.053254 0.452888 0.63035
0.0520638 0.444938 0.626459
0.0629892 0.456214 0.63595
0.115496 0.516152 0.6804
0.223423 0.604242 0.749477
0.399924 0.693843 0.831296
0.586755 0.75787 0.90135
0.742962 0.776089 0.909148
0.900725 0.7682 0.892103
0.0663005 0.527047 0.662074
0.0645914 0.518212 0.657511
0.0691081 0.518868 0.658915
0.114534 0.571862 0.694514
0.209735 0.657633 0.755306
0.368933 0.747433 0.832212
0.593851 0.827604 0.909407
0.836194 0.890043 0.955139
0.978073 0.904433 0.958144
0.0743267 0.568185 0.677058
0.0740978 0.567041 0.676982
0.0757916 0.567834 0.676173
0.109514 0.61001 0.699062
0.198459 0.69984 0.755016
0.340673 0.790051 0.822431
0.556878 0.875853 0.894804
0.803922 0.950149 0.948501
0.985733 0.995315 0.978836
