LUT预设1/LUT全系打包/阿勒泰系列lut/709专用（不拍灰片用这个）/动漫709.cube
TITLE "Generated by Resolve"
LUT_3D_SIZE 33
0.0290532 0.0145571 0.00218204
0.0421759 0.0154116 0.00317388
0.0547036 0.0163577 0.00410468
0.0705882 0.0171664 0.00453193
0.0868849 0.0182193 0.00491341
0.10631 0.019089 0.00511177
0.126207 0.0199741 0.00526436
0.146441 0.0203861 0.00492866
0.167193 0.0209354 0.00442512
0.187869 0.0214389 0.00396735
0.20911 0.021912 0.00325017
0.229419 0.0224308 0.00300603
0.24976 0.0226902 0.00260929
0.269856 0.0225223 0.00213626
0.289631 0.0221256 0.00151064
0.308858 0.0216373 0.00178531
0.328008 0.0210117 0.00225834
0.347311 0.0203098 0.00256352
0.36669 0.0192721 0.00274662
0.385718 0.0181125 0.00262455
0.402853 0.016968 0.00241093
0.419471 0.0155642 0.00180056
0.432868 0.0145418 0.00135805
0.444953 0.0134432 0.000915541
0.454246 0.0122225 0.00047303
0.45893 0.0111391 0.000366217
0.463691 0.00972 0.000198367
0.4636 0.00863661 0.000137331
0.46363 0.0078584 0.00015259
0.463951 0.00813306 0.000259403
0.463767 0.00833143 0.000335698
0.463233 0.00825513 0.00030518
0.463111 0.00839246 0.000335698
0.0276341 0.0248264 0.0043946
0.0384222 0.0265049 0.00503548
0.0525216 0.0281834 0.00560006
0.0705882 0.030045 0.00628672
0.0917525 0.031693 0.00701915
0.115572 0.0331273 0.00770581
0.137972 0.0347143 0.00758373
0.161593 0.0361028 0.00686656
0.185443 0.0373541 0.00601205
0.209232 0.0386053 0.00518807
0.232837 0.0398413 0.00463874
0.255055 0.0407874 0.00457771
0.277302 0.0416419 0.00494392
0.297948 0.0415045 0.00579843
0.318547 0.0413519 0.00662242
0.338796 0.0403906 0.00717174
0.358816 0.0393072 0.0074464
0.378195 0.037644 0.0075227
0.39678 0.0354009 0.00703441
0.414038 0.0331273 0.00627146
0.429892 0.03122 0.00497444
0.445792 0.0296025 0.00349432
0.458701 0.0288548 0.00306706
0.472038 0.0282597 0.002533
0.480095 0.0277562 0.00236515
0.486839 0.0273594 0.00227359
0.491188 0.026627 0.00221256
0.490562 0.0251621 0.00216678
0.489937 0.0234379 0.00177005
0.487907 0.0220188 0.00167849
0.485481 0.0202945 0.00137331
0.483543 0.0189212 0.00109865
0.48191 0.0178378 0.000946059
0.0264439 0.0358129 0.00552377
0.0356451 0.0376135 0.00572213
0.0497749 0.0404364 0.00585946
0.0636454 0.0436103 0.00582895
0.0881666 0.0460212 0.00556954
0.11339 0.0485237 0.00512703
0.143282 0.0501869 0.00445563
0.174029 0.0519112 0.00376898
0.202441 0.05449 0.00384527
0.231083 0.0574655 0.00440986
0.256733 0.0595254 0.0068513
0.280674 0.0609903 0.00900282
0.303075 0.0614023 0.0104219
0.324758 0.061326 0.0113985
0.346334 0.0609445 0.012192
0.367254 0.0597238 0.0122835
0.388266 0.0584878 0.012192
0.407996 0.0563363 0.0111849
0.427771 0.0542 0.00987259
0.445579 0.0525978 0.0087129
0.463081 0.0510872 0.00741588
0.478752 0.0501259 0.00656138
0.492515 0.0497749 0.00619516
0.505455 0.0493324 0.00572213
0.512047 0.048127 0.00596628
0.518654 0.0473335 0.00666819
0.519524 0.0459144 0.00727855
0.518898 0.0442206 0.00749218
0.518029 0.0426795 0.00747692
0.515923 0.0413214 0.00733959
0.513771 0.0396735 0.00666819
0.513008 0.0391852 0.00643931
0.512413 0.0386969 0.00604257
0.0249638 0.0466773 0.00387579
0.0334478 0.0494545 0.00376898
0.0450599 0.0535592 0.00337224
0.0615244 0.0573281 0.00292973
0.0843519 0.0608072 0.00242618
0.109026 0.0640116 0.00202945
0.141848 0.0659648 0.00187686
0.174258 0.0685283 0.00334173
0.207843 0.0717479 0.00541695
0.241825 0.0749828 0.00733959
0.270893 0.0776989 0.00939956
0.30071 0.080705 0.0116426
0.325277 0.0813458 0.0134279
0.349645 0.0819257 0.0152285
0.372824 0.081117 0.0158694
0.395941 0.0799268 0.016022
0.4177 0.0779431 0.0152132
0.438148 0.0754101 0.01355
0.458259 0.0728923 0.011841
0.476326 0.0716716 0.0108797
0.494469 0.0705882 0.00987259
0.508873 0.0711833 0.0105898
0.522774 0.0726329 0.0130465
0.533578 0.0734722 0.0152895
0.541726 0.0737011 0.0171969
0.549416 0.07393 0.0188754
0.5505 0.0722362 0.0187991
0.551888 0.0703288 0.0183261
0.550881 0.0681315 0.0171664
0.548699 0.0655375 0.0153964
0.546868 0.0631266 0.01355
0.545571 0.0623026 0.013077
0.544549 0.0616007 0.012604
0.0260166 0.0584115 0.00196841
0.03505 0.0614633 0.00167849
0.0454871 0.0651713 0.00137331
0.057145 0.0700847 0.00122072
0.0674296 0.0760204 0.00205997
0.0979324 0.0795453 0.00285344
0.13547 0.082475 0.00337224
0.17406 0.086244 0.00474556
0.213382 0.0903182 0.00668345
0.249226 0.0942855 0.00863661
0.284047 0.0978408 0.0107118
0.31667 0.100313 0.0126345
0.343999 0.101015 0.0144198
0.371344 0.101259 0.0159609
0.395148 0.099382 0.0160983
0.419074 0.0974441 0.0161898
0.441413 0.0945754 0.0146487
0.463905 0.0915999 0.0128328
0.484489 0.090135 0.0119478
0.503807 0.0903639 0.0128176
0.521904 0.0916457 0.0151827
0.537316 0.0946365 0.0191501
0.552575 0.0976272 0.0228885
0.562249 0.0988785 0.0256962
0.571817 0.10013 0.028336
0.577768 0.100145 0.0294957
0.580453 0.0987106 0.0294499
0.583154 0.0973831 0.0294194
0.581201 0.0950942 0.0281071
0.57937 0.0926986 0.0267796
0.577996 0.0911116 0.0258946
0.57705 0.090074 0.0252689
0.576043 0.0889448 0.0246128
0.0279088 0.0708934 0.000976577
0.0370489 0.0742809 0.00189212
0.0458839 0.0781109 0.00259403
0.0549172 0.0845197 0.00291447
0.0670481 0.0905623 0.0030518
0.0921492 0.0959945 0.00299077
0.115663 0.101747 0.00282292
0.15935 0.105913 0.00363165
0.202747 0.110094 0.00430304
0.247715 0.113405 0.00587472
0.29453 0.116655 0.00775158
0.329992 0.11812 0.00979629
0.363012 0.119203 0.0120089
0.390982 0.118608 0.0133059
0.41619 0.116548 0.0140536
0.441611 0.11429 0.0142977
0.465187 0.111604 0.0138399
0.488746 0.109545 0.0147707
0.508629 0.110704 0.0171511
0.528725 0.111482 0.0191958
0.54583 0.114397 0.0228122
0.561929 0.118151 0.0269932
0.576364 0.121477 0.0307164
0.587335 0.123857 0.0341039
0.598688 0.126467 0.0375219
0.604089 0.126116 0.0387121
0.609674 0.125811 0.0399939
0.6121 0.12459 0.040238
0.610803 0.122301 0.039292
0.609613 0.120027 0.0384375
0.607874 0.118379 0.037583
0.606073 0.11664 0.0368048
0.604929 0.11574 0.0366979
0.0316625 0.0849775 0.00157168
0.0392462 0.0875868 0.00158694
0.0470893 0.0924392 0.00141909
0.0559091 0.0990005 0.00138857
0.0677501 0.106081 0.00122072
0.0809033 0.11368 0.0009308
0.107622 0.11986 0.000915541
0.146365 0.124788 0.00120546
0.186725 0.129488 0.00195315
0.23508 0.13312 0.00347906
0.281682 0.136355 0.00488289
0.325399 0.137133 0.00640879
0.371572 0.137926 0.00769055
0.402792 0.136156 0.00987259
0.435248 0.135348 0.0138247
0.462547 0.133654 0.0160372
0.487678 0.13135 0.0175021
0.511193 0.130373 0.0193637
0.532357 0.130983 0.0214389
0.553017 0.132158 0.023682
0.56994 0.137224 0.0285954
0.58703 0.14229 0.0333715
0.600198 0.146059 0.0378119
0.612345 0.149828 0.042298
0.622797 0.152483 0.046067
0.629038 0.152392 0.0480964
0.635782 0.152605 0.05037
0.636271 0.150607 0.0502174
0.636301 0.148257 0.0498817
0.635798 0.146334 0.0496681
0.634028 0.144503 0.0491035
0.632227 0.14258 0.0484169
0.631373 0.141695 0.0481117
0.0381628 0.101503 0.00105287
0.0439612 0.103258 0.00105287
0.05243 0.108843 0.000976577
0.0611582 0.114504 0.000915541
0.069398 0.121935 0.000732433
0.0764477 0.129396 0.000564584
0.098558 0.136538 0.000518807
0.118975 0.143816 0.000396735
0.163119 0.148638 0.000396735
0.214557 0.152758 0.000228885
0.268269 0.155077 0.00109865
0.324224 0.157061 0.00357061
0.372869 0.158083 0.00688182
0.411917 0.157885 0.0111086
0.451072 0.157443 0.0146639
0.479271 0.1552 0.0169375
0.508354 0.152987 0.0191806
0.53167 0.153079 0.0218814
0.554147 0.153338 0.0246891
0.574273 0.15613 0.0288853
0.592142 0.161456 0.0343786
0.609644 0.166842 0.0399786
0.622934 0.171527 0.0454719
0.636713 0.176547 0.0512856
0.645853 0.178073 0.054902
0.653742 0.178668 0.0579232
0.659571 0.178485 0.060029
0.661112 0.176684 0.0604868
0.662821 0.174746 0.0608988
0.661479 0.172625 0.0602884
0.659876 0.170687 0.059617
0.658381 0.168872 0.0589761
0.657542 0.168032 0.0586404
0.0448768 0.117876 0.000244144
0.0502937 0.12018 0.000274662
0.0581826 0.125124 0.000320439
0.0650339 0.130983 0.000350958
0.0701457 0.138628 0.000320439
0.0784466 0.146181 0.000274662
0.0932479 0.154009 0.000167849
0.112551 0.161868 0.000274662
0.153216 0.16907 0.000762951
0.190295 0.176547 0.00120546
0.250095 0.178759 0.00238041
0.30927 0.180819 0.00349432
0.363073 0.180865 0.00608835
0.418189 0.180194 0.00891127
0.462303 0.178454 0.0120089
0.496437 0.176013 0.0153658
0.528054 0.174334 0.018967
0.551461 0.175036 0.0228885
0.575799 0.175448 0.0270848
0.595087 0.180957 0.0333104
0.614404 0.186633 0.039826
0.631251 0.192142 0.0463111
0.645747 0.197604 0.0527199
0.659586 0.202472 0.0588235
0.668864 0.203967 0.0629282
0.678447 0.205661 0.067155
0.683146 0.204913 0.0690318
0.686168 0.203174 0.0700694
0.688258 0.201343 0.0707713
0.686748 0.198978 0.070161
0.685512 0.19675 0.0696574
0.684215 0.195132 0.0691691
0.682933 0.193759 0.0686198
0.054612 0.13669 0.000122072
0.0591897 0.139071 0.000137331
0.0645304 0.142336 0.000137331
0.0687724 0.148608 0.000137331
0.073228 0.156039 0.000656138
0.0814221 0.164324 0.000946059
0.0908217 0.173175 0.000823987
0.111833 0.182513 0.000671397
0.138827 0.191867 0.000503548
0.178851 0.198383 0.000534066
0.234409 0.201953 0.000961318
0.288197 0.205005 0.00180056
0.349355 0.204486 0.00390631
0.410468 0.204135 0.00567636
0.45565 0.202548 0.00962844
0.503212 0.201053 0.013611
0.538476 0.200977 0.0187076
0.567941 0.201175 0.0246586
0.594995 0.202945 0.0312047
0.616114 0.207889 0.0384527
0.637583 0.212451 0.0458228
0.65333 0.218219 0.0531014
0.668894 0.223865 0.0603952
0.681727 0.22768 0.0661631
0.692485 0.230137 0.0708324
0.702663 0.232197 0.0752422
0.706905 0.230686 0.0767987
0.711742 0.229587 0.078645
0.712993 0.227726 0.0790875
0.712444 0.225406 0.0788281
0.712001 0.223285 0.0786603
0.710674 0.22179 0.0781567
0.709346 0.220264 0.0776989
0.0643626 0.158053 0.000289921
0.0677348 0.160052 0.000549325
0.0713817 0.162936 0.000869764
0.0761883 0.17052 0.00123598
0.0816968 0.178195 0.00158694
0.0899977 0.186816 0.00123598
0.0979019 0.195346 0.000732433
0.117296 0.204501 0.000503548
0.1346 0.213581 0.000228885
0.171664 0.220295 0.000289921
0.209354 0.227222 0.000350958
0.264363 0.229465 0.000732433
0.331273 0.229053 0.00102235
0.395239 0.228367 0.00280766
0.454307 0.227878 0.00741588
0.511833 0.227344 0.0118563
0.545998 0.227375 0.019028
0.582849 0.227512 0.026215
0.610086 0.23093 0.0340429
0.63418 0.234897 0.0422065
0.655894 0.239216 0.0500801
0.673243 0.244511 0.0576181
0.691112 0.249821 0.0652018
0.703182 0.25275 0.0707408
0.71545 0.255772 0.076463
0.724681 0.257023 0.0806592
0.731151 0.256535 0.0835889
0.737774 0.256291 0.0866255
0.738216 0.254063 0.0869764
0.73875 0.251698 0.0874189
0.738323 0.249836 0.0873579
0.73698 0.248203 0.0868086
0.735515 0.246296 0.086305
0.0747539 0.180987 0.000381476
0.0758831 0.180774 0.000396735
0.078706 0.184619 0.000579843
0.0832837 0.19205 0.00103761
0.0892042 0.199863 0.00111391
0.0962844 0.20827 0.000732433
0.106157 0.217166 0.000381476
0.119753 0.226444 0.000183108
0.13753 0.235599 1.5259e-05
0.16791 0.244495 0
0.197574 0.253346 1.5259e-05
0.254612 0.255528 0.000228885
0.307851 0.258366 0.000411994
0.371237 0.25803 0.0027924
0.438193 0.256443 0.00535592
0.496376 0.255726 0.0106355
0.546639 0.255451 0.0187076
0.595376 0.255756 0.0269169
0.623774 0.258549 0.0360266
0.652628 0.260868 0.0451514
0.674266 0.265202 0.0535134
0.693812 0.270039 0.0615549
0.71107 0.274449 0.0688182
0.724453 0.278004 0.0750439
0.738338 0.281636 0.0814069
0.746792 0.282139 0.0852522
0.755459 0.282704 0.08925
0.761074 0.282277 0.0918441
0.763104 0.280247 0.0928817
0.765576 0.278355 0.0941787
0.764538 0.276432 0.0940261
0.763348 0.274266 0.093904
0.762524 0.272847 0.093843
0.0854353 0.206455 0.00215152
0.0856641 0.205188 0.00190738
0.0886854 0.21004 0.00196841
0.0916304 0.214862 0.00202945
0.0982834 0.223407 0.00138857
0.105211 0.232334 0.000656138
0.116289 0.241382 0.000320439
0.127916 0.250324 0.000106813
0.146029 0.26009 1.5259e-05
0.165911 0.270512 0
0.195438 0.278569 0
0.237049 0.284199 4.57771e-05
0.284367 0.288548 0.000381476
0.355596 0.286793 0.00175479
0.423301 0.285512 0.00292973
0.482841 0.284779 0.00993362
0.543374 0.283833 0.0169985
0.588846 0.284611 0.0254368
0.626123 0.286107 0.0354925
0.662333 0.288151 0.0454261
0.685893 0.292042 0.054139
0.710231 0.295521 0.062974
0.727794 0.299306 0.0703899
0.744228 0.303197 0.0776379
0.758755 0.306172 0.0841382
0.769345 0.307668 0.089189
0.780529 0.309392 0.0945602
0.785031 0.308095 0.0969406
0.789181 0.306615 0.0991531
0.791516 0.305043 0.100404
0.790661 0.302724 0.100374
0.790051 0.300343 0.100496
0.789075 0.299138 0.100191
0.0964981 0.23238 0.00436408
0.0962997 0.23154 0.00410468
0.097673 0.234211 0.00410468
0.100618 0.238544 0.00387579
0.107469 0.247654 0.00318914
0.115053 0.256474 0.0024567
0.12636 0.266087 0.00189212
0.137972 0.2757 0.00117494
0.155215 0.286351 0.00111391
0.171664 0.296864 0.0010071
0.203113 0.304921 0.000808728
0.234562 0.31313 0.000549325
0.282506 0.316182 0.000701915
0.339055 0.31667 0.000961318
0.39733 0.31664 0.00283818
0.465202 0.314656 0.00787366
0.534051 0.31249 0.0123751
0.583047 0.312947 0.023682
0.634821 0.313161 0.0352483
0.67042 0.315068 0.045304
0.69781 0.318044 0.0546883
0.724605 0.320882 0.0638743
0.74313 0.324849 0.0716106
0.762875 0.328664 0.0795758
0.776852 0.330922 0.0857862
0.78967 0.333135 0.0916152
0.800809 0.334417 0.0966812
0.807279 0.333715 0.099733
0.81445 0.333211 0.103075
0.816052 0.331243 0.104173
0.816587 0.328939 0.10486
0.8168 0.326909 0.105409
0.815595 0.32546 0.105303
0.107195 0.260426 0.0102388
0.106783 0.259113 0.00975052
0.106661 0.258457 0.00933852
0.110933 0.263996 0.00830091
0.116976 0.272099 0.00701915
0.126146 0.281453 0.00560006
0.137194 0.291905 0.00386053
0.14963 0.302342 0.00268559
0.163348 0.312459 0.00238041
0.180209 0.322621 0.00250248
0.205035 0.332631 0.00250248
0.229465 0.342321 0.00236515
0.278096 0.344503 0.00196841
0.324804 0.347463 0.0012665
0.38645 0.346685 0.00331121
0.45182 0.344945 0.00584421
0.511803 0.343832 0.011429
0.567864 0.34316 0.0217136
0.624445 0.342321 0.0317235
0.662089 0.343862 0.0424659
0.701747 0.345129 0.0534218
0.731502 0.347494 0.0629282
0.755871 0.350607 0.0716869
0.779217 0.353323 0.0802014
0.794568 0.35581 0.0869459
0.810529 0.358602 0.0938125
0.821744 0.359457 0.0988022
0.830915 0.359487 0.103044
0.83859 0.359182 0.106538
0.840101 0.356924 0.107561
0.842176 0.35462 0.108812
0.842191 0.35288 0.109178
0.841215 0.351263 0.109148
0.118105 0.288502 0.0161746
0.117159 0.285893 0.0155642
0.116777 0.28426 0.0149691
0.121599 0.290715 0.013901
0.126024 0.296574 0.0129397
0.136782 0.307439 0.0115511
0.147326 0.318349 0.0102693
0.160616 0.329091 0.00994888
0.174151 0.339818 0.00970474
0.192569 0.350332 0.00918593
0.212436 0.360555 0.00840772
0.24097 0.368475 0.00708019
0.279835 0.373724 0.00492866
0.319982 0.378363 0.00296025
0.37705 0.37734 0.00300603
0.431342 0.376364 0.00250248
0.492546 0.374609 0.00979629
0.556329 0.372427 0.0188144
0.611124 0.371771 0.0290227
0.658061 0.372137 0.0408331
0.704509 0.372259 0.0520943
0.733043 0.374563 0.0614481
0.763714 0.376593 0.0710307
0.787289 0.378836 0.0792706
0.806714 0.381476 0.0867781
0.825803 0.383566 0.0940414
0.837781 0.383993 0.0990158
0.850492 0.384726 0.104143
0.857908 0.383703 0.107332
0.862928 0.382116 0.10956
0.867735 0.380453 0.111757
0.867262 0.378759 0.112032
0.866728 0.376822 0.112367
0.129458 0.31696 0.0224155
0.128267 0.31397 0.0217746
0.128878 0.313893 0.0210727
0.131151 0.316503 0.020325
0.136568 0.322438 0.0194858
0.146929 0.333684 0.0184329
0.157992 0.344793 0.0176852
0.171374 0.356008 0.0175021
0.185061 0.367239 0.01738
0.202655 0.377905 0.0165408
0.22002 0.388739 0.0157931
0.251057 0.396262 0.0133059
0.283192 0.403662 0.0105135
0.32578 0.407248 0.00859083
0.375616 0.408194 0.00712596
0.426307 0.408804 0.00733959
0.484108 0.407111 0.0135195
0.539513 0.40528 0.0188449
0.591577 0.4038 0.0284581
0.644617 0.401709 0.038529
0.690761 0.401068 0.0485847
0.730282 0.401892 0.0591592
0.770993 0.402518 0.06981
0.795407 0.404608 0.078233
0.820996 0.406622 0.0868849
0.840604 0.40798 0.0939193
0.854871 0.408942 0.0996109
0.869886 0.409751 0.105333
0.876982 0.40824 0.108263
0.885084 0.406989 0.11136
0.889189 0.405219 0.113146
0.889845 0.403372 0.113787
0.890837 0.401328 0.11458
0.141527 0.346319 0.0292973
0.14023 0.343236 0.0285954
0.140566 0.342733 0.0278019
0.141054 0.342611 0.0270695
0.148226 0.350408 0.0268711
0.156634 0.359609 0.0268864
0.168734 0.370947 0.0273747
0.182452 0.383108 0.0280156
0.197955 0.394858 0.0279698
0.214939 0.405859 0.0270085
0.234714 0.416266 0.025391
0.261967 0.424887 0.0217899
0.287617 0.433906 0.0182193
0.330922 0.437064 0.0150149
0.372808 0.440757 0.0115511
0.420584 0.440955 0.0122835
0.471626 0.43946 0.0153048
0.523507 0.438163 0.0200046
0.578973 0.435065 0.0289158
0.632731 0.431937 0.0371099
0.677791 0.431098 0.0472725
0.722744 0.429969 0.0573587
0.761379 0.429572 0.0669108
0.791974 0.431067 0.076112
0.824094 0.432425 0.0854047
0.84419 0.433234 0.0921492
0.865125 0.434028 0.0989853
0.881895 0.433753 0.104463
0.893645 0.432395 0.108385
0.90631 0.431052 0.112505
0.9093 0.429129 0.113909
0.912291 0.427207 0.115312
0.914214 0.425757 0.116304
0.153887 0.375937 0.0364538
0.152483 0.372839 0.0355383
0.151369 0.370169 0.0345922
0.15169 0.369375 0.0340581
0.158724 0.37702 0.0349889
0.165728 0.384543 0.0359197
0.179782 0.397513 0.0371862
0.193576 0.410346 0.0385443
0.210269 0.421973 0.0378119
0.227115 0.433631 0.0370184
0.249088 0.44387 0.0341955
0.273014 0.453254 0.0303655
0.302724 0.461128 0.0266117
0.340703 0.466239 0.0228275
0.378241 0.471611 0.0193637
0.424567 0.472557 0.0209506
0.470237 0.474311 0.0222782
0.518303 0.472389 0.0267185
0.566781 0.468894 0.0320134
0.614374 0.465156 0.0379034
0.662898 0.461173 0.0463111
0.712001 0.456825 0.0542611
0.751919 0.456641 0.0640116
0.791852 0.457206 0.0742199
0.825864 0.457633 0.0834211
0.850126 0.458412 0.0909743
0.87599 0.459098 0.0986954
0.89192 0.457938 0.103578
0.907668 0.456367 0.108278
0.920165 0.454643 0.111971
0.925902 0.452338 0.113848
0.932754 0.449943 0.115923
0.933944 0.448493 0.116472
0.16788 0.4056 0.0450141
0.166491 0.40264 0.0441138
0.165133 0.39968 0.0431983
0.16672 0.400534 0.0430457
0.170291 0.404044 0.0434882
0.178042 0.411399 0.04448
0.191287 0.42414 0.0463264
0.205325 0.43653 0.0475776
0.222583 0.449134 0.047303
0.239948 0.461707 0.0469825
0.262623 0.471351 0.0429694
0.285023 0.481285 0.0390326
0.315877 0.488899 0.0348516
0.347784 0.496437 0.0305943
0.384283 0.501961 0.0285039
0.426047 0.505974 0.028809
0.467338 0.509285 0.0293126
0.512398 0.506035 0.0328374
0.556313 0.503532 0.0360876
0.603616 0.499046 0.0418708
0.651194 0.493385 0.0481727
0.6963 0.488991 0.0549172
0.737896 0.487175 0.063859
0.779599 0.484733 0.0722972
0.812879 0.484413 0.0805676
0.84567 0.484337 0.0890669
0.875242 0.483848 0.0965744
0.896559 0.481956 0.102022
0.919234 0.480247 0.107652
0.932464 0.477699 0.110979
0.94374 0.474907 0.113787
0.953277 0.472374 0.116167
0.953841 0.470832 0.11667
0.182147 0.435447 0.0538186
0.180468 0.432074 0.0527962
0.178912 0.428977 0.0518654
0.179828 0.429023 0.0518502
0.180774 0.429221 0.0518807
0.190875 0.438956 0.0535439
0.201938 0.449821 0.0554055
0.217105 0.462318 0.0560922
0.234485 0.475944 0.0563058
0.253803 0.487999 0.0547799
0.275425 0.498634 0.0513924
0.298497 0.508812 0.0479591
0.328206 0.516716 0.0435645
0.357061 0.525109 0.039353
0.393957 0.531426 0.0385901
0.430961 0.537881 0.0381781
0.47013 0.541115 0.0392157
0.511131 0.541131 0.0413519
0.551415 0.54107 0.0435645
0.594934 0.533944 0.0471656
0.637018 0.526635 0.0501106
0.680095 0.521004 0.0557717
0.724559 0.515618 0.0624857
0.767422 0.511299 0.0696727
0.80531 0.510933 0.0789197
0.842939 0.510216 0.0876478
0.872251 0.508324 0.0944228
0.899138 0.506416 0.100572
0.924773 0.504082 0.106279
0.939727 0.501152 0.109575
0.956054 0.497993 0.113054
0.964034 0.495674 0.1149
0.967437 0.493645 0.115877
0.197803 0.465507 0.0640421
0.195956 0.461906 0.0628367
0.194766 0.459312 0.0619364
0.194354 0.457679 0.0612955
0.195773 0.458137 0.0610819
0.203342 0.465736 0.0623636
0.211109 0.473457 0.0635538
0.228656 0.487922 0.0641794
0.246113 0.502617 0.0649577
0.266697 0.514519 0.0627451
0.287526 0.526024 0.0602274
0.312016 0.536126 0.056672
0.338277 0.545083 0.0524147
0.36669 0.553613 0.049073
0.400732 0.561761 0.0482185
0.433799 0.570245 0.0473487
0.472068 0.573007 0.0487068
0.509957 0.57586 0.0502174
0.549004 0.574014 0.0521553
0.589014 0.568124 0.0542611
0.629007 0.562341 0.0564736
0.671153 0.555535 0.061387
0.712581 0.548302 0.0657054
0.752346 0.543511 0.0718242
0.791547 0.539712 0.0788128
0.830533 0.535531 0.0855116
0.863844 0.533318 0.0921645
0.898863 0.530846 0.0990005
0.925719 0.527794 0.104173
0.947631 0.524605 0.108293
0.969879 0.521218 0.112413
0.976608 0.518639 0.113909
0.983612 0.515846 0.115526
0.213428 0.495552 0.0742199
0.211749 0.492348 0.0730755
0.210224 0.489265 0.0719768
0.208865 0.486442 0.0709697
0.211048 0.487999 0.0710002
0.215152 0.492027 0.0716564
0.224826 0.500603 0.0724346
0.240665 0.514458 0.0735332
0.25742 0.527825 0.0738231
0.278004 0.540368 0.0717021
0.298558 0.55317 0.0696269
0.323323 0.562402 0.0655375
0.347753 0.571939 0.0615854
0.376852 0.581247 0.0595102
0.407233 0.590295 0.0581369
0.439521 0.598291 0.0576486
0.474968 0.603738 0.0589303
0.509438 0.609934 0.0602274
0.547173 0.606867 0.0613565
0.584054 0.604166 0.0623636
0.622034 0.598184 0.0638437
0.66006 0.589075 0.065568
0.698039 0.579995 0.0673228
0.739498 0.573648 0.0731823
0.779721 0.567224 0.0784772
0.818692 0.562615 0.0845655
0.856794 0.559335 0.0912184
0.894575 0.555688 0.0974289
0.921416 0.552209 0.102068
0.949569 0.548745 0.106783
0.969329 0.545663 0.110338
0.979583 0.543145 0.112688
0.990906 0.540398 0.115267
0.230457 0.527962 0.0856794
0.228702 0.524636 0.0845045
0.226871 0.521065 0.083238
0.225071 0.517571 0.082002
0.226352 0.518013 0.0817121
0.227329 0.518181 0.0814069
0.238422 0.528344 0.0823835
0.25066 0.539834 0.0836194
0.268406 0.552773 0.0827497
0.288975 0.566796 0.0809186
0.310658 0.579309 0.0783246
0.333471 0.589136 0.0746471
0.356512 0.598978 0.0711376
0.385031 0.608988 0.0694285
0.412909 0.618738 0.0675822
0.444739 0.626566 0.0679026
0.477668 0.633951 0.0688945
0.511528 0.638422 0.0697795
0.547189 0.63769 0.070573
0.581949 0.637934 0.0714427
0.61857 0.630716 0.0725414
0.65478 0.623697 0.0735485
0.691737 0.616053 0.0754864
0.729473 0.607416 0.0783703
0.766155 0.598428 0.0806592
0.805707 0.592371 0.0856031
0.845365 0.585702 0.0902266
0.88246 0.580255 0.0949264
0.917082 0.576852 0.100084
0.953506 0.573205 0.105379
0.970611 0.57026 0.108858
0.986053 0.567452 0.11223
0.996796 0.565042 0.114717
0.247822 0.560601 0.0973831
0.245899 0.556924 0.0960861
0.243931 0.553231 0.0947585
0.242634 0.550484 0.0937057
0.242008 0.548577 0.0928511
0.243656 0.549096 0.0923934
0.252491 0.557198 0.0932784
0.261067 0.564935 0.0940566
0.280888 0.579278 0.0929732
0.299977 0.593133 0.0919814
0.321599 0.604456 0.0884718
0.343648 0.615213 0.0842298
0.368017 0.625635 0.0809949
0.394064 0.635447 0.0788434
0.420356 0.645167 0.0771801
0.451194 0.65359 0.0778668
0.481193 0.662394 0.078584
0.513695 0.666316 0.0793622
0.546746 0.669291 0.0801862
0.580026 0.669703 0.0808118
0.614282 0.664881 0.0810254
0.64831 0.660182 0.0810254
0.683696 0.649851 0.0816205
0.718517 0.639582 0.0822461
0.755444 0.630106 0.0839399
0.795331 0.621912 0.0873426
0.83415 0.613382 0.0902419
0.872023 0.608179 0.0948043
0.909667 0.603098 0.0993057
0.941863 0.598383 0.10341
0.962295 0.59556 0.107286
0.984375 0.592676 0.111299
0.99292 0.590539 0.113329
0.266545 0.594705 0.109972
0.264393 0.590875 0.108507
0.262303 0.587198 0.107103
0.260456 0.583719 0.105745
0.258732 0.580423 0.104463
0.260838 0.581292 0.104112
0.264744 0.584146 0.104234
0.274525 0.591562 0.104158
0.292363 0.605386 0.103883
0.310536 0.618723 0.102937
0.33225 0.630198 0.098146
0.35375 0.641871 0.0936294
0.378103 0.651957 0.0909895
0.402365 0.661814 0.0883345
0.428977 0.671275 0.0872511
0.457435 0.680629 0.0874952
0.485756 0.688884 0.0876478
0.517159 0.693416 0.088304
0.548135 0.698268 0.0889296
0.580514 0.697383 0.0890974
0.612848 0.69514 0.0891432
0.645197 0.691295 0.089189
0.678935 0.682612 0.089189
