LUT预设1/LUT全系打包/阿勒泰系列lut/709专用（不拍灰片用这个）/动漫肤色优化.cube
TITLE "Generated by Resolve"
LUT_3D_SIZE 33
0.0297246 0.0142824 0.00292973
0.0430915 0.0150149 0.00451667
0.0551308 0.0161746 0.00479133
0.0707408 0.0170901 0.00480659
0.0870069 0.0181582 0.00514229
0.106447 0.0190127 0.00538643
0.126375 0.0198978 0.00560006
0.146624 0.0202945 0.0053254
0.167407 0.0208286 0.00488289
0.188113 0.0213169 0.00448615
0.209384 0.0217746 0.00383001
0.229709 0.0222782 0.00364691
0.25008 0.0225223 0.00329595
0.270191 0.0223392 0.00288396
0.289998 0.0219425 0.00231937
0.309239 0.0214389 0.00265507
0.328405 0.020798 0.00318914
0.347738 0.0200809 0.00354009
0.367132 0.019028 0.00378424
0.386175 0.0178683 0.0037232
0.403342 0.0167086 0.00355535
0.419974 0.0152895 0.00300603
0.433387 0.0142672 0.00259403
0.445472 0.0131533 0.0021973
0.45478 0.0119326 0.00177005
0.459464 0.0108492 0.00169375
0.46424 0.00943008 0.00154116
0.464149 0.00834669 0.00148013
0.464164 0.00756847 0.00149538
0.4645 0.00784314 0.0016022
0.464302 0.0080415 0.00167849
0.463767 0.00796521 0.00164797
0.463645 0.00810254 0.00167849
0.0277104 0.0247959 0.00442512
0.0385138 0.0264744 0.00509651
0.0534981 0.0278172 0.00663767
0.0725109 0.0292973 0.00881971
0.093431 0.0310369 0.00953689
0.116365 0.0328069 0.00900282
0.13846 0.0345159 0.00840772
0.161959 0.0359503 0.00750744
0.185763 0.0372015 0.0065919
0.209537 0.0384527 0.00576791
0.233158 0.0396887 0.00526436
0.255406 0.0406195 0.00526436
0.277684 0.0414588 0.00569161
0.298344 0.0413062 0.00660716
0.318975 0.0411383 0.00749218
0.339239 0.0401617 0.00810254
0.359274 0.0390784 0.00842298
0.378668 0.0373999 0.00856031
0.397269 0.0351415 0.00813306
0.414557 0.0328527 0.00743114
0.430426 0.0309453 0.0061799
0.446342 0.0293126 0.00474556
0.459266 0.0285496 0.00436408
0.472618 0.0279545 0.00387579
0.48069 0.0274357 0.0037232
0.487434 0.027039 0.00364691
0.491783 0.0263066 0.00360113
0.491157 0.0248417 0.00355535
0.490532 0.0231174 0.00315862
0.488502 0.0216983 0.00306706
0.486061 0.0199741 0.00276188
0.484123 0.018616 0.00248722
0.48249 0.0175326 0.00231937
0.0265507 0.0357824 0.00552377
0.0357519 0.037583 0.00575265
0.0499123 0.0403906 0.00593576
0.063798 0.0435492 0.00593576
0.0897688 0.0455024 0.00723278
0.116854 0.0474403 0.00939956
0.14725 0.049012 0.00993362
0.177325 0.0509804 0.00862135
0.204898 0.0538186 0.00758373
0.232868 0.0569924 0.00720226
0.257816 0.059205 0.00862135
0.281376 0.0607309 0.0102083
0.303593 0.0611734 0.0113527
0.325216 0.0610971 0.0122683
0.346807 0.0607156 0.0131075
0.367742 0.0594797 0.0132601
0.388785 0.0582284 0.0132296
0.40853 0.0560616 0.0122835
0.428321 0.0539101 0.0110323
0.446159 0.0523079 0.00993362
0.463676 0.050782 0.00869764
0.479377 0.0498054 0.00788891
0.493156 0.0494545 0.00755322
0.506111 0.0489967 0.00712596
0.512703 0.0477913 0.00738537
0.51931 0.0469978 0.00810254
0.52018 0.0455787 0.00872816
0.519554 0.0438849 0.00894179
0.518669 0.0423438 0.00892653
0.516564 0.0409857 0.00877394
0.514412 0.0393378 0.00810254
0.513649 0.0388495 0.00787366
0.513054 0.0383612 0.00747692
0.0251011 0.0466468 0.00384527
0.0336004 0.0494087 0.00375372
0.0452277 0.0534981 0.00340276
0.0617227 0.0572671 0.00300603
0.0845808 0.0607309 0.00257877
0.109361 0.0638895 0.00231937
0.145846 0.0650034 0.00628672
0.180148 0.0672618 0.0107271
0.214099 0.0705882 0.0138857
0.247166 0.0740673 0.0149386
0.274846 0.0770275 0.015198
0.303456 0.0802319 0.0157931
0.327016 0.0809796 0.0161593
0.350759 0.0816205 0.0170748
0.373587 0.080827 0.0172122
0.396551 0.0796368 0.0171359
0.41828 0.0776532 0.0163119
0.438743 0.0751202 0.0147097
0.458885 0.0725872 0.0130617
0.476967 0.0713512 0.0121614
0.49514 0.0702525 0.0112154
0.50956 0.0708476 0.0119631
0.523476 0.072282 0.0144656
0.534279 0.0731212 0.0167239
0.542428 0.0733501 0.0186465
0.550118 0.0735637 0.0203555
0.551202 0.07187 0.0202792
0.55259 0.0699626 0.0198062
0.551583 0.0677806 0.0186465
0.549401 0.0651865 0.0168765
0.54757 0.0627756 0.0150454
0.546273 0.0619364 0.0145724
0.545251 0.0612497 0.0140993
0.0261845 0.0583658 0.00190738
0.0352483 0.0614023 0.00164797
0.0457008 0.0651102 0.00137331
0.0573739 0.0700084 0.00125124
0.067689 0.0759442 0.002121
0.0982223 0.0794385 0.00300603
0.135805 0.0823529 0.00364691
0.17821 0.0855573 0.00910964
0.221042 0.0893111 0.0158236
0.258106 0.0934462 0.0199588
0.292958 0.0972152 0.0225986
0.324285 0.0998093 0.0231632
0.349569 0.100587 0.022385
0.375051 0.100893 0.0214389
0.397482 0.0990463 0.0196841
0.420554 0.0971084 0.0185855
0.442451 0.0942397 0.016434
0.464714 0.091249 0.0142977
0.485222 0.0897841 0.0133059
0.504524 0.090013 0.0141604
0.522622 0.0912947 0.016556
0.538048 0.0942702 0.0205692
0.553323 0.097261 0.0243381
0.562997 0.0985122 0.0271611
0.57258 0.0997482 0.0298314
0.578531 0.0997635 0.0310063
0.581216 0.0983291 0.0309758
0.583917 0.0970016 0.0309453
0.581964 0.0947127 0.029633
0.580118 0.0923171 0.0283055
0.578744 0.0907301 0.0274205
0.577798 0.0896925 0.0267948
0.576791 0.0885634 0.0261387
0.0281224 0.0708476 0.000885023
0.0372778 0.0742199 0.00183108
0.046128 0.0780499 0.00254826
0.0551766 0.0844434 0.00289921
0.0673381 0.0904707 0.00306706
0.0924697 0.0958877 0.00308232
0.11603 0.101625 0.00299077
0.159762 0.10576 0.00393683
0.204807 0.10988 0.00627146
0.256519 0.112978 0.015671
0.306416 0.116548 0.0221714
0.342412 0.118273 0.0256657
0.374289 0.119356 0.0269932
0.399878 0.118608 0.0255283
0.422324 0.116381 0.0227817
0.445609 0.114031 0.0201877
0.467811 0.111284 0.0178683
0.49044 0.109178 0.0175021
0.509957 0.110323 0.019379
0.529793 0.111086 0.0210574
0.546777 0.114 0.0245212
0.562814 0.117754 0.0286107
0.577218 0.12108 0.0322881
0.588159 0.123461 0.0356603
0.599512 0.12607 0.0390631
0.604898 0.125719 0.0402533
0.610483 0.125414 0.0415503
0.612909 0.124193 0.0417945
0.611612 0.121904 0.0408484
0.610422 0.119631 0.0400092
0.608682 0.117983 0.0391394
0.606882 0.116243 0.0383612
0.605722 0.115343 0.0382544
0.0319066 0.0849165 0.00144961
0.0395056 0.0875105 0.00149538
0.0473793 0.0923629 0.00134279
0.0562142 0.098909 0.00132753
0.0680858 0.105989 0.0011902
0.0812848 0.113573 0.000946059
0.108034 0.119722 0.0010071
0.146822 0.124636 0.00143435
0.187228 0.129305 0.00230411
0.236378 0.132967 0.00466926
0.29044 0.136645 0.0141146
0.339437 0.13785 0.0226291
0.387549 0.139147 0.0273289
0.417823 0.13727 0.0291905
0.44712 0.135988 0.0297398
0.47097 0.133867 0.0277256
0.493248 0.131273 0.0254978
0.514992 0.130144 0.0249943
0.53521 0.130678 0.025803
0.555245 0.131807 0.0271916
0.571954 0.136843 0.0318151
0.588861 0.141894 0.0363317
0.601831 0.145647 0.0405127
0.61384 0.149416 0.0448005
0.62414 0.152056 0.0483558
0.630213 0.151949 0.0501717
0.636851 0.152163 0.0522774
0.637263 0.150164 0.052018
0.637232 0.147814 0.051606
0.636698 0.145907 0.0513313
0.634913 0.144076 0.0507515
0.633097 0.142153 0.0500343
0.632227 0.141283 0.0497139
0.038468 0.101427 0.000900282
0.0442664 0.103182 0.0009308
0.0527657 0.108751 0.000869764
0.0615244 0.114412 0.000839246
0.0697795 0.121828 0.000671397
0.0768597 0.129274 0.000503548
0.0990158 0.1364 0.000534066
0.119463 0.143664 0.00047303
0.163653 0.148455 0.00062562
0.215152 0.152544 0.00062562
0.269306 0.15491 0.00201419
0.334707 0.158099 0.0145113
0.390021 0.160006 0.0264439
0.430777 0.16025 0.0338445
0.469276 0.159701 0.0376287
0.494697 0.156786 0.0371099
0.519814 0.153796 0.0347143
0.540444 0.153475 0.0340734
0.560708 0.153429 0.0340276
0.579553 0.156069 0.0365454
0.596826 0.161334 0.0412451
0.613794 0.166674 0.0461433
0.626657 0.171313 0.0510414
0.64004 0.176303 0.0563363
0.648692 0.177768 0.0592813
0.656138 0.178317 0.0617075
0.661631 0.178103 0.0633402
0.662943 0.176272 0.0634775
0.664424 0.174319 0.0635843
0.662989 0.172183 0.0628214
0.661295 0.170245 0.0620279
0.659739 0.168429 0.0612955
0.658869 0.16759 0.0609293
0.0452277 0.117784 7.62951e-05
0.05066 0.120089 0.000122072
0.0585641 0.125017 0.000198367
0.0654459 0.130877 0.000244144
0.0705882 0.138506 0.000213626
0.0789044 0.146059 0.000183108
0.0937514 0.153872 0.000106813
0.113085 0.161715 0.000274662
0.153796 0.168887 0.000900282
0.190936 0.176333 0.00146487
0.250782 0.178515 0.00283818
0.310399 0.180652 0.00448615
0.373968 0.182605 0.0172885
0.438361 0.183459 0.0316014
0.484688 0.182208 0.0386511
0.517998 0.179431 0.0421454
0.54667 0.176837 0.0429541
0.567269 0.176837 0.0437476
0.588235 0.176516 0.0439155
0.606165 0.181796 0.0484627
0.62417 0.187274 0.053315
0.639933 0.192645 0.0584268
0.65359 0.198001 0.0637522
0.66659 0.202747 0.0687724
0.674846 0.204105 0.0715343
0.683558 0.205676 0.0745861
0.687556 0.204822 0.0755322
0.689952 0.202991 0.0757458
0.691569 0.201099 0.0757916
0.689799 0.198703 0.0748302
0.688334 0.196445 0.0740215
0.686885 0.194812 0.0733349
0.685512 0.193423 0.0726482
0.055024 0.136584 0
0.059617 0.138964 0
0.0649729 0.142214 0
0.0692302 0.148486 0
0.0737163 0.155917 0.000503548
0.0819409 0.164187 0.000808728
0.091371 0.173022 0.000701915
0.112428 0.182345 0.000610361
0.139467 0.191669 0.000534066
0.179538 0.198169 0.000701915
0.235157 0.201694 0.00131228
0.288991 0.204715 0.00233463
0.350637 0.204318 0.00505074
0.423499 0.206867 0.019028
0.478004 0.207065 0.0342412
0.528862 0.206195 0.0435187
0.564187 0.205966 0.0498207
0.591806 0.205417 0.0544594
0.616022 0.206226 0.0581674
0.635172 0.210636 0.0632486
0.654215 0.214603 0.0678111
0.66862 0.220111 0.0734722
0.68278 0.225498 0.079057
0.694209 0.229053 0.0830854
0.703593 0.231235 0.0860304
0.712459 0.233051 0.0887617
0.715419 0.231296 0.0887007
0.719127 0.229999 0.0890822
0.719661 0.228016 0.0885939
0.718563 0.225589 0.087602
0.717632 0.223392 0.0867933
0.716091 0.221866 0.0859998
0.714534 0.220295 0.0852674
0.0648508 0.157931 9.15541e-05
0.0682231 0.15993 0.000350958
0.0718853 0.162814 0.000686656
0.0767071 0.170382 0.00105287
0.0822461 0.178058 0.00140383
0.0905776 0.186664 0.00106813
0.0985122 0.195178 0.000564584
0.117952 0.204318 0.000396735
0.135286 0.213382 0.000167849
0.172412 0.220066 0.000366217
0.210147 0.226963 0.000549325
0.265202 0.229175 0.00112917
0.332158 0.228733 0.00164797
0.396994 0.228305 0.0043946
0.468788 0.231479 0.0221714
0.538048 0.233463 0.04065
0.574716 0.233936 0.0518959
0.611933 0.23386 0.0608072
0.638361 0.236835 0.0684672
0.660945 0.240208 0.0754406
0.680812 0.243885 0.081529
0.696696 0.248768 0.0875257
0.712871 0.25359 0.0932479
0.723262 0.256077 0.096849
0.733745 0.25864 0.100481
0.741192 0.259434 0.102556
0.745815 0.258503 0.103227
0.750729 0.257877 0.104158
0.750103 0.255406 0.103166
0.749538 0.252796 0.10222
0.748455 0.250797 0.10132
0.746777 0.249104 0.100343
0.744869 0.247105 0.0992905
0.0753033 0.18085 0.00015259
0.0764324 0.180636 0.000183108
0.0792706 0.184466 0.000366217
0.0838636 0.191897 0.000808728
0.0898146 0.19971 0.000900282
0.0969253 0.208103 0.000518807
0.106828 0.216983 0.000183108
0.12047 0.226246 1.5259e-05
0.138293 0.235386 0
0.168719 0.244251 0
0.198428 0.253086 0.000106813
0.255512 0.255222 0.000534066
0.308812 0.25803 0.000900282
0.372229 0.257664 0.00347906
0.439918 0.256336 0.00689708
0.510109 0.259586 0.024445
0.573571 0.262577 0.0476081
0.627054 0.263569 0.0627756
0.656107 0.266331 0.0736248
0.684489 0.268254 0.0832074
0.705333 0.272236 0.0912184
0.723857 0.276692 0.098497
0.739879 0.280659 0.104631
0.75198 0.283787 0.10959
0.76434 0.286915 0.114321
0.771023 0.286854 0.116228
0.777783 0.286839 0.118059
0.781735 0.285908 0.11873
0.782254 0.283436 0.117968
0.783139 0.281117 0.117372
0.781369 0.278996 0.116335
0.779355 0.276616 0.115206
0.777996 0.275059 0.114488
0.0860609 0.206302 0.00189212
0.0862898 0.205035 0.00164797
0.0893263 0.209873 0.00170901
0.0922866 0.214694 0.00177005
0.09897 0.223224 0.00112917
0.105928 0.232151 0.000411994
0.117037 0.241184 9.15541e-05
0.12871 0.250111 0
0.146868 0.259861 0
0.166781 0.270268 0
0.196368 0.278294 1.5259e-05
0.238025 0.283894 0.000213626
0.285389 0.288212 0.000717174
0.356664 0.286412 0.00233463
0.424414 0.2851 0.00373846
0.484703 0.284688 0.0115969
0.558129 0.288319 0.0317998
0.616434 0.292531 0.054612
0.659129 0.294987 0.0718547
0.697292 0.297169 0.0853132
0.721248 0.30106 0.0952316
0.745312 0.304295 0.10454
0.762356 0.307836 0.111833
0.778012 0.311406 0.118593
0.79144 0.313954 0.124178
0.800702 0.314946 0.127962
0.810315 0.316091 0.131746
0.813245 0.314229 0.132448
0.815702 0.312154 0.132815
0.816709 0.31014 0.13257
0.814878 0.3075 0.131441
0.813199 0.304768 0.130327
0.811856 0.303456 0.129595
0.0972 0.232197 0.00407416
0.0969863 0.231357 0.00381476
0.0983749 0.234028 0.00381476
0.101335 0.238361 0.00358587
0.108217 0.247456 0.00289921
0.115831 0.256275 0.00218204
0.127184 0.265873 0.00163272
0.138827 0.275471 0.000946059
0.156115 0.286107 0.0009308
0.17261 0.29659 0.000854505
0.20412 0.304631 0.00077821
0.235615 0.31281 0.00062562
0.283589 0.315831 0.000946059
0.3402 0.316289 0.00141909
0.398505 0.316228 0.00349432
0.466407 0.314214 0.00874342
0.536538 0.312581 0.0146334
0.59617 0.317067 0.0366827
0.663905 0.321843 0.0658579
0.705318 0.32488 0.0834058
0.734859 0.328222 0.0961318
0.762615 0.331121 0.107362
0.781415 0.335119 0.115953
0.801068 0.338811 0.124437
0.814603 0.340841 0.130602
0.82678 0.342763 0.136095
0.836973 0.343648 0.140429
0.842344 0.342473 0.142504
0.848188 0.341436 0.144594
0.848722 0.33904 0.144594
0.848173 0.336324 0.144152
0.84744 0.333928 0.143694
0.845777 0.332311 0.143099
0.107958 0.260243 0.0099031
0.10753 0.25893 0.00941482
0.107424 0.258259 0.00900282
0.111711 0.263798 0.00796521
0.117784 0.271885 0.00669871
0.127001 0.281239 0.00529488
0.138094 0.291661 0.00357061
0.150576 0.302083 0.00242618
0.164324 0.312184 0.00215152
0.181231 0.322332 0.00231937
0.206104 0.332326 0.00239567
0.230579 0.341985 0.00233463
0.279255 0.344137 0.002121
0.326009 0.347066 0.0016022
0.387701 0.346258 0.00386053
0.453117 0.344488 0.00662242
0.513115 0.343343 0.0123903
0.569696 0.342931 0.0233158
0.636545 0.346151 0.0436255
0.686625 0.351797 0.0676127
0.736248 0.355505 0.0902724
0.769879 0.358618 0.105043
0.795926 0.362036 0.116518
0.820096 0.364828 0.126802
0.835645 0.3673 0.134295
0.85156 0.370001 0.141649
0.862394 0.370626 0.146639
0.870909 0.370336 0.150546
0.877821 0.36968 0.153506
0.878553 0.367071 0.153872
0.879698 0.364355 0.154269
0.879133 0.362371 0.154086
0.877729 0.360571 0.153643
0.118929 0.288304 0.0157778
0.117983 0.285695 0.0151827
0.117586 0.284062 0.0145876
0.122438 0.290501 0.0135195
0.126879 0.296361 0.0125734
0.137682 0.30721 0.0112001
0.148272 0.318105 0.00993362
0.161608 0.328832 0.0096437
0.175189 0.339544 0.00943008
0.193652 0.350027 0.00895705
0.213565 0.360235 0.00823987
0.242145 0.368124 0.00701915
0.281071 0.373342 0.00500496
0.321263 0.377951 0.00318914
0.378378 0.376898 0.00344854
0.432715 0.375891 0.00314336
0.493935 0.374105 0.0106355
0.557733 0.371908 0.0198672
0.613062 0.371527 0.0307164
0.667399 0.37496 0.0499123
0.729213 0.380468 0.0772869
0.765866 0.385061 0.0958419
0.802411 0.388418 0.112734
0.828641 0.39118 0.124712
0.849409 0.39408 0.134401
0.869276 0.396262 0.143236
0.881422 0.396628 0.148928
0.894102 0.397238 0.154543
0.901198 0.395987 0.157794
0.905745 0.394141 0.159823
0.909941 0.392172 0.161654
0.909117 0.390311 0.161639
0.908171 0.38819 0.161639
0.130343 0.316747 0.021973
0.129152 0.313756 0.0213474
0.129763 0.31368 0.0206455
0.132052 0.316274 0.0198978
0.137484 0.32221 0.0190738
0.14789 0.33344 0.0180362
0.158999 0.344533 0.0173037
0.172427 0.355734 0.0171511
0.18616 0.366949 0.0170596
0.2038 0.3776 0.0162661
0.22121 0.388403 0.0155642
0.252293 0.395911 0.0131838
0.284489 0.403281 0.0105135
0.327138 0.406836 0.00875868
0.377005 0.407736 0.00747692
0.427741 0.408316 0.00787366
0.485573 0.406607 0.0142672
0.540993 0.404746 0.0197757
0.593057 0.40325 0.0295415
0.646265 0.401251 0.0399176
0.697795 0.402945 0.055314
0.748867 0.408255 0.0777142
0.803265 0.413199 0.103304
0.833478 0.416785 0.118608
0.863172 0.419715 0.132586
0.88481 0.421469 0.142596
0.900069 0.422583 0.149966
0.915724 0.423438 0.157015
0.922881 0.421836 0.160464
0.930922 0.420432 0.163943
0.934798 0.418479 0.165805
0.93521 0.416495 0.166354
0.935882 0.414267 0.166995
0.142473 0.34609 0.028809
0.141176 0.343008 0.0281224
0.141512 0.342504 0.0273289
0.142 0.342382 0.0265965
0.149203 0.350164 0.0264134
0.157641 0.35935 0.0264286
0.169787 0.370672 0.0269474
0.183551 0.382818 0.0276036
0.1991 0.394553 0.0276036
0.216129 0.405539 0.026688
0.23595 0.41593 0.0251316
0.263264 0.424521 0.021622
0.288975 0.433509 0.018143
0.332326 0.436637 0.0151064
0.374273 0.440299 0.0118105
0.422095 0.440467 0.012726
0.473152 0.438941 0.0159304
0.525048 0.437629 0.020798
0.58053 0.434501 0.0298924
0.634302 0.431357 0.0382544
0.679377 0.430518 0.0485695
0.728008 0.431098 0.0623178
0.776638 0.43476 0.0819715
0.817746 0.44007 0.102251
0.859937 0.444465 0.122789
0.884871 0.446494 0.135332
0.909331 0.448066 0.146761
0.928084 0.448142 0.155123
0.940826 0.446876 0.160754
0.954116 0.445518 0.166217
0.957122 0.443519 0.167941
0.960067 0.441489 0.169574
0.961913 0.439948 0.170687
0.154894 0.375692 0.0359197
0.15349 0.372595 0.0350042
0.152377 0.369924 0.0340734
0.152697 0.369131 0.0335393
0.159747 0.376761 0.0344854
0.166781 0.384283 0.0354162
0.18088 0.397238 0.0367132
0.19472 0.410056 0.0380865
0.21146 0.421668 0.0373999
0.228351 0.433295 0.0366522
0.250385 0.443519 0.0338903
0.274372 0.452873 0.0301518
0.304143 0.460716 0.0265049
0.342184 0.465797 0.0228733
0.379767 0.471138 0.0195468
0.426139 0.472053 0.0213169
0.471839 0.473777 0.022797
0.519921 0.471839 0.0274205
0.568399 0.46833 0.0328679
0.616007 0.464561 0.0389258
0.66453 0.460563 0.0474861
0.713649 0.456214 0.0555886
0.75584 0.45713 0.067628
0.803922 0.461158 0.0859998
0.84947 0.466011 0.107164
0.882338 0.469657 0.124041
0.915785 0.472496 0.140475
0.935637 0.472267 0.150179
0.954223 0.471244 0.158663
0.968322 0.469764 0.164767
0.974685 0.467491 0.167742
0.982025 0.465064 0.170809
0.983276 0.463569 0.171588
0.168963 0.405341 0.0444343
0.167559 0.40238 0.0435492
0.166201 0.39942 0.0426337
0.167788 0.400275 0.0424811
0.171374 0.403784 0.0429389
0.179141 0.411124 0.0439307
0.192432 0.42385 0.0458076
0.206516 0.436225 0.0470741
0.223819 0.448814 0.0468452
0.24123 0.461372 0.0465705
0.263981 0.470985 0.0426337
0.286427 0.480888 0.0387732
0.317357 0.488472 0.0347143
0.349325 0.495979 0.0305791
0.38587 0.501472 0.0286259
0.42768 0.50547 0.0290837
0.469001 0.508751 0.0297246
0.514076 0.50547 0.0334325
0.558007 0.502953 0.0368353
0.60531 0.498451 0.0427863
0.652903 0.492775 0.0492561
0.698009 0.488365 0.0561379
0.739605 0.486534 0.0652018
0.782391 0.484672 0.0747997
0.820508 0.486488 0.0878462
0.862486 0.490242 0.105669
0.903044 0.493828 0.124712
0.932677 0.49456 0.13933
0.962173 0.494667 0.152941
0.978714 0.492836 0.160449
0.992172 0.490425 0.166232
1 0.48806 0.170657
1 0.486519 0.171496
0.183291 0.435172 0.0532082
0.181598 0.4318 0.0521859
0.180041 0.428702 0.0512551
0.180957 0.428748 0.0512398
0.181903 0.428946 0.0512856
0.192035 0.438666 0.0529641
0.203128 0.449531 0.0548409
0.218341 0.461997 0.0555581
0.235767 0.475608 0.0558022
0.255146 0.487648 0.0543374
0.276829 0.498253 0.0510262
0.299962 0.5084 0.0476692
0.329732 0.516274 0.0433814
0.358648 0.524651 0.0392767
0.39559 0.530938 0.0386511
0.432654 0.537362 0.0383764
0.471855 0.540566 0.0395514
0.512871 0.540566 0.0418402
0.553185 0.540475 0.0441901
0.596704 0.533333 0.0479591
0.638788 0.526009 0.0510567
0.68188 0.520363 0.0568704
0.726345 0.514961 0.0637369
0.769207 0.510628 0.0710613
0.807462 0.510491 0.080766
0.849134 0.51165 0.093492
0.886061 0.513008 0.107912
0.923003 0.515053 0.124453
0.958984 0.516243 0.141314
0.979889 0.515038 0.151339
1 0.513146 0.160937
1 0.511284 0.16553
1 0.509438 0.16788
0.198993 0.465217 0.063386
0.197147 0.461616 0.0621805
0.195956 0.459022 0.0612955
0.195529 0.457389 0.0606546
0.196948 0.457847 0.060441
0.204547 0.465446 0.061738
0.212345 0.473152 0.0629435
0.229938 0.487602 0.0635996
0.247456 0.502266 0.0644083
0.268101 0.514153 0.0622568
0.288975 0.525628 0.0598154
0.313542 0.535714 0.0563363
0.339864 0.54464 0.0521859
0.368338 0.55314 0.0489357
0.402426 0.561257 0.0482032
0.435554 0.569711 0.0474556
0.473854 0.572457 0.0489509
0.511772 0.57528 0.0505989
0.550835 0.573419 0.0526894
0.59086 0.567514 0.0549477
0.630854 0.5617 0.0573129
0.672999 0.554879 0.0623789
0.714427 0.547646 0.0668498
0.754192 0.54284 0.073106
0.793393 0.539025 0.0802167
0.832456 0.534905 0.0871138
0.868193 0.533883 0.0961776
0.910491 0.5346 0.110262
0.946975 0.535454 0.125292
0.978317 0.535683 0.139406
1 0.535058 0.153384
1 0.533288 0.158358
1 0.531167 0.163256
0.214679 0.495247 0.0735332
0.212985 0.492042 0.0723888
0.21146 0.48896 0.0712902
0.210101 0.486137 0.0702831
0.212284 0.487694 0.0703288
0.216403 0.491722 0.070985
0.226108 0.500282 0.0717784
0.241993 0.514122 0.0729076
0.258808 0.527474 0.0732433
0.279454 0.539986 0.0711833
0.300069 0.552773 0.0691691
0.324895 0.561975 0.065156
0.349386 0.571481 0.0612955
0.378546 0.580758 0.0593271
0.408972 0.589792 0.0580606
0.441321 0.597757 0.0576791
0.476799 0.603174 0.0590829
0.511315 0.609354 0.060502
0.549065 0.606256 0.0617838
0.585962 0.60354 0.0629435
0.623941 0.597543 0.0645609
0.661967 0.588418 0.0664378
0.699947 0.579324 0.0683452
0.741405 0.572961 0.0743572
0.781628 0.566522 0.0797894
0.8206 0.561898 0.0859998
0.858717 0.558618 0.0927749
0.898634 0.556069 0.101152
0.930556 0.554849 0.110826
0.96762 0.555123 0.124575
0.995697 0.555261 0.136782
1 0.554528 0.144579
1 0.553536 0.153048
0.231769 0.527642 0.084947
0.230015 0.524315 0.083772
0.228168 0.520745 0.0825055
0.226368 0.517266 0.0812848
0.227649 0.517693 0.0809949
0.228626 0.517861 0.0806897
0.239765 0.528023 0.0816968
0.252033 0.539498 0.082948
0.269841 0.552407 0.0821241
0.290471 0.566415 0.080354
0.312215 0.578897 0.077821
0.335088 0.588693 0.0742199
0.35819 0.59852 0.0707866
0.38677 0.608499 0.0691844
0.41471 0.618219 0.0674296
0.446586 0.626017 0.0678569
0.479561 0.633387 0.0689708
0.513436 0.637827 0.0699779
0.549142 0.637079 0.0709087
0.583917 0.637308 0.0719158
0.620539 0.63006 0.073167
0.656764 0.623026 0.0743114
0.693706 0.615366 0.0764019
0.731441 0.606729 0.0794232
0.768124 0.597726 0.0818494
0.807675 0.591653 0.0869306
0.847333 0.58497 0.0916915
0.884443 0.579507 0.0965133
0.920302 0.576776 0.102968
0.962386 0.575677 0.113863
0.984726 0.57499 0.122606
1 0.574685 0.13225
1 0.574243 0.139986
0.249195 0.560265 0.0966049
0.247257 0.556603 0.0953231
0.245289 0.552911 0.0939956
0.243992 0.550164 0.0929427
0.243366 0.548257 0.0920882
0.245014 0.54876 0.0916457
0.25388 0.556863 0.092546
0.26247 0.564584 0.0933394
0.282353 0.578912 0.0923018
0.301518 0.592737 0.0913558
0.323201 0.604044 0.0879225
0.345312 0.614771 0.0837568
0.369741 0.625162 0.0805982
0.39585 0.634943 0.0785382
0.422187 0.644648 0.0769665
0.453071 0.65304 0.07776
0.483131 0.661814 0.078584
0.515663 0.665721 0.0794842
0.548745 0.668681 0.0804303
0.58204 0.669062 0.081178
0.616312 0.664225 0.0815442
0.650355 0.65951 0.0816663
0.68574 0.649165 0.082414
0.720562 0.63888 0.0831922
0.757488 0.629389 0.0850385
0.79736 0.62118 0.0885786
0.836194 0.612634 0.0916304
0.874067 0.607416 0.0963149
0.911711 0.602335 0.100923
0.944625 0.598032 0.105821
0.967208 0.596231 0.111833
0.993591 0.59527 0.120104
1 0.594324 0.124865
0.267979 0.594354 0.109163
0.265827 0.590524 0.107698
0.263722 0.586862 0.106294
0.261875 0.583383 0.104952
0.260151 0.580087 0.10367
0.262257 0.580957 0.103319
0.266178 0.583795 0.103456
0.275975 0.591211 0.10341
0.293873 0.605005 0.103166
0.312108 0.618326 0.102266
0.333898 0.62977 0.0975509
0.355459 0.641413 0.0931106
0.379873 0.651469 0.090547
0.404196 0.661311 0.0879835
0.430854 0.670741 0.0869764
0.459373 0.680079 0.0873274
0.487739 0.688304 0.0875715
0.519158 0.692821 0.0883497
0.550179 0.697643 0.0890822
0.582589 0.696742 0.0893873
0.614939 0.694484 0.0895552
0.647303 0.690608 0.0897383
0.681041 0.68191 0.0898909
0.714595 0.67332 0.0898146
0.751049 0.663249 0.0908827
0.787182 0.652781 0.0918135
0.823682 0.642969 0.0931411
0.862516 0.635279 0.0963455
0.901381 0.627298 0.0992142
0.932189 0.622782 0.103273
0.961013 0.619883 0.108049
0.988937 0.617853 0.113985
