LUT预设1/LUT全系打包/阿勒泰系列lut/709专用（不拍灰片用这个）/动漫709.cube
TITLE "Generated by Resolve"
LUT_3D_SIZE 5
0.0290532 0.0145571 0.00218204
0.167193 0.0209354 0.00442512
0.328008 0.0210117 0.00225834
0.454246 0.0122225 0.00047303
0.463111 0.00839246 0.000335698
0.0448768 0.117876 0.000244144
0.153216 0.16907 0.000762951
0.528054 0.174334 0.018967
0.668864 0.203967 0.0629282
0.682933 0.193759 0.0686198
0.129458 0.31696 0.0224155
0.185061 0.367239 0.01738
0.484108 0.407111 0.0135195
0.820996 0.406622 0.0868849
0.890837 0.401328 0.11458
0.247822 0.560601 0.0973831
0.280888 0.579278 0.0929732
0.481193 0.662394 0.078584
0.755444 0.630106 0.0839399
0.99292 0.590539 0.113329
0.34667 0.728023 0.164965
0.354864 0.733089 0.164599
0.506859 0.816358 0.140078
0.720714 0.847639 0.119844
0.929259 0.795224 0.119814
0.0205844 0.0169833 0.115419
0.139925 0.00723278 0.0933852
0.284123 0.00769055 0.0689708
0.416632 0.0052491 0.0561837
0.431708 0.00306706 0.0471199
0.0191043 0.132662 0.16376
0.15967 0.196048 0.198978
0.500984 0.247288 0.213931
0.661418 0.243488 0.199756
0.674632 0.205478 0.164309
0.0450752 0.26981 0.122286
0.205158 0.363638 0.144579
0.543313 0.449409 0.139345
0.854887 0.467857 0.189883
0.925353 0.45066 0.202411
0.203616 0.472709 0.105913
0.265034 0.529183 0.129244
0.491875 0.670832 0.119997
0.762539 0.645594 0.112764
0.992523 0.603845 0.136767
0.333364 0.694896 0.172488
0.345632 0.71725 0.171511
0.502739 0.814054 0.154757
0.713909 0.845899 0.123278
0.925521 0.79089 0.119356
0.0175631 0.035996 0.262425
0.104768 0.0212863 0.237156
0.261372 0.00512703 0.209613
0.414099 0.00201419 0.162036
0.431525 0.00047303 0.148043
0.0207828 0.157076 0.343633
0.0820325 0.215656 0.38854
0.370016 0.22681 0.37789
0.616358 0.227207 0.329122
0.654643 0.204379 0.294575
0.0318914 0.299428 0.384878
0.0745251 0.348272 0.403738
0.424475 0.492195 0.495338
0.787579 0.545296 0.505943
0.871809 0.502647 0.465034
0.054078 0.442176 0.365942
0.0854963 0.457481 0.354284
0.483452 0.660746 0.435035
0.82858 0.733288 0.445594
0.99968 0.764752 0.51838
0.14995 0.550713 0.275898
0.184833 0.554299 0.249699
0.509743 0.778347 0.390433
0.754635 0.900786 0.395621
0.973724 0.892683 0.363973
0.0165255 0.0563668 0.380209
0.0732433 0.0371862 0.348165
0.222248 0.0239109 0.356085
0.359838 0.00291447 0.311818
0.377493 0 0.290272
0.0227207 0.188479 0.478569
0.0677653 0.235508 0.525124
0.226856 0.248676 0.53106
0.51931 0.221393 0.507027
0.63534 0.182925 0.445823
0.0343023 0.315465 0.538979
0.0664836 0.354864 0.552087
0.292149 0.497139 0.664485
0.613779 0.512078 0.665095
0.828367 0.488548 0.602365
0.0522621 0.454765 0.557794
0.0645762 0.461616 0.554788
0.277897 0.62652 0.655985
0.733059 0.761379 0.738262
0.990051 0.796506 0.764889
0.0713359 0.557824 0.545403
0.0741283 0.557366 0.526268
0.277806 0.70367 0.568719
0.735607 0.901534 0.671366
0.996445 0.971923 0.6963
0.0154726 0.0576791 0.387961
0.0690166 0.0365148 0.353017
0.215427 0.0217441 0.360067
0.351064 0.00198367 0.323781
0.36379 4.57771e-05 0.306813
0.0222934 0.18912 0.4934
0.0641642 0.22948 0.543236
0.190768 0.244938 0.554498
0.449027 0.225391 0.549508
0.572519 0.176623 0.507118
0.0350652 0.317723 0.57966
0.0642557 0.354803 0.602808
0.242344 0.484291 0.712718
0.483024 0.508034 0.762585
0.718425 0.477348 0.726726
0.053254 0.452888 0.63035
0.0629892 0.456214 0.63595
0.223423 0.604242 0.749477
0.586755 0.75787 0.90135
0.900725 0.7682 0.892103
0.0743267 0.568185 0.677058
0.0757916 0.567834 0.676173
0.198459 0.69984 0.755016
0.556878 0.875853 0.894804
0.985733 0.995315 0.978836
