LUT预设1/LUT全系打包/阿勒泰系列lut/709专用（不拍灰片用这个）/动漫肤色优化.cube
TITLE "Generated by Resolve"
LUT_3D_SIZE 5
0.0297246 0.0142824 0.00292973
0.167407 0.0208286 0.00488289
0.328405 0.020798 0.00318914
0.45478 0.0119326 0.00177005
0.463645 0.00810254 0.00167849
0.0452277 0.117784 7.62951e-05
0.153796 0.168887 0.000900282
0.54667 0.176837 0.0429541
0.674846 0.204105 0.0715343
0.685512 0.193423 0.0726482
0.130343 0.316747 0.021973
0.18616 0.366949 0.0170596
0.485573 0.406607 0.0142672
0.863172 0.419715 0.132586
0.935882 0.414267 0.166995
0.249195 0.560265 0.0966049
0.282353 0.578912 0.0923018
0.483131 0.661814 0.078584
0.757488 0.629389 0.0850385
1 0.594324 0.124865
0.348348 0.727626 0.164019
0.356558 0.732677 0.163684
0.50901 0.815763 0.139635
0.723186 0.84686 0.120241
0.931762 0.794354 0.121096
0.0199741 0.0171817 0.115236
0.139712 0.00721752 0.0942397
0.284566 0.00733959 0.0711681
0.417609 0.00460822 0.0596017
0.432792 0.00238041 0.0507057
0.0186618 0.13286 0.163027
0.159564 0.196094 0.198764
0.501366 0.247089 0.214725
0.662028 0.243183 0.201038
0.675288 0.205142 0.165743
0.0453193 0.269825 0.121355
0.205798 0.363485 0.144167
0.544488 0.448997 0.140047
0.899382 0.484855 0.238499
0.967971 0.465064 0.25272
0.204685 0.472465 0.105196
0.266224 0.528893 0.128603
0.49369 0.670298 0.119951
0.764523 0.644907 0.113802
1 0.607324 0.147189
0.334905 0.69453 0.171572
0.34725 0.716869 0.170581
0.504829 0.813474 0.154284
0.716365 0.845136 0.123644
0.928023 0.790021 0.120638
0.0161288 0.0364843 0.26183
0.103593 0.021622 0.237278
0.26067 0.00517281 0.211139
0.414206 0.00167849 0.165072
0.4318 6.10361e-05 0.151293
0.0193637 0.157626 0.342397
0.0806897 0.216175 0.38735
0.369375 0.226917 0.378637
0.616846 0.226749 0.332158
0.655436 0.203784 0.298192
0.0307927 0.299931 0.383108
0.0735943 0.34873 0.401999
0.424308 0.492287 0.494942
0.787976 0.545098 0.506722
0.872343 0.502373 0.466178
0.0536202 0.442527 0.363882
0.0852216 0.457755 0.352392
0.484092 0.660609 0.434531
0.829679 0.732891 0.446265
1 0.778164 0.540322
0.150439 0.550729 0.274266
0.185504 0.554238 0.248325
0.510887 0.778073 0.389746
0.756313 0.900282 0.395666
0.975662 0.892012 0.364889
0.014435 0.057084 0.379263
0.0713817 0.0377813 0.347753
0.220569 0.0243381 0.356786
0.358709 0.00303655 0.313878
0.376547 4.57771e-05 0.292561
0.0205997 0.189273 0.476921
0.0656443 0.236301 0.523461
0.225055 0.249287 0.530327
0.518181 0.221561 0.508659
0.634806 0.182773 0.448859
0.0323491 0.316274 0.536797
0.0646677 0.355627 0.54992
0.2907 0.497734 0.662882
0.613031 0.512261 0.665507
0.828595 0.488212 0.604929
0.0507515 0.455482 0.555184
0.0631418 0.462303 0.552239
0.276936 0.627024 0.65388
0.733104 0.761379 0.738155
0.990372 0.796353 0.765499
0.0703136 0.558419 0.542611
0.0732128 0.557916 0.523537
0.277577 0.70396 0.566598
0.736278 0.901381 0.670924
0.997436 0.971588 0.696712
0.0133364 0.0584115 0.386999
0.0671092 0.0371252 0.35256
0.213703 0.0221866 0.360723
0.349828 0.00215152 0.325734
0.362692 0.00015259 0.308934
0.0200809 0.189944 0.491707
0.0618906 0.230335 0.541543
0.188739 0.24564 0.553506
0.447456 0.225757 0.550439
0.571344 0.176745 0.509438
0.0328679 0.318608 0.577371
0.0621195 0.355673 0.600504
0.240436 0.485054 0.71075
0.481392 0.508583 0.761883
0.717388 0.477531 0.727993
0.0513161 0.453742 0.627573
0.0610513 0.457069 0.633204
0.221714 0.605005 0.746883
0.585519 0.758373 0.900008
0.900236 0.768277 0.892836
0.0725872 0.569024 0.673899
0.074052 0.568673 0.67303
0.197009 0.700572 0.751949
0.556054 0.876295 0.892897
0.985779 0.9953 0.978821
