LUT预设1/LUT全系打包/阿勒泰系列lut/709专用（不拍灰片用这个）/阿泰勒709.cube
TITLE "Generated by Resolve"
LUT_3D_SIZE 5
0.0234684 0.0744945 0.0725567
0.193057 0.100832 0.0785992
0.443793 0.0894179 0.0428931
0.639277 0.0294499 0.0318456
0.726146 0.0413672 0.0485084
9.15541e-05 0.213672 0.149584
0.203693 0.241337 0.0729686
0.481498 0.271092 0.0276799
0.685298 0.27895 0.0396124
0.781765 0.274998 0.0496986
0.0560464 0.368856 0.212284
0.127214 0.382116 0.0849622
0.477867 0.440253 0.055314
0.709361 0.480674 0.098085
0.854887 0.498375 0.131518
0.198108 0.48452 0.292165
0.200824 0.492866 0.223026
0.511376 0.593683 0.114412
0.797223 0.680919 0.175158
0.967865 0.727901 0.207599
0.280873 0.549889 0.414954
0.290913 0.562875 0.397498
0.457389 0.651591 0.201465
0.85922 0.783749 0.207218
1 0.831586 0.245304
0.00062562 0.0876478 0.1561
0.194629 0.106447 0.254841
0.458137 0.0747539 0.269764
0.656291 0.0244602 0.27454
0.740108 0.0410773 0.283223
0.00433356 0.258213 0.316258
0.19382 0.273915 0.30367
0.508186 0.287007 0.291707
0.695933 0.27541 0.272557
0.783795 0.261387 0.268635
0.143496 0.428565 0.381018
0.167437 0.437781 0.362417
0.50016 0.468071 0.294728
0.733074 0.490547 0.286885
0.858778 0.49662 0.288365
0.27364 0.5393 0.440497
0.30692 0.571954 0.461769
0.42562 0.628687 0.378363
0.809308 0.702281 0.351003
0.964691 0.737987 0.372671
0.340307 0.598947 0.541222
0.38262 0.644388 0.584497
0.436118 0.706081 0.564416
0.848386 0.807904 0.448936
1 0.862715 0.519219
0 0.0898909 0.27129
0.102892 0.0981613 0.420859
0.458091 0.0390326 0.487511
0.662898 0.0346685 0.485405
0.750576 0.0621805 0.485374
0.0214084 0.291127 0.430304
0.0761425 0.300649 0.449332
0.482521 0.306905 0.505653
0.694514 0.293034 0.490578
0.78851 0.279179 0.487037
0.260777 0.510201 0.562066
0.280674 0.503243 0.519631
0.520668 0.504204 0.503304
0.752483 0.521691 0.520912
0.874144 0.529641 0.532555
0.389197 0.643137 0.645212
0.409995 0.673075 0.61416
0.544488 0.698421 0.605005
0.829984 0.748516 0.596765
0.986282 0.782422 0.620188
0.427466 0.685679 0.698024
0.465766 0.740398 0.695171
0.546899 0.784649 0.708354
0.817761 0.849012 0.709804
1 0.906355 0.730434
1.5259e-05 0.0677348 0.402289
0.0134432 0.0605173 0.521889
0.393286 0.0337377 0.625788
0.662135 0.0526131 0.623713
0.762448 0.0931868 0.618921
0.0388495 0.304753 0.534066
0.0505837 0.315206 0.570916
0.366278 0.333837 0.621286
0.684977 0.305562 0.636469
0.79324 0.289464 0.631846
0.298772 0.538918 0.633021
0.298985 0.54023 0.606043
0.45481 0.54139 0.6094
0.739193 0.55346 0.667247
0.888136 0.561303 0.690303
0.436454 0.691386 0.737148
0.4795 0.742779 0.731365
0.681926 0.764675 0.728313
0.859251 0.787274 0.745846
0.998383 0.818112 0.781704
0.479347 0.747143 0.777188
0.593256 0.817853 0.790188
0.793835 0.866804 0.812833
0.930465 0.899916 0.830777
1 0.93373 0.848219
3.0518e-05 0.0309606 0.522972
1.5259e-05 0.0135805 0.596033
0.245502 0.0745251 0.672145
0.61677 0.0535744 0.68304
0.762982 0.107713 0.675196
0.0581216 0.316335 0.614908
0.0695964 0.321157 0.652232
0.222202 0.356893 0.677882
0.620996 0.336736 0.695201
0.791348 0.300862 0.698955
0.294179 0.529061 0.666377
0.313603 0.549355 0.673152
0.373236 0.567285 0.67866
0.677104 0.590723 0.725994
0.890669 0.583215 0.761975
0.435615 0.686763 0.755535
0.488258 0.752529 0.762051
0.654124 0.783825 0.771191
0.829526 0.811688 0.79826
0.992676 0.839765 0.843305
0.491218 0.762844 0.791257
0.693294 0.848554 0.82182
0.893675 0.90399 0.85716
0.995285 0.929397 0.872511
1 0.946136 0.885634
