LUT预设1/LUT全系打包/阿勒泰系列lut/709专用（不拍灰片用这个）/阿泰勒709.cube
TITLE "Generated by Resolve"
LUT_3D_SIZE 9
0.0234684 0.0744945 0.0725567
0.0969863 0.0869917 0.0793469
0.193057 0.100832 0.0785992
0.316167 0.105913 0.0636759
0.443793 0.0894179 0.0428931
0.553903 0.05449 0.0394598
0.639277 0.0294499 0.0318456
0.694942 0.034226 0.0345464
0.726146 0.0413672 0.0485084
0.0068513 0.134371 0.107164
0.0924392 0.148928 0.0901961
0.215869 0.166476 0.0834821
0.349996 0.178119 0.0571756
0.47953 0.182788 0.0315709
0.586435 0.17911 0.0301518
0.665995 0.168643 0.0251316
0.718761 0.162722 0.0207675
0.750423 0.156573 0.0318151
9.15541e-05 0.213672 0.149584
0.0526436 0.223926 0.10753
0.203693 0.241337 0.0729686
0.347097 0.258946 0.0487984
0.481498 0.271092 0.0276799
0.598947 0.278721 0.0257725
0.685298 0.27895 0.0396124
0.744274 0.276631 0.0466468
0.781765 0.274998 0.0496986
0.00958267 0.292943 0.183062
0.0163272 0.298665 0.139483
0.161898 0.310689 0.0433051
0.335363 0.334096 0.0351415
0.468238 0.352605 0.036408
0.588129 0.365713 0.0402686
0.690471 0.375418 0.0593271
0.766094 0.379599 0.0766308
0.811856 0.380423 0.086305
0.0560464 0.368856 0.212284
0.0606851 0.375097 0.192889
0.127214 0.382116 0.0849622
0.315953 0.410849 0.0327459
0.477867 0.440253 0.055314
0.602243 0.462974 0.0764477
0.709361 0.480674 0.098085
0.795743 0.492515 0.118425
0.854887 0.498375 0.131518
0.132647 0.433219 0.246616
0.13611 0.437552 0.229862
0.13051 0.439521 0.135073
0.305119 0.479026 0.0514992
0.499931 0.524086 0.0822919
0.63856 0.56051 0.116442
0.752026 0.589136 0.141466
0.843565 0.60827 0.160815
0.913603 0.621851 0.175387
0.198108 0.48452 0.292165
0.200809 0.488167 0.27895
0.200824 0.492866 0.223026
0.292943 0.529732 0.118151
0.511376 0.593683 0.114412
0.674983 0.643992 0.147982
0.797223 0.680919 0.175158
0.893462 0.707469 0.193698
0.967865 0.727901 0.207599
0.246433 0.522927 0.349508
0.248859 0.526268 0.341176
0.250919 0.531655 0.308461
0.289891 0.557824 0.202182
0.499947 0.635172 0.146441
0.705715 0.703655 0.168994
0.834669 0.746685 0.196307
0.932754 0.776959 0.21503
0.993072 0.798398 0.226551
0.280873 0.549889 0.414954
0.285206 0.554818 0.413184
0.290913 0.562875 0.397498
0.306554 0.582635 0.331441
0.457389 0.651591 0.201465
0.730663 0.740658 0.185321
0.85922 0.783749 0.207218
0.955856 0.813916 0.226398
1 0.831586 0.245304
0.0113222 0.0801556 0.114199
0.0906844 0.0925765 0.145266
0.197955 0.106279 0.158114
0.326558 0.1093 0.162493
0.452842 0.0846876 0.15903
0.562829 0.0428016 0.155367
0.649622 0.0199893 0.157046
0.70399 0.0274052 0.159625
0.734432 0.0360266 0.167575
0.00387579 0.146502 0.166033
0.0820783 0.1617 0.177615
0.226001 0.178027 0.184451
0.365393 0.187381 0.17879
0.490944 0.184848 0.167056
0.59353 0.169512 0.154635
0.671016 0.148104 0.145403
0.720027 0.127596 0.138186
0.750301 0.117647 0.13904
0.00015259 0.233585 0.225635
0.0252079 0.243397 0.21825
0.193927 0.258473 0.196414
0.367041 0.270832 0.180529
0.499763 0.274769 0.164202
0.607736 0.272419 0.146593
0.689662 0.266682 0.138247
0.744289 0.258213 0.130175
0.778454 0.25272 0.125475
0.0195926 0.312383 0.256733
0.026215 0.321187 0.257771
0.117418 0.334157 0.210269
0.346212 0.347402 0.171435
0.484703 0.358419 0.160372
0.601175 0.362936 0.141176
0.698512 0.366369 0.132815
0.769436 0.367498 0.133394
0.810483 0.367117 0.141695
0.0782483 0.384649 0.2795
0.0918593 0.394858 0.295201
0.127672 0.409796 0.250507
0.302815 0.426032 0.165347
0.488136 0.448341 0.15845
0.612726 0.465858 0.157153
0.716655 0.476799 0.148241
0.799054 0.484825 0.151293
0.854353 0.489738 0.163058
0.162234 0.45127 0.315816
0.177066 0.462562 0.328069
0.195544 0.479225 0.317678
0.269886 0.499992 0.210544
0.493874 0.534737 0.154528
0.64799 0.568322 0.174578
0.757336 0.591989 0.189593
0.844404 0.605646 0.189853
0.910552 0.61709 0.195514
0.227192 0.503487 0.360113
0.242252 0.516091 0.374121
0.259358 0.533303 0.370962
0.292531 0.556237 0.29836
0.478843 0.602274 0.187243
0.679133 0.65124 0.188556
0.798337 0.683772 0.215457
0.889647 0.705913 0.226398
0.956878 0.721508 0.21857
0.273976 0.54284 0.415045
0.289158 0.556481 0.432563
0.305348 0.573724 0.43563
0.321904 0.595605 0.402914
0.430259 0.642405 0.271412
0.691463 0.706249 0.214954
0.830747 0.747585 0.240436
0.925261 0.775509 0.266758
0.989075 0.795682 0.291981
0.307836 0.57055 0.479316
0.323369 0.585168 0.499748
0.340536 0.603876 0.509224
0.358618 0.627619 0.495674
0.41474 0.666407 0.396872
0.688212 0.739757 0.275792
0.85124 0.785702 0.295644
0.950301 0.816678 0.336599
1 0.838468 0.3738
0.00062562 0.0876478 0.1561
0.0602731 0.0963455 0.211887
0.194629 0.106447 0.254841
0.331136 0.106432 0.268208
0.458137 0.0747539 0.269764
0.569024 0.0408026 0.271015
0.656291 0.0244602 0.27454
0.710216 0.0312657 0.277592
0.740108 0.0410773 0.283223
0.000122072 0.16054 0.218997
0.0449683 0.173098 0.247807
0.210498 0.186908 0.289921
0.366308 0.19556 0.294865
0.493568 0.192035 0.287129
0.59736 0.175952 0.278981
0.674495 0.155688 0.271885
0.724422 0.135241 0.267247
0.754253 0.12401 0.268223
0.00433356 0.258213 0.316258
0.0378729 0.262974 0.301732
0.19382 0.273915 0.30367
0.375296 0.284337 0.301274
0.508186 0.287007 0.291707
0.615076 0.283131 0.281025
0.695933 0.27541 0.272557
0.750286 0.266911 0.268132
0.783795 0.261387 0.268635
0.0535592 0.350713 0.364736
0.05626 0.349477 0.344442
0.159167 0.355795 0.328084
0.335134 0.366018 0.303609
0.501427 0.374411 0.288518
0.618265 0.378012 0.278569
0.710414 0.377676 0.272877
0.777096 0.375814 0.270741
0.816098 0.375708 0.273808
0.143496 0.428565 0.381018
0.138643 0.425834 0.366552
0.167437 0.437781 0.362417
0.282063 0.452567 0.3243
0.50016 0.468071 0.294728
0.631403 0.483085 0.290562
0.733074 0.490547 0.286885
0.809171 0.493477 0.283986
0.858778 0.49662 0.288365
0.218204 0.490318 0.40322
0.220798 0.493324 0.396765
0.243061 0.512398 0.410254
0.292622 0.534417 0.376486
0.471092 0.559091 0.313893
0.665339 0.590082 0.315221
0.770947 0.609049 0.319509
0.854994 0.618692 0.317876
0.91342 0.62536 0.317632
0.27364 0.5393 0.440497
0.285603 0.550851 0.447166
0.30692 0.571954 0.461769
0.333852 0.599786 0.453407
0.42562 0.628687 0.378363
0.667994 0.670451 0.334722
0.809308 0.702281 0.351003
0.899489 0.723461 0.363897
0.964691 0.737987 0.372671
0.312367 0.574502 0.486915
0.329427 0.591714 0.503258
0.351461 0.61529 0.520226
0.374853 0.643503 0.522148
0.428061 0.675593 0.471397
0.645045 0.723827 0.384924
0.841886 0.769772 0.390631
0.937163 0.797971 0.422644
0.99324 0.817044 0.445716
0.340307 0.598947 0.541222
0.36022 0.619303 0.564675
0.38262 0.644388 0.584497
0.406363 0.674372 0.59086
0.436118 0.706081 0.564416
0.565194 0.746899 0.489601
0.848386 0.807904 0.448936
0.963256 0.841443 0.482078
1 0.862715 0.519219
0.000213626 0.0925002 0.208179
0.024094 0.0956741 0.276204
0.163912 0.100679 0.349386
0.327382 0.0873579 0.377691
0.459861 0.057557 0.382345
0.57174 0.0311894 0.383337
0.659403 0.0291447 0.385428
0.713924 0.0381323 0.386877
0.744686 0.0492866 0.390341
1.5259e-05 0.170901 0.281224
0.00875868 0.181918 0.317876
0.141482 0.195026 0.377432
0.349477 0.199283 0.406836
0.490593 0.193851 0.402258
0.596002 0.178988 0.393011
0.673793 0.156756 0.385595
0.725399 0.139025 0.38056
0.755962 0.126055 0.380118
0.0120394 0.277409 0.376379
0.0215152 0.279347 0.36936
0.143175 0.287938 0.382361
0.352834 0.296101 0.409628
0.503151 0.297368 0.407202
0.613657 0.2934 0.397482
0.696544 0.285145 0.389319
0.751812 0.277043 0.384405
0.786114 0.27097 0.384695
0.10074 0.38378 0.453925
0.0984054 0.379889 0.430442
0.186954 0.377325 0.409094
0.354818 0.381567 0.405478
0.507454 0.388678 0.404273
0.624735 0.392233 0.400107
0.715663 0.391623 0.396216
0.781842 0.389441 0.395377
0.821042 0.389563 0.399558
0.213519 0.475685 0.487724
0.208591 0.473304 0.46511
0.23241 0.470451 0.444465
0.345632 0.474205 0.428717
0.505592 0.486564 0.41416
0.64596 0.499687 0.411917
0.746075 0.506645 0.412772
0.819821 0.50927 0.414054
0.867033 0.513024 0.420615
0.289998 0.546014 0.518044
0.290959 0.549889 0.497368
0.297704 0.553857 0.481315
0.345083 0.566293 0.476387
0.485039 0.587076 0.452171
0.679759 0.613077 0.440208
0.785885 0.628473 0.44361
0.868818 0.637354 0.447761
0.924422 0.64509 0.455695
0.336431 0.593439 0.54873
0.34432 0.604883 0.534173
0.354788 0.617624 0.527245
0.380072 0.637766 0.533394
0.454856 0.662898 0.512993
0.659571 0.695903 0.478737
0.821195 0.726131 0.481559
0.913039 0.746441 0.495247
0.975647 0.760769 0.505882
0.363699 0.62121 0.581643
0.379416 0.641352 0.578759
0.396429 0.662638 0.581827
0.418341 0.687205 0.593133
0.460395 0.714626 0.586923
0.6112 0.74992 0.550118
0.833906 0.792676 0.527886
0.950668 0.823362 0.550103
0.996948 0.841016 0.571481
0.383185 0.63949 0.61857
0.403571 0.664927 0.626337
0.424536 0.691356 0.638819
0.445411 0.71841 0.652171
0.47361 0.746212 0.653407
0.567254 0.778576 0.631006
0.816388 0.826551 0.593851
0.971862 0.864149 0.601312
1 0.885771 0.634897
0 0.0898909 0.27129
0.00392157 0.0840925 0.337209
0.102892 0.0981613 0.420859
0.304311 0.0672618 0.475654
0.458091 0.0390326 0.487511
0.57496 0.0251316 0.486748
0.662898 0.0346685 0.485405
0.718486 0.0491035 0.483757
0.750576 0.0621805 0.485374
0 0.17911 0.348928
0.000137331 0.186496 0.387274
0.0497597 0.203113 0.444389
0.302022 0.205402 0.498482
0.480079 0.193057 0.507103
0.591974 0.176181 0.496529
0.672572 0.152346 0.487511
0.726696 0.136309 0.482216
0.758602 0.122652 0.480552
0.0214084 0.291127 0.430304
0.0219425 0.2916 0.432029
0.0761425 0.300649 0.449332
0.283406 0.30956 0.488167
0.482521 0.306905 0.505653
0.608148 0.301183 0.49865
0.694514 0.293034 0.490578
0.752453 0.285161 0.486076
0.78851 0.279179 0.487037
0.13492 0.405844 0.50486
0.126528 0.400412 0.483391
0.166995 0.395819 0.469169
0.317037 0.39762 0.475013
0.491676 0.40267 0.498924
0.622324 0.405173 0.503441
0.716152 0.404364 0.500618
0.784054 0.402335 0.499702
0.825208 0.402472 0.503212
0.260777 0.510201 0.562066
0.2589 0.510643 0.542901
0.280674 0.503243 0.519631
0.393408 0.498711 0.502785
0.520668 0.504204 0.503304
0.650538 0.51545 0.51519
0.752483 0.521691 0.520912
0.826673 0.525383 0.52549
0.874144 0.529641 0.532555
0.341619 0.590234 0.609903
0.348394 0.60061 0.593591
0.356512 0.600824 0.568841
0.426581 0.603601 0.553994
0.551446 0.614878 0.549386
0.692302 0.63241 0.543893
0.799207 0.646464 0.552819
0.880858 0.656413 0.5617
0.935164 0.665354 0.57322
0.389197 0.643137 0.645212
0.403006 0.663188 0.633509
0.409995 0.673075 0.61416
0.448829 0.681437 0.601251
0.544488 0.698421 0.605005
0.684443 0.722728 0.600015
0.829984 0.748516 0.596765
0.92694 0.76878 0.607385
0.986282 0.782422 0.620188
0.413046 0.669917 0.673472
0.431876 0.697032 0.666621
0.44448 0.715602 0.65568
0.47277 0.731868 0.650568
0.538582 0.753902 0.658686
0.666285 0.782681 0.659953
0.840253 0.817334 0.646845
0.962661 0.846555 0.658213
0.999557 0.863478 0.676616
0.427466 0.685679 0.698024
0.450034 0.717311 0.698329
0.465766 0.740398 0.695171
0.49221 0.761151 0.697276
0.546899 0.784649 0.708354
0.655604 0.813947 0.721126
0.817761 0.849012 0.709804
0.972244 0.88423 0.706813
1 0.906355 0.730434
0 0.0811017 0.336782
0.000411994 0.0654154 0.397116
0.045304 0.0856336 0.475044
0.247074 0.0667124 0.54197
0.436774 0.0310063 0.569543
0.572137 0.0280003 0.570382
0.665339 0.0438087 0.567239
0.723812 0.0632181 0.563912
0.757031 0.0779278 0.5617
1.5259e-05 0.185458 0.414298
3.0518e-05 0.18703 0.454414
0.0144503 0.204715 0.506539
0.214328 0.214557 0.560067
0.442664 0.198337 0.583886
0.582788 0.17142 0.580606
0.670863 0.147814 0.571694
0.728359 0.135103 0.565408
0.762707 0.124712 0.56379
0.029633 0.298314 0.482734
0.0305028 0.299153 0.493919
0.0412909 0.309926 0.514443
0.191135 0.322637 0.546517
0.436225 0.319493 0.576089
0.594156 0.309056 0.580453
0.691585 0.299413 0.573297
0.753017 0.290669 0.569085
0.791119 0.285267 0.569543
0.154879 0.417365 0.543114
0.147158 0.412497 0.530816
0.157794 0.409537 0.523857
0.255619 0.411688 0.530404
0.439704 0.41915 0.56051
0.604974 0.417746 0.579217
0.713497 0.415457 0.583932
0.785641 0.414038 0.585473
0.829648 0.415045 0.589197
0.286534 0.530098 0.605798
0.288487 0.534356 0.589914
0.294514 0.526619 0.565499
0.366613 0.519326 0.55256
0.50013 0.52401 0.565515
0.637385 0.532036 0.591424
0.75227 0.537301 0.607645
0.83212 0.54226 0.615808
0.881468 0.546517 0.623728
0.370535 0.616861 0.663432
0.382086 0.632807 0.653895
0.394293 0.636088 0.63418
0.474784 0.637705 0.620127
0.597681 0.642985 0.619608
0.697643 0.64976 0.62356
0.806302 0.664424 0.64416
0.891142 0.676188 0.657465
0.94522 0.685344 0.670039
0.422751 0.677455 0.708049
0.441993 0.704707 0.704829
0.453407 0.718059 0.69012
0.526345 0.726146 0.677485
0.640742 0.736141 0.676555
0.742596 0.748913 0.680064
0.846967 0.769497 0.68986
0.940032 0.789044 0.701457
0.994873 0.802533 0.714916
0.44625 0.705837 0.733837
0.470024 0.740383 0.735424
0.489982 0.761883 0.727062
0.565835 0.778897 0.719753
0.667124 0.796658 0.723232
0.759487 0.816938 0.733944
0.861006 0.841413 0.741085
0.970459 0.865995 0.747173
1 0.882963 0.760433
0.460578 0.723445 0.751629
0.485908 0.759793 0.754299
0.514992 0.784329 0.751568
0.588739 0.805997 0.752331
0.684764 0.827436 0.760601
0.769574 0.850416 0.776898
0.863981 0.8748 0.786191
0.981842 0.902678 0.78584
1 0.922515 0.80177
1.5259e-05 0.0677348 0.402289
3.0518e-05 0.0353704 0.455146
0.0134432 0.0605173 0.521889
0.177279 0.0763256 0.58819
0.393286 0.0337377 0.625788
0.555093 0.0330816 0.629068
0.662135 0.0526131 0.623713
0.72726 0.0766308 0.620615
0.762448 0.0931868 0.618921
0.000213626 0.187762 0.47808
3.0518e-05 0.184421 0.516106
0.00471504 0.202365 0.560662
0.140993 0.222095 0.606027
0.380133 0.211765 0.633921
0.555886 0.177172 0.638651
0.664317 0.150011 0.63267
0.729213 0.137377 0.627375
0.766995 0.129 0.625467
0.0388495 0.304753 0.534066
0.0394293 0.303639 0.550454
0.0505837 0.315206 0.570916
0.137484 0.332113 0.595712
0.366278 0.333837 0.621286
0.56112 0.321172 0.636042
0.684977 0.305562 0.636469
0.752926 0.295277 0.633036
0.79324 0.289464 0.631846
0.165331 0.421515 0.57702
0.161013 0.41825 0.574044
0.164233 0.419165 0.574655
0.212909 0.424369 0.580865
0.383017 0.434867 0.603387
0.567208 0.433448 0.63212
0.702541 0.427222 0.644556
0.786786 0.424903 0.649699
0.833951 0.42594 0.654032
0.298772 0.538918 0.633021
0.305089 0.547127 0.622248
0.298985 0.54023 0.606043
0.333577 0.535042 0.597818
0.45481 0.54139 0.6094
0.604456 0.550439 0.641062
0.739193 0.55346 0.667247
0.833982 0.556527 0.681514
0.888136 0.561303 0.690303
0.382864 0.62768 0.692195
0.399496 0.649744 0.688136
0.408621 0.656397 0.67277
0.469551 0.657526 0.659358
0.576516 0.659251 0.656031
0.679118 0.667384 0.672267
0.796963 0.681636 0.703746
0.893736 0.69279 0.725414
0.952773 0.701976 0.738384
0.436454 0.691386 0.737148
0.459312 0.723705 0.73872
0.4795 0.742779 0.731365
0.575402 0.754925 0.727565
0.681926 0.764675 0.728313
0.770291 0.773129 0.731655
0.859251 0.787274 0.745846
0.946715 0.804929 0.766751
0.998383 0.818112 0.781704
0.462577 0.724575 0.76231
0.488518 0.762814 0.766415
0.533257 0.789151 0.76582
0.653407 0.813977 0.775525
0.75108 0.832578 0.781079
0.832135 0.847929 0.786938
0.908476 0.863569 0.794827
0.981567 0.880888 0.805127
1 0.897368 0.819562
0.479347 0.747143 0.777188
0.511559 0.785962 0.781857
0.593256 0.817853 0.790188
0.705409 0.845182 0.803098
0.793835 0.866804 0.812833
0.865019 0.88365 0.820874
0.930465 0.899916 0.830777
0.992996 0.917082 0.839002
1 0.93373 0.848219
3.0518e-05 0.0460822 0.466514
1.5259e-05 0.0229953 0.508125
0.000900282 0.0342412 0.562509
0.0985122 0.0804456 0.617273
0.32578 0.0488594 0.654673
0.517815 0.0386206 0.663737
0.647578 0.0561837 0.660655
0.724605 0.0843366 0.655818
0.764431 0.102647 0.653513
0.000946059 0.18938 0.536309
0.00108339 0.181186 0.5664
0.00425727 0.193393 0.604593
0.0737011 0.22472 0.641718
0.301991 0.227451 0.664378
0.508034 0.196368 0.672282
0.645426 0.162341 0.670649
0.724285 0.141649 0.666835
0.769162 0.134554 0.665202
0.0472877 0.3093 0.577127
0.0484321 0.308141 0.596521
0.0608835 0.318898 0.616602
0.111223 0.338308 0.636912
0.281193 0.347234 0.654276
0.505104 0.337545 0.66743
0.661784 0.318746 0.673472
0.749874 0.301518 0.674281
0.793988 0.294026 0.675151
0.170535 0.421668 0.605966
0.170764 0.421027 0.611017
0.177172 0.425605 0.6168
0.197925 0.435584 0.624247
0.316564 0.448218 0.638392
0.515038 0.451164 0.664317
0.676661 0.442435 0.683223
0.781231 0.435782 0.692485
0.836072 0.434211 0.697734
0.299184 0.536675 0.650889
0.307988 0.546624 0.648402
0.307912 0.547463 0.64303
0.322026 0.547906 0.63917
0.406073 0.555627 0.64744
0.561364 0.568597 0.674556
0.712886 0.571679 0.705333
0.828885 0.570123 0.725063
0.892271 0.572671 0.734997
0.384543 0.62739 0.707591
0.405798 0.654719 0.709178
0.414084 0.666117 0.699809
0.439338 0.66717 0.687144
0.534646 0.669734 0.68896
0.650828 0.68188 0.707393
0.772396 0.696971 0.738384
0.885893 0.707683 0.766934
0.956832 0.714946 0.782376
0.438544 0.692195 0.749844
0.465721 0.730297 0.75555
0.490272 0.752697 0.751492
0.576715 0.768032 0.751705
0.682979 0.77998 0.757244
0.766964 0.788586 0.7626
0.85008 0.801724 0.779232
0.940734 0.817624 0.80383
0.997757 0.829862 0.822553
0.467689 0.73019 0.773419
0.495583 0.771588 0.778943
0.558938 0.803128 0.784253
0.696025 0.83238 0.801129
0.790265 0.853346 0.812222
0.865446 0.867842 0.819455
0.933532 0.879667 0.827054
0.988495 0.891981 0.837674
1 0.906523 0.853132
0.488228 0.758938 0.786999
0.531182 0.800153 0.793667
0.663813 0.839567 0.812634
0.780377 0.870298 0.831449
0.862821 0.892409 0.844236
0.927642 0.907423 0.852003
0.981979 0.919799 0.859083
1 0.930388 0.865797
1 0.9411 0.874098
3.0518e-05 0.0309606 0.522972
1.5259e-05 0.0152438 0.555428
1.5259e-05 0.0135805 0.596033
0.0387121 0.0665141 0.636744
0.245502 0.0745251 0.672145
0.4607 0.0480049 0.68484
0.61677 0.0535744 0.68304
0.713573 0.0855268 0.678035
0.762982 0.107713 0.675196
0.0024567 0.192523 0.586175
0.00254826 0.180331 0.608698
0.00502022 0.186191 0.639612
0.0300755 0.22031 0.668666
0.21146 0.240543 0.68423
0.445945 0.220203 0.691386
0.610758 0.1823 0.692607
0.710842 0.150149 0.691051
0.7664 0.140841 0.689357
0.0581216 0.316335 0.614908
0.0583047 0.313024 0.633967
0.0695964 0.321157 0.652232
0.10013 0.341085 0.668147
0.222202 0.356893 0.677882
0.436271 0.353643 0.687205
0.620996 0.336736 0.695201
0.737881 0.31429 0.697749
0.791348 0.300862 0.698955
0.175463 0.422049 0.631708
0.177661 0.422263 0.642237
0.188663 0.430472 0.651896
0.208408 0.44477 0.661021
0.26717 0.458991 0.667277
0.459678 0.466346 0.683711
0.635416 0.460609 0.703502
0.7635 0.449363 0.716793
0.833722 0.442267 0.72369
0.294179 0.529061 0.666377
0.305226 0.540505 0.670649
0.313603 0.549355 0.673152
0.323049 0.556863 0.674205
0.373236 0.567285 0.67866
0.516167 0.583337 0.698039
0.677104 0.590723 0.725994
0.810513 0.587518 0.749279
0.890669 0.583215 0.761975
0.379049 0.619257 0.715587
0.402625 0.648417 0.721538
0.415015 0.66511 0.719249
0.424231 0.669108 0.711513
0.484123 0.676081 0.714031
0.614008 0.692088 0.731594
0.742016 0.710887 0.759243
0.86804 0.723796 0.789578
0.955779 0.72636 0.808713
0.435615 0.686763 0.755535
0.464652 0.727428 0.763378
0.488258 0.752529 0.762051
0.553079 0.769848 0.763485
0.654124 0.783825 0.771191
0.742428 0.795773 0.780819
0.829526 0.811688 0.79826
0.924788 0.828733 0.822782
0.992676 0.839765 0.843305
0.46714 0.728481 0.778088
0.49691 0.771695 0.784955
0.556756 0.80679 0.791897
0.702113 0.838697 0.811383
0.796307 0.861128 0.824582
0.868681 0.876158 0.8336
0.929122 0.886275 0.840787
0.984695 0.898634 0.852995
1 0.911879 0.86833
0.491218 0.762844 0.791257
0.537667 0.804456 0.798077
0.693294 0.848554 0.82182
0.811475 0.881483 0.843
0.893675 0.90399 0.85716
0.956069 0.919112 0.866377
0.995285 0.929397 0.872511
1 0.937896 0.878431
1 0.946136 0.885634
