LUT预设1/LUT全系打包/阿勒泰系列lut/709专用（不拍灰片用这个）/阿泰勒709.cube
TITLE "Generated by Resolve"
LUT_3D_SIZE 33
0.0234684 0.0744945 0.0725567
0.0404974 0.0765545 0.0748302
0.0609293 0.0789654 0.0768597
0.0787976 0.0829023 0.0781262
0.0969863 0.0869917 0.0793469
0.114565 0.091371 0.080415
0.138094 0.0950027 0.0805371
0.163592 0.0983597 0.0805066
0.193057 0.100832 0.0785992
0.222751 0.103227 0.0764172
0.253452 0.104845 0.0721599
0.284642 0.105882 0.0679026
0.316167 0.105913 0.0636759
0.348119 0.104234 0.0606394
0.380102 0.101213 0.057084
0.41181 0.0957809 0.0501869
0.443793 0.0894179 0.0428931
0.473228 0.0804456 0.0400244
0.501625 0.0711376 0.0391546
0.528145 0.0627604 0.0394446
0.553903 0.05449 0.0394598
0.577996 0.0476081 0.0387274
0.60145 0.039704 0.0369421
0.620966 0.0344244 0.0347448
0.639277 0.0294499 0.0318456
0.655192 0.025864 0.0287785
0.669978 0.0281224 0.0295567
0.68304 0.0313268 0.0318456
0.694942 0.034226 0.0345464
0.704952 0.0366369 0.0379644
0.712856 0.038819 0.0419776
0.720119 0.0403449 0.0454414
0.726146 0.0413672 0.0485084
0.0198062 0.0870985 0.0792401
0.0381323 0.0897536 0.0806897
0.0570993 0.0929732 0.0818036
0.0780041 0.0967117 0.0820935
0.0974899 0.100969 0.0825055
0.117525 0.105257 0.0830091
0.144015 0.109056 0.082887
0.171557 0.112734 0.0823072
0.202045 0.115969 0.0806592
0.233188 0.118608 0.0772259
0.264546 0.121019 0.0729229
0.296269 0.122225 0.0675059
0.328069 0.123156 0.0612955
0.359899 0.122393 0.0543374
0.391714 0.121706 0.0478065
0.424308 0.118868 0.0426337
0.456184 0.116411 0.0387274
0.484382 0.111192 0.0393072
0.511864 0.105119 0.0390936
0.537438 0.0968948 0.0377203
0.562692 0.0886854 0.0351263
0.585855 0.0799725 0.031693
0.608621 0.0719768 0.0274205
0.627848 0.0692912 0.0244297
0.647044 0.0669718 0.0235752
0.661723 0.0653697 0.0256809
0.676326 0.0626688 0.0278325
0.688533 0.0603189 0.0303807
0.700587 0.0569772 0.0328374
0.709606 0.0572671 0.0358587
0.717861 0.0582589 0.0385443
0.724895 0.0593729 0.0410163
0.731258 0.060502 0.0430457
0.016022 0.101946 0.0878614
0.0330205 0.104601 0.0873732
0.0539864 0.108049 0.0865492
0.0754406 0.111864 0.0861067
0.0982071 0.11635 0.0863203
0.122408 0.12079 0.0863813
0.147387 0.125292 0.0862287
0.178195 0.129137 0.0844739
0.21062 0.132784 0.0821851
0.242298 0.135561 0.0764782
0.274128 0.13817 0.0709087
0.30605 0.13994 0.0640726
0.337743 0.141344 0.0579385
0.369711 0.141772 0.0522164
0.401846 0.141634 0.0476539
0.434119 0.140551 0.0436255
0.464469 0.13846 0.040528
0.4934 0.135317 0.0380255
0.520821 0.131228 0.0345159
0.546807 0.126131 0.0301518
0.571298 0.121157 0.0255283
0.594354 0.115953 0.0217441
0.615869 0.111818 0.0213779
0.635737 0.107591 0.0236362
0.653696 0.102998 0.0256352
0.66836 0.0990463 0.0277867
0.682368 0.0954604 0.0292973
0.694652 0.0929885 0.0306554
0.706416 0.0907759 0.0314031
0.714855 0.0901808 0.0325322
0.723445 0.089601 0.0332952
0.730053 0.0886854 0.0339818
0.736751 0.0882124 0.0346532
0.0129244 0.117617 0.0962844
0.0281529 0.120439 0.0947738
0.0493629 0.123949 0.0928969
0.0724651 0.128008 0.0912184
0.0968643 0.132311 0.0894331
0.123033 0.137026 0.0884108
0.150607 0.141558 0.0870985
0.181811 0.145556 0.0842145
0.213672 0.14931 0.0810712
0.247059 0.152605 0.0767529
0.28043 0.155459 0.0709544
0.313573 0.158038 0.0645151
0.345602 0.159716 0.0589303
0.377874 0.160983 0.053193
0.410025 0.161227 0.0476539
0.44181 0.161212 0.0414893
0.471962 0.160266 0.0372168
0.501976 0.159274 0.0327001
0.529061 0.156695 0.0292058
0.556008 0.154574 0.0254826
0.579782 0.151965 0.0256352
0.603113 0.149096 0.0264286
0.623911 0.145205 0.0273899
0.643992 0.140246 0.0274815
0.66006 0.135698 0.0278325
0.674891 0.132204 0.0276799
0.688457 0.129458 0.0274205
0.701183 0.127382 0.0269627
0.712108 0.12604 0.0266423
0.720928 0.125582 0.0266575
0.729244 0.125277 0.0263676
0.736324 0.124453 0.0259556
0.743023 0.123186 0.0276493
0.0068513 0.134371 0.107164
0.0214237 0.137331 0.104372
0.0417487 0.14052 0.0980697
0.0665293 0.144625 0.0936446
0.0924392 0.148928 0.0901961
0.120912 0.153689 0.0900587
0.151049 0.158206 0.0887922
0.182162 0.162646 0.0874189
0.215869 0.166476 0.0834821
0.249516 0.170199 0.0796521
0.282979 0.173251 0.0718547
0.316487 0.176165 0.064271
0.349996 0.178119 0.0571756
0.383124 0.179965 0.0496071
0.41648 0.181033 0.0422827
0.4486 0.182193 0.0356451
0.47953 0.182788 0.0315709
0.509514 0.1832 0.0283513
0.536339 0.182422 0.0293889
0.562539 0.181094 0.0299229
0.586435 0.17911 0.0301518
0.60972 0.176867 0.0296635
0.630274 0.173617 0.0285344
0.650431 0.170596 0.0263371
0.665995 0.168643 0.0251316
0.681834 0.166979 0.0231632
0.695293 0.16556 0.0216831
0.708812 0.164218 0.0202029
0.718761 0.162722 0.0207675
0.728237 0.161349 0.0215457
0.7364 0.159945 0.0250706
0.744045 0.15845 0.0287175
0.750423 0.156573 0.0318151
0.00276188 0.153246 0.120836
0.0144656 0.15581 0.111116
0.0310979 0.158785 0.104356
0.0561227 0.162402 0.100069
0.0849622 0.166476 0.0970474
0.115099 0.170718 0.0937057
0.148074 0.17557 0.0921187
0.181903 0.180163 0.0895247
0.2159 0.184329 0.0853132
0.249851 0.188251 0.0789197
0.284016 0.191897 0.0689403
0.317922 0.194965 0.0600595
0.351949 0.197757 0.0514229
0.385519 0.200046 0.0441291
0.419242 0.202289 0.0371252
0.452018 0.204013 0.034699
0.484794 0.20531 0.0335699
0.514168 0.205753 0.0332952
0.541817 0.205814 0.0327611
0.567376 0.205203 0.0317998
0.592401 0.204364 0.0301823
0.615137 0.202884 0.0280156
0.636713 0.201175 0.02533
0.655909 0.199542 0.0234684
0.672892 0.198184 0.0227359
0.689082 0.197208 0.0224918
0.703944 0.196429 0.0231327
0.717739 0.196185 0.0242924
0.727337 0.1953 0.0281071
0.736858 0.194217 0.0313115
0.744854 0.193286 0.0337987
0.752911 0.192004 0.0357977
0.758495 0.190066 0.0376745
0.00230411 0.172946 0.128023
0.00610361 0.176059 0.12488
0.0229953 0.178637 0.116747
0.0428931 0.18114 0.107393
0.0730144 0.185092 0.101717
0.105959 0.189364 0.0968948
0.142702 0.193988 0.0932021
0.1785 0.19855 0.0888991
0.213169 0.203098 0.085069
0.248478 0.207156 0.0743114
0.283619 0.211246 0.0619821
0.31809 0.214771 0.0533913
0.352087 0.218296 0.0463264
0.386206 0.221225 0.042649
0.419837 0.223957 0.0389105
0.453178 0.225498 0.0372168
0.486275 0.226947 0.0343481
0.515404 0.227314 0.0326848
0.544259 0.227604 0.0303349
0.570947 0.227787 0.0282139
0.597787 0.228107 0.0255283
0.620874 0.227359 0.0234073
0.644007 0.227161 0.0210574
0.662104 0.227131 0.0218814
0.680369 0.227131 0.0230259
0.696391 0.226993 0.0262303
0.711727 0.226383 0.0308385
0.723629 0.225101 0.0341955
0.733623 0.223743 0.0366522
0.743023 0.222538 0.0385138
0.751827 0.221363 0.0400549
0.759884 0.220005 0.0411688
0.765881 0.21886 0.0421759
3.0518e-05 0.193301 0.139361
0.00227359 0.19649 0.138735
0.0119478 0.19826 0.126314
0.0324712 0.201068 0.116106
0.0618296 0.204349 0.105745
0.0977035 0.208515 0.0970169
0.134096 0.212589 0.0882887
0.171817 0.217624 0.0847791
0.209705 0.222614 0.0794232
0.245289 0.2271 0.0681926
0.280613 0.231342 0.0598306
0.315358 0.235477 0.0534981
0.350164 0.239139 0.0482032
0.384771 0.242267 0.0431525
0.418891 0.24477 0.0389868
0.452918 0.246738 0.0347906
0.484947 0.248173 0.0313268
0.515053 0.249409 0.0287938
0.544335 0.25069 0.0264897
0.572305 0.252094 0.0248112
0.598672 0.253162 0.0235447
0.622644 0.253712 0.02327
0.645289 0.254231 0.0237583
0.664866 0.254292 0.0282139
0.684016 0.254154 0.0321813
0.701076 0.253788 0.0359503
0.717983 0.253483 0.0390326
0.728527 0.252064 0.0408484
0.739345 0.25069 0.0422522
0.749111 0.249714 0.0435035
0.758923 0.248768 0.0444038
0.766674 0.247745 0.045182
0.773465 0.246906 0.0459144
9.15541e-05 0.213672 0.149584
0.000640879 0.216419 0.147295
0.000442512 0.219425 0.142855
0.0260777 0.221592 0.124895
0.0526436 0.223926 0.10753
0.0855573 0.227146 0.0938582
0.121691 0.231373 0.0856641
0.164431 0.2365 0.0807965
0.203693 0.241337 0.0729686
0.240955 0.246189 0.0662852
0.277073 0.250645 0.0604257
0.312764 0.255085 0.0545052
0.347097 0.258946 0.0487984
0.381338 0.262623 0.0422065
0.415167 0.265751 0.03682
0.449226 0.268864 0.0306249
0.481498 0.271092 0.0276799
0.513497 0.273411 0.0246281
0.543618 0.275669 0.0236515
0.573526 0.277913 0.0228885
0.598947 0.278721 0.0257725
0.623255 0.279133 0.0295262
0.645029 0.279072 0.0333257
0.665888 0.279072 0.0366217
0.685298 0.27895 0.0396124
0.703716 0.278721 0.0423285
0.719539 0.278218 0.0442512
0.731975 0.277333 0.0455634
0.744274 0.276631 0.0466468
0.755459 0.27628 0.0475319
0.766567 0.276112 0.0482185
0.77409 0.275486 0.0487373
0.781765 0.274998 0.0496986
0.000137331 0.233768 0.159472
0.00030518 0.236759 0.156725
0.00500496 0.239109 0.148333
0.0159304 0.239963 0.130144
0.0376135 0.242313 0.114321
0.0652628 0.245197 0.0990768
0.110063 0.249592 0.0854505
0.156741 0.25391 0.070573
0.196399 0.259297 0.0675517
0.235935 0.264607 0.0639963
0.272862 0.269459 0.0579538
0.309239 0.274098 0.0514076
0.343755 0.27834 0.0443122
0.377981 0.282353 0.0374762
0.412238 0.286183 0.0316777
0.44567 0.289738 0.0270848
0.47834 0.292531 0.0250706
0.510231 0.295445 0.0248722
0.540749 0.298039 0.0276646
0.570336 0.300175 0.0301061
0.596078 0.301305 0.0334783
0.621714 0.302235 0.0362554
0.644495 0.302724 0.0388952
0.667002 0.303243 0.0409705
0.686793 0.30312 0.0435645
0.707027 0.303166 0.0460059
0.721859 0.302724 0.047837
0.736187 0.302251 0.0495613
0.749371 0.302266 0.0513313
0.762158 0.302602 0.0531777
0.773007 0.302708 0.0548562
0.781567 0.30277 0.0568704
0.789685 0.302556 0.0592508
0.00141909 0.253819 0.166049
0.00183108 0.256718 0.16556
0.00469978 0.258289 0.154772
0.00875868 0.259739 0.141909
0.0310521 0.262028 0.124147
0.0571298 0.264408 0.10576
0.0937819 0.266865 0.0834974
0.134539 0.270726 0.0687572
0.182498 0.276539 0.0627146
0.226337 0.282017 0.0558938
0.267521 0.287419 0.0484932
0.304814 0.292378 0.0419471
0.340703 0.297322 0.035523
0.375296 0.30193 0.0305028
0.409339 0.306493 0.0274205
0.442481 0.310079 0.0285954
0.474601 0.313405 0.0298466
0.506127 0.316197 0.0315557
0.536995 0.318944 0.0323644
0.565499 0.320684 0.0340276
0.592737 0.322194 0.0359045
0.618341 0.323507 0.0377813
0.642695 0.324712 0.0398566
0.666224 0.325734 0.0422827
0.688273 0.326467 0.0454871
0.708843 0.327184 0.0486458
0.7252 0.327474 0.0513008
0.741543 0.327962 0.0542458
0.755535 0.328786 0.0573129
0.76965 0.329244 0.0613718
0.779217 0.329091 0.0641184
0.788403 0.328862 0.0664073
0.796597 0.328893 0.0685435
0.00419623 0.273747 0.174243
0.00476081 0.276417 0.174243
0.00509651 0.278096 0.165133
0.0116274 0.279759 0.152178
0.0244144 0.281132 0.13283
0.0449073 0.282048 0.107744
0.066453 0.282506 0.0795605
0.117494 0.287831 0.0661936
0.17293 0.293584 0.0524605
0.217639 0.299123 0.0435492
0.262181 0.304585 0.0343023
0.300954 0.31017 0.0318456
0.339055 0.315663 0.0313725
0.372839 0.320577 0.0320745
0.406287 0.325353 0.0326696
0.438422 0.329213 0.0334325
0.470192 0.332952 0.033463
0.501671 0.336065 0.0328374
0.532662 0.339055 0.0314336
0.561685 0.341344 0.0336461
0.590433 0.343618 0.0354467
0.616541 0.34548 0.038529
0.642542 0.347662 0.0415351
0.666087 0.349187 0.0457771
0.689525 0.350622 0.05037
0.709148 0.351797 0.0544137
0.727108 0.352651 0.0590982
0.74403 0.353368 0.0636149
0.75996 0.353872 0.0674907
0.774319 0.354345 0.0706798
0.784573 0.354208 0.0728466
0.794919 0.354055 0.0748608
0.803647 0.354223 0.0769055
0.00958267 0.292943 0.183062
0.0102846 0.295354 0.181521
0.0108339 0.297505 0.176257
0.0137484 0.298283 0.159243
0.0163272 0.298665 0.139483
0.0232242 0.298024 0.109255
0.0442817 0.299199 0.0816815
0.105806 0.304875 0.0586404
0.161898 0.310689 0.0433051
0.209857 0.31632 0.0357061
0.254139 0.322255 0.0325475
0.297108 0.328405 0.0339971
0.335363 0.334096 0.0351415
0.36968 0.339391 0.0361181
0.403143 0.344228 0.0366979
0.436118 0.348562 0.0369116
0.468238 0.352605 0.036408
0.499657 0.356237 0.0353246
0.529946 0.359594 0.0355993
0.559365 0.362661 0.0377203
0.588129 0.365713 0.0402686
0.615396 0.368612 0.0436103
0.642191 0.371405 0.0473182
0.666575 0.373571 0.0530709
0.690471 0.375418 0.0593271
0.710307 0.376471 0.0643473
0.730236 0.377737 0.0689708
0.748074 0.378592 0.0729229
0.766094 0.379599 0.0766308
0.779416 0.379797 0.0793011
0.790967 0.379919 0.0816968
0.801831 0.380209 0.0840467
0.811856 0.380423 0.086305
0.0171359 0.312367 0.192691
0.0180362 0.314565 0.189883
0.0187076 0.316442 0.183749
0.018616 0.317189 0.168154
0.0205081 0.317723 0.149584
0.0240482 0.318212 0.128649
0.0593576 0.321141 0.101518
0.104158 0.324483 0.0704204
0.148379 0.329213 0.0545205
0.191592 0.334051 0.0401923
0.242145 0.340459 0.0378271
0.295064 0.346868 0.0347753
0.331426 0.352697 0.0357519
0.367666 0.358373 0.0368811
0.401587 0.363378 0.0376593
0.435782 0.36846 0.0381781
0.467399 0.372854 0.0378882
0.499031 0.377539 0.0372931
0.529473 0.381369 0.0396887
0.559991 0.385458 0.0424048
0.589014 0.389303 0.0470893
0.617563 0.392889 0.0527657
0.643626 0.395727 0.0586404
0.668696 0.398184 0.064332
0.691798 0.400183 0.069276
0.713191 0.40177 0.0736553
0.734157 0.40325 0.0776837
0.753841 0.404578 0.0814984
0.772869 0.405661 0.0849622
0.785748 0.405982 0.0878157
0.798917 0.406485 0.0908217
0.810147 0.407279 0.0935531
0.821515 0.407889 0.0962387
0.0268406 0.331899 0.199542
0.0278477 0.333944 0.196643
0.0286259 0.335485 0.189517
0.0292058 0.336767 0.180179
0.0307774 0.337865 0.166247
0.0352636 0.339208 0.150805
0.0645609 0.340459 0.113237
0.0938125 0.34226 0.0813001
0.133898 0.346532 0.0627909
0.178866 0.351629 0.0475776
0.235126 0.358221 0.0387884
0.285283 0.364736 0.032517
0.324971 0.371084 0.0340734
0.363851 0.377279 0.035523
0.400549 0.382971 0.0370642
0.435721 0.388693 0.0383001
0.468376 0.394385 0.0390936
0.500252 0.399786 0.0420539
0.531197 0.404288 0.047364
0.561975 0.408789 0.052491
0.591394 0.413275 0.0581521
0.620569 0.417487 0.0633555
0.646326 0.4206 0.0686809
0.672099 0.423713 0.0735943
0.695201 0.426032 0.0782788
0.718151 0.428443 0.0827649
0.739696 0.430381 0.0871595
0.76109 0.432074 0.0915084
0.778714 0.433417 0.0953078
0.793378 0.434302 0.0986648
0.807477 0.435218 0.1019
0.819959 0.436057 0.104814
0.832547 0.437079 0.107851
0.0404212 0.350652 0.205463
0.0416114 0.352483 0.203647
0.042298 0.353887 0.197131
0.0432593 0.355505 0.190249
0.0442206 0.356893 0.180819
0.0514382 0.357687 0.158251
0.0622721 0.357473 0.121324
0.0877089 0.359854 0.0941329
0.121386 0.363607 0.0704204
0.172869 0.369635 0.0516976
0.229679 0.376303 0.0308537
0.276112 0.383383 0.028336
0.320821 0.390585 0.030457
0.361913 0.397299 0.0331731
0.40264 0.403983 0.0378729
0.438239 0.410574 0.0424506
0.472313 0.417273 0.0472267
0.504768 0.422721 0.0525521
0.536355 0.427924 0.0575875
0.566705 0.433005 0.0628214
0.596262 0.438056 0.0678721
0.624338 0.442496 0.0728466
0.650752 0.446601 0.0777295
0.676341 0.450217 0.0824445
0.700465 0.453086 0.0873274
0.72459 0.456107 0.0923018
0.747402 0.458381 0.0974441
0.770138 0.461067 0.102663
0.786587 0.462547 0.106432
0.802991 0.463966 0.110155
0.817243 0.46511 0.11371
0.830808 0.466239 0.116991
0.843015 0.467353 0.11989
0.0560464 0.368856 0.212284
0.0572671 0.370352 0.210117
0.0584421 0.371908 0.205814
0.059617 0.373526 0.199771
0.0606851 0.375097 0.192889
0.0635843 0.374777 0.164645
0.0666819 0.374517 0.136126
0.0962234 0.378103 0.11104
0.127214 0.382116 0.0849622
0.173816 0.388785 0.052491
0.218051 0.395422 0.0254826
0.266926 0.403189 0.0293431
0.315953 0.410849 0.0327459
0.36199 0.418418 0.0379187
0.407019 0.425971 0.0427863
0.442908 0.433341 0.0489815
0.477867 0.440253 0.055314
0.50988 0.445899 0.0608072
0.541573 0.451545 0.0659953
0.571893 0.457252 0.071397
0.602243 0.462974 0.0764477
0.630045 0.467796 0.0818189
0.657969 0.47274 0.0871443
0.68394 0.476768 0.0925917
0.709361 0.480674 0.098085
0.733547 0.484428 0.103593
0.75697 0.487816 0.109056
0.777996 0.490562 0.114183
0.795743 0.492515 0.118425
0.813153 0.494301 0.122408
0.827787 0.495781 0.125719
0.842634 0.497124 0.128908
0.854887 0.498375 0.131518
0.0741283 0.386557 0.22002
0.0754559 0.387991 0.217639
0.0770581 0.38967 0.214817
0.0778668 0.391012 0.208881
0.0784619 0.39202 0.199466
0.0773785 0.391806 0.178561
0.0868391 0.393179 0.155459
0.107805 0.396109 0.127459
0.134127 0.400183 0.092958
0.162768 0.404822 0.0530404
0.206195 0.411643 0.0388495
0.260502 0.420081 0.0392309
0.312901 0.428626 0.0413825
0.364263 0.437232 0.0442206
0.407858 0.44567 0.0491035
0.44622 0.453803 0.0560769
0.481727 0.461173 0.0623484
0.51487 0.467887 0.0678874
0.547341 0.474769 0.073579
0.578622 0.481498 0.0794232
0.609293 0.487999 0.0852979
0.638285 0.49395 0.0913405
0.666865 0.499702 0.0973983
0.693385 0.504311 0.103395
0.719432 0.509117 0.109773
0.743389 0.512978 0.115602
0.767117 0.516991 0.121111
0.787274 0.5196 0.125536
0.806561 0.522118 0.129763
0.824033 0.524163 0.133455
0.839933 0.526009 0.136797
0.855177 0.527855 0.139986
0.868498 0.529671 0.142809
0.0936141 0.402579 0.229129
0.0949874 0.403891 0.226703
0.0964065 0.40531 0.223575
0.0976272 0.406683 0.219257
0.0973831 0.407263 0.207355
0.0966964 0.407706 0.19263
0.106462 0.409415 0.167498
0.116793 0.411337 0.140795
0.132357 0.414191 0.0996872
0.145983 0.416876 0.0598306
0.202747 0.426703 0.0552224
0.259358 0.436606 0.0485389
0.314366 0.446616 0.048249
0.367864 0.456474 0.0460517
0.409445 0.465583 0.053727
0.451774 0.474968 0.061326
0.486885 0.482597 0.0677348
0.521828 0.490425 0.0740826
0.554818 0.49807 0.080827
0.587625 0.505821 0.0877394
0.618723 0.512886 0.0946975
0.648753 0.519829 0.102266
0.676921 0.525841 0.109194
0.703563 0.53135 0.115526
0.729412 0.536706 0.121462
0.753918 0.541543 0.126802
0.777554 0.546075 0.131762
0.798291 0.548806 0.13608
0.819165 0.551766 0.140459
0.836118 0.554055 0.14403
0.853223 0.556512 0.147646
0.868696 0.55874 0.150912
0.883574 0.560998 0.15407
0.113405 0.41828 0.237293
0.114488 0.419303 0.235706
0.115709 0.420539 0.232715
0.117189 0.421973 0.229587
0.116625 0.422507 0.217914
0.117403 0.423301 0.204181
0.121477 0.424506 0.178683
0.125399 0.425727 0.149599
0.129427 0.42678 0.111894
0.154498 0.431968 0.0866102
0.209552 0.442771 0.0720073
0.263172 0.453498 0.0595712
0.315145 0.464179 0.0515755
0.364721 0.474708 0.0494392
0.412741 0.485481 0.0574044
0.456916 0.495766 0.0651102
0.493767 0.504677 0.0724956
0.530037 0.513573 0.0805982
0.563867 0.521981 0.0895705
0.597177 0.530144 0.098436
0.628428 0.537606 0.10634
0.659876 0.54522 0.113939
0.687083 0.551278 0.12015
0.714534 0.557534 0.126207
0.740108 0.563073 0.13164
0.765515 0.56846 0.136858
0.788632 0.572869 0.141711
0.810651 0.576577 0.146395
0.830991 0.58027 0.150774
0.849287 0.583505 0.154696
0.867231 0.586694 0.158495
0.883604 0.589761 0.16202
0.900053 0.593027 0.165591
0.132647 0.433219 0.246616
0.133715 0.434211 0.245441
0.134981 0.435492 0.242969
0.135866 0.436652 0.238224
0.13611 0.437552 0.229862
0.135515 0.438224 0.213046
0.134066 0.438849 0.191669
0.132219 0.439155 0.163409
0.13051 0.439521 0.135073
0.170565 0.448539 0.110262
0.21474 0.458656 0.0831464
0.260746 0.468986 0.0671397
0.305119 0.479026 0.0514992
0.35935 0.49099 0.0557717
0.418219 0.503822 0.0640879
0.461036 0.514199 0.0729992
0.499931 0.524086 0.0822919
0.53611 0.533608 0.091371
0.571786 0.543038 0.100359
0.60557 0.551995 0.108659
0.63856 0.56051 0.116442
0.669749 0.568566 0.123583
0.698039 0.575769 0.129854
0.725933 0.582849 0.135927
0.752026 0.589136 0.141466
0.777874 0.5953 0.146883
0.800732 0.599832 0.151766
0.823651 0.604425 0.156649
0.843565 0.60827 0.160815
0.86273 0.611887 0.164752
0.880796 0.615534 0.168521
0.89781 0.618708 0.172061
0.913603 0.621851 0.175387
0.150423 0.447028 0.257038
0.151537 0.448066 0.256016
0.152651 0.449195 0.254368
0.15314 0.450095 0.248737
0.15349 0.450965 0.242161
0.152575 0.451575 0.225742
0.152041 0.452399 0.209995
0.15169 0.453208 0.189334
0.157656 0.455772 0.1673
0.18201 0.463081 0.129427
0.206836 0.470634 0.0957046
0.243854 0.480461 0.0770581
0.288151 0.491554 0.0641642
0.359274 0.506981 0.0686809
0.42533 0.521691 0.0723125
0.465034 0.532433 0.0818036
0.504677 0.543175 0.0910506
0.541955 0.553414 0.100114
0.580026 0.563867 0.108995
0.614404 0.573144 0.117128
0.648753 0.582681 0.125246
0.678508 0.590555 0.131838
0.708034 0.598505 0.138308
0.735759 0.605707 0.144274
0.762997 0.612696 0.150057
0.788663 0.618997 0.155535
0.81268 0.624506 0.160708
0.835828 0.629877 0.165652
0.855726 0.634134 0.169924
0.875837 0.638712 0.174243
0.893599 0.642496 0.177905
0.911421 0.646372 0.181476
0.926131 0.649607 0.18439
0.167407 0.460212 0.268315
0.168276 0.461112 0.26714
0.169116 0.462074 0.265492
0.169467 0.462898 0.260014
0.169802 0.463859 0.252628
0.169772 0.46479 0.241657
0.170001 0.465827 0.228504
0.170626 0.467063 0.213642
0.176791 0.47039 0.183749
0.184741 0.474403 0.144106
0.210346 0.482277 0.118074
0.245258 0.492241 0.0979324
0.299229 0.506004 0.0875563
0.361578 0.521645 0.079469
0.412268 0.535042 0.0812848
0.458351 0.547555 0.0903334
0.503136 0.559701 0.0991379
0.54638 0.571633 0.107866
0.587015 0.583093 0.11635
0.622797 0.593637 0.124865
0.657145 0.603723 0.132906
0.687739 0.612512 0.139727
0.718166 0.621073 0.14641
0.746487 0.628748 0.15256
0.775006 0.636484 0.158724
0.800183 0.642832 0.164385
0.824964 0.649134 0.169863
0.847303 0.654521 0.174563
0.868132 0.659358 0.178759
0.888167 0.664012 0.182681
0.906661 0.668254 0.186175
0.92491 0.672526 0.189593
0.939529 0.676127 0.192462
0.182986 0.472496 0.280293
0.183917 0.473396 0.279423
0.184726 0.474372 0.27689
0.185336 0.475319 0.272602
0.185687 0.47628 0.265309
0.186069 0.477333 0.257282
0.186419 0.478538 0.244984
0.186786 0.479835 0.23267
0.187564 0.482017 0.197772
0.18883 0.484367 0.16614
0.221225 0.494713 0.144289
0.25362 0.505211 0.122164
0.302831 0.519951 0.104341
0.347799 0.533913 0.0847791
0.401556 0.548196 0.0926986
0.457038 0.563012 0.0991531
0.50518 0.576394 0.107103
0.554086 0.590036 0.114595
0.593759 0.601984 0.123262
0.63154 0.613611 0.13225
0.665553 0.62385 0.140047
0.698009 0.633524 0.147463
0.728786 0.642496 0.154604
0.757916 0.65098 0.161273
0.786038 0.659007 0.167575
0.8121 0.666331 0.173159
0.837888 0.673533 0.178546
0.859388 0.67892 0.182727
0.88101 0.684443 0.186831
0.900847 0.689311 0.190494
0.920165 0.69398 0.193988
0.937575 0.698314 0.197208
0.95346 0.702373 0.200229
0.198108 0.48452 0.292165
0.199222 0.485496 0.291936
0.199878 0.486366 0.288991
0.20058 0.487312 0.285679
0.200809 0.488167 0.27895
0.20116 0.489174 0.271397
0.201266 0.490227 0.260822
0.201236 0.491463 0.245487
0.200824 0.492866 0.223026
0.211887 0.497963 0.199451
0.235126 0.507225 0.171511
0.262379 0.517876 0.144137
0.292943 0.529732 0.118151
0.335134 0.543511 0.103853
0.39852 0.561257 0.105974
0.458518 0.578317 0.108385
0.511376 0.593683 0.114412
0.561303 0.608515 0.120577
0.601389 0.621332 0.130495
0.641199 0.633799 0.140047
0.674983 0.643992 0.147982
0.708797 0.654444 0.155917
0.7393 0.663569 0.162722
0.76939 0.672618 0.169329
0.797223 0.680919 0.175158
0.824125 0.688792 0.180591
0.848997 0.695811 0.185443
0.871611 0.701625 0.189639
0.893462 0.707469 0.193698
0.913451 0.712612 0.19736
0.933272 0.717983 0.201038
0.950668 0.722881 0.204318
0.967865 0.727901 0.207599
0.212833 0.4963 0.304997
0.213901 0.497246 0.304799
0.21445 0.497963 0.302342
0.214801 0.498665 0.298436
0.215061 0.499504 0.292927
0.21532 0.500465 0.285679
0.215579 0.501427 0.277928
0.21561 0.502541 0.266636
0.215732 0.503792 0.255238
0.227604 0.510277 0.225589
0.239643 0.517037 0.19205
0.259495 0.526284 0.162097
0.279683 0.535561 0.133028
0.338659 0.553948 0.123491
0.405005 0.574639 0.114702
0.46125 0.592111 0.115755
0.51368 0.608377 0.120104
0.560937 0.623316 0.128008
0.607156 0.637934 0.137881
0.648814 0.651225 0.146761
0.684352 0.662943 0.154955
0.718685 0.674159 0.162707
0.750027 0.684016 0.169436
0.780652 0.69369 0.175906
0.808606 0.702296 0.181537
0.836698 0.711009 0.187167
0.860639 0.717647 0.191714
0.88394 0.723705 0.196078
0.905272 0.729381 0.200046
0.925582 0.734768 0.203769
0.945159 0.740215 0.20737
0.963073 0.745357 0.210651
0.980591 0.750378 0.213886
0.225132 0.50602 0.319173
0.226001 0.506844 0.318883
0.226703 0.507591 0.317815
0.226947 0.508293 0.313603
0.227237 0.509087 0.309117
0.227436 0.509941 0.302358
0.227741 0.510903 0.295537
0.228077 0.512139 0.286488
0.229801 0.514183 0.272938
0.234287 0.518105 0.240833
0.241642 0.522942 0.211063
