LUT预设1/LUT全系打包/电影感系列lut/电影感各机型log灰片/CINE2电影感.cube
TITLE "Generated by Resolve"
LUT_3D_SIZE 5
0.0150759 0 0.0285039
0.157229 0.00292973 0.0210727
0.555764 0.0655985 0.0675975
1 0.287648 0.286778
1 0.307881 0.306828
0.0175784 0.0762036 0.0199435
0.103578 0.0781872 0.0180819
0.567254 0.104387 0.0709544
1 0.315724 0.307027
1 0.316121 0.307301
0.0898451 0.425193 0.0796521
0.100313 0.454765 0.0876783
0.558129 0.528603 0.159335
0.991211 0.559731 0.284184
1 0.558679 0.316991
0.259754 0.872541 0.20676
0.265309 0.882734 0.2121
0.496422 0.851179 0.243885
1 1 0.529351
1 1 0.603021
0.386404 0.998764 0.320745
0.386358 0.999054 0.321538
0.568032 0.998352 0.36318
0.965621 1 0.553613
1 1 0.682353
0.0210422 0.0034638 0.081651
0.128435 0.00282292 0.0903792
0.555825 0.0653697 0.0804456
1 0.294133 0.29192
1 0.308034 0.305745
0.0176089 0.0851301 0.0667277
0.094255 0.0837415 0.0679332
0.587411 0.112428 0.0988632
1 0.31809 0.312657
1 0.318563 0.313283
0.0934462 0.437034 0.0817884
0.104128 0.467536 0.0905165
0.568902 0.539361 0.162768
0.996612 0.564721 0.292683
1 0.560952 0.31693
0.263111 0.878126 0.208698
0.268467 0.888289 0.213794
0.495735 0.855482 0.244297
1 1 0.530938
1 1 0.60209
0.386343 0.99881 0.31986
0.386145 0.999069 0.32047
0.56466 0.998383 0.361349
0.961486 1 0.549493
1 1 0.681559
0.0340734 0.016556 0.448646
0.0252842 0.0125429 0.50605
0.484276 0.122652 0.485985
0.987625 0.300771 0.552361
1 0.340627 0.552361
0.0534676 0.0519417 0.457893
0.0263676 0.0791333 0.48249
0.541192 0.154345 0.547143
1 0.360876 0.627405
1 0.361746 0.623621
0.0137026 0.487739 0.476371
0.0132753 0.520394 0.508385
0.430777 0.492638 0.495521
0.977234 0.545251 0.534157
1 0.557321 0.546853
0.0515755 0.900725 0.529976
0.0559091 0.909285 0.533562
0.432593 0.862455 0.479438
1 0.991424 0.663447
0.999191 0.996139 0.714427
0.342962 1 0.542062
0.344381 1 0.539025
0.543969 0.998932 0.531273
0.911376 1 0.614908
1 1 0.756283
0.179171 0.182635 0.864408
0.168338 0.175937 0.942107
0.161822 0.141451 0.887816
0.913771 0.411002 0.904494
0.999207 0.503517 0.897063
0.192142 0.171389 0.875624
0.179904 0.206012 0.903258
0.23299 0.196796 0.945861
0.979339 0.517464 0.962768
0.999008 0.542855 0.957092
0.0381628 0.543603 0.892699
0.0449378 0.570214 0.90901
0.0188754 0.545998 0.887938
0.909316 0.602762 0.906188
0.998291 0.636255 0.892317
0.135515 0.919341 0.907744
0.169879 0.922667 0.910704
0.0725261 0.905577 0.894041
0.841672 0.868437 0.87422
0.99823 0.858763 0.852735
0.433875 1 0.88539
0.431907 1 0.883619
0.429068 1 0.862913
0.84715 0.99884 0.855039
1 1 0.891279
0.206043 0.208255 0.861555
0.193759 0.204425 0.95491
0.197559 0.203555 0.973602
0.872541 0.440909 0.989822
0.995377 0.562387 0.987381
0.229984 0.197024 0.874617
0.196704 0.218601 0.887999
0.223667 0.213367 0.967926
0.966552 0.521401 0.985855
0.99675 0.561303 0.98555
0.138079 0.552331 0.944045
0.133196 0.576608 0.930648
0.105211 0.556695 0.937484
0.871092 0.618601 0.984863
0.995163 0.669245 0.981476
0.385565 0.899474 0.988952
0.394675 0.90193 0.984573
0.364218 0.880308 0.973678
0.79942 0.868513 0.969497
0.996094 0.875837 0.984588
0.567346 0.998688 0.992203
0.567391 0.998978 0.992493
0.570077 1 0.993713
0.833509 0.998138 0.992309
1 0.996124 0.983154
