LUT预设1/LUT全系打包/电影感系列lut/电影感各机型log灰片/CINE2电影感.cube
TITLE "Generated by Resolve"
LUT_3D_SIZE 33
0.0150759 0 0.0285039
0.0147402 0 0.0285649
0.0145266 0 0.0286107
0.0145266 0 0.0286564
0.0200809 0 0.0275425
0.0458686 0 0.0231632
0.0774701 0 0.0194247
0.113848 0.00106813 0.0203403
0.157229 0.00292973 0.0210727
0.203693 0.00497444 0.0215763
0.248295 0.00695811 0.0220493
0.291402 0.00979629 0.0227359
0.337972 0.0171969 0.0258335
0.389303 0.027512 0.0326696
0.444572 0.0396887 0.0419471
0.500862 0.0526436 0.0539101
0.555764 0.0655985 0.0675975
0.613931 0.0816052 0.0833906
0.675013 0.0997177 0.101274
0.737316 0.118975 0.12047
0.800427 0.142672 0.143755
0.862638 0.173098 0.173007
0.921172 0.209003 0.208057
0.974029 0.248341 0.247456
1 0.287648 0.286778
1 0.307698 0.306645
1 0.307713 0.306676
1 0.307744 0.306691
1 0.307774 0.306722
1 0.307805 0.306752
1 0.307836 0.306783
1 0.307851 0.306798
1 0.307881 0.306828
0.0153201 0 0.0285954
0.0150607 0 0.0286564
0.0147555 0 0.0287327
0.0145266 0 0.0287785
0.0196078 0 0.0278172
0.0402838 0 0.0241398
0.0732128 0 0.0198215
0.111025 0.000869764 0.0204166
0.15465 0.00274662 0.0211795
0.201343 0.00479133 0.0217288
0.24686 0.00683604 0.0222324
0.290608 0.00982681 0.0229191
0.337621 0.016968 0.0260014
0.389212 0.027451 0.0327611
0.444343 0.0393988 0.0418555
0.501213 0.0527657 0.0540475
0.55639 0.0655985 0.0677806
0.614664 0.081651 0.0835737
0.67631 0.0999313 0.101564
0.739452 0.119432 0.12105
0.803815 0.143771 0.145022
0.866789 0.175158 0.175143
0.925765 0.211994 0.211139
0.979767 0.252369 0.251698
1 0.292287 0.291524
1 0.307652 0.306737
1 0.307683 0.306767
1 0.307698 0.306798
1 0.307729 0.306828
1 0.307759 0.306859
1 0.30779 0.306874
1 0.307805 0.306905
1 0.307836 0.306935
0.0155184 0 0.0287022
0.0153201 0 0.028748
0.0150301 0 0.0288243
0.0147555 0 0.0288853
0.017792 0 0.0283055
0.0349432 0 0.0252842
0.0693217 0 0.0208591
0.108232 0.000671397 0.0204776
0.152575 0.00257877 0.0212863
0.2 0.00466926 0.0218814
0.246311 0.00671397 0.0223545
0.290867 0.00985733 0.0231022
0.338735 0.0171206 0.0263066
0.390982 0.0278019 0.0331273
0.446357 0.0397955 0.0424201
0.503838 0.0533761 0.0548562
0.559731 0.0664225 0.0687419
0.61857 0.0826276 0.0847334
0.681498 0.101335 0.102998
0.745769 0.121248 0.122927
0.811444 0.146639 0.147997
0.875792 0.179843 0.179767
0.935714 0.218448 0.21767
0.987655 0.26041 0.259907
1 0.298024 0.297368
1 0.307607 0.306844
1 0.307637 0.306874
1 0.307668 0.306905
1 0.307683 0.30692
1 0.307713 0.30695
1 0.307744 0.306981
1 0.307774 0.307012
1 0.30779 0.307027
0.0157321 0 0.028809
0.0155184 0 0.0288396
0.0153048 0 0.0289006
0.0150149 0 0.0289769
0.0157473 0 0.0288243
0.0305028 0 0.026215
0.0654154 0 0.0216831
0.105638 0.000503548 0.0205692
0.150881 0.00244144 0.0214237
0.199023 0.00454719 0.022034
0.24622 0.00663767 0.0224918
0.291936 0.0100099 0.0233158
0.340764 0.0174258 0.026688
0.393729 0.0283055 0.0336614
0.450294 0.0406806 0.0434119
0.508278 0.0543374 0.0560769
0.565423 0.0679484 0.0704356
0.626169 0.0848554 0.087129
0.690623 0.104112 0.106004
0.756588 0.124941 0.126757
0.823438 0.151766 0.153124
0.888594 0.186679 0.186435
0.949172 0.227451 0.226734
0.995804 0.271595 0.271244
1 0.30338 0.3028
1 0.307561 0.306935
1 0.307591 0.306966
1 0.307622 0.306996
1 0.307652 0.307027
1 0.307668 0.307057
1 0.307698 0.307073
1 0.307729 0.307103
1 0.307759 0.307134
0.0159152 0 0.0289158
0.0157321 0 0.0289464
0.0155184 0 0.0290074
0.0152895 0 0.0290532
0.0149996 0 0.0291295
0.0276951 0 0.0268711
0.0608072 0 0.022385
0.102251 0.000274662 0.0206455
0.148669 0.00227359 0.021561
0.19826 0.00444038 0.0222019
0.246113 0.00656138 0.0226444
0.293156 0.0101625 0.0235904
0.343023 0.0178073 0.0270848
0.397406 0.0290227 0.0343328
0.455283 0.0418097 0.0445716
0.514366 0.0556649 0.0576638
0.573083 0.0699931 0.0726177
0.635538 0.0875868 0.0899825
0.701823 0.107576 0.109728
0.769558 0.129854 0.131792
0.837659 0.158999 0.160174
0.902922 0.195529 0.195224
0.961654 0.237675 0.237156
1 0.282765 0.282521
1 0.307195 0.306706
1 0.30753 0.307042
1 0.307546 0.307057
1 0.307576 0.307088
1 0.307607 0.307118
1 0.307637 0.307149
1 0.307652 0.307179
1 0.307683 0.307195
1 0.307713 0.307225
0.0161135 0 0.0290227
0.0159152 0 0.0290684
0.0157321 0 0.029099
0.0155184 0 0.02916
0.0152743 0 0.029221
0.0244755 0 0.0275883
0.0542611 0 0.0230716
0.0972305 0 0.0206912
0.145205 0.00205997 0.0216526
0.196246 0.00428778 0.0223239
0.245716 0.00648508 0.022797
0.294102 0.0101625 0.0237736
0.345144 0.0181582 0.0274205
0.400961 0.0297246 0.0349889
0.460288 0.0429389 0.0457465
0.520195 0.0569162 0.059205
0.580484 0.0719615 0.0747387
0.644541 0.0901961 0.0927443
0.711894 0.110674 0.113039
0.780819 0.134295 0.136294
0.84979 0.165316 0.166323
0.914397 0.203113 0.202853
0.970184 0.246494 0.246204
1 0.288853 0.28867
1 0.307454 0.307103
1 0.307485 0.307134
1 0.307515 0.307164
1 0.307546 0.307179
1 0.307561 0.30721
1 0.307591 0.30724
1 0.307622 0.307271
1 0.307652 0.307301
1 0.307668 0.307317
0.0157015 0.0121614 0.0260319
0.0155337 0.0125277 0.0260166
0.0153506 0.0129091 0.0260166
0.0151675 0.0132753 0.0260166
0.0149691 0.0134585 0.0260319
0.0181277 0.0132753 0.0253758
0.0423743 0.0121004 0.0214389
0.0859846 0.009308 0.0191501
0.136477 0.00700389 0.0201724
0.190097 0.00665293 0.0213779
0.242161 0.00695811 0.0225528
0.292409 0.00991836 0.0238804
0.344717 0.0181277 0.027512
0.401648 0.0298009 0.0352026
0.46186 0.0433509 0.0462196
0.522301 0.0573434 0.0598001
0.583246 0.0727092 0.0755779
0.648249 0.0912642 0.0939651
0.715999 0.111894 0.114397
0.785519 0.136263 0.138323
0.854459 0.167956 0.168994
0.918975 0.2065 0.206394
0.973175 0.250248 0.250095
1 0.290089 0.290028
1 0.307424 0.307195
1 0.307439 0.307225
1 0.307469 0.307256
1 0.3075 0.307286
1 0.30753 0.307301
1 0.307546 0.307332
1 0.307576 0.307362
1 0.307607 0.307393
1 0.307637 0.307424
0.0163729 0.043473 0.0212558
0.0162203 0.0438544 0.0212711
0.0160678 0.0445563 0.0212863
0.0159152 0.0457771 0.0212711
0.0157626 0.0467384 0.0213169
0.0155642 0.0472572 0.0213474
0.0307012 0.0459449 0.0195621
0.0692149 0.039704 0.0180056
0.121798 0.030808 0.0179751
0.177279 0.0267185 0.0184024
0.23035 0.0264286 0.0187686
0.282094 0.0281224 0.0198367
0.335973 0.0335393 0.0243229
0.394293 0.0419623 0.0329442
0.455726 0.0522927 0.0445869
0.517159 0.0625772 0.0583658
0.579187 0.074815 0.0745098
0.644663 0.0909895 0.0929885
0.712886 0.110872 0.113436
0.782788 0.135927 0.137301
0.851698 0.167956 0.167865
0.916899 0.206806 0.205493
0.972457 0.250538 0.249149
1 0.289601 0.288457
1 0.308537 0.307225
1 0.308629 0.307256
1 0.308736 0.307286
1 0.308797 0.307301
1 0.308843 0.307347
1 0.308843 0.307378
1 0.308843 0.307393
1 0.308797 0.307424
1 0.308751 0.307454
0.0175784 0.0762036 0.0199435
0.0175174 0.0775311 0.0200351
0.0175021 0.0792401 0.0201267
0.0175174 0.0814069 0.0202335
0.0175326 0.0834363 0.020325
0.0174868 0.0848096 0.0204166
0.0222324 0.0849775 0.0201114
0.0478523 0.0833143 0.0191958
0.103578 0.0781872 0.0180819
0.164111 0.0695354 0.0168612
0.217304 0.0644999 0.0163882
0.269047 0.063508 0.016846
0.323705 0.066743 0.021088
0.382223 0.0737011 0.0299992
0.443793 0.0832074 0.0416571
0.505165 0.0931411 0.0551919
0.567254 0.104387 0.0709544
0.633539 0.118441 0.0890974
0.702754 0.134508 0.108507
0.773495 0.154391 0.132067
0.843641 0.182055 0.163165
0.909941 0.217197 0.201282
0.96907 0.256931 0.244511
1 0.29604 0.286336
1 0.315724 0.307027
1 0.31574 0.307073
1 0.31577 0.307134
1 0.315847 0.307149
1 0.315908 0.307195
1 0.315938 0.307195
1 0.315999 0.307225
1 0.31603 0.307271
1 0.316121 0.307301
0.0211643 0.111879 0.0208133
0.0213931 0.114412 0.0209812
0.0217136 0.117464 0.0211643
0.022034 0.120424 0.0213779
0.0222782 0.123217 0.0215763
0.0224613 0.125322 0.0217441
0.0229038 0.126223 0.0218051
0.0372015 0.125475 0.0212863
0.0809186 0.133837 0.0228733
0.147662 0.125536 0.0198062
0.206882 0.114153 0.0189212
0.256931 0.107561 0.0171206
0.31075 0.1084 0.0197452
0.369345 0.113542 0.0284123
0.430518 0.120974 0.0395361
0.492531 0.129244 0.0525673
0.554498 0.138964 0.0673838
0.621515 0.151659 0.0845655
0.691661 0.165484 0.103197
0.762631 0.181979 0.125978
0.833906 0.205844 0.157183
0.901335 0.236667 0.195666
0.962203 0.271672 0.238575
0.99765 0.310704 0.284535
1 0.328954 0.305531
1 0.329961 0.306752
1 0.330114 0.306813
1 0.330251 0.306859
1 0.330282 0.306889
1 0.330373 0.306889
1 0.330419 0.306935
1 0.330495 0.306966
1 0.330724 0.306981
0.0276188 0.152956 0.0233768
0.0280919 0.156313 0.0236973
0.0285801 0.15993 0.0240482
0.0290837 0.16347 0.0244297
0.0294804 0.166583 0.0247807
0.0297551 0.169039 0.0250553
0.0298314 0.170397 0.0252384
0.0366522 0.170459 0.0253758
0.0687266 0.176638 0.0273289
0.121569 0.177066 0.0310369
0.188815 0.167895 0.0247654
0.249729 0.159976 0.0264134
0.302419 0.157778 0.0257267
0.357168 0.158785 0.0302281
0.416526 0.163729 0.0386511
0.478523 0.170733 0.0499275
0.541482 0.179889 0.063447
0.608728 0.191608 0.0789349
0.679103 0.204608 0.0968338
0.750195 0.219211 0.119707
0.822141 0.239399 0.150271
0.890059 0.265019 0.188022
0.951782 0.294652 0.2309
0.992264 0.329946 0.278462
1 0.34786 0.302037
1 0.351247 0.306462
1 0.351339 0.306508
1 0.35137 0.306538
1 0.351293 0.306554
1 0.351324 0.306584
1 0.3514 0.306615
1 0.351446 0.306645
1 0.351827 0.306661
0.0347143 0.195071 0.0278782
0.0351415 0.19855 0.0283665
0.0355993 0.202228 0.0289006
0.0360266 0.205798 0.0294347
0.0363775 0.208957 0.0299229
0.0366522 0.211627 0.0303502
0.036759 0.213046 0.0305943
0.0377813 0.213428 0.0307774
0.0568704 0.214832 0.0321355
0.103777 0.220951 0.0373236
0.158206 0.216419 0.0428473
0.230838 0.213581 0.037232
0.298299 0.213092 0.0400549
0.355566 0.215244 0.0436561
0.410163 0.21619 0.0476387
0.468925 0.219425 0.0531777
0.530785 0.226139 0.0618601
0.596597 0.236362 0.073991
0.665034 0.247532 0.0896773
0.735912 0.261021 0.111666
0.808408 0.279194 0.142535
0.876738 0.30071 0.179492
0.938796 0.324834 0.22118
0.987274 0.354284 0.268238
1 0.375204 0.299809
1 0.379446 0.306249
1 0.379263 0.306325
1 0.379187 0.306371
1 0.378988 0.306401
1 0.378866 0.306462
1 0.378668 0.306493
1 0.378454 0.306538
1 0.378912 0.306584
0.041001 0.234897 0.0339208
0.0415503 0.238804 0.034638
0.0421149 0.242756 0.0353704
0.0426642 0.246632 0.0361028
0.0431983 0.250401 0.0368353
0.0435645 0.253239 0.0373846
0.0437171 0.25481 0.0377356
0.0442817 0.255314 0.0379339
0.0540017 0.255604 0.0389563
0.0914321 0.261677 0.0439765
0.14313 0.262806 0.0524758
0.20058 0.259327 0.0581216
0.279179 0.265736 0.0569619
0.354086 0.272572 0.0589456
0.418479 0.279484 0.0661326
0.476799 0.283146 0.0706035
0.532906 0.285359 0.0729992
0.591684 0.290135 0.0783398
0.655802 0.297368 0.0887922
0.723323 0.307362 0.105989
0.79472 0.322683 0.134691
0.862181 0.340551 0.17026
0.924468 0.360143 0.210697
0.980179 0.384405 0.257084
1 0.409583 0.301198
1 0.412131 0.306157
1 0.411749 0.306188
1 0.411551 0.306218
1 0.41117 0.306249
1 0.410803 0.306294
1 0.410315 0.306325
1 0.409628 0.306371
1 0.410239 0.306401
0.0491646 0.277363 0.0423743
0.0500343 0.282002 0.0434272
0.0509957 0.28687 0.0445563
0.0518807 0.291447 0.0456397
0.0526894 0.295674 0.0466468
0.0533455 0.298863 0.0474556
0.0537423 0.300847 0.0479744
0.0544594 0.301503 0.0482795
0.0615549 0.302464 0.0493782
0.087953 0.306447 0.0536812
0.133715 0.308736 0.061677
0.187015 0.307378 0.0728161
0.249302 0.307301 0.0774701
0.337499 0.3234 0.0786755
0.420523 0.337774 0.0805676
0.490898 0.349615 0.0890669
0.551522 0.357626 0.0973526
0.605478 0.360479 0.100389
0.661463 0.361608 0.10312
0.721538 0.36492 0.112993
0.786679 0.373541 0.134325
0.849867 0.38497 0.163928
0.90985 0.398932 0.200549
0.966567 0.418189 0.245426
1 0.44332 0.296712
1 0.447227 0.305837
1 0.446921 0.306096
1 0.446281 0.306127
1 0.44567 0.306142
1 0.444862 0.306188
1 0.444114 0.306203
1 0.443275 0.306218
1 0.444114 0.306249
0.0604105 0.323995 0.0536812
0.0616159 0.329076 0.0549935
0.0628977 0.334356 0.0563516
0.0641794 0.339529 0.0576944
0.0652934 0.344015 0.0588998
0.0661479 0.347448 0.0598306
0.0666056 0.349523 0.0603952
0.0670939 0.3505 0.0607156
0.0720226 0.351934 0.0616617
0.0918593 0.35433 0.0653086
0.129946 0.355581 0.0727245
0.180331 0.35462 0.0833448
0.23711 0.354986 0.0953689
0.307576 0.360678 0.096849
0.405798 0.387091 0.102434
0.49337 0.408438 0.105898
0.566186 0.424063 0.11487
0.628855 0.435004 0.124956
0.685328 0.439475 0.131472
0.737743 0.437675 0.136355
0.790707 0.435782 0.146975
0.84538 0.437858 0.167041
0.900343 0.444282 0.196658
0.952956 0.456474 0.236347
0.992966 0.474739 0.283101
1 0.48394 0.306218
1 0.483024 0.306218
1 0.482033 0.306249
1 0.481117 0.306264
1 0.479988 0.306279
1 0.479088 0.306294
1 0.478096 0.306325
1 0.479194 0.306386
0.0742504 0.373648 0.0663615
0.0758679 0.379553 0.0678874
0.0774853 0.385397 0.0694133
0.0789349 0.390723 0.0708476
0.0802472 0.395651 0.072221
0.0812085 0.399237 0.073228
0.0816968 0.401328 0.0738231
0.0818647 0.402243 0.0741131
0.084947 0.402838 0.0746777
0.100343 0.403449 0.0773632
0.133364 0.403601 0.0839551
0.179889 0.402533 0.0932479
0.234409 0.402884 0.106264
0.294575 0.405844 0.116457
0.375036 0.419852 0.118257
0.4804 0.456107 0.129503
0.568948 0.482353 0.133593
0.642802 0.499275 0.140505
0.70692 0.510384 0.152483
0.76289 0.514183 0.164599
0.811414 0.510231 0.174456
0.855833 0.502968 0.185351
0.901061 0.499138 0.204486
0.948592 0.502586 0.236332
0.989899 0.513085 0.277928
1 0.522622 0.309148
1 0.521294 0.309026
1 0.520119 0.308827
1 0.518853 0.308705
1 0.517555 0.308614
1 0.516518 0.308522
1 0.515282 0.308431
1 0.516793 0.308659
0.0898451 0.425193 0.0796521
0.0915999 0.431296 0.0812848
0.09337 0.437522 0.0829786
0.095079 0.443366 0.0845197
0.0965438 0.448463 0.0858473
0.0975662 0.452064 0.0867933
0.098146 0.454185 0.0873884
0.0982376 0.45481 0.0875715
0.100313 0.454765 0.0876783
0.113329 0.454154 0.0892805
0.142321 0.453147 0.094728
0.184604 0.451667 0.103273
0.236683 0.45153 0.114458
0.29337 0.45417 0.129213
0.357992 0.45951 0.136019
0.450874 0.485771 0.14432
0.558129 0.528603 0.159335
0.645594 0.555871 0.161715
0.718456 0.570428 0.166796
0.780621 0.578973 0.183261
0.833738 0.581277 0.201526
0.878355 0.575662 0.21474
0.916686 0.565774 0.227359
0.955276 0.558206 0.248981
0.991211 0.559731 0.284184
1 0.564965 0.315282
1 0.564034 0.318059
1 0.562387 0.317662
1 0.56083 0.31725
1 0.559304 0.316838
1 0.557977 0.316564
1 0.556909 0.316381
1 0.558679 0.316991
0.106584 0.478965 0.0935531
0.108568 0.485756 0.0952621
0.110475 0.492317 0.0968948
0.112215 0.498283 0.0983902
0.11371 0.503471 0.0997024
0.114656 0.506844 0.100542
0.115068 0.508492 0.100984
0.115038 0.508675 0.101061
0.116686 0.508247 0.101045
0.128084 0.506981 0.101686
0.154498 0.504814 0.105592
0.192844 0.502419 0.113603
0.241291 0.500923 0.123583
0.296635 0.502388 0.136706
0.35436 0.506828 0.151537
0.424796 0.517296 0.157931
0.52723 0.555047 0.174685
0.633783 0.600076 0.190417
0.719661 0.624216 0.190814
0.789105 0.634653 0.198367
0.848295 0.641291 0.220615
0.897856 0.641917 0.241749
0.939193 0.63537 0.258183
0.974319 0.624903 0.277378
1 0.6177 0.306416
1 0.616129 0.33225
1 0.61529 0.339971
1 0.61326 0.338979
1 0.611292 0.338033
1 0.609186 0.337041
1 0.607263 0.336141
1 0.606317 0.335714
1 0.608225 0.33666
0.124041 0.535302 0.107378
0.126024 0.541817 0.108949
0.128038 0.548486 0.110552
0.129747 0.554131 0.11191
0.131121 0.558724 0.113024
0.131899 0.561471 0.113695
0.132174 0.562615 0.114
0.132067 0.562524 0.114015
0.133104 0.561929 0.11397
0.142748 0.559899 0.114092
0.167102 0.556741 0.116243
0.202579 0.553536 0.123369
0.247196 0.550896 0.133089
0.300618 0.550912 0.144228
0.356802 0.554284 0.159258
0.414557 0.560525 0.174289
0.49131 0.578134 0.183703
0.600778 0.624216 0.207324
0.707195 0.667979 0.223331
0.788556 0.686351 0.223407
0.854826 0.694728 0.236927
0.910231 0.699702 0.26247
0.957992 0.700404 0.289174
0.998337 0.695323 0.315068
1 0.685588 0.340902
1 0.678859 0.364111
1 0.676036 0.373404
1 0.673198 0.37174
1 0.670863 0.370382
1 0.668315 0.368917
1 0.665827 0.367514
1 0.665187 0.367178
1 0.667369 0.368475
0.141955 0.590906 0.12047
0.144015 0.597528 0.121996
0.145937 0.603677 0.123461
0.147601 0.609049 0.124712
0.148882 0.613291 0.125689
0.149569 0.615656 0.126253
0.14966 0.616281 0.126436
0.149447 0.615885 0.126375
0.149554 0.61445 0.126101
0.156985 0.611795 0.125887
0.179385 0.607797 0.126741
0.213642 0.604303 0.132372
0.254871 0.601572 0.142473
0.304799 0.600061 0.152789
0.360525 0.602533 0.165316
0.416251 0.608209 0.18265
0.475914 0.617868 0.198779
0.559045 0.642054 0.213306
0.674388 0.692271 0.24181
0.775051 0.730114 0.255833
0.852934 0.745098 0.260227
0.915801 0.751995 0.280003
0.970703 0.758556 0.315114
1 0.760967 0.351553
1 0.75491 0.380591
1 0.747585 0.406226
1 0.743267 0.415045
1 0.7402 0.413275
1 0.737346 0.411521
1 0.734524 0.40972
1 0.731792 0.40798
1 0.731624 0.407904
1 0.734051 0.409522
0.160861 0.647837 0.133684
0.162936 0.654337 0.135225
0.164874 0.66038 0.13666
0.166598 0.665812 0.137987
0.167926 0.669963 0.13901
0.168521 0.671962 0.139528
0.168444 0.672023 0.139605
0.167956 0.670817 0.139361
0.167315 0.668727 0.138903
0.172168 0.665812 0.138476
0.192416 0.661295 0.138918
0.226078 0.656916 0.142306
0.265644 0.653849 0.151553
0.31165 0.651743 0.162524
0.364965 0.652323 0.173434
0.421439 0.657267 0.188312
0.476951 0.665309 0.208484
0.538354 0.676921 0.225803
0.627176 0.705135 0.245533
0.74432 0.755703 0.2757
0.838117 0.78761 0.289754
0.91426 0.800656 0.301549
0.977127 0.810712 0.337987
1 0.818799 0.382437
1 0.819638 0.42002
1 0.815229 0.450874
1 0.81062 0.45861
1 0.807507 0.457496
1 0.804654 0.455711
1 0.80206 0.454124
1 0.799512 0.452552
1 0.799817 0.452842
1 0.802152 0.454444
0.181781 0.707271 0.148653
0.184054 0.71371 0.150393
0.186145 0.719661 0.151995
0.1879 0.724636 0.153368
0.189181 0.728237 0.154406
0.18967 0.729747 0.154849
0.189395 0.729244 0.154742
0.188708 0.727565 0.15436
0.188083 0.7252 0.15378
0.191272 0.722148 0.153262
0.208392 0.717525 0.153704
0.240177 0.71252 0.155871
0.279881 0.708553 0.162051
0.322591 0.705959 0.17351
0.371481 0.703883 0.183642
0.426154 0.706554 0.196353
0.481682 0.712993 0.214252
0.535073 0.720104 0.235416
0.599451 0.732784 0.253895
0.695232 0.765362 0.2795
0.809247 0.813504 0.309758
0.901305 0.844495 0.333974
0.9776 0.859846 0.364736
1 0.869627 0.408789
1 0.875547 0.452354
1 0.875441 0.488151
1 0.872679 0.50074
1 0.870069 0.501015
1 0.867475 0.499336
1 0.864958 0.497658
1 0.862547 0.496071
1 0.863279 0.496635
1 0.86537 0.498116
0.205219 0.765774 0.165652
0.20763 0.771679 0.167498
0.209888 0.777127 0.169223
0.211749 0.781521 0.170672
0.213077 0.784604 0.17174
0.213367 0.785473 0.172045
0.212894 0.784619 0.171786
0.212024 0.782742 0.171252
0.211307 0.780285 0.170565
0.213916 0.777249 0.169986
0.227497 0.772763 0.170199
0.256641 0.767758 0.171878
0.295277 0.762661 0.17583
0.337469 0.758907 0.184451
0.381704 0.756207 0.195453
0.431601 0.755627 0.206363
0.485557 0.760052 0.222339
0.538323 0.764981 0.24094
0.591699 0.770901 0.261769
0.662287 0.786206 0.28188
0.763241 0.824353 0.317159
0.876554 0.873182 0.357855
0.966339 0.902586 0.394293
1 0.915465 0.433356
1 0.924117 0.479118
1 0.928374 0.520653
1 0.928038 0.54081
1 0.92575 0.540749
1 0.923369 0.539147
1 0.920989 0.53753
1 0.918822 0.536049
1 0.919951 0.536873
1 0.921782 0.538186
0.230869 0.820249 0.184268
0.233356 0.825452 0.18616
0.235798 0.830381 0.188083
0.237888 0.83444 0.189776
0.239078 0.836805 0.190753
0.23917 0.837293 0.190875
0.23856 0.836408 0.190433
0.237491 0.834485 0.189715
0.236591 0.83212 0.188922
0.238346 0.828733 0.188083
0.249531 0.824353 0.187839
0.274632 0.819226 0.188846
0.310826 0.813764 0.191501
0.352422 0.809354 0.197238
0.395178 0.806394 0.207507
0.440162 0.805203 0.219303
0.489799 0.805844 0.231907
0.541222 0.808957 0.248371
0.592981 0.81268 0.267475
0.651194 0.820493 0.290578
0.729198 0.842145 0.320058
0.833646 0.884504 0.366781
0.941817 0.930144 0.416663
1 0.955795 0.460639
1 0.967437 0.50399
1 0.974411 0.547951
1 0.976501 0.576364
1 0.974319 0.574929
1 0.972152 0.57351
1 0.969985 0.572061
1 0.968154 0.57084
1 0.969512 0.571801
1 0.971084 0.572931
0.259754 0.872541 0.20676
0.262608 0.877592 0.209186
0.265446 0.882307 0.211673
0.267765 0.886061 0.213748
0.268956 0.888136 0.214862
0.269017 0.888548 0.215
0.268086 0.887419 0.214298
0.266773 0.885435 0.213306
0.265309 0.882734 0.2121
0.266178 0.879301 0.210819
0.274952 0.874815 0.209903
0.296178 0.869551 0.209918
0.328771 0.864057 0.211429
0.368277 0.858701 0.214755
0.410147 0.85481 0.221653
0.451728 0.852415 0.232425
0.496422 0.851179 0.243885
0.545235 0.852445 0.258244
0.597116 0.856001 0.278157
0.651637 0.860975 0.30193
0.714321 0.871763 0.330694
0.795911 0.896529 0.367773
0.900786 0.940307 0.423529
1 0.982238 0.480964
1 1 0.529351
1 1 0.572656
1 1 0.603555
1 1 0.604456
1 1 0.603143
1 1 0.601953
1 1 0.601007
1 1 0.602014
1 1 0.603021
0.293278 0.923781 0.235416
0.296712 0.928649 0.238514
0.299748 0.932738 0.241306
0.302205 0.936065 0.243595
0.303548 0.938003 0.244862
0.303334 0.938064 0.244755
0.302022 0.936721 0.243656
0.300374 0.934661 0.242313
0.298375 0.931853 0.240665
0.298085 0.928527 0.238926
0.304875 0.924453 0.237583
0.322469 0.919509 0.236988
0.350835 0.914107 0.237675
0.387091 0.908553 0.239857
0.427146 0.903792 0.243992
0.467613 0.900252 0.251499
0.508904 0.898192 0.262211
0.553918 0.897688 0.275608
0.603891 0.899809 0.29427
0.656519 0.903014 0.317556
0.71104 0.907408 0.343969
0.775891 0.919295 0.376593
0.860212 0.9467 0.422446
0.963775 0.99147 0.486793
1 1 0.546746
1 1 0.594614
1 1 0.625162
1 1 0.631357
1 1 0.630243
1 1 0.629221
1 1 0.628534
1 1 0.629435
1 1 0.63035
0.331533 0.971939 0.26949
0.335607 0.975235 0.27332
0.339025 0.977829 0.276585
0.341833 0.980026 0.279271
0.34313 0.981537 0.280552
0.342565 0.982208 0.280079
0.340825 0.982635 0.278508
0.338628 0.980957 0.276585
0.336172 0.97821 0.274495
0.334737 0.975296 0.272404
0.339345 0.971359 0.270436
0.353536 0.966705 0.269306
0.377768 0.96112 0.26952
0.410071 0.95584 0.271168
0.447333 0.951797 0.275227
0.487236 0.948775 0.281773
0.527306 0.946029 0.290867
0.568322 0.943679 0.301823
0.613672 0.942641 0.316045
0.663172 0.943679 0.335973
0.714427 0.945144 0.360174
0.769467 0.949416 0.389075
0.835966 0.96318 0.427893
0.922881 0.993927 0.482979
1 1 0.551003
1 1 0.608621
1 1 0.644419
1 1 0.655375
1 1 0.654551
1 1 0.65362
1 1 0.653101
1 1 0.653895
0.999481 1 0.654673
0.372534 0.995773 0.307607
0.374838 0.996338 0.30988
0.376608 0.996796 0.311666
0.378164 0.997192 0.313222
0.379263 0.997467 0.314366
0.37998 0.997681 0.315145
0.380835 0.997909 0.31606
0.381903 0.997955 0.317205
0.380514 0.997604 0.315999
