LUT预设1/LUT全系打包/电影感系列lut/电影感各机型log灰片/CINE2电影感.cube
TITLE "Generated by Resolve"
LUT_3D_SIZE 9
0.0150759 0 0.0285039
0.0200809 0 0.0275425
0.157229 0.00292973 0.0210727
0.337972 0.0171969 0.0258335
0.555764 0.0655985 0.0675975
0.800427 0.142672 0.143755
1 0.287648 0.286778
1 0.307774 0.306722
1 0.307881 0.306828
0.0159152 0 0.0289158
0.0149996 0 0.0291295
0.148669 0.00227359 0.021561
0.343023 0.0178073 0.0270848
0.573083 0.0699931 0.0726177
0.837659 0.158999 0.160174
1 0.307195 0.306706
1 0.307607 0.307118
1 0.307713 0.307225
0.0175784 0.0762036 0.0199435
0.0175326 0.0834363 0.020325
0.103578 0.0781872 0.0180819
0.323705 0.066743 0.021088
0.567254 0.104387 0.0709544
0.843641 0.182055 0.163165
1 0.315724 0.307027
1 0.315908 0.307195
1 0.316121 0.307301
0.041001 0.234897 0.0339208
0.0431983 0.250401 0.0368353
0.0540017 0.255604 0.0389563
0.279179 0.265736 0.0569619
0.532906 0.285359 0.0729992
0.79472 0.322683 0.134691
1 0.409583 0.301198
1 0.41117 0.306249
1 0.410239 0.306401
0.0898451 0.425193 0.0796521
0.0965438 0.448463 0.0858473
0.100313 0.454765 0.0876783
0.236683 0.45153 0.114458
0.558129 0.528603 0.159335
0.833738 0.581277 0.201526
0.991211 0.559731 0.284184
1 0.56083 0.31725
1 0.558679 0.316991
0.160861 0.647837 0.133684
0.167926 0.669963 0.13901
0.167315 0.668727 0.138903
0.265644 0.653849 0.151553
0.476951 0.665309 0.208484
0.838117 0.78761 0.289754
1 0.819638 0.42002
1 0.804654 0.455711
1 0.802152 0.454444
0.259754 0.872541 0.20676
0.268956 0.888136 0.214862
0.265309 0.882734 0.2121
0.328771 0.864057 0.211429
0.496422 0.851179 0.243885
0.714321 0.871763 0.330694
1 1 0.529351
1 1 0.603143
1 1 0.603021
0.386114 0.998871 0.320455
0.385809 0.998947 0.320577
0.385992 0.999146 0.321172
0.428641 0.999313 0.330541
0.562249 0.997848 0.359991
0.727031 0.996155 0.394965
0.956481 1 0.541375
1 1 0.680705
1 1 0.680949
0.386404 0.998764 0.320745
0.386099 0.99884 0.320851
0.386358 0.999054 0.321538
0.43267 0.999115 0.331548
0.568032 0.998352 0.36318
0.735805 1 0.401495
0.965621 1 0.553613
1 1 0.682216
1 1 0.682353
0.0171359 0.000183108 0.0043946
0.0200046 0 0.0265354
0.159091 0.00315862 0.0201877
0.341329 0.0179446 0.0254368
0.55935 0.0665141 0.0677806
0.805249 0.144656 0.144991
1 0.2916 0.290074
1 0.307851 0.306203
1 0.307958 0.30631
0.0159304 0 0.0283513
0.0150759 0 0.0285039
0.155993 0.00267033 0.0209506
0.351125 0.0195621 0.0273289
0.583474 0.0729229 0.0748302
0.85008 0.165667 0.165911
1 0.307561 0.306508
1 0.307668 0.306615
1 0.307774 0.306722
0.017792 0.0788891 0.0194553
0.0179904 0.0885939 0.019852
0.109392 0.0845655 0.0176699
0.3337 0.0726329 0.0214847
0.580255 0.111421 0.0737469
0.858503 0.192279 0.170077
1 0.317372 0.306508
1 0.317601 0.30663
1 0.317891 0.306737
0.0420691 0.241108 0.0344396
0.0445258 0.257679 0.037644
0.0561532 0.26363 0.0401312
0.287968 0.274601 0.0605783
0.547539 0.296254 0.0764324
0.809018 0.333074 0.141512
1 0.416907 0.305684
1 0.415213 0.305745
1 0.414054 0.305898
0.0926986 0.434592 0.0816358
0.0996567 0.458366 0.0878614
0.103777 0.464591 0.089662
0.242878 0.46009 0.116762
0.568414 0.538964 0.163272
0.844053 0.588754 0.206424
0.996811 0.566598 0.292485
1 0.565057 0.317937
1 0.563088 0.317937
0.163943 0.657008 0.135363
0.170932 0.678614 0.140658
0.170245 0.67718 0.140475
0.270008 0.661494 0.153079
0.48246 0.672465 0.210758
0.844862 0.794171 0.292638
1 0.825101 0.427375
1 0.810147 0.459022
1 0.807385 0.457542
0.263691 0.879255 0.209552
0.273182 0.894759 0.218021
0.269184 0.889296 0.214817
0.332586 0.870054 0.213779
0.500252 0.856779 0.24593
0.718853 0.876417 0.333639
1 1 0.535195
1 1 0.604685
1 1 0.604364
0.38613 0.998917 0.320043
0.385824 0.998993 0.32015
0.385992 0.999176 0.320729
0.428962 0.999344 0.330175
0.563149 0.998047 0.360265
0.728832 0.996765 0.395804
0.95964 1 0.544182
1 1 0.680552
1 1 0.680751
0.386419 0.998795 0.320333
0.386114 0.998871 0.320455
0.386404 0.999084 0.321126
0.433249 0.99913 0.331243
0.568673 0.998383 0.362905
0.736996 1 0.401663
0.968048 1 0.555062
1 1 0.681834
1 1 0.681971
0.0210422 0.0034638 0.081651
0.016083 0.00112917 0.121645
0.128435 0.00282292 0.0903792
0.334707 0.0163577 0.0643015
0.555825 0.0653697 0.0804456
0.802594 0.143145 0.147158
1 0.294133 0.29192
1 0.307927 0.305623
1 0.308034 0.305745
0.0357366 0 0.099321
0.0194247 0.0018616 0.100587
0.127764 0.00257877 0.0912337
0.349264 0.0187381 0.070573
0.586099 0.0731212 0.101701
0.854414 0.168276 0.17937
1 0.307897 0.309636
1 0.307988 0.309331
1 0.308125 0.310155
0.0176089 0.0851301 0.0667277
0.0173037 0.0989242 0.0777142
0.094255 0.0837415 0.0679332
0.340429 0.0718547 0.0533455
0.587411 0.112428 0.0988632
0.865995 0.195956 0.186038
1 0.31809 0.312657
1 0.318303 0.3131
1 0.318563 0.313283
0.0411688 0.242313 0.0373083
0.0425269 0.260594 0.0450752
0.0514076 0.268055 0.0465858
0.289708 0.276982 0.0651865
0.552728 0.29633 0.0818189
0.815518 0.335073 0.14786
1 0.416678 0.305837
1 0.414511 0.305516
1 0.413321 0.306844
0.0934462 0.437034 0.0817884
0.100237 0.461082 0.0889448
0.104128 0.467536 0.0905165
0.240482 0.462211 0.11603
0.568902 0.539361 0.162768
0.845029 0.587091 0.205722
0.996612 0.564721 0.292683
1 0.56289 0.317052
1 0.560952 0.31693
0.164279 0.657923 0.135134
0.171054 0.679072 0.140307
0.170153 0.677226 0.140017
0.266148 0.661433 0.151476
0.478355 0.671031 0.208698
0.843168 0.792401 0.291005
1 0.822171 0.42443
1 0.806134 0.456077
1 0.803693 0.454688
0.263111 0.878126 0.208698
0.272068 0.893553 0.216541
0.268467 0.888289 0.213794
0.328313 0.868955 0.212375
0.495735 0.855482 0.244297
0.714 0.873777 0.329839
1 1 0.530938
1 1 0.602472
1 1 0.60209
0.386114 0.998932 0.319615
0.385824 0.999008 0.319738
0.38584 0.999161 0.32015
0.426062 0.999344 0.329015
0.557382 0.997314 0.356085
0.723507 0.996384 0.39266
0.952987 1 0.538888
1 1 0.679866
1 1 0.680034
0.386343 0.99881 0.31986
0.386023 0.998871 0.319951
0.386145 0.999069 0.32047
0.430747 0.999191 0.330251
0.56466 0.998383 0.361349
0.732265 1 0.398901
0.961486 1 0.549493
1 1 0.681422
1 1 0.681559
0.0270542 0.00947585 0.246189
0.0203861 0.00657664 0.298665
0.0211643 0.0061799 0.2916
0.276524 0.0445106 0.248737
0.537224 0.0575418 0.26157
0.790814 0.135439 0.293599
0.998245 0.294224 0.371893
1 0.314397 0.3785
1 0.314092 0.374624
0.0486763 0.00144961 0.262547
0.025864 0.00828565 0.271748
0.0214084 0.00610361 0.301656
0.29305 0.0509804 0.268376
0.575235 0.0667735 0.300298
0.849439 0.168231 0.350637
1 0.317647 0.422705
1 0.318746 0.421836
1 0.31899 0.422538
0.0315404 0.0540932 0.26453
0.0350195 0.065919 0.272541
0.0207675 0.0705119 0.280247
0.292134 0.0903334 0.274235
0.582406 0.103288 0.307683
0.864759 0.195209 0.364569
1 0.328038 0.434516
1 0.328756 0.434501
1 0.329 0.434974
0.0166629 0.259678 0.244038
0.0149844 0.280781 0.265797
0.013901 0.289479 0.274617
0.216266 0.260929 0.256382
0.53875 0.271153 0.254185
0.815015 0.328527 0.312093
1 0.415808 0.404501
1 0.414954 0.403891
1 0.413809 0.403037
0.0135958 0.45481 0.248157
0.014374 0.481209 0.270695
0.0147402 0.487724 0.272923
0.184375 0.461601 0.241367
0.53109 0.509865 0.267918
0.803616 0.538705 0.29604
0.982406 0.546685 0.355184
1 0.551324 0.376547
1 0.549798 0.377493
0.0925154 0.665064 0.273091
0.0916915 0.687526 0.290227
0.099321 0.683803 0.282918
0.223606 0.656474 0.255756
0.459403 0.668544 0.280171
0.83328 0.786908 0.37406
1 0.804883 0.459724
1 0.782284 0.476783
1 0.779293 0.476112
0.240879 0.873091 0.301564
0.248646 0.888777 0.315358
0.246464 0.882918 0.306249
0.308675 0.864057 0.288182
0.479545 0.851789 0.299001
0.697078 0.865446 0.359823
1 1 0.552224
1 1 0.621363
1 1 0.623285
0.380636 0.998734 0.373495
0.380285 0.998901 0.378424
0.381109 0.998993 0.371893
0.418845 0.999329 0.368856
0.547585 0.996307 0.381201
0.713375 0.995911 0.410895
0.939345 1 0.540841
1 1 0.689235
1 1 0.690379
0.380621 0.998718 0.379278
0.379751 0.998825 0.383688
0.380636 0.998962 0.37792
0.42385 0.999191 0.376165
0.557641 0.998154 0.395102
0.723568 0.999359 0.424186
0.947372 1 0.554604
1 1 0.693187
1 1 0.695216
0.0340734 0.016556 0.448646
0.0235752 0.0144503 0.505241
0.0252842 0.0125429 0.50605
0.091249 0.0236667 0.468803
0.484276 0.122652 0.485985
0.75935 0.167193 0.516304
0.987625 0.300771 0.552361
1 0.34168 0.557687
1 0.340627 0.552361
0.0563821 0.00901808 0.46067
0.0329442 0.0158846 0.47422
0.0263981 0.0128939 0.517861
0.129885 0.0335851 0.490105
0.527794 0.137163 0.532418
0.813947 0.208942 0.572168
1 0.346746 0.61355
1 0.354025 0.613031
1 0.353994 0.612482
0.0534676 0.0519417 0.457893
0.0467994 0.0713207 0.469108
0.0263676 0.0791333 0.48249
0.10341 0.0651255 0.4981
0.541192 0.154345 0.547143
0.830762 0.225589 0.588251
1 0.360876 0.627405
1 0.36228 0.624933
1 0.361746 0.623621
0.0229801 0.267018 0.458106
0.0243381 0.29131 0.483009
0.0273136 0.29958 0.489006
0.0410925 0.287404 0.485252
0.504646 0.303166 0.517861
0.794186 0.331014 0.541604
1 0.424598 0.587945
1 0.430838 0.58613
1 0.429725 0.582391
0.0137026 0.487739 0.476371
0.0137484 0.514672 0.50277
0.0132753 0.520394 0.508385
0.0124056 0.510643 0.498299
0.430777 0.492638 0.495521
0.76141 0.491051 0.480217
0.977234 0.545251 0.534157
1 0.558145 0.547631
1 0.557321 0.546853
0.0194247 0.71252 0.507073
0.0193332 0.732738 0.527031
0.0186923 0.729625 0.521737
0.0176852 0.712505 0.503105
0.384115 0.693339 0.475654
0.768688 0.742504 0.518944
0.984283 0.727413 0.539757
1 0.717021 0.549905
1 0.715724 0.550729
0.0515755 0.900725 0.529976
0.056611 0.915343 0.542748
0.0559091 0.909285 0.533562
0.157397 0.88394 0.500938
0.432593 0.862455 0.479438
0.66566 0.868391 0.506401
1 0.991424 0.663447
1 0.997513 0.712398
0.999191 0.996139 0.714427
0.341802 1 0.537713
0.339513 1 0.544045
0.343206 1 0.534997
0.391608 1 0.522011
0.53106 0.99762 0.51873
0.696605 0.996262 0.532128
0.903243 1 0.599893
1 1 0.751461
0.99942 1 0.753719
0.342962 1 0.542062
0.341253 1 0.547539
0.344381 1 0.539025
0.398581 1 0.528634
0.543969 0.998932 0.531273
0.70779 0.998489 0.546929
0.911376 1 0.614908
1 1 0.753628
1 1 0.756283
0.0391699 0.0519722 0.665492
0.0239414 0.0521859 0.719142
0.0269169 0.0448615 0.730571
0.0259098 0.0353704 0.699245
0.401694 0.116869 0.690455
0.710887 0.209384 0.71371
0.951553 0.354971 0.733883
1 0.407935 0.739361
1 0.404837 0.733822
0.059144 0.044358 0.673228
0.04094 0.0541848 0.69012
0.0315557 0.0518349 0.737881
0.0273747 0.0450141 0.730053
0.452628 0.137682 0.743374
0.770764 0.248859 0.772122
0.99086 0.427344 0.795544
1 0.443473 0.795941
1 0.442939 0.795361
0.0667124 0.0634623 0.668299
0.0517433 0.0939193 0.687236
0.0299992 0.104112 0.70399
0.0252537 0.0770428 0.735897
0.467445 0.151171 0.758556
0.788647 0.268727 0.789487
1 0.450858 0.810956
1 0.452094 0.80763
1 0.449882 0.804974
0.0389715 0.282216 0.673136
0.0407874 0.310369 0.696666
0.0348516 0.322087 0.702632
0.015259 0.316823 0.701686
0.401236 0.303044 0.73492
0.748959 0.369955 0.756786
0.980591 0.482521 0.776883
1 0.494942 0.77348
1 0.491707 0.768246
0.0215457 0.521035 0.693721
0.0235142 0.547082 0.721401
0.0262303 0.550561 0.725155
0.0292821 0.536294 0.708476
0.230686 0.508461 0.717556
0.704906 0.524819 0.723873
0.956924 0.564645 0.727993
0.999084 0.587076 0.731151
0.998703 0.586053 0.728115
0.0200656 0.733333 0.720775
0.0199283 0.751125 0.738628
0.0192721 0.747967 0.735592
0.0183108 0.733043 0.720562
0.043534 0.733242 0.716854
0.641108 0.694347 0.717525
0.939788 0.698634 0.691905
0.998138 0.712245 0.704021
0.997742 0.712398 0.704158
0.0251774 0.93518 0.736797
0.0249332 0.948119 0.750805
0.0326543 0.940734 0.741436
0.02327 0.92607 0.723156
0.231312 0.9028 0.689204
0.603403 0.888167 0.68368
0.960128 0.925566 0.745541
0.99939 0.913527 0.763684
0.999023 0.910903 0.76437
0.356298 1 0.715969
0.358892 1 0.72285
0.355383 1 0.714229
0.345678 1 0.699351
0.479988 1 0.688807
0.670649 0.997635 0.687526
0.863752 0.993332 0.707927
1 1 0.82237
0.999268 1 0.825223
0.357733 1 0.719707
0.359991 1 0.725185
0.356359 1 0.716716
0.353918 1 0.703822
0.49633 1 0.697047
0.683833 0.998749 0.699229
0.874296 0.998627 0.72195
1 0.999512 0.822736
1 1 0.825071
0.179171 0.182635 0.864408
0.171069 0.184451 0.912993
0.168338 0.175937 0.942107
0.144671 0.153857 0.917784
0.161822 0.141451 0.887816
0.64271 0.244755 0.900832
0.913771 0.411002 0.904494
1 0.506157 0.901289
0.999207 0.503517 0.897063
0.2009 0.183551 0.875929
0.191058 0.193835 0.893477
0.17673 0.186847 0.935409
0.169787 0.176394 0.94609
0.248219 0.181888 0.935912
0.709224 0.312032 0.955749
0.964813 0.494957 0.952728
0.999298 0.539025 0.949981
0.998962 0.538491 0.949508
0.192142 0.171389 0.875624
0.189212 0.193088 0.887404
0.179904 0.206012 0.903258
0.173709 0.19646 0.94818
0.23299 0.196796 0.945861
0.727016 0.332189 0.968322
0.979339 0.517464 0.962768
0.999237 0.544945 0.959411
0.999008 0.542855 0.957092
0.0656901 0.317723 0.87776
0.0835737 0.345495 0.89308
0.0834974 0.357763 0.897231
0.0651865 0.353918 0.899855
0.149538 0.335042 0.929824
0.683925 0.404257 0.942123
0.948241 0.525292 0.937667
0.999481 0.567452 0.929717
0.999161 0.56466 0.924712
0.0381628 0.543603 0.892699
0.0422827 0.568017 0.911986
0.0449378 0.570214 0.90901
0.03888 0.557839 0.892851
0.0188754 0.545998 0.887938
0.624308 0.535271 0.918135
0.909316 0.602762 0.906188
0.998642 0.637568 0.896574
0.998291 0.636255 0.892317
0.0260929 0.747662 0.911955
0.0271458 0.763653 0.927489
0.0284123 0.759762 0.924804
0.0306554 0.743755 0.909941
0.0344854 0.728481 0.893538
0.536263 0.707195 0.907759
0.884031 0.729458 0.889387
0.997848 0.745007 0.873991
0.997482 0.744945 0.870985
0.135515 0.919341 0.907744
0.194629 0.926635 0.914504
0.169879 0.922667 0.910704
0.11606 0.913405 0.90161
0.0725261 0.905577 0.894041
0.495537 0.897734 0.88069
0.841672 0.868437 0.87422
0.998611 0.857557 0.851545
0.99823 0.858763 0.852735
0.430793 1 0.8822
0.438972 1 0.888594
0.429908 1 0.881529
0.408743 1 0.869917
0.395621 1 0.859525
0.627543 0.999222 0.849958
0.830137 0.995773 0.845319
1 1 0.886839
0.999191 1 0.889937
0.433875 1 0.88539
0.440757 1 0.890837
0.431907 1 0.883619
0.421881 1 0.872679
0.429068 1 0.862913
0.649317 0.999329 0.857023
0.84715 0.99884 0.855039
1 0.999435 0.889189
1 1 0.891279
0.204883 0.207141 0.876112
0.192889 0.2065 0.919707
0.195239 0.203098 0.965042
0.196902 0.202762 0.973754
0.197772 0.203449 0.974716
0.586664 0.288975 0.98999
0.876493 0.443793 0.990646
0.995865 0.562188 0.987869
0.995499 0.56228 0.988144
0.22005 0.201785 0.879271
0.203433 0.205707 0.890333
0.194232 0.205982 0.937438
0.197223 0.202838 0.972442
0.224857 0.207828 0.974914
0.686641 0.332906 0.991577
0.950103 0.507073 0.989456
0.996353 0.56199 0.988357
0.995987 0.562081 0.988632
0.227481 0.197726 0.891875
0.211124 0.209079 0.891249
0.195544 0.217227 0.902449
0.188678 0.210849 0.950027
0.221698 0.212055 0.970413
0.710765 0.344411 0.989593
0.96849 0.523644 0.98677
0.997208 0.561395 0.986114
0.996872 0.560937 0.986343
0.190692 0.338918 0.921721
0.174853 0.361593 0.917006
0.162402 0.371969 0.916991
0.151232 0.368902 0.925429
0.162142 0.357214 0.970092
0.652781 0.418982 0.986267
0.924392 0.535424 0.985611
0.996674 0.59733 0.983688
0.996323 0.597101 0.983948
0.12488 0.553262 0.964508
0.127184 0.57438 0.957061
0.128374 0.576349 0.949493
0.120882 0.565972 0.945556
0.103838 0.555428 0.951736
0.569955 0.546273 0.99025
0.875349 0.61857 0.98584
0.995651 0.668742 0.981933
0.9953 0.668498 0.982223
0.140658 0.748058 0.991791
0.160189 0.759548 0.988525
0.153597 0.755718 0.98439
0.151461 0.742931 0.977127
0.135561 0.73286 0.970062
0.499763 0.724407 0.968627
0.842405 0.73727 0.988296
0.995453 0.766888 0.982361
0.995087 0.767163 0.982605
0.377646 0.900984 0.99411
0.393637 0.910094 0.993591
0.385138 0.904402 0.993469
0.367849 0.892668 0.993637
0.352651 0.882551 0.991806
0.49958 0.875608 0.983459
0.796246 0.866392 0.983444
0.993942 0.873365 0.985245
0.996185 0.874662 0.985229
0.567056 0.998764 0.992279
0.566766 0.99884 0.992355
0.56614 0.999008 0.991943
0.560479 0.99765 0.991592
0.562799 0.997482 0.994034
0.617655 0.995178 0.98912
0.808255 0.991531 0.983566
0.987564 0.977356 0.971939
0.999084 0.976333 0.969085
0.566842 0.998688 0.992142
0.566964 0.998749 0.992554
0.567285 0.998932 0.992813
0.569863 1 0.993774
0.566705 1 0.991257
0.640162 0.999023 0.986984
0.830228 0.998291 0.984024
0.983856 0.996887 0.97351
0.999481 0.997726 0.9729
0.206043 0.208255 0.861555
0.193072 0.207996 0.903105
0.193759 0.204425 0.95491
0.196765 0.202945 0.972244
0.197559 0.203555 0.973602
0.578012 0.285634 0.988891
0.872541 0.440909 0.989822
0.995743 0.56231 0.98706
0.995377 0.562387 0.987381
0.221408 0.203113 0.863523
0.204746 0.206989 0.875959
0.194141 0.207675 0.920928
0.196078 0.203922 0.965805
0.218158 0.207248 0.973449
0.683574 0.331624 0.990539
0.948852 0.505989 0.988586
0.996231 0.562112 0.987533
0.995865 0.562188 0.987869
0.229984 0.197024 0.874617
0.212451 0.210254 0.875288
0.196704 0.218601 0.887999
0.1879 0.213214 0.934203
0.223667 0.213367 0.967926
0.70753 0.343191 0.988403
0.966552 0.521401 0.985855
0.997101 0.561364 0.985214
0.99675 0.561303 0.98555
0.195941 0.340124 0.902113
0.177249 0.363561 0.899351
0.163622 0.37406 0.901076
0.152056 0.371237 0.911192
0.159518 0.360327 0.957015
0.647593 0.41857 0.984878
0.919921 0.53344 0.984726
0.996551 0.59791 0.982834
0.996185 0.597559 0.983185
0.138079 0.552331 0.944045
0.136553 0.573922 0.936233
0.133196 0.576608 0.930648
0.122698 0.566751 0.929198
0.105211 0.556695 0.937484
0.565133 0.547692 0.982147
0.871092 0.618601 0.984863
0.995529 0.669612 0.981094
0.995163 0.669245 0.981476
0.152941 0.745449 0.978653
0.172259 0.756771 0.972015
0.165698 0.75317 0.964477
0.159701 0.741894 0.956649
0.137804 0.733593 0.95285
0.502358 0.72604 0.954559
0.838895 0.738445 0.986511
0.995361 0.768429 0.981491
0.994965 0.768307 0.981918
0.385565 0.899474 0.988952
0.401679 0.90782 0.987015
0.394675 0.90193 0.984573
0.379095 0.890013 0.98088
0.364218 0.880308 0.973678
0.514672 0.87599 0.964508
0.79942 0.868513 0.969497
0.992599 0.875334 0.984421
0.996094 0.875837 0.984588
0.569116 0.998276 0.991089
0.569177 0.99826 0.990951
0.569543 0.99823 0.990829
0.567102 0.996796 0.991455
0.568673 0.99678 0.990768
0.630198 0.993545 0.987823
0.824079 0.9888 0.980835
0.98497 0.978042 0.974304
0.998978 0.977035 0.984512
0.567346 0.998688 0.992203
0.567056 0.998764 0.992279
0.567391 0.998978 0.992493
0.569894 1 0.993454
0.570077 1 0.993713
0.644434 0.998947 0.99295
0.833509 0.998138 0.992309
0.98088 0.996643 0.986954
1 0.996124 0.983154
