LUT预设1/LUT全系打包/电影感系列lut/电影感各机型log灰片/cold低饱和冷.cube
TITLE "Generated by Resolve"
LUT_3D_SIZE 5
0.0147555 0.0211948 0.0270237
0.0745861 0.0265354 0.033463
0.645884 0.117723 0.0732128
0.937942 0.16907 0.0950332
0.937942 0.16907 0.0950332
0.0188449 0.0343938 0.0315557
0.0196536 0.0265202 0.0291295
0.585138 0.106157 0.0680858
0.937942 0.16907 0.0950332
0.937942 0.16907 0.0950332
0.171557 0.349676 0.218601
0.183429 0.371313 0.232441
0.335821 0.354513 0.18439
0.912718 0.380804 0.145388
0.946487 0.354177 0.140352
0.399115 0.745113 0.46836
0.4065 0.758343 0.476555
0.438392 0.699641 0.440955
0.712276 0.721981 0.357733
0.962417 0.690791 0.299031
0.455055 0.854124 0.529458
0.455055 0.854124 0.529458
0.461997 0.854627 0.529976
0.698848 0.89279 0.561456
0.9514 0.952209 0.516548
0.0168307 0.0247349 0.0949874
0.0605173 0.0278782 0.0822614
0.630838 0.114763 0.0719158
0.937942 0.16907 0.0950332
0.937942 0.16907 0.0950332
0.0170291 0.0302739 0.0371099
0.0184329 0.0253758 0.0317693
0.58674 0.106462 0.0682231
0.937942 0.16907 0.0950332
0.937942 0.16907 0.0950332
0.175372 0.356664 0.223072
0.18735 0.37821 0.236789
0.344411 0.362188 0.188052
0.915953 0.385275 0.146822
0.9467 0.357946 0.141711
0.401801 0.749905 0.471336
0.408835 0.762509 0.479149
0.442298 0.703593 0.443442
0.716579 0.726101 0.359716
0.962142 0.69485 0.301472
0.455055 0.854124 0.529458
0.455055 0.854124 0.529458
0.463508 0.854734 0.530083
0.700862 0.893339 0.561608
0.9514 0.952209 0.516548
0.06009 0.0835889 0.51754
0.0805829 0.0798199 0.491493
0.526864 0.130129 0.50367
0.923537 0.179232 0.463386
0.927062 0.175479 0.413153
0.0502632 0.0700389 0.432746
0.0499123 0.0695811 0.429816
0.504387 0.124666 0.484245
0.921645 0.181079 0.486748
0.923232 0.179568 0.467521
0.134508 0.356069 0.372824
0.144564 0.379599 0.396155
0.321508 0.338445 0.354589
0.879973 0.373709 0.331029
0.942351 0.338399 0.280232
0.388586 0.731762 0.52961
0.395087 0.743999 0.541436
0.423575 0.681453 0.483909
0.689906 0.700206 0.39324
0.96376 0.670298 0.309834
0.45565 0.855222 0.548394
0.455772 0.855512 0.552682
0.455055 0.854124 0.529458
0.688746 0.890043 0.560693
0.9514 0.952209 0.516548
0.0724041 0.0992905 0.657267
0.0790875 0.0995956 0.658793
0.485893 0.148363 0.768627
0.873686 0.216175 0.814923
0.873686 0.216175 0.814923
0.0724041 0.0992905 0.657267
0.0724041 0.0992905 0.657267
0.481483 0.147692 0.768292
0.873686 0.216175 0.814923
0.873686 0.216175 0.814923
0.136522 0.370901 0.728969
0.143603 0.39263 0.74464
0.298665 0.362676 0.699199
0.808804 0.385306 0.763897
0.912016 0.347051 0.760266
0.320089 0.747127 0.758007
0.32607 0.759625 0.770031
0.351278 0.693553 0.706844
0.66952 0.678584 0.686213
0.957504 0.64892 0.634592
0.438331 0.877394 0.74966
0.436912 0.878264 0.755062
0.443549 0.873793 0.726146
0.694224 0.893187 0.733394
0.95404 0.954742 0.697002
0.0724041 0.0992905 0.657267
0.0724041 0.0992905 0.657267
0.459449 0.144366 0.766476
0.873686 0.216175 0.814923
0.873686 0.216175 0.814923
0.0724041 0.0992905 0.657267
0.0724041 0.0992905 0.657267
0.472633 0.146334 0.767636
0.873686 0.216175 0.814923
0.873686 0.216175 0.814923
0.133898 0.362264 0.734035
0.140719 0.383658 0.741512
0.299153 0.333227 0.745815
0.803326 0.370245 0.824796
0.887251 0.349218 0.832807
0.296895 0.744518 0.854688
0.303685 0.756313 0.858549
0.317296 0.694133 0.840665
0.64419 0.666041 0.882521
0.929229 0.645609 0.893965
0.412406 0.901427 0.907332
0.412406 0.901427 0.907332
0.412406 0.901427 0.907332
0.649927 0.916335 0.92079
0.95906 0.958846 0.95935
