LUT预设1/LUT全系打包/电影感系列lut/电影感各机型log灰片/cold低饱和冷.cube
TITLE "Generated by Resolve"
LUT_3D_SIZE 33
0.0147555 0.0211948 0.0270237
0.0147555 0.0211948 0.0270237
0.0147555 0.0211948 0.0270237
0.0147555 0.0211948 0.0270237
0.0147555 0.0211948 0.0270237
0.0147555 0.0211948 0.0270237
0.0209201 0.0217441 0.0277409
0.0391089 0.0234836 0.0306401
0.0745861 0.0265354 0.033463
0.12256 0.0320134 0.0361334
0.182666 0.0405432 0.0405585
0.256779 0.0522011 0.0464179
0.339635 0.0650492 0.0525063
0.41973 0.0775769 0.0571603
0.497108 0.090425 0.0616617
0.572396 0.103807 0.0670329
0.645884 0.117723 0.0732128
0.715938 0.131563 0.0795453
0.781888 0.145464 0.085832
0.841306 0.159457 0.0915847
0.884779 0.166903 0.0944228
0.916197 0.168124 0.0948043
0.937942 0.16907 0.0950332
0.937942 0.16907 0.0950332
0.937942 0.16907 0.0950332
0.937942 0.16907 0.0950332
0.937942 0.16907 0.0950332
0.937942 0.16907 0.0950332
0.937942 0.16907 0.0950332
0.937942 0.16907 0.0950332
0.937942 0.16907 0.0950332
0.937942 0.16907 0.0950332
0.937942 0.16907 0.0950332
0.0147555 0.0211948 0.0270237
0.0147555 0.0211948 0.0270237
0.0147555 0.0211948 0.0270237
0.0147555 0.0211948 0.0270237
0.0147555 0.0211948 0.0270237
0.0147555 0.0211948 0.0270237
0.0174716 0.0214389 0.0273442
0.0349889 0.0230716 0.0299687
0.0681468 0.0260014 0.0331273
0.114656 0.0310369 0.0356909
0.173434 0.0391394 0.039765
0.246006 0.0505074 0.0455482
0.328893 0.0634012 0.0517739
0.410132 0.0760662 0.0566262
0.487999 0.0888685 0.0610666
0.563226 0.102098 0.0662852
0.636835 0.115938 0.0724193
0.707485 0.129854 0.0787976
0.77435 0.143832 0.0851301
0.835004 0.157916 0.0909895
0.8813 0.166735 0.0943465
0.913008 0.167987 0.0947585
0.937942 0.16907 0.0950332
0.937942 0.16907 0.0950332
0.937942 0.16907 0.0950332
0.937942 0.16907 0.0950332
0.937942 0.16907 0.0950332
0.937942 0.16907 0.0950332
0.937942 0.16907 0.0950332
0.937942 0.16907 0.0950332
0.937942 0.16907 0.0950332
0.937942 0.16907 0.0950332
0.937942 0.16907 0.0950332
0.0147555 0.0211948 0.0270237
0.0147555 0.0211948 0.0270237
0.0147555 0.0211948 0.0270237
0.0147555 0.0211948 0.0270237
0.0147555 0.0211948 0.0270237
0.0147555 0.0211948 0.0270237
0.0147555 0.0211948 0.0270237
0.0301823 0.0226139 0.0291142
0.0602579 0.02533 0.0327153
0.10663 0.030045 0.0352331
0.165835 0.0379797 0.0391241
0.237293 0.049134 0.0448615
0.32079 0.06215 0.0512245
0.402716 0.0749065 0.0562142
0.481071 0.0876936 0.0606546
0.556985 0.100938 0.0657664
0.630976 0.114794 0.0719158
0.70193 0.12874 0.0783093
0.769833 0.142855 0.0847181
0.831327 0.157015 0.0906386
0.879759 0.166659 0.094316
0.911894 0.167941 0.094728
0.937942 0.16907 0.0950332
0.937942 0.16907 0.0950332
0.937942 0.16907 0.0950332
0.937942 0.16907 0.0950332
0.937942 0.16907 0.0950332
0.937942 0.16907 0.0950332
0.937942 0.16907 0.0950332
0.937942 0.16907 0.0950332
0.937942 0.16907 0.0950332
0.937942 0.16907 0.0950332
0.937942 0.16907 0.0950332
0.0147555 0.0211948 0.0270237
0.0147555 0.0211948 0.0270237
0.0147555 0.0211948 0.0270237
0.0147555 0.0211948 0.0270237
0.0147555 0.0211948 0.0270237
0.0147555 0.0211948 0.0270237
0.0147555 0.0211948 0.0270237
0.0257877 0.0221714 0.0283513
0.0535134 0.0247501 0.0321508
0.0984817 0.029099 0.0347753
0.156512 0.0366369 0.0384222
0.228809 0.0477913 0.0441901
0.314611 0.0611887 0.0508125
0.397345 0.0740826 0.0559243
0.476387 0.0869154 0.0603799
0.553002 0.100221 0.0654459
0.628046 0.114214 0.0716716
0.699947 0.128328 0.0781262
0.768338 0.142519 0.0845655
0.830747 0.156863 0.0905928
0.880018 0.166674 0.094316
0.912886 0.167971 0.0947585
0.937942 0.16907 0.0950332
0.937942 0.16907 0.0950332
0.937942 0.16907 0.0950332
0.937942 0.16907 0.0950332
0.937942 0.16907 0.0950332
0.937942 0.16907 0.0950332
0.937942 0.16907 0.0950332
0.937942 0.16907 0.0950332
0.937942 0.16907 0.0950332
0.937942 0.16907 0.0950332
0.937942 0.16907 0.0950332
0.0147555 0.0211948 0.0270237
0.0147555 0.0211948 0.0270237
0.0147555 0.0211948 0.0270237
0.0147555 0.0211948 0.0270237
0.0147555 0.0211948 0.0270237
0.0147555 0.0211948 0.0270237
0.0147555 0.0211948 0.0270237
0.0221408 0.0218509 0.0278935
0.0472572 0.0242008 0.0314946
0.0906386 0.0281834 0.0343328
0.147295 0.0353246 0.0377508
0.218479 0.0461585 0.0434119
0.304265 0.0595865 0.0500801
0.390616 0.0730297 0.0555428
0.472648 0.0862745 0.0601511
0.551019 0.099855 0.0653086
0.626856 0.11397 0.0715648
0.700206 0.128389 0.0781567
0.770092 0.142901 0.0847334
0.833509 0.157549 0.0908522
0.881956 0.166766 0.0943618
0.915389 0.168093 0.094789
0.937942 0.16907 0.0950332
0.937942 0.16907 0.0950332
0.937942 0.16907 0.0950332
0.937942 0.16907 0.0950332
0.937942 0.16907 0.0950332
0.937942 0.16907 0.0950332
0.937942 0.16907 0.0950332
0.937942 0.16907 0.0950332
0.937942 0.16907 0.0950332
0.937942 0.16907 0.0950332
0.937942 0.16907 0.0950332
0.0147555 0.0211948 0.0270237
0.0147555 0.0211948 0.0270237
0.0147555 0.0211948 0.0270237
0.0147555 0.0211948 0.0270237
0.0147555 0.0211948 0.0270237
0.0147555 0.0211948 0.0270237
0.0147555 0.0211948 0.0270237
0.0181277 0.0215 0.0274205
0.0403143 0.0235904 0.0307622
0.0819104 0.0271763 0.0338445
0.137591 0.0339361 0.0370336
0.207721 0.0444495 0.0425879
0.293355 0.057908 0.0492409
0.381674 0.0716411 0.0550393
0.465431 0.085069 0.0597391
0.545983 0.09897 0.0649577
0.62446 0.113512 0.0713512
0.700084 0.128359 0.0781415
0.771969 0.143313 0.0849165
0.8374 0.158495 0.0912184
0.884855 0.166903 0.0944228
0.918441 0.168215 0.0948501
0.937942 0.16907 0.0950332
0.937942 0.16907 0.0950332
0.937942 0.16907 0.0950332
0.937942 0.16907 0.0950332
0.937942 0.16907 0.0950332
0.937942 0.16907 0.0950332
0.937942 0.16907 0.0950332
0.937942 0.16907 0.0950332
0.937942 0.16907 0.0950332
0.937942 0.16907 0.0950332
0.937942 0.16907 0.0950332
0.0147555 0.0211948 0.0270237
0.0147555 0.0211948 0.0270237
0.0147555 0.0211948 0.0270237
0.0147555 0.0211948 0.0270237
0.0147555 0.0211948 0.0270237
0.0147555 0.0211948 0.0270237
0.0147555 0.0211948 0.0270237
0.0147555 0.0211948 0.0270237
0.0338445 0.0229648 0.0297704
0.0720531 0.0263218 0.0333257
0.126467 0.0325017 0.036347
0.195575 0.0425116 0.0416571
0.281407 0.0560464 0.0483253
0.371328 0.0700084 0.0544289
0.456336 0.0835431 0.059205
0.537926 0.0975357 0.0643931
0.617563 0.1122 0.0707713
0.694133 0.127169 0.0776074
0.767208 0.142275 0.0844587
0.833387 0.157519 0.090837
0.883299 0.166827 0.0943923
0.917754 0.168185 0.0948348
0.937942 0.16907 0.0950332
0.937942 0.16907 0.0950332
0.937942 0.16907 0.0950332
0.937942 0.16907 0.0950332
0.937942 0.16907 0.0950332
0.937942 0.16907 0.0950332
0.937942 0.16907 0.0950332
0.937942 0.16907 0.0950332
0.937942 0.16907 0.0950332
0.937942 0.16907 0.0950332
0.937942 0.16907 0.0950332
0.0147555 0.0211948 0.0270237
0.0147555 0.0211948 0.0270237
0.0147555 0.0211948 0.0270237
0.0147555 0.0211948 0.0270237
0.0147555 0.0211948 0.0270237
0.0147555 0.0211948 0.0270237
0.0147555 0.0211948 0.0270237
0.0147555 0.0211948 0.0270237
0.0260929 0.0222019 0.028397
0.0590829 0.0252384 0.0326543
0.11162 0.0306554 0.0355077
0.179248 0.0400244 0.0402686
0.263416 0.0532387 0.0469368
0.355306 0.0675059 0.0534829
0.441703 0.0811322 0.058381
0.524315 0.0951095 0.063447
0.604593 0.109789 0.0697032
0.681849 0.124743 0.0764935
0.755978 0.139849 0.0834211
0.823529 0.155093 0.0899062
0.877897 0.166567 0.0942702
0.912703 0.167971 0.0947433
0.937942 0.16907 0.0950332
0.937942 0.16907 0.0950332
0.937942 0.16907 0.0950332
0.937942 0.16907 0.0950332
0.937942 0.16907 0.0950332
0.937942 0.16907 0.0950332
0.937942 0.16907 0.0950332
0.937942 0.16907 0.0950332
0.937942 0.16907 0.0950332
0.937942 0.16907 0.0950332
0.937942 0.16907 0.0950332
0.0188449 0.0343938 0.0315557
0.0187076 0.0339666 0.0314183
0.0186923 0.0339055 0.0313878
0.0187686 0.0341497 0.0314794
0.0186923 0.0339055 0.0313878
0.0184634 0.0331731 0.0311437
0.0180667 0.0318761 0.0307012
0.0173342 0.0295415 0.0298924
0.0196536 0.0265202 0.0291295
0.0455177 0.0252995 0.031632
0.094316 0.0286107 0.0345464
0.158526 0.0369268 0.0385748
0.2392 0.0494392 0.0450141
0.332128 0.0639048 0.0519875
0.420554 0.0777142 0.0572061
0.504494 0.0916915 0.0621347
0.585138 0.106157 0.0680858
0.66273 0.121019 0.0747082
0.737301 0.135958 0.0815747
0.807263 0.151263 0.088304
0.867414 0.165118 0.0937209
0.904631 0.167636 0.0946212
0.937942 0.16907 0.0950332
0.937942 0.16907 0.0950332
0.937942 0.16907 0.0950332
0.937942 0.16907 0.0950332
0.937942 0.16907 0.0950332
0.937942 0.16907 0.0950332
0.937942 0.16907 0.0950332
0.937942 0.16907 0.0950332
0.937942 0.16907 0.0950332
0.937942 0.16907 0.0950332
0.937942 0.16907 0.0950332
0.0266117 0.0545815 0.0408942
0.0267491 0.0549477 0.0410925
0.026978 0.0555428 0.041413
0.0273594 0.0565042 0.0419318
0.0275578 0.057023 0.0422065
0.0274662 0.0567941 0.0420996
0.0271 0.0558328 0.0415808
0.026215 0.0535744 0.0403906
0.0249332 0.0503243 0.0388342
0.0405585 0.0482338 0.0389105
0.0767681 0.0486915 0.0391852
0.137972 0.0497292 0.0398108
0.214405 0.056199 0.0442664
0.304738 0.0652171 0.05037
0.395621 0.0747845 0.0558328
0.480934 0.0876783 0.0606394
0.561898 0.101854 0.0661631
0.640024 0.116564 0.0727092
0.715023 0.131365 0.079469
0.787274 0.146639 0.0863355
0.852369 0.162051 0.0925765
0.894667 0.167315 0.0945602
0.929046 0.168688 0.0949721
0.937942 0.16907 0.0950332
0.937942 0.16907 0.0950332
0.937942 0.16907 0.0950332
0.937942 0.16907 0.0950332
0.937942 0.16907 0.0950332
0.937942 0.16907 0.0950332
0.937942 0.16907 0.0950332
0.937942 0.16907 0.0950332
0.937942 0.16907 0.0950332
0.937942 0.16907 0.0950332
0.0370947 0.0811475 0.0555123
0.0375525 0.0822309 0.0561532
0.0381323 0.08365 0.0569772
0.038819 0.0853285 0.0579385
0.0394598 0.0869306 0.0588693
0.0395972 0.0872663 0.0590524
0.039292 0.0865034 0.0586252
0.038468 0.0844892 0.0574502
0.0369268 0.0807202 0.0552834
0.0422217 0.0765545 0.0531167
0.0674907 0.0758831 0.0551614
0.115419 0.0785077 0.0480049
0.189044 0.0808576 0.0483253
0.275975 0.0876783 0.0518502
0.366125 0.0956741 0.0556649
0.452277 0.10428 0.0598306
0.534585 0.114076 0.065156
0.613626 0.124926 0.071458
0.689387 0.136416 0.0780499
0.763638 0.148898 0.0847486
0.831617 0.161456 0.0910201
0.883024 0.168109 0.0944991
0.917891 0.1682 0.0948348
0.937942 0.16907 0.0950332
0.937942 0.16907 0.0950332
0.937942 0.16907 0.0950332
0.937942 0.16907 0.0950332
0.937942 0.16907 0.0950332
0.937942 0.16907 0.0950332
0.937942 0.16907 0.0950332
0.937942 0.16907 0.0950332
0.937942 0.16907 0.0950332
0.937942 0.16907 0.0950332
0.0515602 0.115496 0.0758373
0.0522469 0.117082 0.0767834
0.0531472 0.119097 0.0780194
0.0542916 0.121492 0.0794995
0.055436 0.123888 0.0809949
0.056199 0.125475 0.0819867
0.0560464 0.125185 0.0818036
0.054902 0.122789 0.0803082
0.0530098 0.118791 0.077821
0.0508736 0.113909 0.074876
0.0703593 0.110567 0.0743114
0.100801 0.112337 0.0750744
0.161517 0.11516 0.059968
0.244511 0.117205 0.0582132
0.333761 0.122042 0.0599527
0.42118 0.128985 0.0627298
0.504906 0.137789 0.0669413
0.584985 0.148348 0.0724193
0.661234 0.159808 0.0787366
0.735882 0.172091 0.0853285
0.80679 0.184985 0.091783
0.86894 0.196933 0.0972152
0.906172 0.196368 0.0975204
0.938796 0.195285 0.0976272
0.938689 0.192203 0.0972915
0.938567 0.189044 0.0969406
0.93846 0.185962 0.0966049
0.93843 0.184771 0.0964981
0.938384 0.183581 0.0963912
0.938354 0.182528 0.0962844
0.938323 0.181277 0.0961624
0.938277 0.180026 0.0960555
0.938247 0.178775 0.0959335
0.0710613 0.155871 0.100923
0.0721752 0.158083 0.102296
0.0733959 0.160494 0.103807
0.0747692 0.163195 0.105486
0.0762493 0.16611 0.107301
0.0775158 0.168612 0.108858
0.0777295 0.169024 0.109117
0.0767071 0.16701 0.107866
0.0747692 0.163195 0.105486
0.072282 0.158282 0.102434
0.0801099 0.153353 0.0996872
0.107042 0.151156 0.0999619
0.13933 0.153887 0.0961471
0.208164 0.155886 0.0747997
0.300542 0.155612 0.069276
0.388418 0.159777 0.0710155
0.473579 0.167086 0.0745403
0.55404 0.176196 0.078706
0.63093 0.186603 0.0831769
0.706203 0.198398 0.0881208
0.779355 0.211109 0.0936751
0.845808 0.224369 0.0997482
0.893996 0.229999 0.102495
0.928267 0.228153 0.102159
0.940139 0.226032 0.101991
0.939971 0.22269 0.101381
0.939818 0.219516 0.100908
0.939742 0.217716 0.100633
0.939681 0.216495 0.10045
0.93962 0.215061 0.100237
0.939559 0.213611 0.100023
0.939483 0.2121 0.099794
0.939422 0.210742 0.0995956
0.092958 0.198199 0.126329
0.0943465 0.200839 0.127871
0.0959335 0.203891 0.129656
0.0977493 0.20737 0.131701
0.0994583 0.210636 0.133623
0.100938 0.213474 0.135286
0.101823 0.215167 0.136278
0.100893 0.213367 0.135225
0.0989548 0.209689 0.133059
0.0965438 0.205051 0.130343
0.094377 0.19939 0.127031
0.116686 0.194583 0.125063
0.146166 0.192981 0.124788
0.181903 0.197467 0.115862
0.259724 0.199542 0.0911727
0.357351 0.199084 0.08365
0.441672 0.203326 0.0854353
0.522271 0.2103 0.0885481
0.599527 0.219104 0.0923629
0.674952 0.229648 0.0966964
0.750027 0.241886 0.101411
0.819471 0.254261 0.105791
0.879866 0.265476 0.109483
0.91577 0.26363 0.108659
0.941802 0.262303 0.109194
0.941649 0.258793 0.108339
0.941512 0.255467 0.107652
0.941405 0.252842 0.107118
0.941329 0.251225 0.106783
0.941253 0.249607 0.106447
0.941176 0.247822 0.106081
0.9411 0.246052 0.105714
0.941039 0.244511 0.105409
0.117449 0.24538 0.154391
0.119051 0.248478 0.156252
0.12105 0.25243 0.158633
0.123079 0.256443 0.161028
0.125032 0.260349 0.163363
0.126696 0.263676 0.165347
0.127855 0.265965 0.16672
0.127443 0.265171 0.166232
0.125658 0.261616 0.164111
0.123125 0.256565 0.161105
0.120073 0.250492 0.157458
0.131456 0.244312 0.154131
0.157641 0.239948 0.152468
0.188968 0.240497 0.1514
0.228534 0.247044 0.138293
0.313207 0.250004 0.111589
0.410666 0.248219 0.100801
0.491646 0.252094 0.10132
0.568963 0.258473 0.103929
0.644694 0.267399 0.10753
0.719661 0.27718 0.111437
0.791409 0.287861 0.115602
0.855817 0.29839 0.11931
0.902907 0.302068 0.1205
0.936309 0.299916 0.120516
0.943389 0.297414 0.120607
0.943175 0.293462 0.11928
0.942962 0.289769 0.118029
0.942855 0.287755 0.117342
0.942748 0.285725 0.116655
0.942641 0.283635 0.115953
0.942535 0.281788 0.115328
0.942443 0.279698 0.114656
0.143542 0.296818 0.185458
0.145525 0.300694 0.187839
0.147631 0.304784 0.190356
0.149844 0.309117 0.193027
0.152087 0.313329 0.195666
0.15407 0.317067 0.198016
0.155566 0.319875 0.199771
0.155688 0.320119 0.199924
0.153765 0.316487 0.19765
0.15108 0.311452 0.194491
0.147982 0.305486 0.190799
0.150164 0.29868 0.18674
0.173724 0.29305 0.184131
0.202945 0.289876 0.182605
0.236408 0.293019 0.180301
0.282689 0.300877 0.160647
0.364752 0.304265 0.133501
0.459922 0.301686 0.120348
0.540597 0.304524 0.118227
0.615442 0.310109 0.12018
0.689998 0.316869 0.123003
0.763073 0.325063 0.126513
0.82977 0.333669 0.12987
0.8878 0.341451 0.132723
0.924361 0.339284 0.131746
0.945541 0.337423 0.134386
0.945296 0.333074 0.132845
0.945037 0.328618 0.131273
0.944884 0.325856 0.130297
0.944762 0.32369 0.129534
0.94464 0.321279 0.128725
0.944518 0.318868 0.127901
0.944396 0.316457 0.127077
0.171557 0.349676 0.218601
0.173724 0.353643 0.221134
0.176074 0.357946 0.223896
0.178561 0.362493 0.22681
0.180987 0.366918 0.229633
0.183291 0.371084 0.232288
0.184863 0.373846 0.234028
0.185382 0.374762 0.234607
0.183429 0.371313 0.232441
0.180728 0.366461 0.229343
0.177478 0.36051 0.225528
0.173846 0.353872 0.221286
0.192416 0.34699 0.217334
0.21973 0.34197 0.215091
0.251591 0.3411 0.21413
0.287404 0.346365 0.208576
0.335821 0.354513 0.18439
0.414252 0.358099 0.156863
0.505562 0.355856 0.142489
0.588769 0.355978 0.135821
0.662272 0.360021 0.136812
0.735088 0.365332 0.139071
0.804349 0.372091 0.141924
0.866896 0.379385 0.144915
0.912718 0.380804 0.145388
0.944869 0.377997 0.148058
0.947616 0.373526 0.147356
0.947311 0.368597 0.145541
0.947112 0.365103 0.144289
0.94696 0.362448 0.143328
0.946792 0.359686 0.142336
0.946639 0.356832 0.141314
0.946487 0.354177 0.140352
0.200717 0.401633 0.251591
0.203082 0.405676 0.254124
0.205722 0.410163 0.256962
0.208499 0.414893 0.259937
0.211337 0.419745 0.262989
0.213642 0.423651 0.265461
0.215259 0.426429 0.267216
0.215869 0.427466 0.267857
0.214115 0.42446 0.26598
0.211337 0.419745 0.262989
0.207965 0.413977 0.259358
0.203906 0.40705 0.255009
0.214069 0.399741 0.250599
0.238941 0.393469 0.247257
0.268742 0.389883 0.245518
0.302205 0.391928 0.244541
0.339391 0.398383 0.235706
0.388891 0.406119 0.208118
0.462409 0.409445 0.180819
0.550942 0.407065 0.164675
0.636484 0.405234 0.154147
0.710277 0.408179 0.153964
0.779934 0.412421 0.155581
0.844114 0.417288 0.157748
0.900359 0.421927 0.159457
0.934951 0.417304 0.157519
0.950362 0.414847 0.163134
0.950027 0.409583 0.16112
0.949706 0.404715 0.159258
0.949508 0.401694 0.158099
0.949325 0.398764 0.156985
0.949111 0.395636 0.155779
0.948943 0.393088 0.154818
0.230915 0.453223 0.284276
0.233402 0.457465 0.286976
0.235996 0.461936 0.289799
0.238911 0.466972 0.292973
0.241505 0.471443 0.295796
0.243778 0.475334 0.298253
0.245365 0.47808 0.299977
0.245899 0.478996 0.300557
0.244709 0.476936 0.29926
0.241779 0.471901 0.296086
0.238254 0.465827 0.292256
0.234134 0.458732 0.28777
0.236957 0.451026 0.28304
0.259464 0.4439 0.278996
0.287053 0.438682 0.276143
0.318624 0.43769 0.275456
0.35201 0.441444 0.272175
0.389227 0.447684 0.261234
0.4383 0.455222 0.23093
0.509773 0.458015 0.203922
0.597162 0.455573 0.186648
0.682155 0.452903 0.17435
0.757015 0.453635 0.170916
0.822614 0.456764 0.171908
0.882139 0.460624 0.173266
0.925338 0.459403 0.172686
0.95314 0.456703 0.179187
0.952773 0.451118 0.176928
0.952392 0.445335 0.17464
0.952178 0.442115 0.173419
0.951965 0.439002 0.172259
0.951766 0.435981 0.171115
0.951568 0.433066 0.170031
0.260639 0.504326 0.316533
0.263279 0.508888 0.319402
0.265934 0.513436 0.322286
0.268574 0.517983 0.32517
0.271077 0.522301 0.327916
0.273243 0.52604 0.330297
0.274754 0.528664 0.33196
0.27541 0.529793 0.332692
0.274159 0.527642 0.331319
0.271214 0.52253 0.328054
0.267521 0.516167 0.32401
0.263279 0.508888 0.319402
0.258946 0.500694 0.314244
0.279927 0.493217 0.310018
0.30515 0.486412 0.306249
0.334218 0.482856 0.304356
0.366293 0.483833 0.303471
0.398596 0.488289 0.297749
0.436194 0.494591 0.284596
0.486595 0.501869 0.253162
0.556939 0.504356 0.22678
0.642466 0.501534 0.208179
0.726635 0.498375 0.194583
0.80148 0.497749 0.188342
0.862791 0.50042 0.188632
0.915633 0.502068 0.188785
0.947631 0.49723 0.190143
0.95555 0.493172 0.194125
0.955169 0.487266 0.191669
0.95491 0.483436 0.190082
0.954711 0.480339 0.188785
0.954482 0.476905 0.187366
0.954284 0.473808 0.186069
0.290227 0.555352 0.348928
0.292592 0.559442 0.351522
0.295109 0.56376 0.354253
0.297673 0.5682 0.357046
0.300114 0.572412 0.359716
0.30222 0.576043 0.362005
0.303792 0.578759 0.363729
0.304051 0.579202 0.364019
0.302876 0.577173 0.362722
0.299779 0.571847 0.35935
0.296025 0.565362 0.355261
0.291814 0.558083 0.350652
0.286854 0.549554 0.345266
0.299702 0.540917 0.340093
0.322805 0.533349 0.335836
0.349554 0.527733 0.33257
0.379843 0.526482 0.33196
0.41146 0.529152 0.329839
0.443626 0.534432 0.322652
0.481605 0.540413 0.308186
0.531991 0.547097 0.273991
0.602289 0.549477 0.248524
0.68603 0.546654 0.230182
0.769543 0.543679 0.216175
0.842222 0.541512 0.206744
0.900053 0.542992 0.205646
0.939284 0.539422 0.203098
0.958511 0.536309 0.213275
0.958129 0.530358 0.210468
0.957824 0.525673 0.208286
0.95758 0.522286 0.20679
0.957351 0.518898 0.205295
0.957107 0.515618 0.203861
0.319158 0.605325 0.380606
0.321447 0.609262 0.383124
0.323781 0.613321 0.385718
0.326192 0.617487 0.388373
0.328542 0.621546 0.390967
0.330495 0.624918 0.393133
0.331731 0.627054 0.394491
0.331868 0.627283 0.394644
0.330816 0.625483 0.393484
0.327504 0.619745 0.389822
0.32372 0.613214 0.385641
0.319219 0.605447 0.380667
0.31426 0.596857 0.375219
0.319432 0.587869 0.369726
0.34049 0.579705 0.364981
0.365118 0.572274 0.360693
0.393988 0.569711 0.359487
0.424567 0.570291 0.358907
0.45481 0.573632 0.355535
0.487205 0.579263 0.347005
0.526513 0.585184 0.330388
0.578103 0.59144 0.295552
0.647181 0.594079 0.270451
0.729931 0.591333 0.251804
0.809567 0.587823 0.237675
0.878798 0.585122 0.226795
0.929931 0.582971 0.22208
0.960113 0.579995 0.233265
0.960952 0.574105 0.231678
0.960586 0.568444 0.22884
0.960372 0.564965 0.2271
0.960143 0.561379 0.225299
0.95993 0.558007 0.223621
0.347372 0.654246 0.411658
0.349386 0.65774 0.41387
0.351583 0.66157 0.416281
0.353948 0.665675 0.418875
0.356054 0.669337 0.421195
0.357656 0.672099 0.42295
0.358618 0.673762 0.424002
0.35848 0.673548 0.423865
0.357397 0.671656 0.42266
0.354528 0.666667 0.419501
0.350561 0.65977 0.415137
0.345953 0.651759 0.410101
0.340887 0.642954 0.404562
0.338582 0.633799 0.39881
0.358526 0.625467 0.39382
0.381735 0.617685 0.389181
0.408453 0.61297 0.386862
0.437675 0.611795 0.386313
0.467506 0.613504 0.385031
0.497642 0.617807 0.380484
0.531075 0.62356 0.370565
0.571023 0.629618 0.351797
0.623652 0.635737 0.316732
0.691707 0.63769 0.29189
0.772549 0.635126 0.273335
0.847471 0.631281 0.258854
0.91313 0.628412 0.247776
0.952682 0.62153 0.242161
0.963317 0.618036 0.254734
0.963027 0.611612 0.251133
0.96286 0.607965 0.249134
0.962661 0.604364 0.247272
0.962493 0.601205 0.24564
0.374304 0.701106 0.441154
0.376104 0.704234 0.443107
0.378149 0.70782 0.445319
0.380072 0.711177 0.44741
0.381872 0.714321 0.449363
0.383291 0.716808 0.450904
0.38407 0.718181 0.451759
0.383948 0.717983 0.451637
0.382925 0.716152 0.450507
0.380194 0.711391 0.447547
0.376287 0.70457 0.443305
0.371893 0.69688 0.438529
0.366979 0.688304 0.433204
0.361807 0.679316 0.427512
0.376867 0.67071 0.4224
0.398611 0.662745 0.417624
0.423285 0.656275 0.41387
0.450721 0.653696 0.412772
0.480079 0.654032 0.412604
0.509819 0.656977 0.410742
0.540154 0.661524 0.404669
0.574166 0.666926 0.3935
0.614511 0.673136 0.372656
0.667414 0.679042 0.336706
0.735515 0.680903 0.312749
0.812543 0.678782 0.295094
0.883207 0.674754 0.280583
0.939773 0.669688 0.269734
0.96405 0.663355 0.282368
0.96408 0.656703 0.27805
0.964111 0.652476 0.275303
0.964126 0.648569 0.272786
0.964141 0.644907 0.270405
0.399115 0.745113 0.46836
0.400809 0.748135 0.470237
0.402441 0.751049 0.472038
0.404181 0.754177 0.473976
0.405753 0.756985 0.475715
0.407034 0.759289 0.477134
0.407782 0.760632 0.477974
0.407675 0.760433 0.477852
0.4065 0.758343 0.476555
0.404303 0.754391 0.474113
0.40058 0.747723 0.469978
0.396338 0.740154 0.465293
0.391836 0.732082 0.460319
0.386908 0.723278 0.454902
0.394614 0.714626 0.449714
0.415061 0.706737 0.445212
0.438392 0.699641 0.440955
0.464698 0.696101 0.439399
0.49305 0.695354 0.43917
0.522194 0.69659 0.438621
0.551461 0.699748 0.435431
0.581933 0.70457 0.42829
0.61677 0.709895 0.416175
0.658366 0.716442 0.392935
0.712276 0.721981 0.357733
0.778241 0.723857 0.334005
0.849821 0.721386 0.316396
0.916533 0.717464 0.302007
0.956359 0.710613 0.306569
0.961349 0.704036 0.307179
0.961852 0.69868 0.303807
0.962158 0.694621 0.30132
0.962417 0.690791 0.299031
0.422583 0.787167 0.494224
0.423926 0.789593 0.495705
0.425452 0.79234 0.497353
0.427085 0.79527 0.499138
0.428534 0.797864 0.500725
0.429831 0.800214 0.502174
0.430488 0.801389 0.502907
0.430213 0.8009 0.502602
0.429129 0.798947 0.501396
0.427314 0.795682 0.499397
0.423758 0.789288 0.495506
0.41976 0.782101 0.491142
0.41529 0.77409 0.486275
0.410529 0.76553 0.48101
0.411078 0.756939 0.475761
0.430747 0.749233 0.471397
0.453269 0.742245 0.467338
0.478126 0.737316 0.464775
0.505196 0.735622 0.464408
0.533928 0.735912 0.464515
0.562951 0.737926 0.463233
0.592187 0.74165 0.459007
0.62356 0.747066 0.450797
0.659403 0.752575 0.438453
0.701137 0.759075 0.412741
0.755596 0.76405 0.377554
0.818677 0.765576 0.35465
0.884962 0.763317 0.337743
0.939345 0.759121 0.332738
0.956817 0.751476 0.337743
0.957443 0.745281 0.333654
0.957839 0.741238 0.330983
0.958221 0.737423 0.328466
0.443244 0.825086 0.517037
0.443946 0.826703 0.5178
0.444709 0.828458 0.518608
0.445548 0.83035 0.519493
0.446403 0.832303 0.520409
0.447013 0.833722 0.521065
0.447349 0.83447 0.521416
0.447196 0.834134 0.521248
0.446601 0.832776 0.520623
0.445716 0.830762 0.519677
0.443946 0.826703 0.5178
0.441794 0.821775 0.515496
0.437461 0.813962 0.510674
0.432975 0.805875 0.505669
0.428428 0.797681 0.500618
0.446494 0.790494 0.496666
