LUT预设1/LUT全系打包/电影感系列lut/电影感各机型log灰片/cold低饱和冷.cube
TITLE "Generated by Resolve"
LUT_3D_SIZE 9
0.0147555 0.0211948 0.0270237
0.0147555 0.0211948 0.0270237
0.0745861 0.0265354 0.033463
0.339635 0.0650492 0.0525063
0.645884 0.117723 0.0732128
0.884779 0.166903 0.0944228
0.937942 0.16907 0.0950332
0.937942 0.16907 0.0950332
0.937942 0.16907 0.0950332
0.0147555 0.0211948 0.0270237
0.0147555 0.0211948 0.0270237
0.0472572 0.0242008 0.0314946
0.304265 0.0595865 0.0500801
0.626856 0.11397 0.0715648
0.881956 0.166766 0.0943618
0.937942 0.16907 0.0950332
0.937942 0.16907 0.0950332
0.937942 0.16907 0.0950332
0.0188449 0.0343938 0.0315557
0.0186923 0.0339055 0.0313878
0.0196536 0.0265202 0.0291295
0.2392 0.0494392 0.0450141
0.585138 0.106157 0.0680858
0.867414 0.165118 0.0937209
0.937942 0.16907 0.0950332
0.937942 0.16907 0.0950332
0.937942 0.16907 0.0950332
0.0710613 0.155871 0.100923
0.0762493 0.16611 0.107301
0.0747692 0.163195 0.105486
0.13933 0.153887 0.0961471
0.473579 0.167086 0.0745403
0.779355 0.211109 0.0936751
0.940139 0.226032 0.101991
0.939681 0.216495 0.10045
0.939422 0.210742 0.0995956
0.171557 0.349676 0.218601
0.180987 0.366918 0.229633
0.183429 0.371313 0.232441
0.192416 0.34699 0.217334
0.335821 0.354513 0.18439
0.662272 0.360021 0.136812
0.912718 0.380804 0.145388
0.947112 0.365103 0.144289
0.946487 0.354177 0.140352
0.290227 0.555352 0.348928
0.300114 0.572412 0.359716
0.302876 0.577173 0.362722
0.286854 0.549554 0.345266
0.379843 0.526482 0.33196
0.531991 0.547097 0.273991
0.842222 0.541512 0.206744
0.958129 0.530358 0.210468
0.957107 0.515618 0.203861
0.399115 0.745113 0.46836
0.405753 0.756985 0.475715
0.4065 0.758343 0.476555
0.391836 0.732082 0.460319
0.438392 0.699641 0.440955
0.551461 0.699748 0.435431
0.712276 0.721981 0.357733
0.956359 0.710613 0.306569
0.962417 0.690791 0.299031
0.455055 0.854124 0.529458
0.455055 0.854124 0.529458
0.455055 0.854124 0.529458
0.455055 0.854124 0.529458
0.48452 0.849226 0.52903
0.59089 0.845823 0.532448
0.712871 0.858808 0.526818
0.873381 0.877058 0.438727
0.945342 0.865446 0.422705
0.455055 0.854124 0.529458
0.455055 0.854124 0.529458
0.455055 0.854124 0.529458
0.455055 0.854124 0.529458
0.461997 0.854627 0.529976
0.564218 0.864195 0.538994
0.698848 0.89279 0.561456
0.835401 0.929107 0.554528
0.9514 0.952209 0.516548
0.0147555 0.0211948 0.0270237
0.0147555 0.0211948 0.0270237
0.0709697 0.0262303 0.0332799
0.33463 0.0642863 0.0521553
0.642695 0.117098 0.0729381
0.883497 0.166842 0.0943923
0.937942 0.16907 0.0950332
0.937942 0.16907 0.0950332
0.937942 0.16907 0.0950332
0.0147555 0.0211948 0.0270237
0.0147555 0.0211948 0.0270237
0.0452888 0.0240177 0.031281
0.302617 0.0593423 0.0499428
0.628046 0.114214 0.0716716
0.883299 0.166827 0.0943923
0.937942 0.16907 0.0950332
0.937942 0.16907 0.0950332
0.937942 0.16907 0.0950332
0.0186465 0.0337835 0.031342
0.0187228 0.0340276 0.0314336
0.0207065 0.0276799 0.0295872
0.243488 0.0501106 0.0453498
0.589792 0.107027 0.0684672
0.871168 0.165881 0.0939956
0.937942 0.16907 0.0950332
0.937942 0.16907 0.0950332
0.937942 0.16907 0.0950332
0.0727855 0.159289 0.103059
0.0781872 0.169924 0.109651
0.0769055 0.167422 0.10811
0.143648 0.158755 0.0991379
0.479728 0.171603 0.0760204
0.785809 0.216373 0.0950484
0.940322 0.229831 0.102678
0.939864 0.220233 0.101015
0.93959 0.214267 0.100114
0.174807 0.355627 0.2224
0.184405 0.373037 0.233524
0.186755 0.377172 0.236133
0.198077 0.353094 0.221286
0.342718 0.360616 0.18732
0.668452 0.365545 0.138735
0.915465 0.384512 0.146578
0.947311 0.368597 0.145541
0.94667 0.357565 0.141573
0.293645 0.561257 0.352667
0.303395 0.578073 0.363302
0.305745 0.582147 0.365881
0.289372 0.553872 0.347997
0.384161 0.530877 0.334661
0.536645 0.551461 0.276066
0.845899 0.545861 0.208896
0.958358 0.533867 0.212116
0.957366 0.519219 0.205447
0.40145 0.749279 0.470939
0.407904 0.760845 0.478111
0.408667 0.762203 0.47895
0.393729 0.735485 0.462425
0.442084 0.703365 0.44329
0.555367 0.703838 0.437797
0.716442 0.725978 0.359655
0.957732 0.714488 0.310948
0.962142 0.69485 0.301472
0.455055 0.854124 0.529458
0.455055 0.854124 0.529458
0.455055 0.854124 0.529458
0.455055 0.854124 0.529458
0.486595 0.851225 0.529885
0.593988 0.848676 0.534173
0.716731 0.861845 0.529229
0.876585 0.880171 0.441489
0.94519 0.868574 0.425162
0.455055 0.854124 0.529458
0.455055 0.854124 0.529458
0.455055 0.854124 0.529458
0.455055 0.854124 0.529458
0.463508 0.854734 0.530083
0.566354 0.864546 0.539376
0.700862 0.893339 0.561608
0.838026 0.929747 0.554025
0.9514 0.952209 0.516548
0.0168307 0.0247349 0.0949874
0.0163882 0.024155 0.0877852
0.0605173 0.0278782 0.0822614
0.320516 0.0619211 0.0725261
0.630838 0.114763 0.0719158
0.878538 0.166598 0.0942855
0.937942 0.16907 0.0950332
0.937942 0.16907 0.0950332
0.937942 0.16907 0.0950332
0.0156252 0.0229953 0.0723125
0.0153964 0.0226749 0.0670024
0.0405127 0.0244907 0.0597848
0.292699 0.0576486 0.0580453
0.620996 0.11284 0.0710613
0.881239 0.166735 0.0943465
0.937942 0.16907 0.0950332
0.937942 0.16907 0.0950332
0.937942 0.16907 0.0950332
0.0170291 0.0302739 0.0371099
0.0172732 0.0314336 0.0383764
0.0184329 0.0253758 0.0317693
0.239063 0.0494087 0.0449989
0.58674 0.106462 0.0682231
0.870039 0.165652 0.0939193
0.937942 0.16907 0.0950332
0.937942 0.16907 0.0950332
0.937942 0.16907 0.0950332
0.0717174 0.157183 0.101747
0.0774243 0.168414 0.108736
0.0764019 0.166415 0.107485
0.143221 0.158328 0.0989395
0.479988 0.171801 0.0760815
0.786435 0.216892 0.095201
0.940352 0.230274 0.102754
0.939879 0.220523 0.101045
0.93959 0.214557 0.10016
0.175372 0.356664 0.223072
0.185122 0.374304 0.234318
0.18735 0.37821 0.236789
0.199145 0.354284 0.222049
0.344411 0.362188 0.188052
0.669825 0.366796 0.139178
0.915953 0.385275 0.146822
0.947326 0.368963 0.145678
0.9467 0.357946 0.141711
0.294835 0.563317 0.353964
0.304311 0.57966 0.364309
0.306279 0.583047 0.366461
0.289631 0.55433 0.348287
0.38471 0.531487 0.335042
0.537102 0.551949 0.276387
0.846235 0.546242 0.209079
0.958373 0.534081 0.212222
0.957382 0.519539 0.205585
0.401801 0.749905 0.471336
0.408194 0.761364 0.478431
0.408835 0.762509 0.479149
0.393851 0.735698 0.462547
0.442298 0.703593 0.443442
0.555596 0.704082 0.437949
0.716579 0.726101 0.359716
0.957778 0.714611 0.31107
0.962142 0.69485 0.301472
0.455055 0.854124 0.529458
0.455055 0.854124 0.529458
0.455055 0.854124 0.529458
0.455055 0.854124 0.529458
0.486656 0.851286 0.529915
0.594095 0.848768 0.534234
0.716731 0.861845 0.529229
0.876585 0.880171 0.441489
0.94519 0.868666 0.425238
0.455055 0.854124 0.529458
0.455055 0.854124 0.529458
0.455055 0.854124 0.529458
0.455055 0.854124 0.529458
0.463508 0.854734 0.530083
0.566293 0.86453 0.539361
0.700862 0.893339 0.561608
0.838026 0.929747 0.554025
0.9514 0.952209 0.516548
0.0337682 0.047364 0.279911
0.0327153 0.0460212 0.270405
0.0637675 0.0456092 0.257664
0.266148 0.0720073 0.276173
0.597513 0.112352 0.252644
0.861646 0.163485 0.225864
0.936156 0.167514 0.189792
0.936782 0.167529 0.163195
0.93724 0.167697 0.146456
0.030518 0.0432288 0.250141
0.0298009 0.0423133 0.24332
0.0467536 0.0412146 0.231373
0.246464 0.0679179 0.258305
0.592355 0.111192 0.248173
0.869764 0.165347 0.234668
0.935592 0.167712 0.209125
0.936095 0.167529 0.19202
0.936416 0.167452 0.180835
0.0249027 0.0365759 0.19646
0.0254673 0.038819 0.199771
0.0243381 0.035172 0.191684
0.205585 0.0584268 0.220417
0.564813 0.105074 0.224582
0.85774 0.1626 0.221744
0.935729 0.167636 0.204288
0.936049 0.167544 0.193698
0.936233 0.167498 0.187274
0.0541238 0.156542 0.171389
0.0589761 0.169024 0.184619
0.0584573 0.167651 0.183185
0.134112 0.151644 0.1673
0.449454 0.164904 0.157015
0.771084 0.207828 0.152987
0.939529 0.223072 0.144472
0.939239 0.213321 0.134905
0.939025 0.207187 0.129122
0.169543 0.347723 0.238651
0.179141 0.365927 0.256016
0.181399 0.370184 0.260075
0.190021 0.344091 0.236301
0.331395 0.35053 0.195651
0.657267 0.355291 0.136889
0.909285 0.375952 0.143832
0.946807 0.359869 0.142397
0.946181 0.34902 0.138506
0.289097 0.553414 0.347707
0.298268 0.569223 0.357778
0.30013 0.572473 0.360876
0.283299 0.543404 0.341375
0.373342 0.519753 0.327749
0.525597 0.54023 0.271122
0.835782 0.534722 0.203769
0.957763 0.524834 0.207904
0.956725 0.510216 0.20148
0.396399 0.740261 0.465354
0.402609 0.751369 0.472236
0.40325 0.752514 0.472938
0.38851 0.726146 0.456672
0.432883 0.693935 0.437385
0.545678 0.69369 0.431922
0.705715 0.715892 0.354604
0.954452 0.705089 0.300252
0.962768 0.685542 0.295857
0.455055 0.854124 0.529458
0.455055 0.854124 0.529458
0.455055 0.854124 0.529458
0.455055 0.854124 0.529458
0.481621 0.846403 0.52781
0.586664 0.841871 0.530083
0.707134 0.854292 0.523293
0.869398 0.873243 0.43534
0.945571 0.861875 0.419974
0.455055 0.854124 0.529458
0.455055 0.854124 0.529458
0.455055 0.854124 0.529458
0.455055 0.854124 0.529458
0.460319 0.854505 0.529854
0.561852 0.863798 0.538567
0.696681 0.892195 0.561288
0.833188 0.928573 0.554864
0.9514 0.952209 0.516548
0.06009 0.0835889 0.51754
0.0589761 0.082063 0.508125
0.0805829 0.0798199 0.491493
0.239094 0.0937514 0.523339
0.526864 0.130129 0.50367
0.824002 0.174258 0.502007
0.923537 0.179232 0.463386
0.925734 0.176867 0.432792
0.927062 0.175479 0.413153
0.056733 0.0788434 0.488457
0.0559701 0.0778668 0.482307
0.0655222 0.0758068 0.468223
0.226947 0.0911421 0.51133
0.526986 0.130159 0.503777
0.836973 0.178256 0.516106
0.921447 0.181262 0.489036
0.923033 0.179767 0.470069
0.923934 0.178805 0.458183
0.0502632 0.0700389 0.432746
0.0508431 0.0708019 0.437491
0.0499123 0.0695811 0.429816
0.194247 0.0836805 0.47451
0.504387 0.124666 0.484245
0.827253 0.17525 0.505577
0.921645 0.181079 0.486748
0.922667 0.180133 0.474708
0.923232 0.179568 0.467521
0.0610208 0.165957 0.386923
0.0649577 0.178271 0.401724
0.0647135 0.177554 0.4009
0.127306 0.162768 0.36228
0.398718 0.172076 0.399573
0.74107 0.206271 0.421912
0.930037 0.221347 0.409262
0.930419 0.210437 0.394278
0.930648 0.203601 0.384726
0.134508 0.356069 0.372824
0.142596 0.37496 0.391608
0.144564 0.379599 0.396155
0.151385 0.352255 0.369863
0.321508 0.338445 0.354589
0.611353 0.345418 0.335882
0.879973 0.373709 0.331029
0.942809 0.349126 0.292973
0.942351 0.338399 0.280232
0.274815 0.55021 0.445579
0.28307 0.566186 0.461112
0.284611 0.569131 0.46392
0.26891 0.538735 0.434424
0.38291 0.508431 0.417288
0.515435 0.520653 0.383795
0.826139 0.516304 0.29807
0.95552 0.512032 0.280873
0.954757 0.497124 0.265782
0.388586 0.731762 0.52961
0.394675 0.743236 0.540703
0.395087 0.743999 0.541436
0.380774 0.717266 0.515557
0.423575 0.681453 0.483909
0.536706 0.677821 0.47306
0.689906 0.700206 0.39324
0.949462 0.688487 0.314534
0.96376 0.670298 0.309834
0.456184 0.856825 0.571801
0.456245 0.857099 0.575738
0.456245 0.857114 0.575814
0.456107 0.856458 0.566796
0.474571 0.839902 0.548806
0.575235 0.830304 0.537484
0.691859 0.84123 0.519707
0.856107 0.861036 0.424475
0.946365 0.849409 0.410407
0.45565 0.855222 0.548394
0.455772 0.855512 0.552758
0.455772 0.855512 0.552682
0.455497 0.854917 0.543465
0.455055 0.854124 0.529458
0.554406 0.862654 0.537453
0.688746 0.890043 0.560693
0.82359 0.926268 0.556283
0.9514 0.952209 0.516548
0.0724041 0.0992905 0.657267
0.0724041 0.0992905 0.657267
0.0876478 0.0999466 0.659968
0.232898 0.114244 0.691264
0.504463 0.148989 0.708247
0.76286 0.194385 0.709926
0.906325 0.197253 0.704234
0.91017 0.194522 0.678477
0.911635 0.193393 0.661585
0.0724041 0.0992905 0.657267
0.072343 0.0991989 0.655985
0.0769207 0.0987259 0.646738
0.226322 0.113268 0.683955
0.509819 0.150072 0.711101
0.781476 0.20032 0.726741
0.900481 0.200656 0.727382
0.904311 0.198444 0.712596
0.906447 0.197162 0.703502
0.0707256 0.0972152 0.625574
0.0709392 0.0974594 0.629465
0.0706951 0.0971695 0.624979
0.204028 0.109804 0.658701
0.491264 0.145953 0.699031
0.774121 0.197848 0.720027
0.900557 0.20061 0.727153
0.902968 0.199222 0.717845
0.904418 0.198383 0.712169
0.081239 0.184649 0.585702
0.0849317 0.196704 0.598917
0.0849012 0.196612 0.598825
0.148928 0.177829 0.581415
0.396704 0.184161 0.631846
0.688182 0.222141 0.645808
0.913939 0.233707 0.66215
0.913741 0.222934 0.647425
0.913588 0.215991 0.637751
0.128313 0.365835 0.567224
0.134997 0.384955 0.585061
0.136751 0.389609 0.589441
0.142351 0.361639 0.56408
0.292012 0.347158 0.526696
0.569329 0.349722 0.559228
0.865507 0.370138 0.553613
0.930541 0.349905 0.543725
0.930495 0.338857 0.530327
0.230243 0.562722 0.576654
0.237919 0.578332 0.591699
0.239139 0.580865 0.594324
0.224109 0.550225 0.564157
0.327764 0.515221 0.548821
0.501045 0.514595 0.525948
0.763836 0.516426 0.499336
0.956451 0.49926 0.467903
0.955123 0.484413 0.451591
0.365835 0.734722 0.629419
0.371374 0.746303 0.640909
0.371756 0.747097 0.641642
0.358587 0.719799 0.614847
0.40325 0.680751 0.579217
0.550378 0.669505 0.579232
0.683513 0.683879 0.543542
0.940185 0.675761 0.485801
0.963088 0.658 0.440177
0.452384 0.866224 0.671382
0.451942 0.866758 0.675563
0.451911 0.866789 0.675731
0.451286 0.861906 0.664515
0.464958 0.840269 0.642252
0.602197 0.826764 0.644099
0.701564 0.828305 0.636652
0.84863 0.846311 0.56289
0.950103 0.837873 0.501549
0.45449 0.863127 0.645151
0.454276 0.863615 0.64979
0.454276 0.863615 0.649836
0.454749 0.862562 0.639963
0.455467 0.860929 0.624628
0.552819 0.866194 0.620691
0.690791 0.889662 0.637217
0.819348 0.924956 0.630411
0.952193 0.952956 0.579461
0.0724041 0.0992905 0.657267
0.0724041 0.0992905 0.657267
0.0790875 0.0995956 0.658793
0.221073 0.114504 0.711986
0.485893 0.148363 0.768627
0.735576 0.199313 0.793286
0.873686 0.216175 0.814923
0.873686 0.216175 0.814923
0.873686 0.216175 0.814923
0.0724041 0.0992905 0.657267
0.0724041 0.0992905 0.657267
0.0724041 0.0992905 0.657267
0.218036 0.114122 0.710506
0.496895 0.150057 0.769451
0.760601 0.204456 0.797711
0.873686 0.216175 0.814923
0.873686 0.216175 0.814923
0.873686 0.216175 0.814923
0.0724041 0.0992905 0.657267
0.0724041 0.0992905 0.657267
0.0724041 0.0992905 0.657267
0.200015 0.111894 0.701869
0.481483 0.147692 0.768292
0.75523 0.203357 0.796735
0.873686 0.216175 0.814923
0.873686 0.216175 0.814923
0.873686 0.216175 0.814923
0.0866255 0.186191 0.678386
0.0890822 0.197131 0.681315
0.0890974 0.197223 0.681331
0.152728 0.181079 0.686839
0.384543 0.190158 0.764187
0.669596 0.23032 0.788098
0.876814 0.250874 0.818723
0.876661 0.240284 0.813535
0.877028 0.232883 0.807797
0.136522 0.370901 0.728969
0.142306 0.388586 0.743236
0.143603 0.39263 0.74464
0.147662 0.366766 0.726513
0.298665 0.362676 0.699199
0.506996 0.360433 0.772061
0.808804 0.385306 0.763897
0.91046 0.35848 0.770733
0.912016 0.347051 0.760266
0.212131 0.573388 0.752026
0.21886 0.588388 0.765454
0.219776 0.590494 0.767163
0.206134 0.560082 0.739879
0.30071 0.523293 0.705791
0.467445 0.519097 0.690349
0.736263 0.515541 0.714916
0.943999 0.49749 0.713069
0.944106 0.481422 0.695476
0.320089 0.747127 0.758007
0.325704 0.758846 0.769268
0.32607 0.759625 0.770031
0.312932 0.732265 0.743313
0.351278 0.693553 0.706844
0.501198 0.675532 0.713466
0.66952 0.678584 0.686213
0.923781 0.671107 0.657023
0.957504 0.64892 0.634592
0.429175 0.880888 0.780301
0.428946 0.88336 0.785763
0.428885 0.883391 0.785977
0.426368 0.872923 0.771466
0.436301 0.847776 0.744869
0.576699 0.827497 0.734966
0.715785 0.823697 0.735927
0.836988 0.836484 0.706645
0.95787 0.826078 0.63357
0.438331 0.877394 0.74966
0.436927 0.878264 0.755016
0.436912 0.878264 0.755062
0.43975 0.876509 0.743847
0.443549 0.873793 0.726146
0.542138 0.87538 0.717784
0.694224 0.893187 0.733394
0.822385 0.92401 0.741955
0.95404 0.954742 0.697002
0.0724041 0.0992905 0.657267
0.0724041 0.0992905 0.657267
0.0730449 0.099321 0.65742
0.211627 0.113359 0.707393
0.471366 0.146136 0.767529
0.72253 0.196628 0.791196
0.873686 0.216175 0.814923
0.873686 0.216175 0.814923
0.873686 0.216175 0.814923
0.0724041 0.0992905 0.657267
0.0724041 0.0992905 0.657267
0.0724041 0.0992905 0.657267
0.211872 0.11339 0.707515
0.487922 0.148684 0.76878
0.752483 0.202777 0.796246
0.873686 0.216175 0.814923
0.873686 0.216175 0.814923
0.873686 0.216175 0.814923
0.0724041 0.0992905 0.657267
0.0724041 0.0992905 0.657267
0.0724041 0.0992905 0.657267
0.196658 0.111452 0.700298
0.476036 0.146853 0.76788
0.75021 0.202319 0.795834
0.873686 0.216175 0.814923
0.873686 0.216175 0.814923
0.873686 0.216175 0.814923
0.0858167 0.182086 0.677394
0.0882277 0.193362 0.680308
0.0883345 0.193851 0.68043
0.14966 0.177905 0.68574
0.378622 0.186297 0.762936
0.66334 0.225483 0.786862
0.876478 0.247196 0.818296
0.875502 0.23682 0.817182
0.874861 0.229679 0.816403
0.134661 0.364813 0.734936
0.140291 0.382315 0.741039
0.141665 0.386572 0.742519
0.143053 0.360433 0.734142
0.303471 0.337469 0.747539
0.552636 0.34406 0.809308
0.807965 0.37435 0.826078
0.888884 0.362768 0.835187
0.887678 0.352773 0.833432
0.20763 0.567437 0.800885
0.213672 0.581292 0.805005
0.214633 0.583459 0.805661
0.201831 0.553658 0.796689
0.294636 0.515908 0.792782
0.478462 0.506203 0.817212
0.730816 0.508263 0.852003
0.915801 0.503883 0.868528
0.914443 0.488518 0.866056
0.299901 0.749722 0.856397
0.306004 0.760357 0.859876
0.306493 0.761196 0.860151
0.29189 0.735698 0.851881
0.323156 0.699947 0.842527
0.463111 0.679759 0.84686
0.630121 0.677714 0.861708
0.890333 0.672343 0.862974
0.942962 0.64654 0.855528
0.405997 0.894377 0.900526
0.411215 0.900099 0.90605
0.411383 0.900282 0.906233
0.399084 0.887068 0.893477
0.389364 0.858869 0.866438
0.535393 0.835767 0.852293
0.694804 0.828946 0.846906
0.828428 0.832456 0.83624
0.95903 0.816358 0.812543
0.405417 0.8963 0.869368
0.404639 0.897169 0.875502
0.404623 0.897185 0.875563
0.407126 0.895384 0.862898
0.412802 0.892378 0.842939
0.508034 0.892454 0.829297
0.680232 0.904402 0.832609
0.829435 0.926284 0.847288
0.957229 0.957748 0.825437
0.0724041 0.0992905 0.657267
0.0724041 0.0992905 0.657267
0.0724041 0.0992905 0.657267
0.203296 0.112306 0.70341
0.459449 0.144366 0.766476
0.713283 0.194736 0.7897
0.873686 0.216175 0.814923
0.873686 0.216175 0.814923
0.873686 0.216175 0.814923
0.0724041 0.0992905 0.657267
0.0724041 0.0992905 0.657267
0.0724041 0.0992905 0.657267
0.206973 0.112779 0.705119
0.481483 0.147692 0.768292
0.74699 0.201648 0.795254
0.873686 0.216175 0.814923
0.873686 0.216175 0.814923
0.873686 0.216175 0.814923
0.0724041 0.0992905 0.657267
0.0724041 0.0992905 0.657267
0.0724041 0.0992905 0.657267
0.194232 0.111147 0.699153
0.472633 0.146334 0.767636
0.747112 0.201678 0.79527
0.873686 0.216175 0.814923
0.873686 0.216175 0.814923
0.873686 0.216175 0.814923
0.0853437 0.17969 0.676814
0.0877089 0.191073 0.679683
0.0879225 0.191974 0.679927
0.147936 0.17612 0.685115
0.375799 0.18436 0.762341
0.660334 0.223102 0.786252
0.875181 0.24535 0.817945
0.875288 0.234516 0.816938
0.874632 0.227131 0.816129
0.133898 0.362264 0.734035
0.139391 0.379507 0.740063
0.140719 0.383658 0.741512
0.14078 0.357244 0.732937
0.299153 0.333227 0.745815
0.547539 0.339879 0.808042
0.803326 0.370245 0.824796
0.888472 0.359457 0.834607
0.887251 0.349218 0.832807
0.206043 0.563653 0.799725
0.21181 0.57705 0.803754
0.212573 0.578775 0.804257
0.199954 0.549172 0.795316
0.289845 0.510658 0.790967
0.472755 0.500603 0.815274
0.724437 0.50248 0.850294
0.915312 0.498482 0.867658
0.913954 0.482811 0.865141
0.296895 0.744518 0.854688
0.303197 0.755459 0.858274
0.303685 0.756313 0.858549
0.289021 0.730602 0.850294
0.317296 0.694133 0.840665
0.455756 0.672969 0.847684
0.64419 0.666041 0.882521
0.882872 0.664805 0.891722
0.929229 0.645609 0.893965
0.405097 0.891447 0.904875
0.409186 0.897017 0.906249
0.409308 0.897185 0.906294
0.398306 0.883864 0.902708
0.381186 0.856291 0.893385
0.481331 0.834409 0.888289
0.635035 0.828321 0.898421
0.817823 0.826123 0.924102
0.945907 0.813779 0.927779
0.412406 0.901427 0.907332
0.412406 0.901427 0.907332
0.412406 0.901427 0.907332
0.412406 0.901427 0.907332
0.412406 0.901427 0.907332
0.496223 0.903883 0.909697
0.649927 0.916335 0.92079
0.807523 0.937118 0.939849
0.95906 0.958846 0.95935
