LUT预设1/LUT全系打包/电影感系列lut/电影感各机型log灰片/FILM中性电影.cube
TITLE "Generated by Resolve"
LUT_3D_SIZE 33
0 0 0
0 0 0
0 0 0
0 0 0
0 0 0
0.00717174 1.5259e-05 0
0.0397192 7.62951e-05 0
0.0851453 0.000961318 0.00202945
0.158038 0.00781262 0.00434882
0.236316 0.0142214 0.00715648
0.310643 0.0201114 0.0099794
0.38558 0.0264591 0.0127871
0.457877 0.0370947 0.0156252
0.524117 0.0463874 0.0173953
0.586206 0.0544747 0.0186465
0.645624 0.0618601 0.0205539
0.703487 0.0707256 0.0205997
0.764965 0.0782025 0.0223545
0.831144 0.086183 0.0241245
0.898283 0.0950637 0.0258488
0.945113 0.100969 0.0276799
0.962112 0.100999 0.0275731
0.962112 0.100999 0.0275731
0.962112 0.100999 0.0275731
0.962112 0.100999 0.0275731
0.962112 0.100999 0.0275731
0.962112 0.100999 0.0275731
0.962112 0.100999 0.0275731
0.962112 0.100999 0.0275731
0.962112 0.100999 0.0275731
0.962112 0.100999 0.0275731
0.962112 0.100999 0.0275731
0.962112 0.100999 0.0275731
0 0 0
0 0 0
0 0 0
0 0 0
0 0 0
0.00131228 0 0
0.0329137 6.10361e-05 0
0.0741588 0.000213626 0.00190738
0.141619 0.00672923 0.00375372
0.222675 0.0133211 0.00700389
0.29572 0.0186313 0.00947585
0.370809 0.0246586 0.0125429
0.444663 0.0349432 0.0152438
0.511574 0.0446021 0.0170443
0.573816 0.0532387 0.0187076
0.633631 0.06009 0.0206302
0.691341 0.068925 0.0204166
0.752285 0.0773175 0.0222477
0.817411 0.0843824 0.0240635
0.88542 0.0932784 0.0258335
0.940063 0.100954 0.0277104
0.962112 0.100999 0.0275731
0.962112 0.100999 0.0275731
0.962112 0.100999 0.0275731
0.962112 0.100999 0.0275731
0.962112 0.100999 0.0275731
0.962112 0.100999 0.0275731
0.962112 0.100999 0.0275731
0.962112 0.100999 0.0275731
0.962112 0.100999 0.0275731
0.962112 0.100999 0.0275731
0.962112 0.100999 0.0275731
0.962112 0.100999 0.0275731
0 0 0
0 0 0
0 0 0
0 0 0
0 0 0
0 0 0
0.0261082 6.10361e-05 0
0.0644846 1.5259e-05 0.00131228
0.125658 0.00514229 0.00300603
0.207156 0.0119631 0.00643931
0.280247 0.0173495 0.00877394
0.35581 0.0234531 0.0119631
0.430121 0.0326848 0.0145876
0.498375 0.0428321 0.0166934
0.561257 0.0516823 0.0185092
0.621698 0.0585031 0.0201877
0.679789 0.067155 0.0203555
0.739712 0.0759747 0.0218967
0.803998 0.0826276 0.023743
0.872023 0.0914778 0.0255283
0.93257 0.100221 0.0274205
0.960067 0.100999 0.0275883
0.962112 0.100999 0.0275731
0.962112 0.100999 0.0275731
0.962112 0.100999 0.0275731
0.962112 0.100999 0.0275731
0.962112 0.100999 0.0275731
0.962112 0.100999 0.0275731
0.962112 0.100999 0.0275731
0.962112 0.100999 0.0275731
0.962112 0.100999 0.0275731
0.962112 0.100999 0.0275731
0.962112 0.100999 0.0275731
0 0 0
0 0 0
0 0 0
0 0 0
0 0 0
0 0 0
0.0193942 4.57771e-05 0
0.0551766 0 0.000534066
0.110063 0.00337224 0.00215152
0.19057 0.0103456 0.00567636
0.264714 0.0161898 0.00796521
0.340459 0.0225528 0.0111849
0.414984 0.0304112 0.0137636
0.48452 0.0410315 0.0163577
0.548653 0.0498817 0.0181277
0.610056 0.0570993 0.0193484
0.668559 0.0653697 0.0204318
0.727489 0.0742199 0.0213321
0.790631 0.0808423 0.0231022
0.858259 0.0896925 0.0248569
0.92163 0.098497 0.0266575
0.955047 0.100999 0.0276188
0.962112 0.100999 0.0275731
0.962112 0.100999 0.0275731
0.962112 0.100999 0.0275731
0.962112 0.100999 0.0275731
0.962112 0.100999 0.0275731
0.962112 0.100999 0.0275731
0.962112 0.100999 0.0275731
0.962112 0.100999 0.0275731
0.962112 0.100999 0.0275731
0.962112 0.100999 0.0275731
0.962112 0.100999 0.0275731
0 0 0
0 0 0
0 0 0
0 0 0
0 0 0
0 0 0
0.0128634 3.0518e-05 0
0.0464027 9.15541e-05 0
0.0957198 0.00169375 0.00213626
0.174151 0.00886549 0.00494392
0.249424 0.0150607 0.00727855
0.325292 0.021561 0.0104677
0.399771 0.0281834 0.0130312
0.470848 0.0392157 0.016022
0.536187 0.0481117 0.017731
0.59823 0.0556954 0.0185702
0.657389 0.0635996 0.0204929
0.715145 0.0724498 0.0207523
0.777417 0.0790875 0.0224765
0.844358 0.0879072 0.0241703
0.910811 0.0968032 0.0259098
0.949981 0.100984 0.0276341
0.962112 0.100999 0.0275731
0.962112 0.100999 0.0275731
0.962112 0.100999 0.0275731
0.962112 0.100999 0.0275731
0.962112 0.100999 0.0275731
0.962112 0.100999 0.0275731
0.962112 0.100999 0.0275731
0.962112 0.100999 0.0275731
0.962112 0.100999 0.0275731
0.962112 0.100999 0.0275731
0.962112 0.100999 0.0275731
0 0 0
0 0 0
0 0 0
0 0 0
0 0 0
0 0 0
0.00700389 1.5259e-05 0
0.0395209 7.62951e-05 0
0.0848402 0.000946059 0.00202945
0.157565 0.00776684 0.00433356
0.23592 0.0141909 0.00714122
0.310216 0.0200656 0.00996414
0.385153 0.0264134 0.0127871
0.457496 0.0370336 0.0156252
0.523644 0.0463264 0.01738
0.58584 0.0544442 0.0186465
0.645274 0.061799 0.0205539
0.703136 0.0706645 0.0205844
0.764599 0.0781872 0.0223545
0.830747 0.0861372 0.0241093
0.897917 0.0950027 0.0258488
0.944961 0.100969 0.0276646
0.962112 0.100999 0.0275731
0.962112 0.100999 0.0275731
0.962112 0.100999 0.0275731
0.962112 0.100999 0.0275731
0.962112 0.100999 0.0275731
0.962112 0.100999 0.0275731
0.962112 0.100999 0.0275731
0.962112 0.100999 0.0275731
0.962112 0.100999 0.0275731
0.962112 0.100999 0.0275731
0.962112 0.100999 0.0275731
7.62951e-05 0.0100557 0
6.10361e-05 0.00854505 0
6.10361e-05 0.00703441 0
4.57771e-05 0.00550851 0
3.0518e-05 0.00395209 0
1.5259e-05 0.00244144 0
0.00106813 0.000946059 1.5259e-05
0.0327153 6.10361e-05 0
0.0738384 0.000183108 0.00190738
0.141146 0.00669871 0.00373846
0.222278 0.0133059 0.00700389
0.295293 0.0185855 0.00946059
0.370398 0.0246128 0.0125429
0.444144 0.0348669 0.0152285
0.511208 0.0445563 0.0170291
0.573327 0.053193 0.0187228
0.633265 0.060029 0.0206149
0.69099 0.0688792 0.0204013
0.751919 0.0772869 0.0222477
0.817014 0.0843366 0.0240482
0.885039 0.0932174 0.0258335
0.93991 0.100954 0.0277104
0.962112 0.100999 0.0275731
0.962112 0.100999 0.0275731
0.962112 0.100999 0.0275731
0.962112 0.100999 0.0275731
0.962112 0.100999 0.0275731
0.962112 0.100999 0.0275731
0.962112 0.100999 0.0275731
0.962112 0.100999 0.0275731
0.962112 0.100999 0.0275731
0.962112 0.100999 0.0275731
0.962112 0.100999 0.0275731
0.0090486 0.0479438 0.00836194
0.00801099 0.0446326 0.00735485
0.00697337 0.0413214 0.00636301
0.00590524 0.0379034 0.00534066
0.00486763 0.0345922 0.00433356
0.00415045 0.0317693 0.00366217
0.00361639 0.0292363 0.00315862
0.0242924 0.0251774 0.00366217
0.0640116 0.0273289 0.00192264
0.13753 0.0332189 0.00289921
0.221103 0.0415198 0.00648508
0.29163 0.0460975 0.00874342
0.361395 0.051133 0.0110323
0.430167 0.0561074 0.0139773
0.495811 0.0608682 0.0158999
0.559442 0.0667124 0.0177768
0.619745 0.0708629 0.0192111
0.67834 0.0761883 0.0204166
0.73875 0.0818952 0.0220188
0.803128 0.0868238 0.023743
0.871611 0.0933547 0.0255436
0.932143 0.100145 0.0273899
0.959915 0.100999 0.0275731
0.962112 0.100999 0.0275731
0.962112 0.100999 0.0275731
0.962112 0.100999 0.0275731
0.962112 0.100999 0.0275731
0.962112 0.100999 0.0275731
0.962112 0.100999 0.0275731
0.962112 0.100999 0.0275731
0.962112 0.100999 0.0275731
0.962112 0.100999 0.0275731
0.962112 0.100999 0.0275731
0.0226749 0.0963912 0.0213626
0.0213779 0.0927749 0.0201114
0.0200809 0.0891585 0.0188449
0.0191653 0.0856336 0.0179751
0.0183261 0.0822461 0.0171969
0.0175021 0.0788739 0.0164187
0.0166781 0.0754864 0.0156252
0.0327459 0.0697642 0.011902
0.0477913 0.0605936 0.0116579
0.0986801 0.0619211 0.00469978
0.198306 0.0721447 0.00392157
0.278996 0.0788434 0.00724804
0.349859 0.0850843 0.0100099
0.418112 0.0898146 0.0121004
0.482246 0.0941939 0.0149691
0.543542 0.0985275 0.0166629
0.603433 0.102754 0.018555
0.662165 0.106996 0.0205081
0.723262 0.111498 0.0216068
0.786648 0.117647 0.0233616
0.854994 0.12372 0.0261387
0.92076 0.129976 0.0279393
0.954757 0.129046 0.0277562
0.962036 0.126741 0.0277104
0.962051 0.124422 0.0276799
0.962051 0.122118 0.0276799
0.962066 0.119799 0.0276646
0.962066 0.117525 0.0276493
0.962081 0.115496 0.0276493
0.962081 0.113451 0.0276341
0.962081 0.111406 0.0276188
0.962097 0.109361 0.0276188
0.962097 0.107332 0.0276036
0.0397345 0.14847 0.0377966
0.0386053 0.144793 0.0367285
0.0374609 0.140993 0.0356146
0.036347 0.137316 0.0345464
0.0352178 0.133639 0.0334783
0.0341039 0.129961 0.0324102
0.03299 0.126284 0.0313268
0.0434119 0.122408 0.0298314
0.0698711 0.11548 0.0201877
0.0747692 0.100252 0.0160372
0.147127 0.103182 0.0113527
0.246418 0.111269 0.00416571
0.333364 0.116426 0.00682078
0.404288 0.12137 0.0102693
0.470726 0.126528 0.0128634
0.531258 0.1308 0.0148013
0.591409 0.135119 0.0167697
0.64802 0.139498 0.0187076
0.707958 0.142428 0.0206455
0.771481 0.147768 0.0225223
0.838956 0.153475 0.0253605
0.910094 0.159899 0.0281682
0.949645 0.161135 0.0279393
0.961944 0.159075 0.027863
0.961944 0.157015 0.0278477
0.961959 0.154849 0.0278477
0.961959 0.152575 0.0278325
0.961959 0.150286 0.0278172
0.961975 0.148013 0.0278019
0.961975 0.145724 0.0277867
0.96199 0.14345 0.0277867
0.96199 0.141161 0.0277714
0.962005 0.138888 0.0277562
0.0604715 0.208423 0.057847
0.058854 0.204059 0.0562753
0.0571756 0.199557 0.0546578
0.0555581 0.195193 0.0530861
0.0539406 0.190829 0.0515145
0.0523232 0.186465 0.049958
0.0507515 0.182147 0.0484321
0.0561379 0.1785 0.0477607
0.0836194 0.172732 0.0417334
0.104768 0.164782 0.0277562
0.119081 0.142458 0.0243076
0.198749 0.144152 0.0215457
0.29836 0.152773 0.00576791
0.385473 0.156222 0.00556954
0.456382 0.160021 0.00949111
0.519478 0.164157 0.0123445
0.579278 0.167346 0.014725
0.636545 0.171984 0.0164034
0.695964 0.175601 0.018555
0.757565 0.180499 0.0209812
0.824369 0.186358 0.0232242
0.894881 0.191409 0.0255436
0.944488 0.194583 0.0280461
0.961837 0.192096 0.0280308
0.961852 0.189563 0.0280156
0.961852 0.18703 0.0280003
0.961868 0.184512 0.027985
0.961883 0.181964 0.027985
0.961883 0.179431 0.0279698
0.961883 0.176913 0.0279393
0.961898 0.17438 0.0279393
0.961898 0.17203 0.027924
0.961898 0.16997 0.0279088
0.083772 0.273823 0.0803998
0.0818494 0.269001 0.0785229
0.0799725 0.264317 0.0767071
0.0780957 0.259632 0.074876
0.0763714 0.254978 0.0731975
0.0748302 0.25037 0.0717174
0.0732891 0.245747 0.0702373
0.0725414 0.241123 0.0687419
0.0980697 0.235828 0.0656748
0.126665 0.229206 0.0575113
0.132937 0.21677 0.0406958
0.18088 0.181415 0.0377203
0.255482 0.184512 0.032517
0.360555 0.202197 0.0107424
0.440757 0.20145 0.00354009
0.507469 0.201465 0.00755322
0.567254 0.203372 0.0107424
0.625483 0.206729 0.0131685
0.683558 0.209644 0.0151827
0.74522 0.214572 0.0182956
0.811078 0.219669 0.0203861
0.879561 0.224643 0.0230716
0.939361 0.229648 0.0248112
0.961715 0.227649 0.0248722
0.961715 0.225299 0.0250553
0.96173 0.222934 0.0252689
0.961746 0.220584 0.025452
0.961746 0.218219 0.0256504
0.961761 0.215869 0.0258488
0.961761 0.213352 0.0260777
0.961776 0.210773 0.0263371
0.961791 0.208194 0.0265965
0.961791 0.205631 0.0268406
0.109758 0.343099 0.105623
0.107836 0.338003 0.103761
0.10602 0.333059 0.101991
0.104234 0.328115 0.100267
0.102449 0.323171 0.0985428
0.100664 0.318227 0.0968032
0.0988785 0.313283 0.095079
0.0970932 0.308339 0.0933394
0.116838 0.302724 0.090547
0.145541 0.29688 0.0844434
0.15584 0.289403 0.0770886
0.197971 0.276097 0.0526436
0.245411 0.228672 0.0488289
0.325826 0.231785 0.0419165
0.421622 0.252171 0.0206607
0.498466 0.254551 0.00444038
0.560571 0.251148 0.00364691
0.61532 0.247654 0.00750744
0.671473 0.247715 0.0105592
0.731502 0.250889 0.0134127
0.796384 0.255528 0.0163424
0.865568 0.260807 0.01944
0.930831 0.265476 0.0226291
0.959258 0.263828 0.0225528
0.961608 0.261021 0.0229801
0.961624 0.258259 0.0234226
0.961624 0.255497 0.0238804
0.961639 0.252964 0.0239414
0.961654 0.250446 0.0240024
0.961654 0.247944 0.0240482
0.961669 0.245426 0.024094
0.961669 0.242924 0.0241398
0.961685 0.240406 0.0241855
0.136309 0.413443 0.131395
0.134447 0.408499 0.12958
0.132586 0.403555 0.127779
0.130709 0.398611 0.125963
0.128847 0.393668 0.124163
0.126986 0.388724 0.122347
0.125124 0.38378 0.120531
0.123262 0.378836 0.11873
0.137697 0.373754 0.116625
0.16408 0.368093 0.112734
0.18996 0.361181 0.106249
0.18764 0.352697 0.0942855
0.273198 0.333974 0.0588388
0.315297 0.279118 0.0598001
0.395621 0.280934 0.0523384
0.482902 0.305303 0.0334478
0.552911 0.313237 0.00909438
0.611292 0.307912 0
0.665324 0.300969 0.00221256
0.720684 0.296849 0.00636301
0.783017 0.297169 0.00993362
0.85156 0.300862 0.0140536
0.920333 0.304829 0.0173037
0.95404 0.304006 0.0179141
0.961471 0.300969 0.0181888
0.961486 0.298131 0.0184482
0.961486 0.295308 0.0186923
0.961486 0.292485 0.0189364
0.961517 0.289647 0.0191958
0.961517 0.286824 0.0194553
0.961517 0.283986 0.0196841
0.961532 0.281163 0.0199435
0.961547 0.278248 0.0202029
0.161257 0.482109 0.155581
0.15993 0.477958 0.154284
0.158587 0.473823 0.153002
0.157259 0.469673 0.15172
0.155917 0.465537 0.150423
0.154574 0.461387 0.149142
0.152636 0.456245 0.14725
0.150637 0.451041 0.145312
0.158434 0.443305 0.142061
0.183642 0.438041 0.138903
0.212177 0.432883 0.134218
0.217929 0.425467 0.128786
0.253941 0.412482 0.101732
0.355077 0.391012 0.0674296
0.381979 0.328908 0.0701457
0.459327 0.330434 0.0633707
0.542535 0.357275 0.0469368
0.606882 0.372152 0.0228122
0.661219 0.369619 0.00234989
0.715206 0.360586 0
0.773068 0.352972 0.00112917
0.836652 0.34876 0.00590524
0.909163 0.349081 0.0104524
0.948867 0.348211 0.0125734
0.961303 0.345708 0.0129244
0.961334 0.342504 0.0133516
0.961334 0.3393 0.0137789
0.961349 0.33611 0.0141909
0.961349 0.332906 0.0146029
0.961364 0.329702 0.0150301
0.961379 0.326528 0.0154269
0.961395 0.32343 0.0157778
0.96141 0.320226 0.0161288
0.184436 0.546349 0.178012
0.182818 0.541924 0.176455
0.181216 0.537514 0.174899
0.179583 0.533043 0.173312
0.177829 0.528359 0.171618
0.176089 0.52369 0.169924
0.17435 0.519005 0.168246
0.17261 0.514336 0.166552
0.17673 0.509987 0.16492
0.201648 0.505165 0.162524
0.229007 0.499916 0.158923
0.251575 0.493996 0.154955
0.214771 0.489372 0.15082
0.342824 0.471458 0.0971695
0.424262 0.4439 0.085359
0.452079 0.384955 0.0818799
0.520592 0.382574 0.0755016
0.594873 0.407889 0.0609751
0.656199 0.426856 0.0360266
0.710857 0.431754 0.0116579
0.76643 0.424018 0
0.827878 0.414771 0
0.893706 0.406104 0
0.943618 0.400977 0.00419623
0.96112 0.398108 0.0043946
0.961135 0.393515 0.0053254
0.961166 0.388922 0.0062562
0.961166 0.384329 0.00717174
0.961181 0.38027 0.00791943
0.961196 0.376852 0.00843824
0.961212 0.373419 0.00894179
0.961227 0.369894 0.00947585
0.961242 0.366461 0.0099794
0.204898 0.60557 0.197787
0.203708 0.60174 0.196643
0.202365 0.597742 0.195346
0.201022 0.593729 0.194049
0.19968 0.589731 0.192752
0.198322 0.585718 0.191455
0.196979 0.58172 0.190158
0.195636 0.577707 0.188861
0.194934 0.573632 0.187518
0.219516 0.568139 0.184543
0.24509 0.56286 0.181659
0.271717 0.557519 0.177874
0.272175 0.553155 0.174517
0.263294 0.541512 0.152148
0.421149 0.530983 0.0773785
0.48986 0.494667 0.102327
0.511818 0.4336 0.0932784
0.576303 0.431327 0.088777
0.644984 0.45684 0.0762646
0.704112 0.47892 0.0523842
0.760754 0.488258 0.0225223
0.818906 0.483925 0.0010071
0.882399 0.47567 0
0.938399 0.466194 0
0.960906 0.462409 0
0.960922 0.45774 0
0.960937 0.453239 0
0.960952 0.448783 0
0.960952 0.444358 0
0.960967 0.439918 0
0.960983 0.435477 0
0.961013 0.430884 0
0.961028 0.426444 0
0.222004 0.658289 0.214267
0.220661 0.654551 0.21297
0.219318 0.650828 0.211673
0.217975 0.647089 0.210361
0.216632 0.643366 0.209064
0.21529 0.639643 0.207767
0.213947 0.635904 0.206455
0.212711 0.632197 0.20528
0.211643 0.628534 0.204242
0.232425 0.625116 0.203479
0.257923 0.619867 0.200565
0.285512 0.615213 0.197742
0.301274 0.610574 0.194583
0.243503 0.606714 0.193469
0.398978 0.584573 0.133074
0.498131 0.581476 0.0849775
0.545693 0.540246 0.114992
0.56907 0.485603 0.105867
0.627451 0.481651 0.100954
0.691417 0.504189 0.0884871
0.751659 0.528832 0.0652476
0.810758 0.543084 0.0332799
0.871748 0.541268 0.00489815
0.930129 0.534981 0
0.958206 0.529778 0
0.960754 0.525216 0
0.960754 0.520394 0
0.960769 0.515587 0
0.960784 0.510765 0
0.9608 0.505959 0
0.9608 0.500999 0
0.960815 0.496178 0
0.96083 0.491478 0
0.237781 0.710079 0.229419
0.236713 0.706462 0.228382
0.23563 0.702831 0.227344
0.234562 0.699214 0.226322
0.233478 0.695598 0.225284
0.23241 0.691966 0.224262
0.231342 0.68835 0.223224
0.230259 0.684733 0.222202
0.229191 0.681117 0.22118
0.244129 0.677394 0.22002
0.269718 0.673396 0.217945
0.296773 0.668849 0.214603
0.319249 0.664225 0.211505
0.304295 0.660533 0.211185
0.283772 0.650706 0.188785
0.47216 0.637247 0.108461
0.562829 0.628962 0.117952
0.598184 0.585672 0.129625
0.621393 0.535561 0.119417
0.674769 0.53019 0.113664
0.736889 0.551064 0.102602
0.799313 0.577844 0.0787366
0.859327 0.593484 0.0433204
0.918593 0.594278 0.012314
0.951736 0.590799 0.00563058
0.959548 0.586938 0.00418097
0.959823 0.582788 0.00277714
0.960098 0.578622 0.00137331
0.960372 0.574472 0
0.960632 0.570321 0
0.960647 0.565881 0
0.960662 0.561578 0
0.960662 0.55729 0
0.254475 0.762966 0.245304
0.253513 0.759548 0.24448
0.252567 0.756115 0.243641
0.251316 0.752316 0.24242
0.250034 0.748486 0.241199
0.248768 0.744671 0.239979
0.247501 0.740841 0.238758
0.246235 0.737026 0.237537
0.244968 0.733196 0.236301
0.255344 0.730129 0.235874
0.279484 0.725185 0.233036
0.306081 0.720958 0.230228
0.33228 0.716533 0.228748
0.338811 0.712444 0.22678
0.25449 0.707271 0.22472
0.448493 0.684215 0.16466
0.539651 0.684871 0.0855421
0.619745 0.675715 0.143069
0.645716 0.630289 0.145235
0.66717 0.580758 0.132708
0.720913 0.577096 0.128222
0.783032 0.59794 0.114977
0.84741 0.623484 0.0905318
0.907485 0.640711 0.0526436
0.945861 0.64155 0.0373693
0.958465 0.638666 0.0335241
0.958465 0.635767 0.0307012
0.95845 0.632731 0.0280003
0.95845 0.629221 0.0257725
0.95845 0.625696 0.0235599
0.958434 0.62208 0.0212558
0.958434 0.618555 0.019028
0.958434 0.615045 0.0168002
0.270634 0.815091 0.26096
0.269352 0.811246 0.259678
0.268086 0.807416 0.258366
0.266804 0.803571 0.257069
0.265538 0.799741 0.255772
0.264256 0.795911 0.254475
0.262989 0.792065 0.253178
0.261723 0.788235 0.251881
0.260441 0.78439 0.250584
0.265003 0.78085 0.249638
0.290517 0.778042 0.249119
0.31635 0.773358 0.246067
0.343786 0.769421 0.244694
0.358526 0.763806 0.242359
0.324224 0.758831 0.242725
0.334478 0.747707 0.212955
0.527398 0.729641 0.141939
0.603647 0.730541 0.104646
0.667781 0.71725 0.161959
0.691585 0.672496 0.159014
0.715846 0.630137 0.147219
0.768444 0.624949 0.14168
0.831174 0.64358 0.128328
0.893767 0.668254 0.101579
0.938613 0.678935 0.0785687
0.956512 0.676738 0.0752422
0.956756 0.674266 0.072221
0.957015 0.671778 0.0692149
0.95729 0.669291 0.0662089
0.957549 0.666743 0.0631113
0.957794 0.664256 0.06009
0.958053 0.661768 0.057084
0.958328 0.659297 0.054078
0.287572 0.868162 0.277272
0.286213 0.863996 0.275975
0.284871 0.859831 0.274678
0.283528 0.855665 0.273381
0.282185 0.851514 0.272084
0.280842 0.847349 0.270802
0.279561 0.843351 0.269566
0.278477 0.839948 0.268528
0.277409 0.83653 0.267491
0.276875 0.833173 0.266499
0.301808 0.82887 0.265354
0.328161 0.825589 0.263447
0.354269 0.821408 0.261479
0.374716 0.817349 0.259251
0.367666 0.811322 0.258671
0.288609 0.805524 0.253285
0.483131 0.783215 0.194202
0.579736 0.780789 0.116548
0.656718 0.7776 0.129976
0.718425 0.763928 0.182971
0.739391 0.718135 0.177554
0.760891 0.673579 0.163149
0.817121 0.670161 0.156527
0.878096 0.687251 0.142489
0.931197 0.705684 0.122042
0.953948 0.703944 0.118685
0.953994 0.702159 0.115831
0.954055 0.700389 0.112993
0.954116 0.698604 0.11014
0.954162 0.696773 0.10721
0.954223 0.695003 0.104356
0.954376 0.693126 0.101335
0.954635 0.691173 0.098146
0.304707 0.914763 0.293889
0.30338 0.912322 0.292576
0.302052 0.909865 0.291279
0.30074 0.907408 0.289982
0.299519 0.904524 0.288792
0.298405 0.901183 0.287724
0.297307 0.897826 0.286656
0.296193 0.894484 0.285588
0.295079 0.891127 0.28452
0.29398 0.887785 0.283452
0.313954 0.882551 0.282216
0.339452 0.878935 0.2804
0.365972 0.875029 0.277668
0.389456 0.871443 0.276341
0.396231 0.86537 0.274372
0.344884 0.861158 0.275532
0.362356 0.849714 0.244602
0.573358 0.826383 0.184756
0.632746 0.830793 0.0841993
0.710262 0.826062 0.159396
0.764843 0.807706 0.201999
0.78703 0.762554 0.195727
0.808865 0.718563 0.180438
0.863233 0.714916 0.174731
0.920226 0.727825 0.160464
0.948241 0.727642 0.15639
0.951156 0.725856 0.153887
0.951431 0.724041 0.151461
0.951675 0.722164 0.148943
0.951934 0.720531 0.146334
0.952178 0.718959 0.143679
0.952438 0.717403 0.141039
0.952667 0.715831 0.138384
0.319249 0.94081 0.308217
0.319234 0.9393 0.308232
0.318486 0.937774 0.3075
0.317494 0.936263 0.306523
0.316487 0.934752 0.305531
0.315496 0.933242 0.30454
0.314488 0.931731 0.303548
0.313497 0.930205 0.302556
0.312505 0.928695 0.301579
0.311498 0.927184 0.300587
0.326131 0.925109 0.299336
0.351339 0.922728 0.297627
0.377478 0.919341 0.295033
0.402502 0.916457 0.293156
0.415198 0.913451 0.291218
0.395743 0.911482 0.293034
0.323217 0.907088 0.28397
0.501534 0.886595 0.228733
0.631632 0.87744 0.176272
0.685374 0.879896 0.101396
0.759945 0.874464 0.182101
0.813184 0.85716 0.22121
0.83447 0.81001 0.215244
0.856229 0.764462 0.199344
0.90602 0.757504 0.19295
0.939681 0.758114 0.189685
0.947601 0.755398 0.187457
0.947845 0.75314 0.185168
0.948104 0.75082 0.182788
0.948348 0.748562 0.180499
0.948592 0.746319 0.17821
0.948837 0.74406 0.175921
0.949096 0.741802 0.173617
0.319402 0.962356 0.308003
0.319402 0.960845 0.308019
0.319387 0.959335 0.308034
0.319371 0.957809 0.308049
0.319356 0.956298 0.308064
0.319356 0.954787 0.30808
0.319341 0.953277 0.308095
0.319326 0.951766 0.30811
0.31931 0.950256 0.308125
0.31931 0.948745 0.308141
0.329915 0.947173 0.308125
0.355978 0.945388 0.307622
0.38294 0.94345 0.306325
0.4112 0.941222 0.304265
0.429557 0.939132 0.304753
0.42472 0.937819 0.305531
0.358282 0.937789 0.306081
0.39321 0.934539 0.275624
0.595239 0.919387 0.224353
0.674784 0.923812 0.160342
0.737133 0.926055 0.103212
0.809125 0.920592 0.208362
0.859739 0.90251 0.243931
0.880018 0.852766 0.234653
0.898039 0.80502 0.216159
0.933165 0.797345 0.21416
0.945907 0.793896 0.212222
0.945876 0.790646 0.21059
0.945861 0.787503 0.209033
0.94583 0.78436 0.207462
0.9458 0.781216 0.20589
0.945769 0.778073 0.204318
0.945754 0.77496 0.202747
0.319417 0.963867 0.307988
0.319417 0.963867 0.307988
0.319417 0.963867 0.307988
0.319417 0.963867 0.307988
0.319417 0.963867 0.307988
0.319417 0.963867 0.307988
0.319417 0.963867 0.307988
0.319417 0.963867 0.307988
0.319417 0.963867 0.307988
0.319417 0.963867 0.307988
0.324895 0.963836 0.307988
0.350774 0.963638 0.307607
0.377523 0.963272 0.306508
0.404456 0.962676 0.304738
0.426169 0.960861 0.304067
0.427268 0.95935 0.305257
0.374655 0.959121 0.306538
0.342367 0.957794 0.287984
0.563119 0.944442 0.234546
0.673274 0.943175 0.187243
0.721447 0.953857 0.0905165
0.794583 0.951797 0.183856
0.855909 0.945418 0.242466
0.887236 0.906752 0.246723
0.906294 0.859876 0.234562
0.930159 0.835111 0.224262
0.947936 0.833616 0.22414
0.947936 0.832059 0.22414
0.947951 0.830549 0.22414
0.947951 0.829038 0.224125
0.94789 0.827008 0.223819
0.947646 0.823743 0.222812
0.947402 0.820478 0.221805
0.319417 0.963867 0.307988
0.319417 0.963867 0.307988
0.319417 0.963867 0.307988
0.319417 0.963867 0.307988
0.319417 0.963867 0.307988
0.319417 0.963867 0.307988
0.319417 0.963867 0.307988
0.319417 0.963867 0.307988
0.319417 0.963867 0.307988
0.319417 0.963867 0.307988
0.319707 0.963867 0.307988
0.345541 0.963684 0.307729
0.372045 0.963363 0.306798
0.399558 0.962814 0.305104
0.423484 0.962097 0.303319
0.429969 0.961944 0.304997
0.400427 0.962829 0.307012
0.293828 0.963912 0.295796
0.524361 0.954116 0.243931
0.664195 0.949737 0.198672
0.710216 0.962692 0.102937
0.78027 0.963439 0.165454
0.845518 0.962356 0.235447
0.882979 0.931716 0.248905
0.903487 0.886763 0.238224
0.925032 0.852949 0.224369
0.947906 0.852964 0.224231
0.947906 0.852964 0.224231
0.947906 0.852125 0.224231
0.94789 0.850614 0.224216
0.947906 0.849104 0.224216
0.947906 0.847578 0.224201
0.947906 0.846067 0.224201
0.319417 0.963867 0.307988
0.319417 0.963867 0.307988
0.319417 0.963867 0.307988
0.319417 0.963867 0.307988
0.319417 0.963867 0.307988
0.319417 0.963867 0.307988
0.319417 0.963867 0.307988
0.319417 0.963867 0.307988
0.319417 0.963867 0.307988
