LUT预设1/LUT全系打包/电影感系列lut/电影感各机型log灰片/FILM中性电影.cube
TITLE "Generated by Resolve"
LUT_3D_SIZE 9
0 0 0
0 0 0
0.158038 0.00781262 0.00434882
0.457877 0.0370947 0.0156252
0.703487 0.0707256 0.0205997
0.945113 0.100969 0.0276799
0.962112 0.100999 0.0275731
0.962112 0.100999 0.0275731
0.962112 0.100999 0.0275731
0 0 0
0 0 0
0.0957198 0.00169375 0.00213626
0.399771 0.0281834 0.0130312
0.657389 0.0635996 0.0204929
0.910811 0.0968032 0.0259098
0.962112 0.100999 0.0275731
0.962112 0.100999 0.0275731
0.962112 0.100999 0.0275731
0.0226749 0.0963912 0.0213626
0.0183261 0.0822461 0.0171969
0.0477913 0.0605936 0.0116579
0.349859 0.0850843 0.0100099
0.603433 0.102754 0.018555
0.854994 0.12372 0.0261387
0.962051 0.124422 0.0276799
0.962081 0.115496 0.0276493
0.962097 0.107332 0.0276036
0.109758 0.343099 0.105623
0.102449 0.323171 0.0985428
0.116838 0.302724 0.090547
0.245411 0.228672 0.0488289
0.560571 0.251148 0.00364691
0.796384 0.255528 0.0163424
0.961608 0.261021 0.0229801
0.961654 0.250446 0.0240024
0.961685 0.240406 0.0241855
0.204898 0.60557 0.197787
0.19968 0.589731 0.192752
0.194934 0.573632 0.187518
0.272175 0.553155 0.174517
0.511818 0.4336 0.0932784
0.760754 0.488258 0.0225223
0.960906 0.462409 0
0.960952 0.444358 0
0.961028 0.426444 0
0.270634 0.815091 0.26096
0.265538 0.799741 0.255772
0.260441 0.78439 0.250584
0.343786 0.769421 0.244694
0.527398 0.729641 0.141939
0.715846 0.630137 0.147219
0.938613 0.678935 0.0785687
0.95729 0.669291 0.0662089
0.958328 0.659297 0.054078
0.319402 0.962356 0.308003
0.319356 0.956298 0.308064
0.31931 0.950256 0.308125
0.38294 0.94345 0.306325
0.358282 0.937789 0.306081
0.737133 0.926055 0.103212
0.898039 0.80502 0.216159
0.945861 0.787503 0.209033
0.945754 0.77496 0.202747
0.319417 0.963867 0.307988
0.319417 0.963867 0.307988
0.319417 0.963867 0.307988
0.361273 0.963516 0.307256
0.418814 0.96231 0.305974
0.692332 0.957656 0.149462
0.895445 0.905287 0.243946
0.947906 0.852964 0.224231
0.947906 0.852964 0.224231
0.319417 0.963867 0.307988
0.319417 0.963867 0.307988
0.319417 0.963867 0.307988
0.340124 0.963745 0.307836
0.430198 0.961929 0.304982
0.645472 0.948974 0.208972
0.877729 0.940368 0.249531
0.947906 0.852964 0.224231
0.947906 0.852964 0.224231
0 0 0
0 0 0
0.149584 0.00724804 0.00404364
0.451072 0.035996 0.0154269
0.697292 0.06981 0.0204929
0.942489 0.100969 0.0276951
0.962112 0.100999 0.0275731
0.962112 0.100999 0.0275731
0.962112 0.100999 0.0275731
0 0 0
0 0 0
0.0901198 0.00131228 0.00207523
0.392248 0.0272679 0.0129091
0.651209 0.0626841 0.0205234
0.904158 0.0958724 0.025864
0.962112 0.100999 0.0275731
0.962112 0.100999 0.0275731
0.962112 0.100999 0.0275731
0.0204166 0.0900893 0.0191806
0.016907 0.076463 0.0158541
0.0436103 0.0548867 0.0110323
0.342672 0.079942 0.0100252
0.597787 0.0978866 0.0186923
0.848844 0.11931 0.026154
0.962066 0.12047 0.0276799
0.962081 0.112001 0.0276188
0.962112 0.103777 0.0275883
0.106538 0.334493 0.102495
0.0993973 0.314717 0.0955825
0.110582 0.29395 0.0873274
0.236973 0.223224 0.0470436
0.553857 0.243839 0.00430304
0.789517 0.249821 0.016556
0.961639 0.256291 0.0237583
0.961654 0.246159 0.0240787
0.961685 0.236042 0.0242618
0.202747 0.598901 0.195727
0.197375 0.582879 0.190539
0.19176 0.566476 0.185122
0.271931 0.54583 0.171878
0.504036 0.426795 0.0916915
0.754162 0.480674 0.0210269
0.960876 0.45452 0
0.960983 0.436622 0
0.961044 0.41883 0.000213626
0.268452 0.80853 0.258747
0.263355 0.793179 0.253559
0.258793 0.778531 0.249134
0.338781 0.762966 0.243122
0.520577 0.723003 0.145663
0.709697 0.623743 0.145357
0.936477 0.674952 0.073228
0.957732 0.664973 0.0609751
0.958495 0.654643 0.0491188
0.319387 0.959762 0.308034
0.319341 0.953719 0.308095
0.319295 0.947616 0.308156
0.380102 0.940917 0.306523
0.365332 0.935088 0.30486
0.729656 0.920562 0.108751
0.895186 0.801831 0.215091
0.9458 0.782132 0.206348
0.946136 0.770886 0.199573
0.319417 0.963867 0.307988
0.319417 0.963867 0.307988
0.319417 0.963867 0.307988
0.358526 0.963561 0.307378
0.422553 0.962203 0.305669
0.689281 0.955917 0.161944
0.893278 0.909987 0.24535
0.947906 0.852964 0.224231
0.947906 0.852964 0.224231
0.319417 0.963867 0.307988
0.319417 0.963867 0.307988
0.319417 0.963867 0.307988
0.337453 0.96376 0.307881
0.43003 0.961944 0.304997
0.634211 0.948959 0.213596
0.874861 0.944518 0.249668
0.947906 0.852964 0.224231
0.947906 0.852964 0.224231
0.0265049 0.0531319 0.180713
0.024094 0.047364 0.16701
0.0987411 0.0093843 0.161563
0.441825 0.0163424 0.0977951
0.708476 0.027863 0.0925307
0.942229 0.0720684 0.0929885
0.964477 0.0731212 0.0869154
0.964477 0.0755779 0.0807965
0.962417 0.0799268 0.0694438
0.0179446 0.0347448 0.135775
0.0150301 0.0297398 0.122728
0.0708476 0.0228275 0.114137
0.370672 0.0129549 0.0641947
0.656962 0.0325017 0.0701305
0.89955 0.0749828 0.0655375
0.962356 0.0842451 0.0604562
0.96231 0.0875105 0.0534371
0.962249 0.0916304 0.0462806
0.00915541 0.0894179 0.0993362
0.00918593 0.0764782 0.0857557
0.0468757 0.0628519 0.0730144
0.322927 0.0721141 0.042237
0.597787 0.0975204 0.0343023
0.842603 0.117235 0.0383612
0.962127 0.118212 0.037232
0.962127 0.107774 0.0321508
0.962112 0.100999 0.0275731
0.0979324 0.325429 0.115389
0.0922713 0.306157 0.106188
0.101915 0.286564 0.0961318
0.228595 0.220783 0.0563973
0.546853 0.237354 0.00807202
0.782712 0.244221 0.0167849
0.961639 0.251911 0.0239719
0.961669 0.241794 0.024155
0.961715 0.231922 0.0245212
0.199191 0.591028 0.19913
0.194888 0.575875 0.189441
0.188952 0.55877 0.182391
0.269551 0.538582 0.169512
0.498344 0.423209 0.0907912
0.747845 0.473243 0.0195773
0.958312 0.446433 0
0.961013 0.429023 0
0.961074 0.410971 0.00180056
0.26627 0.801968 0.256535
0.261173 0.786618 0.251331
0.257145 0.772564 0.247669
0.333791 0.756359 0.24152
0.513817 0.716533 0.149432
0.702495 0.616251 0.143236
0.934295 0.670634 0.0680095
0.958175 0.660731 0.0558328
0.958495 0.649699 0.0442817
0.319371 0.957183 0.308064
0.319326 0.95108 0.308125
0.31928 0.945037 0.308171
0.377264 0.938399 0.306691
0.372457 0.932357 0.303639
0.721981 0.914824 0.108461
0.890913 0.797406 0.213306
0.945769 0.776761 0.203662
0.946517 0.766827 0.196384
0.319417 0.963867 0.307988
0.319417 0.963867 0.307988
0.319417 0.963867 0.307988
0.355795 0.963592 0.307454
0.424689 0.962127 0.305486
0.685618 0.954192 0.171969
0.891142 0.91458 0.246479
0.947906 0.852964 0.224231
0.947906 0.852964 0.224231
0.319417 0.963867 0.307988
0.319417 0.963867 0.307988
0.319417 0.963867 0.307988
0.334798 0.963775 0.307912
0.429862 0.961944 0.305013
0.622339 0.949187 0.218219
0.872023 0.948653 0.249805
0.947906 0.852964 0.224231
0.947906 0.852964 0.224231
0.0806744 0.174075 0.458198
0.0779126 0.167178 0.442512
0.133654 0.109789 0.43212
0.435172 0 0.448386
0.708797 0.0157931 0.397772
0.939757 0.0311284 0.294713
0.964584 0.0315404 0.268986
0.964569 0.0319524 0.240803
0.964553 0.0326238 0.214511
0.0702831 0.150698 0.40444
0.0666819 0.142855 0.38735
0.106111 0.097261 0.374243
0.361471 0 0.386679
0.66038 0.0181125 0.326345
0.897642 0.0316625 0.218692
0.964523 0.0331579 0.181704
0.964523 0.0324712 0.163073
0.964523 0.0312657 0.148211
0.0568704 0.195758 0.358511
0.0542458 0.17995 0.34052
0.0855726 0.155154 0.318791
0.290333 0.0370794 0.326497
0.610849 0.0381933 0.251835
0.850858 0.0439155 0.158343
0.964508 0.0319219 0.145174
0.964508 0.0307469 0.14078
0.964508 0.0344854 0.135622
0.0122683 0.312963 0.318486
0.00993362 0.292607 0.301183
0.02533 0.274983 0.28191
0.218219 0.257404 0.267323
0.541955 0.256779 0.204746
0.782925 0.274891 0.189044
0.962371 0.281575 0.171344
0.962325 0.269398 0.157794
0.962295 0.25565 0.143694
0.149294 0.575509 0.199344
0.149447 0.559792 0.176455
0.148302 0.543679 0.157153
0.251438 0.529488 0.179965
0.495857 0.457984 0.231647
0.731746 0.459068 0.14815
0.956374 0.439033 0.122621
0.961624 0.423819 0.11136
0.961593 0.407477 0.0986954
0.238605 0.790326 0.281285
0.237156 0.776379 0.281621
0.235584 0.762097 0.279362
0.312367 0.74934 0.282139
0.421592 0.720409 0.247608
0.697246 0.630976 0.227909
0.933181 0.67602 0.119936
0.958846 0.662196 0.100008
0.959625 0.648463 0.0861219
0.304662 0.954818 0.348455
0.306767 0.94876 0.347631
0.308248 0.942702 0.345968
0.361837 0.936416 0.342565
0.388022 0.930175 0.349981
0.702815 0.909911 0.141756
0.886442 0.800626 0.25449
0.948119 0.781369 0.234867
0.947906 0.76965 0.220005
0.30985 0.964096 0.343267
0.310994 0.96408 0.339559
0.312123 0.96405 0.335592
0.347356 0.963882 0.331731
0.423468 0.96289 0.333425
0.676555 0.950622 0.211353
0.889082 0.920745 0.262699
0.947951 0.854444 0.234134
0.947921 0.853361 0.226932
0.314794 0.964004 0.330312
0.316808 0.963973 0.326345
0.316915 0.963958 0.322347
0.329641 0.963882 0.318334
0.427787 0.962219 0.311788
0.609613 0.949615 0.223285
0.869154 0.952804 0.249943
0.947906 0.852964 0.224231
0.947906 0.852964 0.224231
0.123049 0.281376 0.703609
0.120928 0.275044 0.690181
0.174075 0.200717 0.669749
0.417227 0.00746166 0.709316
0.702495 0 0.695994
0.933547 0.00868238 0.674311
0.962692 0.0107729 0.656535
0.962676 0.0118257 0.63859
0.962661 0.0130312 0.620539
0.115999 0.262226 0.660777
0.113893 0.256657 0.647272
0.151812 0.200946 0.625498
0.327352 0.0245975 0.65919
0.654475 0 0.650401
0.89247 0.00973526 0.625559
0.962631 0.0149996 0.596078
0.962615 0.0166018 0.577264
0.9626 0.0182956 0.558129
0.101717 0.314137 0.624842
0.100526 0.297627 0.610086
0.133074 0.273228 0.59089
0.211643 0.0784772 0.593347
0.604379 0.0218662 0.602213
0.845014 0.0238346 0.573266
0.96257 0.0263523 0.52668
0.962554 0.0213169 0.505821
0.962539 0.0224918 0.482063
0.0682841 0.419318 0.599252
0.0690166 0.404059 0.583886
0.078996 0.388937 0.567895
0.253864 0.376425 0.54136
0.549523 0.228153 0.550744
0.796628 0.210803 0.496483
0.962432 0.197177 0.427955
0.962417 0.180804 0.405646
0.962448 0.164492 0.382055
0.00311284 0.560678 0.557839
0.00402838 0.545205 0.542336
0.00361639 0.529152 0.526864
0.15082 0.511666 0.509819
0.47776 0.502266 0.507225
0.727184 0.477607 0.436362
0.955245 0.488838 0.41622
0.963043 0.474418 0.39855
0.962982 0.456931 0.377584
0.12192 0.770764 0.496254
0.124208 0.756115 0.47863
0.12639 0.742123 0.460533
0.204044 0.729137 0.44036
0.334127 0.723064 0.36936
0.698878 0.665583 0.453315
0.930449 0.665736 0.354803
0.962188 0.648753 0.332265
0.962127 0.632456 0.311818
0.220203 0.952667 0.39379
0.228016 0.946487 0.359472
0.234913 0.940291 0.326741
0.289845 0.933211 0.293523
0.376699 0.926909 0.295933
0.668376 0.899992 0.250858
0.88333 0.82356 0.435889
0.951873 0.810025 0.408301
0.952667 0.799558 0.387655
0.245396 0.964004 0.275608
0.252689 0.963821 0.246006
0.25861 0.963821 0.251942
0.295125 0.963668 0.259953
0.405203 0.963455 0.344976
0.573404 0.955764 0.333745
0.887449 0.952636 0.413703
0.950896 0.881437 0.394675
0.950851 0.880125 0.383322
0.266041 0.963882 0.267155
0.270985 0.963973 0.28806
0.275914 0.964034 0.30605
0.28983 0.96405 0.319203
0.406165 0.963668 0.360967
0.455406 0.96286 0.364797
0.848661 0.963302 0.353048
0.950729 0.876005 0.357107
0.950622 0.874174 0.346212
0.159121 0.367742 0.909117
0.159121 0.367742 0.903304
0.21503 0.301534 0.884291
0.264424 0.100786 0.901015
0.694636 0 0.940383
0.928771 0 0.929229
0.964675 0 0.918639
0.964965 0 0.904143
0.965057 0 0.88867
0.159121 0.367742 0.889174
0.15877 0.366903 0.882033
0.199222 0.320394 0.860548
0.254429 0.178271 0.854383
0.648203 0 0.895186
0.884871 0 0.881636
0.965072 0 0.868009
0.965057 0 0.852613
0.965042 0 0.837919
0.150164 0.421302 0.86186
0.147127 0.403876 0.845945
0.17583 0.380728 0.828183
0.249271 0.252125 0.802991
0.595926 0.0175631 0.845914
0.837736 0.00981155 0.831922
0.964813 0.00378424 0.818189
0.963973 0 0.802747
0.963256 0 0.787533
0.119448 0.526513 0.83093
0.117418 0.511025 0.816052
0.125093 0.496162 0.801007
0.289891 0.475502 0.776257
0.510765 0.224979 0.79205
0.790173 0.202625 0.783078
0.962692 0.187594 0.76672
0.962692 0.17171 0.751003
0.962692 0.155825 0.735348
0.0656596 0.622507 0.799313
0.0646372 0.608164 0.784161
0.0641031 0.594018 0.769528
0.210285 0.587366 0.752224
0.503349 0.582895 0.727855
0.742 0.468147 0.735225
0.952056 0.450797 0.693278
0.962509 0.432059 0.675135
0.962509 0.413031 0.658122
0 0.761028 0.755947
0.000289921 0.747189 0.741512
0 0.732494 0.727092
0.0852064 0.719234 0.714168
0.412375 0.704463 0.701656
0.683375 0.694469 0.696117
0.92639 0.687297 0.656382
0.96376 0.67335 0.638422
0.963729 0.661494 0.625742
0.103212 0.950774 0.706096
0.110323 0.944701 0.691585
0.115206 0.937041 0.67715
0.164569 0.925856 0.662821
0.248066 0.916686 0.644068
0.591562 0.907851 0.586999
0.881575 0.850111 0.652766
0.958114 0.845594 0.626764
0.959075 0.835386 0.606699
0.125383 0.965225 0.657343
0.131807 0.965209 0.642771
0.138293 0.965194 0.62771
0.17232 0.965133 0.612482
0.266636 0.964996 0.587823
0.511009 0.964157 0.510689
0.862501 0.962615 0.594934
0.954803 0.912261 0.605982
0.95407 0.910582 0.593591
0.146853 0.965164 0.607477
0.153353 0.965133 0.59086
0.159808 0.965103 0.574136
0.174029 0.965057 0.556176
0.292821 0.964828 0.529549
0.423789 0.964126 0.435447
0.813672 0.961044 0.508949
0.953948 0.9075 0.566384
0.953887 0.905409 0.553964
0.159121 0.367742 0.909117
0.159121 0.367742 0.909117
0.213336 0.304967 0.896223
0.258854 0.110887 0.915053
0.688579 0 0.96437
0.923858 0 0.964126
0.962951 0 0.964096
0.962951 0 0.964096
0.962951 0 0.964096
0.159121 0.367742 0.909117
0.159121 0.367742 0.909117
0.200015 0.328908 0.899153
0.264759 0.210086 0.903441
0.639918 0 0.964416
0.878889 0 0.964172
0.962951 0 0.964096
0.962951 0 0.964096
0.962951 0 0.964096
0.156771 0.429618 0.917647
0.156802 0.420294 0.915648
0.184588 0.404135 0.911406
0.262196 0.284733 0.898375
0.584955 0.0139162 0.962509
0.83125 0.007187 0.964233
0.962951 0.00114443 0.964096
0.962951 0 0.964096
0.962951 0 0.964096
0.14345 0.557183 0.932906
0.144518 0.549004 0.932616
0.151843 0.540764 0.931548
0.30959 0.524636 0.920882
0.380438 0.266453 0.920989
0.78172 0.196231 0.964401
0.96286 0.178149 0.964202
0.962875 0.162692 0.964202
0.962875 0.148074 0.959197
0.111101 0.671534 0.947723
0.114275 0.663355 0.94725
0.117464 0.655268 0.946593
0.26688 0.653651 0.941665
0.521416 0.652201 0.927916
0.724575 0.46244 0.95349
0.949676 0.440696 0.951324
0.962737 0.423926 0.945205
0.962768 0.405844 0.938949
0.0554818 0.79028 0.957763
0.0597086 0.781079 0.954131
0.0639811 0.772168 0.94754
0.167742 0.76704 0.940139
0.459907 0.772549 0.92958
0.705943 0.768963 0.91107
0.923323 0.66981 0.922774
0.964797 0.655619 0.908934
0.964782 0.642115 0.894804
0 0.948318 0.944259
0 0.942214 0.938186
0 0.93167 0.926543
0.0440223 0.919158 0.913573
0.331563 0.905867 0.900984
0.640085 0.891234 0.887587
0.873869 0.875898 0.874449
0.962585 0.86537 0.855116
0.962478 0.851881 0.839551
0 0.965423 0.907362
0.000610361 0.965423 0.893523
0.00251774 0.965423 0.879789
0.0356756 0.965393 0.864881
0.255573 0.965225 0.851209
0.577279 0.96495 0.836362
0.812589 0.964446 0.803037
0.959854 0.943755 0.821088
0.959579 0.941665 0.80824
0.0131533 0.965408 0.86038
0.0219272 0.965393 0.845594
0.0324254 0.965393 0.829953
0.0474556 0.965377 0.814328
0.166461 0.96527 0.800946
0.508507 0.964965 0.785061
0.754452 0.96437 0.743862
0.959381 0.938445 0.777371
0.959304 0.936294 0.763775
0.159121 0.367742 0.909117
0.159121 0.367742 0.909117
0.211627 0.308217 0.8963
0.255543 0.122545 0.911498
0.682231 0 0.964385
0.919112 0 0.964141
0.962951 0 0.964096
0.962951 0 0.964096
0.962951 0 0.964096
0.159121 0.367742 0.909117
0.159121 0.367742 0.909117
0.198291 0.331563 0.899596
0.265583 0.220066 0.902998
0.633722 0 0.964431
0.873137 0 0.964187
0.962951 0 0.964096
0.962951 0 0.964096
0.962951 0 0.964096
0.156786 0.42562 0.916808
0.156817 0.416297 0.914809
0.181659 0.39968 0.910933
0.259586 0.282567 0.897963
0.576394 0.011841 0.962188
0.824643 0.00459297 0.964233
0.962951 0 0.964096
0.962951 0 0.964096
0.962951 0 0.964096
0.143908 0.553689 0.932784
0.144991 0.545495 0.932509
0.149203 0.537133 0.931151
0.304372 0.521111 0.920546
0.370718 0.266743 0.918791
0.775418 0.18909 0.964401
0.96286 0.171466 0.964202
0.962875 0.156146 0.964187
0.96289 0.140795 0.964172
0.112459 0.66804 0.947524
0.115648 0.659785 0.947021
0.118807 0.651972 0.946166
0.261601 0.650034 0.941299
0.513603 0.647761 0.928374
0.714916 0.455177 0.959777
0.947066 0.432776 0.96437
0.962753 0.417823 0.964355
0.962753 0.397894 0.96434
0.0572824 0.786343 0.957473
0.0615549 0.777066 0.956756
0.0657969 0.768536 0.956497
0.164431 0.762966 0.955047
0.454398 0.768841 0.950469
0.702358 0.767163 0.94023
0.918883 0.66392 0.964553
0.962646 0.650095 0.964492
0.962646 0.636072 0.964492
0 0.945678 0.96144
0 0.938842 0.961486
0 0.926635 0.961578
0.0416876 0.914488 0.961715
0.326268 0.900969 0.960784
0.638743 0.891127 0.961807
0.871717 0.883406 0.956786
0.962554 0.853178 0.96463
0.962554 0.83856 0.964614
0 0.965423 0.961288
0 0.965423 0.961288
0 0.965423 0.961288
0.0209659 0.965408 0.961364
0.250904 0.96524 0.962173
0.579293 0.964981 0.963333
0.823819 0.964797 0.964187
0.964691 0.964691 0.964691
0.964691 0.964691 0.964691
0 0.965423 0.961288
0 0.965423 0.961288
0 0.965423 0.961288
0.000686656 0.965423 0.961288
0.185245 0.965286 0.961944
0.525017 0.965026 0.963134
0.776638 0.964828 0.964034
0.964691 0.964691 0.964691
0.964675 0.964691 0.962539
0.159121 0.367742 0.909117
0.159121 0.367742 0.909117
0.209903 0.311467 0.89662
0.254948 0.135271 0.909194
0.675929 0 0.964385
0.914168 0 0.964141
0.962951 0 0.964096
0.962951 0 0.964096
0.962951 0 0.964096
0.159121 0.367742 0.909117
0.159121 0.367742 0.909117
0.196521 0.334279 0.900038
0.266407 0.229862 0.902556
0.627527 0 0.964431
0.867414 0 0.964187
0.962951 0 0.964096
0.962951 0 0.964096
0.962951 0 0.964096
0.156786 0.421637 0.915938
0.156802 0.412253 0.913924
0.178866 0.395377 0.91046
0.256565 0.279515 0.897505
0.566186 0.0116426 0.961944
0.818143 0.00195315 0.964248
0.962951 0 0.964096
0.962951 0 0.964096
0.962951 0 0.964096
0.144381 0.550179 0.932677
0.145464 0.541939 0.932387
0.146609 0.533761 0.930617
0.300237 0.518135 0.920211
0.356954 0.264302 0.916304
0.768994 0.181979 0.964401
0.962875 0.16492 0.964187
0.962875 0.149599 0.964187
0.962875 0.134188 0.964187
0.113832 0.664469 0.947295
0.117006 0.656367 0.946731
0.12018 0.648692 0.945739
0.256443 0.64651 0.940871
0.506691 0.64358 0.927901
0.706462 0.447807 0.959213
0.944472 0.425238 0.96437
0.962753 0.409812 0.964355
0.962768 0.388815 0.96434
0.0591287 0.782345 0.957168
0.0633555 0.773404 0.956619
0.0675975 0.76492 0.956374
0.161654 0.759136 0.954757
0.447822 0.764996 0.950195
0.696803 0.763317 0.939712
0.913375 0.658 0.964553
0.962646 0.644144 0.964492
0.962646 0.629938 0.964492
0 0.943099 0.961456
0 0.933623 0.961517
0 0.921416 0.961608
0.0420844 0.909102 0.961303
0.318257 0.895338 0.960754
0.633326 0.88719 0.961349
0.866987 0.880461 0.955795
0.962554 0.846891 0.964614
0.962554 0.832227 0.964614
0 0.965423 0.961288
0 0.965423 0.961288
0 0.965423 0.961288
0.0183261 0.965408 0.961349
0.242115 0.96524 0.962142
0.573098 0.964996 0.963317
0.817716 0.964797 0.964172
0.964691 0.964691 0.964691
0.964691 0.964691 0.964691
0 0.965423 0.961288
0 0.965423 0.961288
0 0.965423 0.961288
0 0.965423 0.961288
0.177249 0.965286 0.961913
0.51722 0.965026 0.963119
0.770565 0.964843 0.964004
0.964691 0.964691 0.964691
0.964691 0.964691 0.964691
