LUT预设1/LUT全系打包/电影感系列lut/电影感各机型log灰片/FILM中性电影.cube
TITLE "Generated by Resolve"
LUT_3D_SIZE 5
0 0 0
0.158038 0.00781262 0.00434882
0.703487 0.0707256 0.0205997
0.962112 0.100999 0.0275731
0.962112 0.100999 0.0275731
0.0226749 0.0963912 0.0213626
0.0477913 0.0605936 0.0116579
0.603433 0.102754 0.018555
0.962051 0.124422 0.0276799
0.962097 0.107332 0.0276036
0.204898 0.60557 0.197787
0.194934 0.573632 0.187518
0.511818 0.4336 0.0932784
0.960906 0.462409 0
0.961028 0.426444 0
0.319402 0.962356 0.308003
0.31931 0.950256 0.308125
0.358282 0.937789 0.306081
0.898039 0.80502 0.216159
0.945754 0.77496 0.202747
0.319417 0.963867 0.307988
0.319417 0.963867 0.307988
0.430198 0.961929 0.304982
0.877729 0.940368 0.249531
0.947906 0.852964 0.224231
0.0265049 0.0531319 0.180713
0.0987411 0.0093843 0.161563
0.708476 0.027863 0.0925307
0.964477 0.0731212 0.0869154
0.962417 0.0799268 0.0694438
0.00915541 0.0894179 0.0993362
0.0468757 0.0628519 0.0730144
0.597787 0.0975204 0.0343023
0.962127 0.118212 0.037232
0.962112 0.100999 0.0275731
0.199191 0.591028 0.19913
0.188952 0.55877 0.182391
0.498344 0.423209 0.0907912
0.958312 0.446433 0
0.961074 0.410971 0.00180056
0.319371 0.957183 0.308064
0.31928 0.945037 0.308171
0.372457 0.932357 0.303639
0.890913 0.797406 0.213306
0.946517 0.766827 0.196384
0.319417 0.963867 0.307988
0.319417 0.963867 0.307988
0.429862 0.961944 0.305013
0.872023 0.948653 0.249805
0.947906 0.852964 0.224231
0.123049 0.281376 0.703609
0.174075 0.200717 0.669749
0.702495 0 0.695994
0.962692 0.0107729 0.656535
0.962661 0.0130312 0.620539
0.101717 0.314137 0.624842
0.133074 0.273228 0.59089
0.604379 0.0218662 0.602213
0.96257 0.0263523 0.52668
0.962539 0.0224918 0.482063
0.00311284 0.560678 0.557839
0.00361639 0.529152 0.526864
0.47776 0.502266 0.507225
0.955245 0.488838 0.41622
0.962982 0.456931 0.377584
0.220203 0.952667 0.39379
0.234913 0.940291 0.326741
0.376699 0.926909 0.295933
0.88333 0.82356 0.435889
0.952667 0.799558 0.387655
0.266041 0.963882 0.267155
0.275914 0.964034 0.30605
0.406165 0.963668 0.360967
0.848661 0.963302 0.353048
0.950622 0.874174 0.346212
0.159121 0.367742 0.909117
0.213336 0.304967 0.896223
0.688579 0 0.96437
0.962951 0 0.964096
0.962951 0 0.964096
0.156771 0.429618 0.917647
0.184588 0.404135 0.911406
0.584955 0.0139162 0.962509
0.962951 0.00114443 0.964096
0.962951 0 0.964096
0.111101 0.671534 0.947723
0.117464 0.655268 0.946593
0.521416 0.652201 0.927916
0.949676 0.440696 0.951324
0.962768 0.405844 0.938949
0 0.948318 0.944259
0 0.93167 0.926543
0.331563 0.905867 0.900984
0.873869 0.875898 0.874449
0.962478 0.851881 0.839551
0.0131533 0.965408 0.86038
0.0324254 0.965393 0.829953
0.166461 0.96527 0.800946
0.754452 0.96437 0.743862
0.959304 0.936294 0.763775
0.159121 0.367742 0.909117
0.209903 0.311467 0.89662
0.675929 0 0.964385
0.962951 0 0.964096
0.962951 0 0.964096
0.156786 0.421637 0.915938
0.178866 0.395377 0.91046
0.566186 0.0116426 0.961944
0.962951 0 0.964096
0.962951 0 0.964096
0.113832 0.664469 0.947295
0.12018 0.648692 0.945739
0.506691 0.64358 0.927901
0.944472 0.425238 0.96437
0.962768 0.388815 0.96434
0 0.943099 0.961456
0 0.921416 0.961608
0.318257 0.895338 0.960754
0.866987 0.880461 0.955795
0.962554 0.832227 0.964614
0 0.965423 0.961288
0 0.965423 0.961288
0.177249 0.965286 0.961913
0.770565 0.964843 0.964004
0.964691 0.964691 0.964691
