LUT预设1/LUT全系打包/电影感系列lut/电影感各机型log灰片/GREEN绿调.cube
TITLE "Generated by Resolve"
LUT_3D_SIZE 9
0.00843824 0 0.00280766
0.00895705 0 0.00280766
0.202899 0 0.00280766
0.521492 0 0.00280766
0.767834 0 0.00280766
0.94696 0 0.00280766
0.964248 0 0.00280766
0.964248 0 0.00280766
0.964248 0 0.00280766
0.00843824 0.00520333 0.00280766
0.00843824 0 0.00280766
0.155306 0 0.00280766
0.478492 0 0.00280766
0.749081 0 0.00280766
0.942535 0 0.00280766
0.965591 0 0.00280766
0.965606 0 0.00280766
0.965896 0 0.00280766
0.00843824 0.147646 0.00280766
0.00843824 0.149447 0.00280766
0.103151 0.136065 0.00289921
0.424826 0.0997635 0.00283818
0.72488 0.0772869 0.00280766
0.942779 0.0844129 0.00280766
1 0.0863966 0.00280766
1 0.0850843 0.00280766
1 0.0909438 0.00280766
0.00843824 0.377478 0.00280766
0.00843824 0.38616 0.00280766
0.0235752 0.389013 0.00280766
0.342565 0.374456 0.00280766
0.667018 0.358129 0.00280766
0.906661 0.360922 0.00280766
1 0.36289 0.00280766
1 0.354269 0.00280766
1 0.358953 0.00280766
0.00843824 0.658579 0.00280766
0.00843824 0.664134 0.00280766
0.0136263 0.660639 0.00280766
0.286076 0.644465 0.00280766
0.604669 0.619974 0.00280766
0.857176 0.611536 0.00280766
1 0.613413 0.00280766
1 0.60322 0.00280766
1 0.606394 0.00280766
0.00843824 0.900053 0.00280766
0.00843824 0.898543 0.00280766
0.0158541 0.886748 0.00280766
0.262562 0.871458 0.00282292
0.565957 0.841978 0.00280766
0.821973 0.821317 0.00280766
1 0.814755 0.00280766
1 0.806638 0.00280766
1 0.808286 0.00280766
0.00843824 0.996948 0.00280766
0.00843824 0.996948 0.00280766
0.0185855 0.996948 0.00280766
0.247364 0.996948 0.00280766
0.531563 0.995483 0.00280766
0.790097 0.984131 0.00280766
0.978012 0.968704 0.00280766
1 0.960098 0.00280766
1 0.961044 0.00280766
0.00843824 0.996948 0.00280766
0.00843824 0.996948 0.00280766
0.0084535 0.996948 0.00280766
0.218936 0.996948 0.00280766
0.493294 0.996948 0.00280766
0.755978 0.996948 0.00280766
0.950423 0.996948 0.00280766
1 0.996948 0.00280766
1 0.996948 0.00280766
0.00843824 0.996948 0.00280766
0.00843824 0.996948 0.00280766
0.0084535 0.996948 0.00280766
0.223697 0.996948 0.00280766
0.497856 0.996948 0.00280766
0.759258 0.996948 0.00280766
0.952239 0.996948 0.00280766
1 0.996948 0.00280766
1 0.996948 0.00280766
0.00843824 0 0.0343328
0.0084535 0 0.026215
0.197498 0 0.00602731
0.514702 0 0.00280766
0.763394 0 0.00280766
0.944564 0 0.00280766
0.96434 0 0.00280766
0.964355 0 0.00280766
0.964416 0 0.00280766
0.00843824 0.00242618 0.00741588
0.00843824 0 0.00280766
0.153872 0 0.00282292
0.478325 0 0.00280766
0.750149 0 0.00280766
0.94406 0 0.00280766
0.965972 0 0.00280766
0.965911 0 0.00280766
0.966308 0 0.00280766
0.00843824 0.148058 0.00280766
0.00843824 0.150958 0.00280766
0.105577 0.13901 0.00282292
0.429694 0.102602 0.00280766
0.729839 0.080293 0.00280766
0.947265 0.0880903 0.00280766
1 0.08925 0.00280766
1 0.0872206 0.00280766
1 0.0927443 0.00280766
0.00843824 0.379995 0.00280766
0.00843824 0.389944 0.00280766
0.0264591 0.393408 0.00280766
0.346609 0.378195 0.00280766
0.670848 0.360647 0.00280766
0.908537 0.362509 0.00280766
1 0.363455 0.00280766
1 0.35433 0.00280766
1 0.358679 0.00280766
0.00843824 0.660426 0.00280766
0.00843824 0.666087 0.00280766
0.010956 0.662379 0.00280766
0.286534 0.645823 0.00280766
0.605554 0.620768 0.00280766
0.857389 0.611963 0.00280766
1 0.613535 0.00280766
1 0.602457 0.00280766
1 0.605554 0.00280766
0.00843824 0.899458 0.00280766
0.00843824 0.898314 0.00280766
0.0133364 0.887236 0.00280766
0.262333 0.871748 0.00280766
0.56585 0.84184 0.00280766
0.821637 0.821027 0.00280766
1 0.814481 0.00280766
1 0.805768 0.00280766
1 0.80737 0.00280766
0.00843824 0.996948 0.00280766
0.00843824 0.996948 0.00280766
0.0161135 0.996948 0.00280766
0.246311 0.996948 0.00280766
0.530587 0.994675 0.00280766
0.789395 0.983536 0.00280766
0.977432 0.968154 0.00280766
1 0.959258 0.00280766
1 0.960052 0.00280766
0.00843824 0.996948 0.00280766
0.00843824 0.996948 0.00280766
0.00950637 0.996948 0.00280766
0.215976 0.996948 0.00280766
0.490181 0.996948 0.00280766
0.753429 0.996948 0.00280766
0.948516 0.996948 0.00280766
1 0.996948 0.00280766
1 0.996948 0.00280766
0.00843824 0.996948 0.00280766
0.00843824 0.996948 0.00280766
0.00979629 0.996948 0.00280766
0.220157 0.996948 0.00280766
0.494163 0.996948 0.00280766
0.756207 0.996948 0.00280766
0.950118 0.996948 0.00280766
1 0.996948 0.00280766
1 0.996948 0.00280766
0.00843824 0 0.27483
0.00843824 0 0.261295
0.184009 0 0.219089
0.500267 0 0.15053
0.753628 0 0.106493
0.939132 0 0.0910658
0.965774 0 0.0853742
0.965713 0 0.0901198
0.965637 0 0.102144
0.00843824 0 0.222873
0.00843824 0 0.20911
0.146654 0 0.181125
0.471138 0 0.127535
0.745663 0 0.0940414
0.941451 0 0.0877241
0.967529 0 0.0850996
0.967559 0 0.0873579
0.967956 0 0.0955062
0.00843824 0.143969 0.144549
0.00843824 0.147906 0.147936
0.104143 0.137499 0.137865
0.42884 0.103853 0.104646
0.73228 0.0833295 0.0843824
0.951537 0.0919509 0.0932174
1 0.0930648 0.0945144
1 0.0898756 0.0914626
1 0.0955673 0.0971084
0.00843824 0.381704 0.0507973
0.00843824 0.39266 0.0571298
0.0317693 0.39678 0.0662699
0.348943 0.380926 0.0605478
0.672435 0.361883 0.0485237
0.910597 0.361791 0.0540169
1 0.362173 0.0602731
1 0.351614 0.0541085
1 0.355947 0.0568551
0.00843824 0.661311 0.0309758
0.00843824 0.666911 0.0328679
0.00978103 0.661234 0.0328832
0.28336 0.643839 0.0266728
0.601907 0.617761 0.00959792
0.855497 0.607569 0.00662242
1 0.608392 0.0137636
1 0.59678 0.00936904
1 0.599634 0.0116121
0.00843824 0.89688 0.0523842
0.00843824 0.896162 0.0493629
0.0116732 0.883543 0.0374151
0.254902 0.867445 0.0238804
0.557595 0.836973 0.00311284
0.815198 0.815106 0.00288396
0.998032 0.807797 0.00303655
1 0.798886 0.00311284
1 0.800458 0.00337224
0.00843824 0.996948 0.06804
0.00843824 0.996948 0.0647746
0.0137789 0.996948 0.0477913
0.237934 0.996948 0.0263371
0.520806 0.993255 0.00440986
0.781476 0.977829 0.00285344
0.971023 0.962066 0.00280766
1 0.952865 0.00280766
1 0.953628 0.00280766
0.00843824 0.996948 0.0508125
0.00843824 0.996948 0.0423133
0.00843824 0.996948 0.0242924
0.207691 0.996948 0.00975052
0.479728 0.996948 0.00386053
0.744244 0.996948 0.00280766
0.94139 0.996948 0.00280766
1 0.996948 0.00280766
1 0.996948 0.00280766
0.00843824 0.996948 0.0562295
0.00843824 0.996948 0.0469215
0.00843824 0.996948 0.0281071
0.211551 0.996948 0.0128023
0.483589 0.996948 0.00444038
0.746761 0.996948 0.00280766
0.942962 0.996948 0.00280766
1 0.996948 0.00280766
1 0.996948 0.00280766
0.00843824 0 0.6327
0.00843824 0 0.61561
0.161135 0 0.569848
0.475959 0 0.495827
0.734829 0 0.44651
0.924559 0 0.429313
0.959304 0 0.421637
0.959197 0 0.426352
0.958892 0 0.440208
0.00843824 0 0.574441
0.00843824 0 0.561624
0.128954 0 0.532631
0.452384 0 0.473793
0.73048 0 0.436637
0.928847 0 0.428977
0.961166 0 0.425757
0.961242 0 0.428382
0.961501 0 0.438605
0.00843824 0.12958 0.48513
0.00843824 0.133806 0.492195
0.092668 0.125826 0.479713
0.417288 0.0953384 0.441962
0.724239 0.0766613 0.419089
0.946166 0.0861677 0.425986
1 0.0877394 0.425071
1 0.0843824 0.420279
1 0.0897231 0.427085
0.00843824 0.376135 0.373754
0.00843824 0.386664 0.384268
0.0294499 0.391348 0.388907
0.344289 0.376928 0.374395
0.668116 0.356863 0.35433
0.908309 0.355428 0.352956
1 0.356909 0.354498
1 0.346654 0.344289
1 0.350668 0.348211
0.00843824 0.657328 0.337026
0.00843824 0.661784 0.339773
0.00914015 0.65568 0.330373
0.278065 0.639628 0.311833
0.596902 0.613703 0.285481
0.853437 0.602396 0.274479
1 0.603006 0.276555
1 0.592233 0.267033
1 0.59498 0.269627
0.00843824 0.8925 0.334585
0.00843824 0.891661 0.330877
0.0106966 0.878737 0.308339
0.247517 0.863401 0.28249
0.548516 0.832868 0.246387
0.808713 0.8094 0.219776
0.995682 0.801205 0.209903
1 0.792737 0.200916
1 0.794095 0.202579
0.00843824 0.996948 0.327153
0.00843824 0.996948 0.322499
0.0120546 0.996948 0.295125
0.228931 0.996948 0.263539
0.509514 0.991485 0.222034
0.771389 0.971283 0.184695
0.963165 0.95465 0.165652
1 0.945403 0.155032
1 0.946151 0.156039
0.00843824 0.996948 0.300877
0.00843824 0.996948 0.288609
0.00843824 0.996948 0.261692
0.199924 0.996948 0.234043
0.467521 0.996948 0.195102
0.732921 0.996948 0.155764
0.933349 0.996948 0.133959
1 0.996948 0.12343
1 0.996948 0.12401
0.00843824 0.996948 0.3084
0.00843824 0.996948 0.294865
0.00843824 0.996948 0.266255
0.203464 0.996948 0.237583
0.470848 0.996948 0.197711
0.735241 0.996948 0.157839
0.9346 0.996948 0.135409
1 0.996948 0.124575
1 0.996948 0.124575
0.00843824 0 0.872038
0.00843824 0 0.858778
0.147234 0 0.825315
0.459556 0 0.765698
0.722438 0 0.72517
0.915587 0 0.713726
0.954604 0 0.70808
0.954604 0 0.711574
0.954574 0 0.721752
0.00843824 0 0.833112
0.00843824 0 0.82678
0.118334 0 0.806104
0.440635 0 0.756588
0.720607 0 0.723552
0.921157 0 0.718685
0.956863 0 0.716838
0.956924 0 0.718212
0.957397 0 0.725536
0.00843824 0.120104 0.77322
0.00843824 0.125154 0.781186
0.085359 0.11841 0.774609
0.410483 0.0898451 0.744198
0.719402 0.0725567 0.724834
0.942672 0.082887 0.733242
1 0.0844434 0.73283
1 0.0800793 0.726772
1 0.0852827 0.732052
0.00843824 0.372519 0.68545
0.00843824 0.382696 0.697078
0.0265812 0.387076 0.704097
0.339055 0.372091 0.692897
0.661799 0.350698 0.672938
0.903304 0.348104 0.671138
1 0.349706 0.673106
1 0.3393 0.662516
1 0.343343 0.665797
0.00843824 0.652445 0.652323
0.00843824 0.655863 0.655802
0.00903334 0.648432 0.648051
0.270237 0.632547 0.631708
0.588449 0.60589 0.60473
0.846571 0.593225 0.591821
1 0.593576 0.591989
1 0.582849 0.58114
1 0.585351 0.583658
0.00843824 0.885283 0.647578
0.00843824 0.88397 0.645685
0.00985733 0.870237 0.623056
0.236378 0.854353 0.595483
0.535683 0.82324 0.55613
0.797284 0.79852 0.525444
0.988586 0.789349 0.51162
1 0.780819 0.499779
1 0.782147 0.501595
0.00843824 0.996948 0.634592
0.00843824 0.996948 0.63122
0.0101472 0.996948 0.601877
0.215656 0.996948 0.564675
0.493874 0.987686 0.517769
0.757198 0.959396 0.474891
0.950652 0.942443 0.450507
1 0.93315 0.435569
1 0.933867 0.436805
0.00843824 0.996948 0.604517
0.00843824 0.996948 0.593103
0.00843824 0.996948 0.5617
0.187182 0.996948 0.524559
0.45185 0.996948 0.478874
0.71841 0.996948 0.432654
0.92137 0.996948 0.4038
1 0.996948 0.388266
1 0.996948 0.3888
0.00843824 0.996948 0.612055
0.00843824 0.996948 0.599451
0.00843824 0.996948 0.566613
0.190402 0.996948 0.528588
0.455146 0.996948 0.481971
0.7205 0.996948 0.434913
0.922606 0.996948 0.405478
1 0.996948 0.389578
1 0.996948 0.389319
0.00843824 0 0.999878
0.00843824 0 0.998962
0.139681 0 0.994308
0.451133 0 0.948211
0.718105 0 0.916167
0.914488 0 0.909224
0.956573 0 0.905821
0.956619 0 0.908843
0.956741 0 0.916671
0.00843824 0 0.997803
0.00843824 0 0.996063
0.115267 0 0.985687
0.436973 0 0.948653
0.718883 0 0.91841
0.921736 0 0.916304
0.959335 0 0.915541
0.959335 0 0.916091
0.95996 0 0.921538
0.00843824 0.118624 0.968887
0.00843824 0.124483 0.976135
0.0863355 0.119326 0.972854
0.411948 0.092668 0.947967
0.722454 0.0766613 0.932219
0.946914 0.0872663 0.942596
1 0.0883192 0.94345
1 0.0829633 0.937575
1 0.0881971 0.941726
0.00843824 0.376684 0.902998
0.00843824 0.386923 0.911711
0.0304875 0.390219 0.921508
0.340948 0.374243 0.916381
0.662425 0.35111 0.900725
0.904738 0.347478 0.902861
1 0.34902 0.909438
1 0.337957 0.901595
1 0.341833 0.903792
0.00843824 0.654002 0.880201
0.00843824 0.656565 0.882231
0.00927749 0.647669 0.879973
0.268605 0.630838 0.873579
0.585306 0.60325 0.853422
0.844266 0.588968 0.844953
1 0.588205 0.849042
1 0.577325 0.841718
1 0.579828 0.843427
0.00843824 0.883268 0.886961
0.00843824 0.881758 0.885298
0.00953689 0.866514 0.869703
0.229755 0.849149 0.851789
0.526894 0.816678 0.818921
0.788693 0.790372 0.792279
0.97998 0.779797 0.781415
1 0.770916 0.77232
1 0.772107 0.773526
0.00843824 0.996948 0.885878
0.00843824 0.996948 0.883528
0.00898756 0.996948 0.861494
0.205066 0.996017 0.832715
0.480583 0.983474 0.791135
0.744076 0.948547 0.75111
0.938537 0.930602 0.728481
1 0.921004 0.715267
1 0.921752 0.716091
0.00843824 0.996948 0.863981
0.00843824 0.996948 0.85597
0.00843824 0.996948 0.831388
0.175601 0.996948 0.800534
0.437278 0.996948 0.758572
0.704021 0.996948 0.714122
0.908568 0.996948 0.686671
1 0.996948 0.672129
1 0.996948 0.672618
0.00843824 0.996948 0.868879
0.00843824 0.996948 0.860365
0.00843824 0.996948 0.835004
0.178653 0.996948 0.803632
0.440131 0.996948 0.7608
0.705943 0.996948 0.715908
0.909667 0.996948 0.687968
1 0.996948 0.672847
1 0.996948 0.672847
0.00843824 0 0.999878
0.00843824 0 0.999054
0.133303 0 0.994659
0.445029 0 0.967727
0.714916 0 0.947372
0.91313 0 0.949096
0.957336 0 0.950759
0.957336 0 0.950759
0.957336 0 0.950759
0.00843824 0 1
0.00843824 0 1
0.113115 0 0.996948
0.434897 0 0.969848
0.717739 0 0.948959
0.921508 0 0.951843
0.959976 0 0.953399
0.959884 0 0.953307
0.960342 0 0.953765
0.00843824 0.117235 1
0.00843824 0.123293 1
0.0857557 0.1187 1
0.411475 0.0930037 1
0.722835 0.0775158 0.995483
0.947494 0.0878614 1
1 0.0885786 1
1 0.0830396 1
1 0.0876783 1
0.00843824 0.379294 0.996307
0.00843824 0.388586 0.996719
0.0324102 0.391455 1
0.341894 0.375433 1
0.662974 0.352117 1
0.906966 0.34815 1
1 0.350301 1
1 0.339239 1
1 0.343053 1
0.00843824 0.655909 1
0.00843824 0.657588 1
0.00982681 0.648295 1
0.269871 0.632441 1
0.586328 0.6047 1
0.846128 0.589578 1
1 0.587747 1
1 0.576883 1
1 0.57937 1
0.00843824 0.884245 1
0.00843824 0.882582 1
0.0096437 0.866835 1
0.228489 0.848966 1
0.523583 0.815747 0.994385
0.785824 0.787915 0.981537
0.976883 0.775891 0.97232
1 0.766796 0.96524
1 0.767971 0.966323
0.00843824 0.996948 1
0.00843824 0.996948 1
0.00857557 0.996948 1
0.200336 0.995224 0.999771
0.473686 0.979721 0.984527
0.737285 0.943633 0.94847
0.932509 0.924788 0.929381
1 0.914748 0.919173
1 0.915373 0.919814
0.00843824 0.996948 1
0.00843824 0.996948 1
0.00843824 0.996948 1
0.170108 0.996948 0.994018
0.428931 0.996948 0.961471
0.695415 0.996948 0.922255
0.90164 0.996948 0.899809
1 0.996948 0.889113
1 0.996948 0.889448
0.00843824 0.996948 1
0.00843824 0.996948 1
0.00843824 0.996948 1
0.172992 0.996948 0.996017
0.431601 0.996948 0.96289
0.697185 0.996948 0.923354
0.902449 0.996948 0.900587
1 0.996948 0.889632
1 0.996948 0.889448
0.00843824 0 0.999878
0.00843824 0 0.999084
0.131624 0 0.994781
0.444419 0 0.967773
0.715221 0 0.947387
0.913924 0 0.949126
0.957336 0 0.950759
0.957336 0 0.950759
0.957336 0 0.950759
0.00843824 0 1
0.00843824 0 1
0.112947 0 0.996887
0.434836 0 0.969818
0.717784 0 0.948928
0.92192 0 0.951904
0.95996 0 0.953399
0.959808 0 0.953231
0.960235 0 0.953643
0.00843824 0.11725 1
0.00843824 0.123445 1
0.0856336 0.118578 1
0.410941 0.0927596 1
0.72166 0.076936 0.995178
0.945769 0.0865797 1
1 0.0868849 1
1 0.0807355 1
1 0.0854353 1
0.00843824 0.379248 0.996323
0.00843824 0.387717 0.996674
0.0312505 0.389487 1
0.339162 0.372854 1
0.659678 0.348791 1
0.904143 0.344396 1
1 0.346685 1
1 0.335698 1
1 0.339345 1
0.00843824 0.653773 1
0.00843824 0.654475 1
0.0103304 0.644495 1
0.266087 0.62829 1
0.582223 0.600916 1
0.843351 0.585763 1
1 0.583993 1
1 0.573571 1
1 0.575891 1
0.00843824 0.881743 1
0.00843824 0.879484 1
0.00947585 0.863432 1
0.224674 0.845838 1
0.519509 0.81297 1
0.782681 0.785092 1
0.974548 0.772961 1
1 0.763775 1
1 0.764996 1
0.00843824 0.996948 1
0.00843824 0.996948 1
0.00849927 0.996948 1
0.196979 0.994492 1
0.46894 0.977371 1
0.733089 0.940932 1
0.929183 0.921645 1
1 0.911681 1
1 0.9122 1
0.00843824 0.996948 1
0.00843824 0.996948 1
0.00843824 0.996948 1
0.167102 0.996948 1
0.424002 0.996948 1
0.690974 0.996948 1
0.89807 0.996948 1
1 0.996948 1
1 0.996948 1
0.00843824 0.996948 1
0.00843824 0.996948 1
0.00843824 0.996948 1
0.169619 0.996948 1
0.42649 0.996948 1
0.692561 0.996948 1
0.898894 0.996948 1
1 0.996948 1
1 0.996948 1
0.00843824 0 0.999878
0.00843824 0 0.999054
0.135729 0 0.994629
0.449683 0 0.967269
0.718944 0 0.94728
0.917082 0 0.949233
0.957336 0 0.950759
0.957336 0 0.950759
0.957336 0 0.950759
0.00843824 0 1
0.00843824 0 1
0.116274 0 0.99678
0.43917 0 0.969512
0.720699 0 0.949035
0.924407 0 0.952255
0.960159 0 0.953582
0.959945 0 0.953368
0.960357 0 0.95378
0.00843824 0.119799 1
0.00843824 0.125704 1
0.0878767 0.120867 1
0.413947 0.0946822 1
0.723644 0.0791485 0.99556
0.947494 0.0886397 1
1 0.0887312 1
1 0.0824445 1
1 0.0869459 1
0.00843824 0.382162 0.996399
0.00843824 0.390219 0.996689
0.0328069 0.391669 1
0.340948 0.374563 1
0.660822 0.35053 1
0.905074 0.345983 1
1 0.347936 1
1 0.336828 1
1 0.34049 1
0.00843824 0.655665 1
0.00843824 0.655955 1
0.0109712 0.64593 1
0.267399 0.629648 1
0.583444 0.602045 1
0.844053 0.586725 1
1 0.584924 1
1 0.57435 1
1 0.576669 1
0.00843824 0.882872 1
0.00843824 0.880385 1
0.00968948 0.864271 1
0.225772 0.846418 1
0.520348 0.813519 1
0.783139 0.785519 1
0.974899 0.773388 1
1 0.764233 1
1 0.765286 1
0.00843824 0.996948 1
0.00843824 0.996948 1
0.00849927 0.996948 1
0.197498 0.994568 1
0.469581 0.977554 1
0.73341 0.941146 1
0.929427 0.921874 1
1 0.911803 1
1 0.912337 1
0.00843824 0.996948 1
0.00843824 0.996948 1
0.00843824 0.996948 1
0.167483 0.996948 1
0.424506 0.996948 1
0.691203 0.996948 1
0.898222 0.996948 1
1 0.996948 1
1 0.996948 1
0.00843824 0.996948 1
0.00843824 0.996948 1
0.00843824 0.996948 1
0.169818 0.996948 1
0.426749 0.996948 1
0.69279 0.996948 1
0.898894 0.996948 1
1 0.996948 1
1 0.996948 1
