LUT预设1/LUT全系打包/电影感系列lut/电影感各机型log灰片/GREEN绿调.cube
TITLE "Generated by Resolve"
LUT_3D_SIZE 5
0.00843824 0 0.00280766
0.202899 0 0.00280766
0.767834 0 0.00280766
0.964248 0 0.00280766
0.964248 0 0.00280766
0.00843824 0.147646 0.00280766
0.103151 0.136065 0.00289921
0.72488 0.0772869 0.00280766
1 0.0863966 0.00280766
1 0.0909438 0.00280766
0.00843824 0.658579 0.00280766
0.0136263 0.660639 0.00280766
0.604669 0.619974 0.00280766
1 0.613413 0.00280766
1 0.606394 0.00280766
0.00843824 0.996948 0.00280766
0.0185855 0.996948 0.00280766
0.531563 0.995483 0.00280766
0.978012 0.968704 0.00280766
1 0.961044 0.00280766
0.00843824 0.996948 0.00280766
0.0084535 0.996948 0.00280766
0.497856 0.996948 0.00280766
0.952239 0.996948 0.00280766
1 0.996948 0.00280766
0.00843824 0 0.27483
0.184009 0 0.219089
0.753628 0 0.106493
0.965774 0 0.0853742
0.965637 0 0.102144
0.00843824 0.143969 0.144549
0.104143 0.137499 0.137865
0.73228 0.0833295 0.0843824
1 0.0930648 0.0945144
1 0.0955673 0.0971084
0.00843824 0.661311 0.0309758
0.00978103 0.661234 0.0328832
0.601907 0.617761 0.00959792
1 0.608392 0.0137636
1 0.599634 0.0116121
0.00843824 0.996948 0.06804
0.0137789 0.996948 0.0477913
0.520806 0.993255 0.00440986
0.971023 0.962066 0.00280766
1 0.953628 0.00280766
0.00843824 0.996948 0.0562295
0.00843824 0.996948 0.0281071
0.483589 0.996948 0.00444038
0.942962 0.996948 0.00280766
1 0.996948 0.00280766
0.00843824 0 0.872038
0.147234 0 0.825315
0.722438 0 0.72517
0.954604 0 0.70808
0.954574 0 0.721752
0.00843824 0.120104 0.77322
0.085359 0.11841 0.774609
0.719402 0.0725567 0.724834
1 0.0844434 0.73283
1 0.0852827 0.732052
0.00843824 0.652445 0.652323
0.00903334 0.648432 0.648051
0.588449 0.60589 0.60473
1 0.593576 0.591989
1 0.585351 0.583658
0.00843824 0.996948 0.634592
0.0101472 0.996948 0.601877
0.493874 0.987686 0.517769
0.950652 0.942443 0.450507
1 0.933867 0.436805
0.00843824 0.996948 0.612055
0.00843824 0.996948 0.566613
0.455146 0.996948 0.481971
0.922606 0.996948 0.405478
1 0.996948 0.389319
0.00843824 0 0.999878
0.133303 0 0.994659
0.714916 0 0.947372
0.957336 0 0.950759
0.957336 0 0.950759
0.00843824 0.117235 1
0.0857557 0.1187 1
0.722835 0.0775158 0.995483
1 0.0885786 1
1 0.0876783 1
0.00843824 0.655909 1
0.00982681 0.648295 1
0.586328 0.6047 1
1 0.587747 1
1 0.57937 1
0.00843824 0.996948 1
0.00857557 0.996948 1
0.473686 0.979721 0.984527
0.932509 0.924788 0.929381
1 0.915373 0.919814
0.00843824 0.996948 1
0.00843824 0.996948 1
0.431601 0.996948 0.96289
0.902449 0.996948 0.900587
1 0.996948 0.889448
0.00843824 0 0.999878
0.135729 0 0.994629
0.718944 0 0.94728
0.957336 0 0.950759
0.957336 0 0.950759
0.00843824 0.119799 1
0.0878767 0.120867 1
0.723644 0.0791485 0.99556
1 0.0887312 1
1 0.0869459 1
0.00843824 0.655665 1
0.0109712 0.64593 1
0.583444 0.602045 1
1 0.584924 1
1 0.576669 1
0.00843824 0.996948 1
0.00849927 0.996948 1
0.469581 0.977554 1
0.929427 0.921874 1
1 0.912337 1
0.00843824 0.996948 1
0.00843824 0.996948 1
0.426749 0.996948 1
0.898894 0.996948 1
1 0.996948 1
