LUT预设1/LUT全系打包/电影感系列lut/电影感各机型log灰片/GREEN绿调.cube
TITLE "Generated by Resolve"
LUT_3D_SIZE 33
0.00843824 0 0.00280766
0.00843824 0 0.00280766
0.00843824 0 0.00280766
0.00843824 0 0.00280766
0.00895705 0 0.00280766
0.0305486 0 0.00280766
0.0788281 0 0.00280766
0.135439 0 0.00280766
0.202899 0 0.00280766
0.280919 0 0.00280766
0.363729 0 0.00280766
0.444129 0 0.00280766
0.521492 0 0.00280766
0.592905 0 0.00280766
0.657343 0 0.00280766
0.715373 0 0.00280766
0.767834 0 0.00280766
0.815167 0 0.00280766
0.860044 0 0.00280766
0.904067 0 0.00280766
0.94696 0 0.00280766
0.964248 0 0.00280766
0.964248 0 0.00280766
0.964248 0 0.00280766
0.964248 0 0.00280766
0.964248 0 0.00280766
0.964248 0 0.00280766
0.964248 0 0.00280766
0.964248 0 0.00280766
0.964248 0 0.00280766
0.964248 0 0.00280766
0.964248 0 0.00280766
0.964248 0 0.00280766
0.00843824 0 0.00280766
0.00843824 0 0.00280766
0.00843824 0 0.00280766
0.00843824 0 0.00280766
0.00843824 0 0.00280766
0.0193332 0 0.00280766
0.0623484 0 0.00280766
0.11487 0 0.00280766
0.178164 0 0.00280766
0.253086 0 0.00280766
0.33489 0 0.00280766
0.416251 0 0.00280766
0.494835 0 0.00280766
0.568505 0 0.00280766
0.635706 0 0.00280766
0.696666 0 0.00280766
0.751537 0 0.00280766
0.801282 0 0.00280766
0.847776 0 0.00280766
0.893004 0 0.00280766
0.937118 0 0.00280766
0.964248 0 0.00280766
0.964248 0 0.00280766
0.964248 0 0.00280766
0.964248 0 0.00280766
0.964248 0 0.00280766
0.964248 0 0.00280766
0.964248 0 0.00280766
0.964248 0 0.00280766
0.964248 0 0.00280766
0.964248 0 0.00280766
0.964248 0 0.00280766
0.964248 0 0.00280766
0.00843824 0 0.00280766
0.00843824 0 0.00280766
0.00843824 0 0.00280766
0.00843824 0 0.00280766
0.00843824 0 0.00280766
0.0162051 0 0.00280766
0.0548409 0 0.00282292
0.106828 0 0.00283818
0.168215 0 0.00285344
0.241825 0 0.00283818
0.323186 0 0.00282292
0.405081 0 0.00280766
0.48484 0 0.00280766
0.560433 0 0.00280766
0.629236 0 0.00280766
0.691585 0 0.00280766
0.748043 0 0.00280766
0.799298 0 0.00280766
0.846723 0 0.00280766
0.892668 0 0.00280766
0.938247 0 0.00280766
0.964248 0 0.00280766
0.964248 0 0.00280766
0.964248 0 0.00280766
0.964248 0 0.00280766
0.964248 0 0.00280766
0.964248 0 0.00280766
0.964248 0 0.00280766
0.964248 0 0.00280766
0.964248 0 0.00280766
0.964248 0 0.00280766
0.964248 0 0.00280766
0.964248 0 0.00280766
0.00843824 0 0.00280766
0.00843824 0 0.00280766
0.00843824 0 0.00280766
0.00843824 0 0.00280766
0.00843824 0 0.00280766
0.0141604 0 0.00280766
0.0491188 0 0.00280766
0.100954 0 0.00280766
0.16144 0 0.00280766
0.23473 0 0.00280766
0.316732 0 0.00280766
0.399863 0 0.00280766
0.481102 0 0.00280766
0.557961 0 0.00280766
0.628138 0 0.00280766
0.691859 0 0.00280766
0.749126 0 0.00280766
0.800565 0 0.00280766
0.848508 0 0.00280766
0.894743 0 0.00280766
0.940993 0 0.00280766
0.964324 0 0.00280766
0.964309 0 0.00280766
0.964279 0 0.00280766
0.964263 0 0.00280766
0.964248 0 0.00280766
0.964248 0 0.00280766
0.964248 0 0.00280766
0.964248 0 0.00280766
0.964248 0 0.00280766
0.964248 0 0.00280766
0.964248 0 0.00280766
0.964248 0 0.00280766
0.00843824 0.00520333 0.00280766
0.00843824 0.00161746 0.00280766
0.00843824 0 0.00280766
0.00843824 0 0.00280766
0.00843824 0 0.00280766
0.0120699 0 0.00280766
0.0428168 0 0.00280766
0.0950179 0 0.00280766
0.155306 0 0.00280766
0.228946 0 0.00280766
0.311742 0 0.00280766
0.396033 0 0.00280766
0.478492 0 0.00280766
0.556481 0 0.00280766
0.627604 0 0.00280766
0.691661 0 0.00280766
0.749081 0 0.00280766
0.801099 0 0.00280766
0.849195 0 0.00280766
0.895964 0 0.00280766
0.942535 0 0.00280766
0.964691 0 0.00280766
0.965743 0 0.00280766
0.965652 0 0.00280766
0.965591 0 0.00280766
0.965545 0 0.00280766
0.96553 0 0.00280766
0.96553 0 0.00280766
0.965606 0 0.00280766
0.965682 0 0.00280766
0.965759 0 0.00280766
0.965835 0 0.00280766
0.965896 0 0.00280766
0.00843824 0.0333867 0.00280766
0.00843824 0.0301976 0.00280766
0.00843824 0.0289921 0.00280766
0.00843824 0.0280156 0.00280766
0.00843824 0.0264744 0.00280766
0.00927749 0.0229191 0.00280766
0.0337835 0.0179751 0.00280766
0.0859998 0.0123903 0.00280766
0.146273 0.0069276 0.00280766
0.219486 0.00352483 0.00280766
0.302052 0 0.00280766
0.386892 0 0.00280766
0.469551 0 0.00280766
0.548684 0 0.00280766
0.621042 0 0.00280766
0.686091 0 0.00280766
0.744915 0 0.00280766
0.797925 0 0.00280766
0.847257 0 0.00280766
0.894804 0 0.00280766
0.942092 0 0.00280766
0.96817 0 0.00280766
0.970443 0 0.00280766
0.970275 0 0.00280766
0.970153 0 0.00280766
0.970031 0 0.00280766
0.969909 0 0.00280766
0.969879 0 0.00280766
0.970031 0 0.00280766
0.970169 0 0.00280766
0.970306 0 0.00280766
0.970443 0 0.00280766
0.970581 0 0.00280766
0.00843824 0.0660105 0.00280766
0.00843824 0.0636912 0.00280766
0.00843824 0.0636301 0.00280766
0.00843824 0.0637369 0.00280766
0.00843824 0.0631571 0.00280766
0.00843824 0.0604562 0.00280766
0.0260471 0.0563211 0.00280766
0.0747387 0.0515145 0.00280766
0.134188 0.0451972 0.00280766
0.205554 0.035874 0.00280766
0.287282 0.0242466 0.00280766
0.372915 0.014435 0.00280766
0.456382 0.00679026 0.00280766
0.536263 0 0.00280766
0.610254 0 0.00280766
0.677653 0 0.00280766
0.738598 0 0.00280766
0.793317 0 0.00280766
0.843976 0 0.00280766
0.892638 0 0.00280766
0.941207 0 0.00280766
0.974441 0 0.00280766
0.978821 0 0.00280766
0.978622 0 0.00280766
0.978408 0 0.00280766
0.978241 0 0.00280766
0.978149 0 0.00280766
0.978164 0 0.00280766
0.9785 0 0.00280766
0.97879 0 0.00280766
0.979126 0 0.00280766
0.979416 0 0.00280766
0.979736 0 0.00280766
0.00843824 0.103807 0.00280766
0.00843824 0.102434 0.00280766
0.00843824 0.103319 0.00280766
0.00843824 0.104143 0.00280766
0.00843824 0.104112 0.00280766
0.00843824 0.102037 0.00280766
0.0174716 0.0982528 0.00280766
0.0607309 0.0937514 0.00280766
0.119692 0.0882582 0.00280766
0.189731 0.0802167 0.00280766
0.270848 0.0696574 0.00280766
0.356909 0.0578012 0.00280766
0.441596 0.0466926 0.00280766
0.522484 0.0370336 0.00280766
0.59881 0.0295262 0.00280766
0.668757 0.0243839 0.00280766
0.732143 0.0209049 0.00280766
0.78938 0.0192569 0.00280766
0.841901 0.0191501 0.00280766
0.892058 0.0206149 0.00280766
0.942031 0.0229496 0.00280766
0.984253 0.0251164 0.00280766
0.99173 0.0247654 0.00280766
0.991485 0.0238041 0.00280766
0.991318 0.0230716 0.00280766
0.99115 0.0223392 0.00280766
0.991012 0.0216983 0.00280766
0.990982 0.0215457 0.00280766
0.991333 0.0230106 0.00280766
0.991699 0.0244602 0.00280766
0.992065 0.0259251 0.00280766
0.992432 0.0273747 0.00280766
0.992798 0.0288396 0.00280766
0.00843824 0.147646 0.00280766
0.00843824 0.14641 0.00280766
0.00843824 0.147646 0.00280766
0.00843824 0.148898 0.00280766
0.00843824 0.149447 0.00280766
0.00843824 0.147829 0.00280766
0.00843824 0.14464 0.00280766
0.0442664 0.140688 0.00283818
0.103151 0.136065 0.00289921
0.174136 0.12961 0.00328069
0.254444 0.120424 0.00332647
0.339055 0.109697 0.00289921
0.424826 0.0997635 0.00283818
0.507622 0.0914015 0.00280766
0.586114 0.0844739 0.00280766
0.658686 0.0797589 0.00280766
0.72488 0.0772869 0.00280766
0.785 0.0767529 0.00280766
0.839872 0.0783551 0.00280766
0.891875 0.081117 0.00280766
0.942779 0.0844129 0.00280766
0.993439 0.0881666 0.00280766
1 0.0882734 0.00280766
1 0.0873426 0.00280766
1 0.0863966 0.00280766
1 0.0853285 0.00280766
1 0.0842145 0.00280766
1 0.0835126 0.00280766
1 0.0850843 0.00280766
1 0.0864424 0.00280766
1 0.088014 0.00280766
1 0.0895857 0.00280766
1 0.0909438 0.00280766
0.00843824 0.196429 0.00280766
0.00843824 0.195575 0.00280766
0.00843824 0.197314 0.00280766
0.00843824 0.199359 0.00280766
0.00843824 0.200443 0.00280766
0.00843824 0.199573 0.00280766
0.00843824 0.197208 0.00280766
0.025864 0.194263 0.00280766
0.0824598 0.190967 0.00280766
0.150835 0.185824 0.00282292
0.230564 0.178317 0.00292973
0.317494 0.169055 0.00282292
0.405493 0.160647 0.00280766
0.489693 0.153231 0.00280766
0.570123 0.147417 0.00280766
0.645624 0.143359 0.00280766
0.715007 0.141543 0.00280766
0.778012 0.141833 0.00280766
0.83537 0.143969 0.00280766
0.888808 0.147143 0.00280766
0.940612 0.15108 0.00280766
0.992035 0.155291 0.00280766
1 0.156832 0.00280766
1 0.15581 0.00280766
1 0.154452 0.00280766
1 0.152712 0.00280766
1 0.151125 0.00280766
1 0.150103 0.00280766
1 0.151537 0.00280766
1 0.152956 0.00280766
1 0.154376 0.00280766
1 0.155795 0.00280766
1 0.157443 0.00280766
0.00843824 0.251179 0.00280766
0.00843824 0.250874 0.00280766
0.00843824 0.253223 0.00280766
0.00843824 0.255665 0.00280766
0.00843824 0.257099 0.00280766
0.00843824 0.257298 0.00280766
0.00843824 0.256168 0.00280766
0.0109712 0.254337 0.00280766
0.0601358 0.252186 0.00280766
0.128298 0.248646 0.00280766
0.206882 0.243214 0.00280766
0.29427 0.235767 0.00280766
0.383703 0.228046 0.00280766
0.469398 0.221775 0.00280766
0.551369 0.216754 0.00280766
0.629236 0.213519 0.00280766
0.70161 0.211917 0.00280766
0.767239 0.212085 0.00280766
0.826368 0.214145 0.00280766
0.881163 0.217365 0.00280766
0.933547 0.221271 0.00280766
0.985336 0.22533 0.00280766
1 0.228061 0.00280766
1 0.226886 0.00280766
1 0.224796 0.00280766
1 0.222599 0.00280766
1 0.220401 0.00280766
1 0.218555 0.00280766
1 0.220005 0.00280766
1 0.221454 0.00280766
1 0.22266 0.00280766
1 0.224109 0.00280766
1 0.225559 0.00280766
0.00843824 0.311772 0.00280766
0.00843824 0.311818 0.00280766
0.00843824 0.314824 0.00280766
0.00843824 0.317693 0.00280766
0.00843824 0.319463 0.00280766
0.00843824 0.320455 0.00280766
0.00843824 0.320485 0.00280766
0.00843824 0.319799 0.00280766
0.0391699 0.318959 0.00280766
0.10753 0.317235 0.00280766
0.185107 0.313283 0.00280766
0.271855 0.307362 0.00280766
0.361822 0.300374 0.00280766
0.448188 0.294926 0.00280766
0.531426 0.290455 0.00280766
0.610773 0.287358 0.00280766
0.684825 0.285176 0.00280766
0.752285 0.284932 0.00280766
0.813153 0.286305 0.00280766
0.868849 0.289067 0.00280766
0.921538 0.292165 0.00280766
0.972793 0.295521 0.00280766
1 0.29839 0.00280766
1 0.297444 0.00280766
1 0.294759 0.00280766
1 0.292042 0.00280766
1 0.289357 0.00280766
1 0.286641 0.00280766
1 0.288075 0.00280766
1 0.289265 0.00280766
1 0.290471 0.00280766
1 0.291905 0.00280766
1 0.293095 0.00280766
0.00843824 0.377478 0.00280766
0.00843824 0.377722 0.00280766
0.00843824 0.380774 0.00280766
0.00843824 0.38439 0.00280766
0.00843824 0.38616 0.00280766
0.00843824 0.386999 0.00280766
0.00843824 0.388312 0.00280766
0.00843824 0.389029 0.00280766
0.0235752 0.389013 0.00280766
0.0918441 0.388464 0.00280766
0.167758 0.385794 0.00280766
0.252827 0.380758 0.00280766
0.342565 0.374456 0.00280766
0.42948 0.369177 0.00280766
0.512352 0.364736 0.00280766
0.591928 0.361013 0.00280766
0.667018 0.358129 0.00280766
0.735637 0.356741 0.00280766
0.797742 0.357244 0.00280766
0.854139 0.358801 0.00280766
0.906661 0.360922 0.00280766
0.957504 0.363241 0.00280766
0.999817 0.365713 0.00280766
1 0.365728 0.00280766
1 0.36289 0.00280766
1 0.359503 0.00280766
1 0.356207 0.00280766
1 0.353094 0.00280766
1 0.354269 0.00280766
1 0.355444 0.00280766
1 0.356619 0.00280766
1 0.357778 0.00280766
1 0.358953 0.00280766
0.00843824 0.446891 0.00280766
0.00843824 0.447257 0.00280766
0.00843824 0.450843 0.00280766
0.00843824 0.454459 0.00280766
0.00843824 0.456275 0.00280766
0.00843824 0.456641 0.00280766
0.00843824 0.458503 0.00280766
0.00843824 0.459785 0.00280766
0.0154421 0.460121 0.00280766
0.0806592 0.459693 0.00280766
0.155138 0.457557 0.00280766
0.238361 0.452903 0.00280766
0.32723 0.446845 0.00280766
0.413611 0.440879 0.00280766
0.495583 0.435843 0.00280766
0.575067 0.431159 0.00280766
0.650401 0.427436 0.00280766
0.720043 0.425177 0.00280766
0.782773 0.424231 0.00280766
0.839948 0.424887 0.00280766
0.89279 0.426246 0.00280766
0.943755 0.428382 0.00280766
0.993927 0.430732 0.00280766
1 0.431632 0.00280766
1 0.428748 0.00280766
1 0.425116 0.00280766
1 0.421439 0.00280766
1 0.418311 0.00280766
1 0.419226 0.00280766
1 0.420356 0.00280766
1 0.421271 0.00280766
1 0.4224 0.00280766
1 0.423529 0.00280766
0.00843824 0.518334 0.00280766
0.00843824 0.518761 0.00280766
0.00843824 0.522606 0.00280766
0.00843824 0.525917 0.00280766
0.00843824 0.527306 0.00280766
0.00843824 0.527428 0.00280766
0.00843824 0.528862 0.00280766
0.00843824 0.530007 0.00280766
0.0147402 0.53019 0.00280766
0.0722057 0.529473 0.00282292
0.145098 0.527214 0.00283818
0.226596 0.522484 0.0028687
0.313405 0.515892 0.0028687
0.398703 0.509163 0.00283818
0.479698 0.503273 0.00282292
0.558587 0.498054 0.00280766
0.634607 0.493584 0.00280766
0.705211 0.490257 0.00280766
0.768978 0.488731 0.00280766
0.827024 0.488533 0.00280766
0.880735 0.489693 0.00280766
0.931792 0.49131 0.00280766
0.981765 0.493187 0.00280766
1 0.49485 0.00280766
1 0.492287 0.00280766
1 0.488396 0.00280766
1 0.484825 0.00280766
1 0.481514 0.00280766
1 0.482414 0.00280766
1 0.483299 0.00280766
1 0.484199 0.00280766
1 0.4851 0.00280766
1 0.486213 0.00280766
0.00843824 0.5897 0.00280766
0.00843824 0.590097 0.00280766
0.00843824 0.593347 0.00280766
0.00843824 0.596399 0.00280766
0.00843824 0.597269 0.00280766
0.00843824 0.596628 0.00280766
0.00843824 0.597055 0.00280766
0.00843824 0.597726 0.00280766
0.0141451 0.597116 0.00280766
0.064622 0.595926 0.00280766
0.135317 0.593454 0.00280766
0.213947 0.588235 0.00280766
0.298863 0.58117 0.00280766
0.383703 0.574197 0.00280766
0.464271 0.568063 0.00280766
0.543191 0.562799 0.00280766
0.619394 0.557763 0.00280766
0.690593 0.553872 0.00280766
0.755505 0.551537 0.00280766
0.814496 0.551034 0.00280766
0.868925 0.551614 0.00280766
0.919875 0.552728 0.00280766
0.969497 0.554238 0.00280766
1 0.555413 0.00280766
1 0.553872 0.00280766
1 0.55053 0.00280766
1 0.546578 0.00280766
1 0.542885 0.00280766
1 0.54377 0.00280766
1 0.54464 0.00280766
1 0.545525 0.00280766
1 0.546395 0.00280766
1 0.54728 0.00280766
0.00843824 0.658579 0.00280766
0.00843824 0.658412 0.00280766
0.00843824 0.660945 0.00280766
0.00843824 0.66363 0.00280766
0.00843824 0.664134 0.00280766
0.00843824 0.662058 0.00280766
0.00843824 0.661448 0.00280766
0.00843824 0.661692 0.00280766
0.0136263 0.660639 0.00280766
0.0580606 0.658991 0.00280766
0.126879 0.656153 0.00280766
0.203174 0.651316 0.00280766
0.286076 0.644465 0.00280766
0.370398 0.637461 0.00280766
0.450172 0.631327 0.00280766
0.528511 0.625498 0.00280766
0.604669 0.619974 0.00280766
0.676646 0.615671 0.00280766
0.742657 0.61294 0.00280766
0.802457 0.611795 0.00280766
0.857176 0.611536 0.00280766
0.908202 0.612207 0.00280766
0.957519 0.613169 0.00280766
1 0.614206 0.00280766
1 0.613413 0.00280766
1 0.609979 0.00280766
1 0.606073 0.00280766
1 0.602365 0.00280766
1 0.60322 0.00280766
1 0.603861 0.00280766
1 0.6047 0.00280766
1 0.605554 0.00280766
1 0.606394 0.00280766
0.00843824 0.723613 0.00280766
0.00843824 0.723064 0.00280766
0.00843824 0.725246 0.00280766
0.00843824 0.727092 0.00280766
0.00843824 0.726848 0.00280766
0.00843824 0.723705 0.00280766
0.00843824 0.72224 0.00280766
0.00843824 0.722057 0.00280766
0.0135042 0.720806 0.00280766
0.0546578 0.718929 0.00280766
0.121874 0.71635 0.00280766
0.19559 0.711986 0.00280766
0.276463 0.705623 0.00280766
0.359243 0.698344 0.00280766
0.438651 0.692042 0.00280766
0.51606 0.685893 0.00280766
0.592172 0.68014 0.00280766
0.664591 0.67541 0.00280766
0.731075 0.671855 0.00280766
0.791485 0.669734 0.00280766
0.846326 0.669032 0.00280766
0.897398 0.668986 0.00280766
0.946349 0.669596 0.00280766
0.994644 0.669932 0.00280766
1 0.669795 0.00280766
1 0.666362 0.00280766
1 0.662623 0.00280766
1 0.659144 0.00280766
1 0.659724 0.00280766
1 0.660334 0.00280766
1 0.660929 0.00280766
1 0.661738 0.00280766
1 0.662547 0.00280766
0.00843824 0.785687 0.00280766
0.00843824 0.784619 0.00280766
0.00843824 0.786053 0.00280766
0.00843824 0.787335 0.00280766
0.00843824 0.786587 0.00280766
0.00843824 0.782925 0.00280766
0.00843824 0.780484 0.00280766
0.00843824 0.779736 0.00280766
0.0137484 0.778378 0.00280766
0.0542763 0.776471 0.00280766
0.119921 0.773999 0.00280766
0.191424 0.770092 0.00280766
0.269551 0.76376 0.00280766
0.35079 0.756664 0.00280766
0.429786 0.749905 0.00280766
0.506477 0.743679 0.00280766
0.582284 0.737423 0.00280766
0.654444 0.732082 0.00280766
0.721218 0.727718 0.00280766
0.781857 0.724849 0.00280766
0.837278 0.723278 0.00280766
0.888106 0.722683 0.00280766
0.936309 0.722393 0.00280766
0.983642 0.722194 0.00280766
1 0.721752 0.00280766
1 0.718914 0.00280766
1 0.715404 0.00280766
1 0.711971 0.00280766
1 0.712489 0.00280766
1 0.713054 0.00280766
1 0.713619 0.00280766
1 0.714199 0.00280766
1 0.714946 0.00280766
0.00843824 0.844388 0.00280766
0.00843824 0.843107 0.00280766
0.00843824 0.843976 0.00280766
0.00843824 0.844678 0.00280766
0.00843824 0.843595 0.00280766
0.00843824 0.840085 0.00280766
0.00843824 0.83624 0.00280766
0.00843824 0.835187 0.00280766
0.0145724 0.8336 0.00280766
0.0564431 0.831693 0.00280766
0.120699 0.82919 0.00280766
0.189639 0.825254 0.00280766
0.265202 0.81912 0.00280766
0.344854 0.811872 0.00280766
0.423209 0.804822 0.00280766
0.498772 0.79826 0.00280766
0.57351 0.791485 0.00280766
0.645533 0.78529 0.00280766
0.712596 0.780163 0.00280766
0.773709 0.776364 0.00280766
0.829175 0.774014 0.00280766
0.87985 0.77261 0.00280766
0.927535 0.771649 0.00280766
0.974014 0.770901 0.00280766
1 0.769909 0.00280766
1 0.767651 0.00280766
1 0.764248 0.00280766
1 0.761074 0.00280766
1 0.761379 0.00280766
1 0.761913 0.00280766
1 0.762448 0.00280766
1 0.762966 0.00280766
1 0.7635 0.00280766
0.00843824 0.900053 0.00280766
0.00843824 0.898543 0.00280766
0.00843824 0.899321 0.00280766
0.00843824 0.899763 0.00280766
0.00843824 0.898543 0.00280766
0.00843824 0.894728 0.00280766
0.00843824 0.889815 0.00280766
0.00843824 0.888472 0.00280766
0.0158541 0.886748 0.00280766
0.0598764 0.884337 0.00280766
0.122942 0.881559 0.00280766
0.189425 0.877424 0.00280766
0.262562 0.871458 0.00282292
0.340444 0.864134 0.00283818
0.417639 0.856504 0.00283818
0.49218 0.849317 0.00282292
0.565957 0.841978 0.00280766
0.63772 0.834974 0.00280766
0.704799 0.82916 0.00280766
0.766278 0.824552 0.00280766
0.821973 0.821317 0.00280766
0.872618 0.818936 0.00280766
0.919753 0.81738 0.00280766
0.965667 0.816083 0.00280766
1 0.814755 0.00280766
1 0.812696 0.00280766
1 0.809369 0.00280766
1 0.806195 0.00280766
1 0.806638 0.00280766
1 0.806973 0.00280766
1 0.807462 0.00280766
1 0.807797 0.00280766
1 0.808286 0.00280766
0.00843824 0.953185 0.00280766
0.00843824 0.951446 0.00280766
0.00843824 0.95227 0.00280766
0.00843824 0.952712 0.00280766
0.00843824 0.951308 0.00280766
0.00843824 0.947234 0.00280766
0.00843824 0.941772 0.00280766
0.00843824 0.939635 0.00280766
0.0171054 0.937469 0.00280766
0.0632334 0.934524 0.00280766
0.125322 0.931105 0.00280766
0.189899 0.926925 0.00280766
0.260487 0.920897 0.00280766
0.335897 0.913161 0.00280766
0.411948 0.904982 0.00280766
0.485908 0.8972 0.00280766
0.558999 0.88925 0.00280766
0.630213 0.881865 0.00280766
0.697383 0.875059 0.00280766
0.758968 0.869596 0.00280766
0.815045 0.865354 0.00280766
0.865721 0.862318 0.00280766
0.912917 0.860197 0.00280766
0.958083 0.858366 0.00280766
1 0.856352 0.00280766
1 0.854261 0.00280766
1 0.851087 0.00280766
1 0.848234 0.00280766
1 0.848493 0.00280766
1 0.848798 0.00280766
1 0.849119 0.00280766
1 0.849577 0.00280766
1 0.849882 0.00280766
0.00843824 0.991104 0.00280766
0.00843824 0.993683 0.00280766
0.00843824 0.996643 0.00280766
0.00843824 0.996948 0.00280766
0.00843824 0.996948 0.00280766
0.00843824 0.995743 0.00280766
0.00843824 0.991958 0.00280766
0.00843824 0.988632 0.00280766
0.018265 0.985626 0.00280766
0.0657664 0.982055 0.00280766
0.126864 0.97821 0.00280766
0.189609 0.973709 0.00280766
0.257557 0.967376 0.00280766
0.330755 0.959381 0.00280766
0.405631 0.950759 0.00280766
0.478981 0.94229 0.00280766
0.551354 0.933898 0.00280766
0.622187 0.925704 0.00280766
0.689403 0.91812 0.00280766
0.751385 0.911803 0.00280766
0.807813 0.906828 0.00280766
0.858854 0.90312 0.00280766
0.905898 0.900236 0.00280766
0.950637 0.897826 0.00280766
0.994675 0.895415 0.00280766
1 0.892897 0.00280766
1 0.890059 0.00280766
1 0.887297 0.00280766
1 0.887556 0.00280766
1 0.887846 0.00280766
1 0.888136 0.00280766
1 0.888426 0.00280766
1 0.888716 0.00280766
0.00843824 0.996948 0.00280766
0.00843824 0.996948 0.00280766
0.00843824 0.996948 0.00280766
0.00843824 0.996948 0.00280766
0.00843824 0.996948 0.00280766
0.00843824 0.996948 0.00280766
0.00843824 0.996948 0.00280766
0.00843824 0.996872 0.00280766
0.0187839 0.996674 0.00280766
0.0659953 0.996338 0.00280766
0.126482 0.995895 0.00280766
0.187625 0.995285 0.00280766
0.253315 0.994354 0.00280766
0.324407 0.993088 0.00280766
0.398108 0.991089 0.00280766
0.470893 0.985199 0.00280766
0.542245 0.976257 0.00280766
0.61265 0.967422 0.00280766
0.680018 0.959167 0.00280766
0.742687 0.95201 0.00280766
0.799603 0.946181 0.00280766
0.851301 0.941711 0.00280766
0.898314 0.938369 0.00280766
0.942946 0.935363 0.00280766
0.986435 0.932708 0.00280766
1 0.92987 0.00280766
1 0.927138 0.00280766
1 0.924315 0.00280766
1 0.924437 0.00280766
1 0.924712 0.00280766
1 0.924987 0.00280766
1 0.925261 0.00280766
1 0.925536 0.00280766
0.00843824 0.996948 0.00280766
0.00843824 0.996948 0.00280766
0.00843824 0.996948 0.00280766
0.00843824 0.996948 0.00280766
0.00843824 0.996948 0.00280766
0.00843824 0.996948 0.00280766
0.00843824 0.996948 0.00280766
0.00843824 0.996948 0.00280766
0.0185855 0.996948 0.00280766
0.0644846 0.996948 0.00280766
0.12401 0.996948 0.00280766
0.183795 0.996948 0.00280766
0.247364 0.996948 0.00280766
0.316121 0.996948 0.00280766
0.388342 0.996902 0.00280766
0.460716 0.996414 0.00280766
0.531563 0.995483 0.00280766
0.601373 0.994507 0.00280766
0.669093 0.993393 0.00280766
0.732464 0.989868 0.00280766
0.790097 0.984131 0.00280766
0.842329 0.978882 0.00280766
0.889982 0.974853 0.00280766
0.934615 0.971664 0.00280766
0.978012 0.968704 0.00280766
1 0.965774 0.00280766
1 0.962631 0.00280766
1 0.959976 0.00280766
1 0.960098 0.00280766
1 0.960235 0.00280766
1 0.96051 0.00280766
1 0.960784 0.00280766
1 0.961044 0.00280766
0.00843824 0.996948 0.00280766
0.00843824 0.996948 0.00280766
0.00843824 0.996948 0.00280766
0.00843824 0.996948 0.00280766
0.00843824 0.996948 0.00280766
0.00843824 0.996948 0.00280766
0.00843824 0.996948 0.00280766
0.00843824 0.996948 0.00280766
0.0158083 0.996948 0.00280766
0.0566262 0.996948 0.00280766
0.117205 0.996948 0.00280766
0.176852 0.996948 0.00280766
0.239277 0.996948 0.00280766
0.306752 0.996948 0.00280766
0.377356 0.996948 0.00280766
0.449073 0.996948 0.00280766
0.519738 0.996948 0.00280766
0.589349 0.996948 0.00280766
0.656916 0.996948 0.00280766
0.720806 0.996765 0.00280766
0.779309 0.996384 0.00280766
0.832425 0.995972 0.00280766
0.880598 0.995697 0.00280766
0.925475 0.995453 0.00280766
0.968795 0.995254 0.00280766
1 0.995132 0.00280766
1 0.994934 0.00280766
1 0.994736 0.00280766
1 0.994858 0.00280766
1 0.994995 0.00280766
1 0.995254 0.00280766
1 0.995392 0.00280766
1 0.995651 0.00280766
0.00843824 0.996948 0.00280766
0.00843824 0.996948 0.00280766
0.00843824 0.996948 0.00280766
0.00843824 0.996948 0.00280766
0.00843824 0.996948 0.00280766
0.00843824 0.996948 0.00280766
0.00843824 0.996948 0.00280766
0.00843824 0.996948 0.00280766
0.01178 0.996948 0.00280766
0.0464637 0.996948 0.00280766
0.107088 0.996948 0.00280766
0.166476 0.996948 0.00280766
0.227497 0.996948 0.00280766
0.293202 0.996948 0.00280766
0.363104 0.996948 0.00280766
0.434653 0.996948 0.00280766
0.505684 0.996948 0.00280766
0.574945 0.996948 0.00280766
0.643183 0.996948 0.00280766
0.707637 0.996948 0.00280766
0.767224 0.996948 0.00280766
0.821363 0.996948 0.00280766
0.870451 0.996948 0.00280766
0.915969 0.996948 0.00280766
0.959396 0.996948 0.00280766
1 0.996948 0.00280766
1 0.996948 0.00280766
1 0.996948 0.00280766
1 0.996948 0.00280766
1 0.996948 0.00280766
1 0.996948 0.00280766
1 0.996948 0.00280766
1 0.996948 0.00280766
0.00843824 0.996948 0.00280766
0.00843824 0.996948 0.00280766
0.00843824 0.996948 0.00280766
0.00843824 0.996948 0.00280766
0.00843824 0.996948 0.00280766
0.00843824 0.996948 0.00280766
0.00843824 0.996948 0.00280766
0.00843824 0.996948 0.00280766
0.00843824 0.996948 0.00280766
