LUT预设1/LUT全系打包/电影感系列lut/电影感各机型log灰片/T&O重口青橙.cube
TITLE "Generated by Resolve"
LUT_3D_SIZE 9
0.00317388 0.000793469 0.00317388
0.0852216 0.0138705 0.012314
0.257038 0.0296178 0.00921645
0.510933 0.0469062 0.00106813
0.716213 0.0441444 0.010132
0.864057 0.032929 0.0294499
0.970871 0.022797 0.0522774
0.977844 0.016968 0.0674296
0.978119 0.0126192 0.0810864
0.0080415 0.0187991 0.00883497
0.0424811 0.0221714 0.0112001
0.195422 0.0385138 0.0111086
0.489601 0.0526436 3.0518e-05
0.784817 0.0477607 0.007187
0.969924 0.029572 0.0362402
0.977844 0.0169528 0.0675059
0.978332 0.0123598 0.0940108
0.979141 0.0216068 0.109529
0.0175021 0.0558633 0.0175021
0.0192264 0.0598306 0.0182498
0.122835 0.0733349 0.0198825
0.278843 0.0982223 0.00794995
0.674525 0.125383 0.000106813
0.974685 0.0568704 0.0392767
0.980591 0.0526436 0.0931411
0.982986 0.0660258 0.125902
0.984634 0.0794537 0.145083
0.0298009 0.126223 0.0251316
0.0308385 0.137911 0.0252384
0.0569467 0.143175 0.0290379
0.248508 0.174502 0.0310826
0.503838 0.226093 0.00793469
0.851377 0.229862 4.57771e-05
0.986175 0.160449 0.111421
0.989334 0.172442 0.180392
0.98999 0.192142 0.218723
0.0208286 0.248936 0.0220951
0.0180819 0.261555 0.0228885
0.0131228 0.285176 0.025864
0.10515 0.294423 0.0358434
0.41796 0.351766 0.0594034
0.735607 0.419059 0.0220493
0.980484 0.379187 0.00726329
0.992462 0.348653 0.271046
0.989303 0.37026 0.357137
0.00518807 0.401617 0.0666056
0.00491341 0.416678 0.0691081
0.0047303 0.445457 0.0761883
0.00442512 0.489082 0.0876326
0.132891 0.499763 0.0854047
0.586892 0.572686 0.0710155
0.919509 0.627497 0.0485695
0.959381 0.594598 0.234714
0.97081 0.598764 0.543481
0.0012665 0.567117 0.119493
0.000885023 0.585245 0.123186
0.00030518 0.6168 0.128359
0 0.662211 0.132403
0.000106813 0.704585 0.142153
0.19292 0.697246 0.153765
0.744091 0.764446 0.0439612
0.957031 0.790753 0.131746
0.935058 0.788357 0.49015
0 0.704387 0.165743
0 0.714656 0.169757
0 0.719127 0.172976
0 0.719921 0.178134
0.0218662 0.728878 0.219791
0.0862287 0.745129 0.287373
0.315801 0.770504 0.230671
0.87425 0.915923 0.0343175
0.932097 0.901549 0.416815
0 0.720943 0.186038
0 0.722179 0.195743
0.0116121 0.728283 0.230488
0.0532692 0.741314 0.298619
0.107805 0.755825 0.394583
0.175036 0.764996 0.490761
0.250004 0.775525 0.558999
0.543511 0.814511 0.448844
0.941466 0.973068 0.0432136
0.00199893 0.0172732 0.0345769
0.0780652 0.0288701 0.0556191
0.231144 0.0462043 0.0768902
0.467094 0.036408 0.0747539
0.687816 0.00932326 0.0809491
0.854353 0.00596628 0.0916915
0.971984 0.0135958 0.0773785
0.978088 0.0130007 0.0799268
0.978195 0.010544 0.0883955
0.00575265 0.0266423 0.0302434
0.0370489 0.0267185 0.0304112
0.202396 0.041001 0.0401312
0.489754 0.0323796 0.06009
0.794583 0.00588998 0.0848096
0.971252 0.00854505 0.0968185
0.97818 0.00967422 0.0924697
0.978424 0.0110933 0.106737
0.979416 0.0237736 0.116121
0.0170291 0.0577859 0.0271763
0.0184939 0.0631723 0.024979
0.126528 0.0753033 0.020264
0.396368 0.108339 0.00137331
0.751492 0.107149 0.0104372
0.978317 0.0426032 0.0726177
0.981186 0.0485237 0.112428
0.983444 0.0662089 0.135958
0.985016 0.0815442 0.151156
0.0299992 0.128008 0.0258335
0.0309606 0.139361 0.0252384
0.0470588 0.148577 0.0279088
0.253056 0.178164 0.0315557
0.531319 0.230182 0.00630198
0.889204 0.223789 0.000274662
0.987091 0.158862 0.126314
0.989487 0.175341 0.191073
0.990097 0.196414 0.226093
0.0203403 0.251789 0.024567
0.0175479 0.264149 0.0231785
0.0125734 0.287755 0.0263066
0.094316 0.299519 0.0347143
0.42182 0.356069 0.0601205
0.749218 0.421485 0.0207218
0.981674 0.380255 0.0148775
0.992294 0.352773 0.282719
0.988846 0.37557 0.365743
0.00570687 0.40647 0.0724804
0.00541695 0.421683 0.0749828
0.0047303 0.449744 0.0782177
0.00410468 0.495659 0.0892348
0.12845 0.505577 0.088716
0.590875 0.577569 0.0706493
0.92398 0.630671 0.0485389
0.95819 0.599588 0.24712
0.970382 0.605737 0.552865
0.00102235 0.573098 0.123827
0.000610361 0.591257 0.12755
0.000137331 0.622858 0.133028
0 0.667796 0.13579
0 0.707851 0.143023
0.19144 0.700267 0.154345
0.748394 0.769162 0.0435187
0.956771 0.79469 0.140291
0.935027 0.793683 0.499779
0 0.710216 0.169604
0 0.715618 0.17229
0 0.719585 0.175494
0 0.720699 0.184131
0.0261692 0.730694 0.230091
0.0912337 0.74667 0.299153
0.320409 0.771649 0.238422
0.877531 0.920272 0.0339513
0.93077 0.905303 0.429816
0 0.721477 0.190234
0 0.722805 0.200595
0.0174411 0.730327 0.240543
0.0589609 0.743053 0.309575
0.113558 0.757137 0.405615
0.182116 0.765637 0.501411
0.261051 0.777722 0.571084
0.562737 0.819577 0.465614
0.940383 0.97258 0.0646525
0.00468452 0.0630198 0.108217
0.0827039 0.0611124 0.130816
0.208469 0.0670329 0.140032
0.432242 0.0628061 0.140627
0.681514 0.0241703 0.147982
0.849973 0.00199893 0.174929
0.961975 1.5259e-05 0.193668
0.977829 0.00360113 0.128054
0.978134 0.00708019 0.104692
0.00239567 0.0647593 0.097322
0.0311742 0.0623484 0.108461
0.176577 0.0651865 0.124865
0.477394 0.0623941 0.150423
0.802747 0.0129091 0.190448
0.95874 7.62951e-05 0.232502
0.973816 0 0.217258
0.977951 0.00782788 0.144488
0.979828 0.0263371 0.12987
0.00862135 0.0762798 0.0831159
0.00839246 0.0846265 0.0924392
0.10103 0.0885176 0.0903029
0.404746 0.10248 0.0753185
0.775143 0.0519875 0.130861
0.974258 0.0104677 0.239429
0.979004 0.029099 0.214206
0.983871 0.0640269 0.163516
0.985504 0.0855268 0.164385
0.0223697 0.136782 0.0843671
0.0238804 0.145953 0.0835584
0.0303807 0.157168 0.0644236
0.247517 0.181353 0.0458991
0.642588 0.226368 0.0124819
0.923308 0.201907 0.0414588
0.988602 0.151019 0.17351
0.989593 0.180041 0.215702
0.990021 0.204044 0.240909
0.0209659 0.256519 0.044892
0.0186313 0.268681 0.0420844
0.0129549 0.291447 0.0339971
0.0641489 0.309819 0.032166
0.429175 0.364462 0.0614328
0.780316 0.423957 0.0170748
0.982864 0.381033 0.0329137
0.991653 0.360678 0.307607
0.987381 0.385733 0.382681
0.0065156 0.415015 0.0849775
0.00602731 0.430472 0.0875563
0.00463874 0.45861 0.0896773
0.00375372 0.502739 0.090959
0.118944 0.516213 0.0949111
0.598077 0.586404 0.0699321
0.931731 0.635493 0.0484321
0.955901 0.608392 0.271138
0.969787 0.617655 0.570397
0.000808728 0.58352 0.132525
0.000381476 0.601663 0.136538
0 0.633173 0.142428
0 0.677913 0.145006
0 0.713527 0.144549
0.186786 0.706676 0.155489
0.756344 0.777844 0.0425269
0.956146 0.801343 0.15906
0.935531 0.802991 0.518807
0 0.715389 0.175357
0 0.717952 0.177539
0 0.720211 0.180407
0 0.721996 0.194339
0.0347448 0.733944 0.248707
0.099855 0.749462 0.321004
0.329244 0.773571 0.251362
0.884077 0.926146 0.0327459
0.928634 0.911681 0.455344
9.15541e-05 0.722286 0.196414
0.000839246 0.724437 0.212757
0.0270085 0.733684 0.258381
0.0680705 0.745968 0.328374
0.123735 0.759182 0.424552
0.194415 0.766964 0.519905
0.282155 0.782284 0.591989
0.594369 0.829343 0.496391
0.940673 0.973022 0.0894484
0.0184329 0.157412 0.24445
0.0306096 0.139162 0.249638
0.14342 0.106477 0.241749
0.356954 0.10013 0.240497
0.649592 0.0763867 0.229923
0.851545 0.0208133 0.238911
0.96405 0.000488289 0.254719
0.972641 0 0.233997
0.976547 0.00117494 0.167575
0.0155337 0.163455 0.245975
0.014313 0.150164 0.241291
0.135866 0.120851 0.27396
0.413993 0.113695 0.286854
0.770489 0.0864729 0.287602
0.948791 0.016434 0.299916
0.9682 0.0015259 0.278645
0.972198 0.00389105 0.249012
0.97908 0.0232242 0.182422
0.00195315 0.117952 0.153628
0.0010071 0.175433 0.229603
0.031693 0.160678 0.228534
0.357748 0.145251 0.256779
0.76733 0.107836 0.289677
0.953933 0.0367895 0.320729
0.969146 0.0431525 0.298482
0.978119 0.0626383 0.272557
0.985199 0.0861982 0.211307
0.00521859 0.162554 0.164034
0.00450141 0.172839 0.174029
0.00354009 0.185687 0.186801
0.191409 0.203723 0.196384
0.657832 0.21326 0.17171
0.944533 0.145068 0.260853
0.972045 0.159045 0.336782
0.979446 0.18822 0.328893
0.989166 0.213794 0.275273
0.00857557 0.269429 0.162478
0.00759899 0.282231 0.16968
0.00628672 0.30576 0.178058
0.0181277 0.322744 0.140612
0.412512 0.37409 0.125154
0.806363 0.405402 0.123354
0.989776 0.363882 0.171679
0.987533 0.370916 0.376715
0.983688 0.400824 0.416007
0.00624094 0.427756 0.116304
0.00538643 0.443427 0.119158
0.00411994 0.471794 0.123125
0.00256352 0.513756 0.117601
0.0861524 0.535561 0.104875
0.609079 0.599374 0.0687877
0.946288 0.638697 0.0477455
0.952804 0.619623 0.314717
0.968627 0.635401 0.599954
0.00030518 0.598291 0.151369
6.10361e-05 0.616159 0.155886
0 0.647456 0.162997
0 0.6916 0.167422
0 0.716335 0.151064
0.173404 0.715999 0.15668
0.768093 0.790448 0.041001
0.954406 0.809857 0.194507
0.936782 0.815991 0.549889
0 0.718486 0.185641
0 0.721096 0.188205
0 0.721538 0.190738
0.00309758 0.725017 0.214328
0.0472419 0.738613 0.278767
0.110918 0.753246 0.353979
0.34023 0.776211 0.272526
0.893904 0.934264 0.0307774
0.926436 0.920256 0.495293
0.000396735 0.724102 0.210559
0.0111238 0.728893 0.236851
0.0404517 0.738277 0.285054
0.0812695 0.750042 0.356268
0.139513 0.761624 0.452079
0.211856 0.769238 0.546593
0.318349 0.790616 0.622385
0.641016 0.845045 0.541726
0.940703 0.973541 0.137301
0.0428779 0.260029 0.377661
0.0339666 0.251728 0.37322
0.0501106 0.173175 0.325612
0.208499 0.149828 0.376104
0.52755 0.137469 0.363958
0.797284 0.10454 0.324697
0.948806 0.0268864 0.316457
0.966781 0.00373846 0.28542
0.971313 0.000183108 0.250828
0.0423743 0.265919 0.382712
0.0363012 0.261204 0.38117
0.0450141 0.234958 0.405646
0.255741 0.186252 0.494728
0.603922 0.162753 0.441108
0.832868 0.131411 0.380804
0.931334 0.0568246 0.339376
0.96434 0.0176394 0.299092
0.97435 0.0263218 0.265736
0.0201267 0.294636 0.389364
0.0185245 0.294453 0.391562
0.0298161 0.26627 0.397467
0.242267 0.205356 0.503716
0.612055 0.175463 0.470176
0.776638 0.161303 0.412985
0.910323 0.119478 0.367025
0.959381 0.102739 0.335378
0.976226 0.106462 0.30399
0 0.239902 0.285924
0 0.259297 0.306889
0 0.316579 0.370001
0.0415351 0.305287 0.391241
0.585916 0.251652 0.444617
0.8103 0.216251 0.437415
0.886564 0.217517 0.419364
0.937896 0.226123 0.404257
0.964752 0.237842 0.384985
0.00213626 0.30399 0.301869
0.00213626 0.317143 0.315022
0.0021973 0.340261 0.33843
0.00177005 0.358968 0.358129
0.326345 0.402441 0.391196
0.834058 0.403571 0.370687
0.964523 0.358389 0.451881
0.920256 0.400809 0.522881
0.940307 0.430137 0.527977
0.00726329 0.468711 0.341543
0.0078584 0.484291 0.353094
0.00921645 0.512383 0.372427
0.0087129 0.552102 0.387335
0.0301213 0.571099 0.333013
0.583551 0.603571 0.26041
0.905211 0.64065 0.348043
0.962203 0.624949 0.49543
0.961196 0.660853 0.669306
0 0.617746 0.207279
0 0.635096 0.213703
0 0.665797 0.224201
0 0.706096 0.233173
0 0.724437 0.214923
0.130922 0.724865 0.160296
0.784802 0.807157 0.0396429
0.949386 0.819135 0.265949
0.940963 0.83357 0.605966
0 0.723507 0.209384
0 0.724163 0.211643
0 0.724926 0.217838
0.0114748 0.730678 0.252461
0.0619211 0.745174 0.327718
0.125109 0.758038 0.404471
0.348608 0.779385 0.307591
0.906523 0.94461 0.0303655
0.925872 0.931212 0.560372
0.0105287 0.729778 0.245624
0.028336 0.735485 0.27425
0.0578317 0.744335 0.324224
0.0986038 0.75523 0.395941
0.162188 0.764218 0.489952
0.236332 0.773922 0.583764
0.380743 0.805234 0.665904
0.703593 0.869245 0.610468
0.935866 0.972457 0.256016
0.0576791 0.314183 0.436912
0.0531014 0.312444 0.437217
0.0332341 0.279484 0.412299
0.0731823 0.231891 0.437644
0.311238 0.190661 0.530785
0.617899 0.169558 0.464759
0.811185 0.144503 0.393301
0.92604 0.0631876 0.342992
0.963882 0.0104219 0.297292
0.0557565 0.313512 0.437064
0.0517586 0.312139 0.437293
0.0381781 0.30457 0.437888
0.0785534 0.280644 0.50312
0.382666 0.21059 0.626123
0.644129 0.182254 0.532891
0.754345 0.163867 0.422232
0.909438 0.0939956 0.357519
0.961685 0.057435 0.317632
0.0425727 0.331472 0.441871
0.0407111 0.332219 0.444129
0.0392462 0.329717 0.448676
0.0964523 0.28661 0.528313
0.4795 0.204501 0.638468
0.641535 0.18764 0.579538
0.735058 0.19263 0.453285
0.877745 0.17319 0.397482
0.947601 0.151232 0.363638
0.000381476 0.359701 0.436973
0.000549325 0.371283 0.448875
0.000289921 0.377066 0.457633
0.0902571 0.349004 0.512459
0.477378 0.25452 0.672465
0.660792 0.230015 0.608728
0.727855 0.248554 0.507027
0.836789 0.264118 0.46157
0.91249 0.271778 0.442908
0 0.383246 0.416907
0 0.393622 0.427512
0 0.410895 0.445899
0 0.428214 0.468238
0.163226 0.461601 0.554299
0.705699 0.372076 0.621042
0.772244 0.361212 0.580865
0.830671 0.411048 0.580392
0.881544 0.449836 0.583185
0.00300603 0.463676 0.461753
0.00302129 0.473121 0.471565
0.00267033 0.489113 0.487816
0.00236515 0.508888 0.508492
0.00030518 0.526909 0.527016
0.533059 0.634989 0.627573
0.930144 0.658167 0.644816
0.940887 0.653162 0.707698
0.923919 0.675837 0.756207
0.020737 0.634134 0.490333
0.0217441 0.647501 0.500084
0.0237583 0.671382 0.516991
0.0254063 0.704875 0.538048
0.0277714 0.735561 0.554147
0.0941176 0.738476 0.519036
0.746029 0.791455 0.434455
0.936767 0.837385 0.576471
0.964584 0.851438 0.769863
0 0.731411 0.280705
0 0.732555 0.285695
0 0.734096 0.300343
0.0189212 0.741039 0.339361
0.073579 0.755123 0.415015
0.145129 0.763684 0.487388
0.329519 0.781796 0.380423
0.913771 0.950301 0.0528725
0.931655 0.94258 0.655085
0.0274052 0.737453 0.294759
0.0452277 0.742794 0.324071
0.0743572 0.751141 0.374212
0.118791 0.760296 0.444572
0.186023 0.766674 0.535012
0.266728 0.781689 0.628473
0.45478 0.822614 0.715831
0.766598 0.896284 0.694621
0.925597 0.969329 0.380484
0.0563363 0.31371 0.437018
0.0537575 0.312718 0.437186
0.0485542 0.310552 0.437232
0.0348211 0.298238 0.440848
0.105348 0.275334 0.533288
0.432242 0.207111 0.63743
0.646052 0.183215 0.543709
0.751324 0.164538 0.424216
0.914183 0.0794995 0.351415
0.0533303 0.31281 0.437263
0.0505226 0.313024 0.437736
0.0456855 0.313237 0.438926
0.0359197 0.300496 0.447211
0.160952 0.26183 0.583398
0.524559 0.197589 0.62649
0.640681 0.18587 0.578531
0.736614 0.17554 0.43975
0.895186 0.132372 0.37528
0.0416114 0.330114 0.444343
0.0399481 0.332235 0.446311
0.037644 0.335164 0.450126
0.0425116 0.324239 0.464347
0.218326 0.269673 0.618906
0.555932 0.213291 0.631861
0.649271 0.205676 0.59321
0.72256 0.214923 0.480644
0.858106 0.204974 0.418647
0.0136873 0.363622 0.458
0.0125277 0.367041 0.46125
0.0126955 0.372885 0.467948
0.0356451 0.375891 0.482643
0.305303 0.30605 0.664775
0.595834 0.256794 0.65536
0.670314 0.251469 0.625193
0.720058 0.272557 0.542107
0.815229 0.294453 0.49099
0 0.418418 0.486442
0 0.422766 0.490288
0 0.432212 0.499626
0 0.447852 0.517296
0.302434 0.42884 0.656489
0.640574 0.343908 0.706569
0.708186 0.329946 0.676448
0.755871 0.387549 0.644007
0.819806 0.447486 0.625849
0 0.474296 0.500618
0 0.47892 0.504356
0 0.486519 0.509987
0 0.497108 0.51809
0 0.519234 0.539391
0.4159 0.621088 0.710964
0.819699 0.563775 0.781399
0.861799 0.615808 0.783093
0.896635 0.671504 0.794385
0.00198367 0.549142 0.547997
0.00177005 0.554604 0.553735
0.00175479 0.56408 0.563256
0.00166323 0.576333 0.575738
0.000869764 0.587213 0.587121
0 0.602808 0.604212
0.799283 0.842756 0.840818
0.969406 0.853468 0.842771
0.968444 0.862928 0.885603
0.0291905 0.727916 0.577127
0.029572 0.726406 0.582177
0.029572 0.720913 0.589807
0.0295872 0.707164 0.600656
0.0438849 0.695567 0.62179
0.0566415 0.69398 0.646494
0.191989 0.761852 0.688991
0.889067 0.937316 0.612833
0.965698 0.957458 0.861769
0.0351415 0.746487 0.36968
0.0535439 0.751842 0.400137
0.0885176 0.759091 0.448737
0.141756 0.765301 0.513939
0.197818 0.769345 0.593179
0.278889 0.786526 0.679866
0.49781 0.832868 0.765866
0.810391 0.916976 0.782895
0.918929 0.96495 0.512749
0.0553902 0.313375 0.437079
0.0536965 0.312688 0.437186
0.0505989 0.311437 0.437232
0.0448157 0.30959 0.437583
0.0389105 0.297047 0.456428
0.184817 0.255283 0.599786
0.534615 0.196521 0.623804
0.637919 0.186709 0.588602
0.74107 0.168109 0.432013
0.0515755 0.313146 0.437613
0.0492714 0.314366 0.438361
0.0457771 0.31809 0.440711
0.041062 0.321767 0.444846
0.0441596 0.307103 0.466331
0.226963 0.25565 0.621744
0.551919 0.201251 0.623926
0.641047 0.19057 0.587076
0.729137 0.191928 0.45597
0.040589 0.330755 0.445945
0.0390784 0.333593 0.447929
0.0364538 0.338399 0.451545
0.0353704 0.34432 0.458244
0.0692454 0.332128 0.495964
0.314839 0.27158 0.661173
0.586694 0.229694 0.637095
0.655924 0.222232 0.607538
0.718151 0.230991 0.49897
0.0197604 0.36321 0.462501
0.0185855 0.367117 0.465629
0.0174716 0.374136 0.471992
0.0237583 0.383444 0.48307
0.132174 0.373281 0.543236
0.42443 0.308324 0.700435
0.630823 0.274266 0.659876
0.678386 0.269368 0.639506
0.721172 0.292058 0.564645
9.15541e-05 0.422873 0.507942
0.000167849 0.42829 0.513497
0.00627146 0.438239 0.523949
0.0315862 0.452903 0.541054
0.15697 0.466285 0.584344
0.549966 0.404776 0.74847
0.694987 0.365301 0.706844
0.722927 0.361028 0.695949
0.766751 0.419577 0.675364
0 0.488197 0.539101
0 0.495171 0.544594
0 0.508202 0.555169
0 0.529183 0.573312
0.0368048 0.566751 0.612131
0.598779 0.612284 0.789059
0.806775 0.575311 0.80708
0.828367 0.577798 0.805386
0.865736 0.645258 0.823178
0 0.527413 0.540261
0 0.533959 0.545968
0 0.54522 0.556115
0 0.562387 0.572076
0 0.587182 0.595621
0 0.62681 0.635508
0.739818 0.813886 0.873121
0.942412 0.83151 0.926711
0.955139 0.862135 0.937987
0.00103761 0.59086 0.590311
0.000823987 0.589624 0.589975
0.000488289 0.58819 0.589563
0.000228885 0.588357 0.590112
0 0.600366 0.602655
0 0.624201 0.627024
0 0.668666 0.672145
0.965759 0.9738 0.973861
0.991943 0.977966 0.978088
0.0268406 0.695705 0.605509
0.0331273 0.691875 0.613306
0.0400244 0.686458 0.626383
0.0411841 0.681056 0.642283
0.0289006 0.680583 0.662516
0.0527504 0.708827 0.70341
0.316564 0.783276 0.786099
0.749905 0.907027 0.899519
0.96698 0.981552 0.893233
0.0548104 0.31313 0.437125
0.0534524 0.312581 0.437201
0.0509957 0.311772 0.437278
0.0462196 0.315373 0.439582
0.0405127 0.32134 0.445304
0.0516823 0.303731 0.477195
0.232364 0.253025 0.624231
0.547311 0.197162 0.621866
0.638956 0.186572 0.585138
0.0504463 0.313603 0.437919
0.0482185 0.316014 0.439139
0.0450141 0.320653 0.441703
0.0409705 0.32697 0.446097
0.0380713 0.33434 0.453849
0.0723735 0.316808 0.50013
0.289677 0.261357 0.649882
0.570184 0.214237 0.629374
0.644633 0.20209 0.600229
0.0399481 0.331731 0.447074
0.0380255 0.335027 0.449058
0.0357519 0.340612 0.452689
0.0325628 0.348623 0.45864
0.0344396 0.358724 0.469612
0.122057 0.34078 0.5402
0.381033 0.28011 0.681743
0.605524 0.243534 0.643
0.660456 0.234195 0.619333
0.0222019 0.364065 0.465141
0.0209659 0.368246 0.468208
0.0191501 0.375891 0.474525
0.0216983 0.386938 0.485176
0.0440681 0.401282 0.504387
0.226825 0.381064 0.611536
0.491157 0.32311 0.712123
0.65069 0.291066 0.666926
0.684703 0.283177 0.650202
0.0145113 0.423407 0.513909
0.0188144 0.429145 0.519707
0.0308537 0.439551 0.530617
0.0569314 0.455024 0.548028
0.118273 0.476265 0.57731
0.382757 0.471092 0.698497
0.624979 0.430701 0.757748
0.724697 0.394659 0.717998
0.736889 0.389395 0.711192
0.06981 0.507103 0.585122
0.0839551 0.515312 0.592905
0.11165 0.530205 0.607279
0.161578 0.552575 0.629801
0.257801 0.584894 0.666484
0.476234 0.625498 0.743282
0.776623 0.635325 0.836271
0.846937 0.623362 0.827817
0.853956 0.631952 0.831724
0 0.568566 0.599542
0.00480659 0.578729 0.608591
0.0252384 0.596872 0.625025
0.0779126 0.624903 0.651667
0.194842 0.667689 0.695293
0.402045 0.725948 0.758831
0.841825 0.830808 0.907454
0.950347 0.852552 0.937255
0.954513 0.863569 0.94229
0 0.583398 0.591455
0 0.590906 0.59852
0 0.603967 0.610971
0 0.624109 0.630503
0 0.658869 0.665064
0.100603 0.717723 0.725475
0.440925 0.809033 0.818891
0.966583 0.973754 0.985
0.9953 0.98323 0.994705
1.5259e-05 0.585763 0.588174
4.57771e-05 0.58613 0.588495
0 0.597742 0.600275
0 0.615442 0.618235
0 0.639902 0.643168
0 0.685389 0.689937
0.304906 0.780316 0.788296
0.731014 0.90312 0.909117
1 1 1
