LUT预设1/LUT全系打包/电影感系列lut/电影感各机型log灰片/T&O重口青橙.cube
TITLE "Generated by Resolve"
LUT_3D_SIZE 33
0.00317388 0.000793469 0.00317388
0.0122225 0.00222782 0.00433356
0.032105 0.00546273 0.0068513
0.0561227 0.00981155 0.00987259
0.0852216 0.0138705 0.012314
0.119295 0.0181277 0.0134585
0.158984 0.0219577 0.0137484
0.204532 0.0260014 0.0120241
0.257038 0.0296178 0.00921645
0.316121 0.0337987 0.00578317
0.380819 0.0384375 0.00292973
0.447379 0.0435035 0.00111391
0.510933 0.0469062 0.00106813
0.567391 0.0484627 0.00224308
0.618891 0.047837 0.00442512
0.668605 0.0462043 0.00698863
0.716213 0.0441444 0.010132
0.759945 0.0415656 0.0146639
0.798169 0.0388952 0.01944
0.832486 0.0359808 0.0241855
0.864057 0.032929 0.0294499
0.894163 0.0300603 0.0350805
0.923232 0.0274815 0.0408637
0.949905 0.0251316 0.0464942
0.970871 0.022797 0.0522774
0.977523 0.0211337 0.056672
0.97763 0.0197147 0.0602426
0.977737 0.0183566 0.0636759
0.977844 0.016968 0.0674296
0.97792 0.0157626 0.0712444
0.977981 0.0146487 0.0747234
0.978042 0.0136416 0.0779126
0.978119 0.0126192 0.0810864
0.0033875 0.0016022 0.0033875
0.00418097 0.00105287 0.00332647
0.0213931 0.00363165 0.00541695
0.0449836 0.00776684 0.00831617
0.0738231 0.0121767 0.0111238
0.107897 0.0166629 0.0125277
0.147738 0.0206912 0.0134279
0.193881 0.0247959 0.0114443
0.246708 0.0286717 0.00865187
0.306615 0.0331426 0.00502022
0.371801 0.0378882 0.00192264
0.441779 0.0434272 0.00047303
0.514458 0.0476081 0.000411994
0.58732 0.050721 0.000747692
0.653223 0.0505989 0.00257877
0.710048 0.0485389 0.00541695
0.757214 0.0457923 0.00944533
0.797482 0.042237 0.0146334
0.832761 0.0389258 0.0197452
0.865354 0.0355383 0.0251621
0.896635 0.0320287 0.0314336
0.926543 0.0290532 0.0378271
0.954452 0.026215 0.043946
0.974762 0.0236362 0.0502785
0.977478 0.0217899 0.0549935
0.9776 0.0200809 0.0593423
0.977737 0.0182803 0.0638895
0.977859 0.016556 0.0687572
0.977951 0.0151675 0.073106
0.978027 0.0138857 0.0771344
0.978103 0.012726 0.0807813
0.978164 0.0116579 0.084123
0.97821 0.0107271 0.0875257
0.00469978 0.00643931 0.00469978
0.00445563 0.00553903 0.00445563
0.0146639 0.00639353 0.00556954
0.035111 0.00959792 0.00801099
0.0626688 0.0139162 0.0106661
0.0964218 0.017731 0.0124056
0.136339 0.0213626 0.0132143
0.182727 0.0243534 0.0117647
0.236454 0.0281224 0.00914015
0.296925 0.0325322 0.00537118
0.363317 0.037232 0.00198367
0.434287 0.0429389 0.000411994
0.508873 0.0474403 0.000228885
0.585931 0.0511177 0.000335698
0.659022 0.051667 0.00175479
0.722759 0.0495308 0.00444038
0.777218 0.0466011 0.00877394
0.824537 0.0428473 0.0137026
0.866102 0.038819 0.019852
0.899184 0.0347753 0.0263218
0.929808 0.0311894 0.033402
0.955962 0.0279393 0.0400397
0.97351 0.0250706 0.0467689
0.976944 0.022797 0.05243
0.977554 0.0206302 0.0579385
0.977722 0.0185245 0.0632486
0.977859 0.0165713 0.0686809
0.977966 0.014847 0.0741131
0.978073 0.0133211 0.0789197
0.978149 0.0119631 0.0831922
0.97821 0.0108186 0.0870985
0.978195 0.00999466 0.0910048
0.97818 0.00921645 0.0946365
0.00633249 0.0124361 0.00660716
0.00607309 0.01149 0.0062562
0.00910964 0.0110781 0.00633249
0.0259709 0.0131075 0.00830091
0.0516365 0.0174258 0.0107576
0.08365 0.0216678 0.0125887
0.12282 0.0257725 0.0133059
0.169146 0.0291142 0.012314
0.222629 0.0325628 0.00988785
0.28397 0.0358434 0.00608835
0.351736 0.038819 0.00236515
0.424552 0.0422065 0.000503548
0.500832 0.0470588 9.15541e-05
0.580484 0.0511025 0.000137331
0.65687 0.0523995 0.00108339
0.724895 0.0504158 0.00350958
0.784237 0.0470436 0.00813306
0.836789 0.043061 0.0133822
0.884245 0.038529 0.0202335
0.926818 0.0340887 0.0272374
0.956451 0.0303502 0.0345159
0.971908 0.0270695 0.0420844
0.977295 0.0241093 0.0491188
0.977493 0.0215152 0.0556954
0.977691 0.0189975 0.0620584
0.977859 0.0166476 0.0684367
0.977981 0.0146181 0.0747997
0.978103 0.0127718 0.0806287
0.978195 0.0111696 0.0856794
0.978195 0.0100557 0.0907454
0.978195 0.00965896 0.095079
0.978271 0.0104067 0.0988785
0.978454 0.0126497 0.102129
0.0080415 0.0187991 0.00883497
0.00793469 0.0183871 0.00872816
0.00770581 0.0174868 0.00843824
0.0205692 0.0187839 0.00944533
0.0424811 0.0221714 0.0112001
0.070161 0.0265965 0.0129854
0.104143 0.0310216 0.0138247
0.146075 0.0351568 0.0132906
0.195422 0.0385138 0.0111086
0.251545 0.0420844 0.00788891
0.324376 0.0456092 0.00358587
0.41117 0.0491035 0.000747692
0.489601 0.0526436 3.0518e-05
0.571664 0.0536355 6.10361e-05
0.650599 0.0535744 0.000457771
0.722133 0.0513161 0.00250248
0.784817 0.0477607 0.007187
0.84065 0.0432593 0.0130465
0.892363 0.0383154 0.0203555
0.942199 0.0334478 0.0280919
0.969924 0.029572 0.0362402
0.977096 0.0262455 0.0440223
0.977371 0.0229801 0.0519875
0.97763 0.0198215 0.059968
0.977844 0.0169528 0.0675059
0.977996 0.0145266 0.0751202
0.978134 0.0123293 0.0820172
0.97821 0.0107118 0.0884565
0.978332 0.0123598 0.0940108
0.978469 0.0138094 0.0988937
0.978653 0.0156405 0.102968
0.978882 0.0181735 0.106508
0.979141 0.0216068 0.109529
0.00984207 0.0259251 0.0106355
0.0099794 0.0265202 0.0107729
0.00984207 0.0259556 0.0106355
0.0170748 0.0259098 0.0110475
0.0341802 0.0278782 0.0123598
0.059556 0.0318761 0.0137331
0.0862898 0.0363165 0.0148013
0.119097 0.0403906 0.0144961
0.157809 0.0443427 0.013138
0.202319 0.0487373 0.0108186
0.275105 0.0544442 0.00567636
0.377035 0.061799 0.00143435
0.462089 0.0652018 0
0.55697 0.0639963 0
0.64126 0.0607919 6.10361e-05
0.716365 0.0567636 0.00135805
0.781582 0.0517433 0.00534066
0.839811 0.0443885 0.0121767
0.894453 0.0383612 0.0203403
0.947601 0.0328985 0.0290379
0.97406 0.0287633 0.0381018
0.977203 0.0251469 0.0466468
0.977493 0.0214237 0.0559091
0.977783 0.017731 0.0652781
0.978012 0.015671 0.0744182
0.978256 0.0146792 0.0825208
0.978424 0.0149081 0.0901045
0.978546 0.0155489 0.0969863
0.978897 0.0195926 0.102251
0.979232 0.0233616 0.106706
0.979568 0.026978 0.110719
0.979889 0.030518 0.114107
0.980209 0.0337835 0.11722
0.0121767 0.0343175 0.0129702
0.0126497 0.035996 0.0134432
0.0127413 0.0363012 0.0135348
0.0123598 0.0349737 0.0131533
0.0265507 0.0358434 0.0138399
0.0538796 0.0390021 0.0153811
0.0771801 0.0428626 0.016022
0.0996262 0.0467536 0.016144
0.125795 0.050721 0.0156558
0.157519 0.054902 0.0144503
0.21532 0.0613107 0.0101015
0.305791 0.070222 0.00402838
0.400595 0.0797284 0.0009308
0.522774 0.0849775 0
0.622446 0.0803388 0
0.705226 0.0724956 0.000244144
0.775341 0.0630961 0.00247196
0.836744 0.0503853 0.00994888
0.894057 0.0414588 0.0195926
0.948898 0.0341497 0.0294957
0.97557 0.0287938 0.0400244
0.97734 0.0245823 0.0498665
0.977691 0.0208286 0.0607309
0.978027 0.0179904 0.0717327
0.978378 0.0180209 0.081651
0.978759 0.021149 0.0904097
0.979171 0.0255741 0.0979782
0.979629 0.0296788 0.104326
0.980011 0.0337835 0.10985
0.980407 0.0374151 0.114611
0.980804 0.0407111 0.118654
0.981186 0.0438544 0.122179
0.981506 0.0469062 0.125307
0.0148928 0.0442206 0.0153048
0.0153811 0.0460517 0.015671
0.0157168 0.0472877 0.0159304
0.0157168 0.0472877 0.0159304
0.0204166 0.0468299 0.0159762
0.0377203 0.0482185 0.0167544
0.0754559 0.0526436 0.0180819
0.09897 0.0569924 0.0181582
0.124987 0.0611276 0.0172274
0.155703 0.0656138 0.0158083
0.194263 0.0709239 0.0130617
0.241535 0.0775464 0.00906386
0.297536 0.0852216 0.00526436
0.407874 0.0973373 0.000747692
0.557382 0.105119 0
0.678889 0.0992447 3.0518e-05
0.762875 0.087129 0.000656138
0.82916 0.0761578 0.00355535
0.890562 0.0593729 0.0168307
0.948425 0.0445563 0.0288853
0.976211 0.0339666 0.041062
0.9776 0.0284276 0.0527352
0.978149 0.0272374 0.0649119
0.978759 0.0300603 0.0772106
0.979339 0.0333715 0.0879072
0.979889 0.037644 0.097261
0.980423 0.0418097 0.105135
0.980941 0.045594 0.112047
0.98143 0.0490272 0.117632
0.981857 0.0525368 0.122759
0.982238 0.0558022 0.12723
0.98262 0.0588693 0.131044
0.983017 0.0619516 0.134401
0.0175021 0.0558633 0.0175021
0.0178683 0.0579385 0.0178683
0.0182193 0.0599527 0.0182193
0.0184024 0.0609598 0.0184024
0.0192264 0.0598306 0.0182498
0.0306706 0.059556 0.0186313
0.0655833 0.0638437 0.020264
0.0955825 0.0686198 0.0204471
0.122835 0.0733349 0.0198825
0.153231 0.078294 0.0181735
0.188754 0.084062 0.0157931
0.230167 0.0905928 0.0126192
0.278843 0.0982223 0.00794995
0.350988 0.108492 0.00358587
0.446067 0.119966 0.000534066
0.552407 0.127352 0
0.674525 0.125383 0.000106813
0.81146 0.107576 0.000839246
0.879454 0.0888685 0.00947585
0.942504 0.0705425 0.0238499
0.974685 0.0568704 0.0392767
0.978347 0.0494545 0.0532998
0.979034 0.0471504 0.0674601
0.979858 0.049485 0.0810712
0.980591 0.0526436 0.0931411
0.981277 0.0559243 0.103258
0.981888 0.0593423 0.112245
0.982483 0.0626383 0.119585
0.982986 0.0660258 0.125902
0.983474 0.0694438 0.131548
0.983902 0.072755 0.136553
0.984268 0.076112 0.141115
0.984634 0.0794537 0.145083
0.0202335 0.0698711 0.0195773
0.0206912 0.0719158 0.0198062
0.0211643 0.0740826 0.0200504
0.0215915 0.0759594 0.020264
0.0216526 0.0762341 0.0202945
0.026978 0.0756237 0.020737
0.0462959 0.0765393 0.0221103
0.0864118 0.0820783 0.0233768
0.117952 0.0872816 0.023209
0.149523 0.0928359 0.0218051
0.184497 0.0990616 0.0196384
0.224811 0.106081 0.0164797
0.27158 0.114015 0.0119936
0.328771 0.123903 0.00756847
0.396841 0.134524 0.00311284
0.481147 0.145556 0.000671397
0.592996 0.153216 0
0.731106 0.148348 3.0518e-05
0.847623 0.128466 0.00285344
0.926894 0.105852 0.0147097
0.968612 0.0872663 0.0327459
0.979065 0.075288 0.0518196
0.980026 0.0710002 0.0688029
0.981048 0.0720684 0.084535
0.981994 0.0737011 0.0977646
0.982818 0.0761273 0.109545
0.983551 0.0793469 0.119738
0.984176 0.0826581 0.128389
0.984756 0.0858015 0.13547
0.985199 0.0893263 0.142092
0.985595 0.0931106 0.148058
0.985977 0.0967575 0.153231
0.986267 0.100725 0.158129
0.0236667 0.085832 0.0216983
0.024094 0.0879225 0.0220188
0.024567 0.0901961 0.0223697
0.0251011 0.0927596 0.0227512
0.0254368 0.0948196 0.0229191
0.0267338 0.0952163 0.0231174
0.0335241 0.0940566 0.0237888
0.0669566 0.0967727 0.0260014
0.10576 0.102388 0.0264897
0.142992 0.108873 0.025864
0.178988 0.115892 0.0239261
0.218967 0.123629 0.0213169
0.264775 0.13228 0.0171206
0.319966 0.142611 0.0121614
0.383902 0.153826 0.00720226
0.457038 0.165133 0.00318914
0.542489 0.17557 0.000762951
0.640894 0.181781 0
0.785412 0.171908 0
0.888701 0.149874 0.00576791
0.954208 0.12607 0.0217746
0.979522 0.107485 0.0451667
0.980926 0.0983749 0.0681315
0.982284 0.0975967 0.0870069
0.983459 0.0980392 0.102785
0.984466 0.0999771 0.11632
0.98526 0.102815 0.128313
0.985885 0.10631 0.13875
0.986435 0.10985 0.147448
0.986893 0.113817 0.155337
0.987167 0.118227 0.162539
0.987457 0.122438 0.168902
0.987732 0.126421 0.174517
0.0268101 0.104356 0.0233921
0.0271305 0.106523 0.0234989
0.0274662 0.108888 0.0236057
0.0278782 0.111864 0.0238499
0.0282902 0.114916 0.0241093
0.0286107 0.117342 0.0243381
0.0303044 0.117968 0.0246128
0.0434882 0.116594 0.0265354
0.0864729 0.119677 0.0293431
0.129976 0.126329 0.0295872
0.171389 0.134371 0.0289006
0.211872 0.142992 0.0269627
0.257176 0.152529 0.0240787
0.310933 0.163592 0.0191196
0.372946 0.175692 0.0134127
0.442863 0.187854 0.00726329
0.520073 0.199268 0.00318914
0.601602 0.208408 0.0009308
0.700603 0.210895 0
0.82681 0.198245 0
0.920653 0.174472 0.00875868
0.972442 0.149477 0.0310369
0.981476 0.132372 0.0622263
0.983383 0.127886 0.0873274
0.984924 0.126894 0.107317
0.986038 0.128176 0.124239
0.986893 0.130953 0.138903
0.987564 0.134508 0.151583
0.987976 0.138674 0.162356
0.988327 0.143069 0.171939
0.988571 0.147921 0.180545
0.988754 0.152728 0.188113
0.988937 0.157397 0.194903
0.0298009 0.126223 0.0251316
0.0300603 0.128496 0.0252384
0.0302586 0.131044 0.0252384
0.0305333 0.134188 0.0252384
0.0308385 0.137911 0.0252384
0.0311437 0.141619 0.0252384
0.031342 0.14403 0.0252384
0.0315557 0.144076 0.0252689
0.0569467 0.143175 0.0290379
0.10576 0.145892 0.0323033
0.161105 0.154391 0.0331426
0.203174 0.16379 0.0329442
0.248508 0.174502 0.0310826
0.300603 0.186648 0.0275273
0.360998 0.199832 0.0217441
0.429191 0.213245 0.0144961
0.503838 0.226093 0.00793469
0.582284 0.236896 0.00331121
0.664515 0.242649 0.000717174
0.75375 0.241688 0
0.851377 0.229862 4.57771e-05
0.941543 0.208194 0.0096437
0.981445 0.175463 0.0478218
0.984115 0.16463 0.0844739
0.986175 0.160449 0.111421
0.987533 0.160845 0.132937
0.988434 0.163668 0.151217
0.988968 0.167742 0.167254
0.989334 0.172442 0.180392
0.989548 0.177218 0.19205
0.989746 0.182071 0.202121
0.989853 0.187152 0.210864
0.98999 0.192142 0.218723
0.0317693 0.151843 0.0252384
0.0318608 0.154192 0.0252384
0.0319829 0.156863 0.0252384
0.032105 0.159976 0.0252384
0.0322728 0.16376 0.0252384
0.0322423 0.168231 0.0251316
0.0320745 0.172793 0.0249638
0.0319829 0.175113 0.0248722
0.0375372 0.174426 0.0258488
0.0719005 0.174151 0.0316777
0.125078 0.176898 0.0352178
0.189334 0.186282 0.0373999
0.236103 0.197604 0.0382544
0.287907 0.211124 0.0366674
0.346716 0.226078 0.0327459
0.413474 0.241611 0.0255283
0.487297 0.256565 0.016846
0.564874 0.269215 0.00952163
0.645716 0.277012 0.00366217
0.726009 0.279011 0.00103761
0.80618 0.274281 0
0.887221 0.262303 0.0018616
0.971679 0.242771 0.00991836
0.981765 0.216251 0.0642405
0.986679 0.203189 0.106874
0.988769 0.199924 0.14049
0.989761 0.202014 0.165194
0.99028 0.206119 0.185245
0.990555 0.210895 0.201434
0.990662 0.215793 0.215244
0.990784 0.220798 0.227268
0.990784 0.225879 0.237613
0.990784 0.23093 0.246525
0.031754 0.180941 0.0246433
0.0316472 0.183505 0.0245365
0.0315404 0.186236 0.0244297
0.0311589 0.189502 0.0241855
0.0307317 0.193347 0.0239109
0.0301823 0.198108 0.0235447
0.0295872 0.203342 0.0231632
0.0289769 0.208362 0.0228428
0.0287633 0.209796 0.0227817
0.0421759 0.209354 0.025391
0.0833906 0.209369 0.0327611
0.148943 0.211994 0.0383764
0.220203 0.222293 0.0420691
0.271809 0.236011 0.0438544
0.329549 0.252598 0.0434424
0.394736 0.270893 0.0387427
0.466758 0.289342 0.0308385
0.543893 0.305348 0.0217136
0.62536 0.315663 0.0121462
0.704631 0.319554 0.00450141
0.779339 0.317845 0.00151064
0.854673 0.310399 0.000198367
0.938033 0.297871 0.000259403
0.973632 0.275944 0.0238956
0.985397 0.258244 0.0814527
0.989319 0.245594 0.137026
0.990951 0.244587 0.177356
0.99147 0.248203 0.204166
0.991608 0.252735 0.224323
0.991638 0.257786 0.241443
0.991592 0.262928 0.255787
0.991424 0.267826 0.267948
0.991241 0.272999 0.27834
0.0282139 0.21355 0.0226444
0.0278477 0.216052 0.0225528
0.0274357 0.218891 0.022446
0.0269474 0.222156 0.0223239
0.0263828 0.226001 0.0221866
0.025452 0.230716 0.0220951
0.0240482 0.236255 0.0220951
0.022446 0.242557 0.0220951
0.0213321 0.246983 0.0220951
0.0212406 0.248035 0.0221256
0.0421759 0.248615 0.0252842
0.0958724 0.249668 0.0339513
0.177462 0.251637 0.0413062
0.246738 0.261997 0.0466163
0.309758 0.279133 0.0508125
0.373129 0.299428 0.0511025
0.443198 0.322087 0.0474098
0.519371 0.34316 0.038941
0.600961 0.358389 0.0277104
0.682109 0.365774 0.0165713
0.758785 0.365469 0.00732433
0.832685 0.359457 0.00247196
0.906966 0.350027 0.000427253
0.967163 0.334798 0
0.983581 0.31809 0.0437171
0.987457 0.303044 0.106111
0.991623 0.292836 0.178073
0.99234 0.294179 0.221653
0.992355 0.298466 0.248463
0.992187 0.303319 0.269947
0.991836 0.308568 0.287678
0.99144 0.31371 0.302266
0.990997 0.319097 0.314778
0.0208286 0.248936 0.0220951
0.0202487 0.251423 0.0221866
0.0196536 0.2542 0.0223697
0.0189517 0.257481 0.0225986
0.0180819 0.261555 0.0228885
0.0171054 0.266133 0.023209
0.0159304 0.271672 0.0236057
0.0145724 0.278157 0.0246433
0.0131228 0.285176 0.025864
0.012253 0.289357 0.0265812
0.0155795 0.291157 0.027039
0.035935 0.292241 0.0281834
0.10515 0.294423 0.0358434
0.203403 0.295232 0.0453193
0.279667 0.306264 0.0513924
0.349248 0.326741 0.0575113
0.41796 0.351766 0.0594034
0.492195 0.378454 0.0563211
0.572671 0.40148 0.0482032
0.655177 0.415564 0.0357977
0.735607 0.419059 0.0220493
0.811826 0.414054 0.0112612
0.885481 0.40502 0.00381476
0.959716 0.392996 0.000686656
0.980484 0.379187 0.00726329
0.984314 0.365454 0.0625162
0.989868 0.350637 0.153368
0.992432 0.345586 0.229252
0.992462 0.348653 0.271046
0.991989 0.353185 0.301305
0.991089 0.358816 0.323919
0.990173 0.364416 0.342077
0.989303 0.37026 0.357137
0.0128023 0.286687 0.0261234
0.012253 0.289357 0.0265812
0.0116732 0.292119 0.0270695
0.0110018 0.295491 0.0276799
0.0104219 0.299748 0.028687
0.00975052 0.304738 0.0298772
0.00900282 0.31017 0.0311742
0.0081178 0.316701 0.0327306
0.00733959 0.324117 0.035172
0.0065919 0.331685 0.0378729
0.00608835 0.336812 0.0396887
0.00981155 0.338567 0.0397345
0.0270542 0.340276 0.0382239
0.112551 0.343847 0.0401465
0.226596 0.343084 0.0496834
0.320729 0.35584 0.0572976
0.390997 0.379477 0.0638132
0.464286 0.409247 0.0670176
0.543145 0.439658 0.0649882
0.625055 0.463737 0.0575723
0.707713 0.475608 0.0449531
0.787243 0.47512 0.0302281
0.863874 0.466224 0.0166323
0.941726 0.45301 0.00679026
0.972549 0.437873 0.00347906
0.981414 0.427573 0.0322423
0.983673 0.420829 0.102312
0.989761 0.404471 0.217151
0.990433 0.403983 0.288457
0.989654 0.408133 0.334524
0.988449 0.413825 0.364706
0.987091 0.420325 0.387564
0.985779 0.427024 0.406119
0.00737011 0.324025 0.0352636
0.0071107 0.326574 0.0361028
0.00680552 0.329519 0.0370947
0.00645457 0.33312 0.0383764
0.00601205 0.33756 0.0399634
0.00553903 0.342489 0.0417182
0.00534066 0.348531 0.0439155
0.00512703 0.355367 0.0464179
0.00488289 0.362997 0.0492103
0.0047303 0.371588 0.0523079
0.0047303 0.379904 0.0552682
0.00538643 0.386206 0.0573892
0.0081178 0.387839 0.0575418
0.0376898 0.39118 0.053727
0.114855 0.394232 0.0495613
0.235035 0.392493 0.055436
0.350759 0.404105 0.0619669
0.426642 0.430549 0.0679789
0.505547 0.464576 0.0720378
0.587564 0.498192 0.0707713
0.671443 0.52282 0.0636301
0.753918 0.532601 0.0521401
0.833692 0.528984 0.0383154
0.913222 0.516411 0.0234226
0.958663 0.500755 0.0144656
0.976455 0.489143 0.0323949
0.977554 0.48191 0.0838331
0.979461 0.475776 0.163119
0.983642 0.464897 0.270115
0.984771 0.463966 0.354086
0.98378 0.469657 0.402899
0.982361 0.476768 0.432715
0.980896 0.484352 0.455116
0.00527962 0.361929 0.0508125
0.00509651 0.364843 0.0513771
0.00491341 0.36788 0.0520333
0.00482185 0.371756 0.0529183
0.00476081 0.376287 0.054139
0.0047303 0.381872 0.0559548
0.0047303 0.38822 0.0582132
0.0047303 0.395331 0.0607004
0.0047303 0.403525 0.0633402
0.0047303 0.412604 0.0662547
0.0047303 0.422324 0.0693828
0.0047303 0.432212 0.0722972
0.0047303 0.439353 0.074403
0.0132906 0.441413 0.0748913
0.0483864 0.444114 0.0728313
0.120821 0.446418 0.0648814
0.245777 0.443091 0.0636606
0.37911 0.453223 0.066331
0.461769 0.481773 0.0704967
0.546334 0.519158 0.0733043
0.631678 0.555383 0.0714885
0.716411 0.579843 0.0654765
0.79884 0.586679 0.0561837
0.880461 0.579553 0.0445716
0.941009 0.56553 0.0337377
0.969039 0.551705 0.0383459
0.970062 0.541787 0.0738079
0.969772 0.538689 0.157275
0.970275 0.532631 0.242847
0.973053 0.526436 0.340002
0.976577 0.526864 0.426886
0.976989 0.533898 0.474449
0.975937 0.542184 0.502708
0.00518807 0.401617 0.0666056
0.00512703 0.404593 0.0670024
0.005066 0.407919 0.0675669
0.0049897 0.411963 0.0682078
0.00491341 0.416678 0.0691081
0.00485237 0.422385 0.0703899
0.00477607 0.429313 0.0719615
0.0047303 0.436957 0.0737469
0.0047303 0.445457 0.0761883
0.0047303 0.455024 0.0789044
0.0047303 0.465827 0.0816968
0.0047303 0.47747 0.0847181
0.00442512 0.489082 0.0876326
0.00411994 0.495293 0.0891432
0.0173495 0.498466 0.0911879
0.0581674 0.499367 0.0928817
0.132891 0.499763 0.0854047
0.268055 0.49337 0.0749981
0.396979 0.501122 0.0715801
0.497093 0.532372 0.0715648
0.586892 0.572686 0.0710155
0.675212 0.609918 0.0673381
0.761135 0.632792 0.0611429
0.845579 0.63714 0.0555734
0.919509 0.627497 0.0485695
0.958068 0.613413 0.0469215
0.962768 0.601465 0.0706493
0.961547 0.596735 0.157519
0.959381 0.594598 0.234714
0.958053 0.59086 0.32314
0.962814 0.586923 0.41709
0.969757 0.590585 0.501289
0.97081 0.598764 0.543481
0.00497444 0.442756 0.0812848
0.00488289 0.445899 0.0817426
0.00480659 0.449393 0.0822919
0.00471504 0.453712 0.0830243
0.00468452 0.458885 0.083711
0.004654 0.465095 0.0844587
0.004654 0.472099 0.0852674
0.00468452 0.479683 0.0861067
0.00440986 0.488792 0.0879835
0.00395209 0.498665 0.090074
0.00341802 0.50956 0.0926375
0.00299077 0.521798 0.0956283
0.00267033 0.535424 0.0989853
0.00236515 0.547677 0.101991
0.00221256 0.554437 0.10367
0.0167391 0.557641 0.106142
0.0602884 0.557839 0.110338
0.148119 0.554253 0.108492
0.28751 0.543114 0.0886854
0.422538 0.549264 0.0778973
0.533074 0.582162 0.0713054
0.627817 0.624857 0.0657206
0.718456 0.662226 0.0581826
0.807553 0.682567 0.0526589
0.892195 0.683497 0.0502327
0.943099 0.67219 0.0496071
0.958434 0.658747 0.066331
0.956878 0.651423 0.144488
0.953262 0.648722 0.232227
0.94905 0.64802 0.307744
0.947524 0.647105 0.390814
0.95758 0.645792 0.496162
0.965637 0.652338 0.56968
0.00424201 0.484749 0.0944991
0.00408942 0.488151 0.0950027
0.00390631 0.492058 0.0956436
0.00370794 0.496574 0.0963607
0.00347906 0.50193 0.0972
0.00318914 0.508385 0.0981308
0.00289921 0.515389 0.0989242
0.00276188 0.52369 0.0998245
0.00262455 0.532509 0.100282
0.0024567 0.542306 0.101335
0.00222782 0.553399 0.103471
0.0019379 0.565881 0.106493
0.00161746 0.579278 0.109789
0.00125124 0.594736 0.113634
0.0009308 0.60798 0.11693
0.000747692 0.615732 0.118883
0.0112306 0.617884 0.120592
0.0545663 0.618036 0.125078
0.165972 0.6065 0.12784
0.30721 0.591806 0.103914
0.462394 0.59791 0.0829786
0.569863 0.631312 0.0700236
0.668574 0.674922 0.057557
0.762768 0.711345 0.0465705
0.853437 0.72903 0.0420996
0.921141 0.725948 0.043061
0.957473 0.714565 0.0575875
0.956191 0.702861 0.112993
0.952026 0.698161 0.214679
0.946258 0.696666 0.298833
0.941421 0.697932 0.370062
0.941344 0.700175 0.445289
0.956603 0.702464 0.569818
0.00233463 0.526665 0.107118
0.00227359 0.530175 0.107744
0.0021973 0.534066 0.108415
0.00209049 0.538842 0.1093
0.00198367 0.544366 0.110277
0.0018616 0.55079 0.111315
0.00170901 0.558312 0.112535
0.00157168 0.56643 0.113603
0.00141909 0.575509 0.114488
0.00128176 0.585351 0.11519
0.00111391 0.596506 0.115908
0.0009308 0.60824 0.117006
0.000610361 0.621668 0.120424
0.000259403 0.636728 0.124331
0 0.652201 0.128328
0 0.665553 0.131792
0.0021973 0.674479 0.134295
0.0110933 0.676356 0.135546
0.0648814 0.670192 0.138476
0.180194 0.656046 0.143359
0.314931 0.640238 0.122194
0.487068 0.642557 0.0893111
0.602411 0.67686 0.0689708
0.706554 0.72105 0.0495613
0.804959 0.75671 0.0360266
0.894438 0.771634 0.0317235
0.956954 0.768093 0.0382696
0.958068 0.753475 0.0624094
0.954009 0.744884 0.17937
0.947341 0.740734 0.277943
0.940322 0.741283 0.358282
0.936721 0.744472 0.430579
0.940108 0.748913 0.509987
0.0012665 0.567117 0.119493
0.0011902 0.570718 0.120211
0.00111391 0.574685 0.121035
0.0010071 0.579568 0.122042
0.000885023 0.585245 0.123186
0.000762951 0.591836 0.124437
0.000610361 0.599466 0.125856
0.000442512 0.607706 0.127169
0.00030518 0.6168 0.128359
0.000259403 0.62681 0.129427
0.000167849 0.637797 0.130297
0 0.649424 0.131014
0 0.662211 0.132403
0 0.676707 0.134951
0 0.691081 0.138506
0 0.700587 0.14107
0.000106813 0.704585 0.142153
0.00120546 0.705791 0.14255
0.0219272 0.705013 0.143694
0.0763104 0.703731 0.14699
0.19292 0.697246 0.153765
0.335424 0.684581 0.137148
0.51194 0.68542 0.0952773
0.633494 0.719295 0.0680247
0.744091 0.764446 0.0439612
0.846448 0.800137 0.0281987
0.927779 0.811765 0.0246891
0.95877 0.803082 0.0315404
0.957031 0.790753 0.131746
0.950866 0.783001 0.24213
0.942123 0.780529 0.338704
0.935699 0.783047 0.417441
0.935058 0.788357 0.49015
0.000259403 0.605692 0.131563
0.000183108 0.609461 0.132387
9.15541e-05 0.613626 0.133318
3.0518e-05 0.618448 0.134447
3.0518e-05 0.624186 0.135744
3.0518e-05 0.630838 0.13724
3.0518e-05 0.638529 0.138964
1.5259e-05 0.64686 0.140658
0 0.656077 0.142184
0 0.666178 0.143679
0 0.676768 0.144945
0 0.687465 0.146044
0 0.696193 0.145953
0 0.704463 0.146029
0 0.712139 0.146441
0 0.715633 0.145983
0 0.715511 0.145083
0.00015259 0.715557 0.145098
0.00437934 0.71664 0.145647
0.0311437 0.723156 0.148959
0.0868544 0.726619 0.152956
0.209247 0.724788 0.160586
0.367605 0.718029 0.144457
0.522774 0.723476 0.103883
