LUT预设1/LUT全系打包/电影感系列lut/电影感各机型log灰片/T&O重口青橙.cube
TITLE "Generated by Resolve"
LUT_3D_SIZE 5
0.00317388 0.000793469 0.00317388
0.257038 0.0296178 0.00921645
0.716213 0.0441444 0.010132
0.970871 0.022797 0.0522774
0.978119 0.0126192 0.0810864
0.0175021 0.0558633 0.0175021
0.122835 0.0733349 0.0198825
0.674525 0.125383 0.000106813
0.980591 0.0526436 0.0931411
0.984634 0.0794537 0.145083
0.0208286 0.248936 0.0220951
0.0131228 0.285176 0.025864
0.41796 0.351766 0.0594034
0.980484 0.379187 0.00726329
0.989303 0.37026 0.357137
0.0012665 0.567117 0.119493
0.00030518 0.6168 0.128359
0.000106813 0.704585 0.142153
0.744091 0.764446 0.0439612
0.935058 0.788357 0.49015
0 0.720943 0.186038
0.0116121 0.728283 0.230488
0.107805 0.755825 0.394583
0.250004 0.775525 0.558999
0.941466 0.973068 0.0432136
0.00468452 0.0630198 0.108217
0.208469 0.0670329 0.140032
0.681514 0.0241703 0.147982
0.961975 1.5259e-05 0.193668
0.978134 0.00708019 0.104692
0.00862135 0.0762798 0.0831159
0.10103 0.0885176 0.0903029
0.775143 0.0519875 0.130861
0.979004 0.029099 0.214206
0.985504 0.0855268 0.164385
0.0209659 0.256519 0.044892
0.0129549 0.291447 0.0339971
0.429175 0.364462 0.0614328
0.982864 0.381033 0.0329137
0.987381 0.385733 0.382681
0.000808728 0.58352 0.132525
0 0.633173 0.142428
0 0.713527 0.144549
0.756344 0.777844 0.0425269
0.935531 0.802991 0.518807
9.15541e-05 0.722286 0.196414
0.0270085 0.733684 0.258381
0.123735 0.759182 0.424552
0.282155 0.782284 0.591989
0.940673 0.973022 0.0894484
0.0428779 0.260029 0.377661
0.0501106 0.173175 0.325612
0.52755 0.137469 0.363958
0.948806 0.0268864 0.316457
0.971313 0.000183108 0.250828
0.0201267 0.294636 0.389364
0.0298161 0.26627 0.397467
0.612055 0.175463 0.470176
0.910323 0.119478 0.367025
0.976226 0.106462 0.30399
0.00213626 0.30399 0.301869
0.0021973 0.340261 0.33843
0.326345 0.402441 0.391196
0.964523 0.358389 0.451881
0.940307 0.430137 0.527977
0 0.617746 0.207279
0 0.665797 0.224201
0 0.724437 0.214923
0.784802 0.807157 0.0396429
0.940963 0.83357 0.605966
0.0105287 0.729778 0.245624
0.0578317 0.744335 0.324224
0.162188 0.764218 0.489952
0.380743 0.805234 0.665904
0.935866 0.972457 0.256016
0.0563363 0.31371 0.437018
0.0485542 0.310552 0.437232
0.105348 0.275334 0.533288
0.646052 0.183215 0.543709
0.914183 0.0794995 0.351415
0.0416114 0.330114 0.444343
0.037644 0.335164 0.450126
0.218326 0.269673 0.618906
0.649271 0.205676 0.59321
0.858106 0.204974 0.418647
0 0.418418 0.486442
0 0.432212 0.499626
0.302434 0.42884 0.656489
0.708186 0.329946 0.676448
0.819806 0.447486 0.625849
0.00198367 0.549142 0.547997
0.00175479 0.56408 0.563256
0.000869764 0.587213 0.587121
0.799283 0.842756 0.840818
0.968444 0.862928 0.885603
0.0351415 0.746487 0.36968
0.0885176 0.759091 0.448737
0.197818 0.769345 0.593179
0.49781 0.832868 0.765866
0.918929 0.96495 0.512749
0.0548104 0.31313 0.437125
0.0509957 0.311772 0.437278
0.0405127 0.32134 0.445304
0.232364 0.253025 0.624231
0.638956 0.186572 0.585138
0.0399481 0.331731 0.447074
0.0357519 0.340612 0.452689
0.0344396 0.358724 0.469612
0.381033 0.28011 0.681743
0.660456 0.234195 0.619333
0.0145113 0.423407 0.513909
0.0308537 0.439551 0.530617
0.118273 0.476265 0.57731
0.624979 0.430701 0.757748
0.736889 0.389395 0.711192
0 0.568566 0.599542
0.0252384 0.596872 0.625025
0.194842 0.667689 0.695293
0.841825 0.830808 0.907454
0.954513 0.863569 0.94229
1.5259e-05 0.585763 0.588174
0 0.597742 0.600275
0 0.639902 0.643168
0.304906 0.780316 0.788296
1 1 1
