LUT预设1/LUT全系打包/电影感系列lut/电影感各机型log灰片/WARM2暖调.cube
TITLE "Generated by Resolve"
LUT_3D_SIZE 33
0.00250248 0.00285344 0.00292973
0.00250248 0.00285344 0.00292973
0.00250248 0.00285344 0.00292973
0.00250248 0.00285344 0.00292973
0.00250248 0.00285344 0.00292973
0.00250248 0.00285344 0.00292973
0.00436408 0.00328069 0.00358587
0.0130465 0.00521859 0.00561532
0.0315404 0.00901808 0.00909438
0.0682231 0.0173495 0.0162203
0.121798 0.0294957 0.0256809
0.196399 0.044358 0.0357366
0.293095 0.0625772 0.0470893
0.399008 0.0839399 0.0601358
0.500099 0.105913 0.0738079
0.595163 0.125582 0.0852827
0.686366 0.143343 0.094667
0.768261 0.161898 0.105455
0.831205 0.176074 0.115114
0.855985 0.180346 0.119066
0.857969 0.180636 0.119387
0.857969 0.180636 0.119387
0.857969 0.180636 0.119387
0.857969 0.180636 0.119387
0.857969 0.180636 0.119387
0.857969 0.180636 0.119387
0.857969 0.180636 0.119387
0.857969 0.180636 0.119387
0.857969 0.180636 0.119387
0.857969 0.180636 0.119387
0.857969 0.180636 0.119387
0.857969 0.180636 0.119387
0.857969 0.180636 0.119387
0.00250248 0.00285344 0.00292973
0.00250248 0.00285344 0.00292973
0.00250248 0.00285344 0.00292973
0.00250248 0.00285344 0.00292973
0.00250248 0.00285344 0.00292973
0.00250248 0.00285344 0.00292973
0.00419623 0.00323491 0.00354009
0.0122225 0.00503548 0.00541695
0.0292515 0.00854505 0.00862135
0.0614633 0.0157931 0.0149538
0.111254 0.0273289 0.024155
0.182284 0.0417487 0.0340887
0.279454 0.0599985 0.0455329
0.389685 0.0819715 0.0589303
0.494163 0.104616 0.0729992
0.591104 0.124804 0.0848554
0.683574 0.142718 0.0943008
0.766812 0.161547 0.105241
0.830732 0.175982 0.115038
0.855955 0.180346 0.119066
0.857969 0.180636 0.119387
0.857969 0.180636 0.119387
0.857969 0.180636 0.119387
0.857969 0.180636 0.119387
0.857969 0.180636 0.119387
0.857969 0.180636 0.119387
0.857969 0.180636 0.119387
0.857969 0.180636 0.119387
0.857969 0.180636 0.119387
0.857969 0.180636 0.119387
0.857969 0.180636 0.119387
0.857969 0.180636 0.119387
0.857969 0.180636 0.119387
0.00250248 0.00285344 0.00292973
0.00250248 0.00285344 0.00292973
0.00250248 0.00285344 0.00292973
0.00250248 0.00285344 0.00292973
0.00250248 0.00285344 0.00292973
0.00250248 0.00285344 0.00292973
0.00387579 0.00314336 0.00343328
0.0107729 0.00471504 0.00508125
0.0269474 0.00801099 0.00842298
0.0586404 0.0151522 0.0144045
0.108049 0.0266728 0.0236973
0.179782 0.0412909 0.0337987
0.27834 0.0598001 0.0454108
0.390051 0.0820478 0.0589761
0.495811 0.104982 0.073228
0.593286 0.125231 0.0850843
0.686366 0.143343 0.094667
0.769696 0.162249 0.105669
0.832898 0.176364 0.115373
0.856397 0.180407 0.119127
0.857969 0.180636 0.119387
0.857969 0.180636 0.119387
0.857969 0.180636 0.119387
0.857969 0.180636 0.119387
0.857969 0.180636 0.119387
0.857969 0.180636 0.119387
0.857969 0.180636 0.119387
0.857969 0.180636 0.119387
0.857969 0.180636 0.119387
0.857969 0.180636 0.119387
0.857969 0.180636 0.119387
0.857969 0.180636 0.119387
0.857969 0.180636 0.119387
0.00250248 0.00285344 0.00292973
0.00250248 0.00285344 0.00292973
0.00250248 0.00285344 0.00292973
0.00250248 0.00285344 0.00292973
0.00250248 0.00285344 0.00292973
0.00250248 0.00285344 0.00292973
0.00350958 0.0030518 0.00332647
0.0100862 0.00457771 0.00494392
0.0267338 0.00796521 0.0083772
0.0598611 0.0154116 0.0146334
0.112932 0.0276493 0.0243687
0.187732 0.0427405 0.034699
0.289601 0.0619059 0.0466773
0.402579 0.0846876 0.0605936
0.507851 0.107622 0.074876
0.605798 0.127642 0.0863661
0.69836 0.145998 0.0961776
0.780468 0.164904 0.107301
0.840177 0.177661 0.116533
0.857603 0.180591 0.119326
0.857969 0.180636 0.119387
0.857969 0.180636 0.119387
0.857969 0.180636 0.119387
0.857969 0.180636 0.119387
0.857969 0.180636 0.119387
0.857969 0.180636 0.119387
0.857969 0.180636 0.119387
0.857969 0.180636 0.119387
0.857969 0.180636 0.119387
0.857969 0.180636 0.119387
0.857969 0.180636 0.119387
0.857969 0.180636 0.119387
0.857969 0.180636 0.119387
0.00250248 0.00285344 0.00292973
0.00250248 0.00285344 0.00292973
0.00250248 0.00285344 0.00292973
0.00250248 0.00285344 0.00292973
0.00250248 0.00285344 0.00292973
0.00250248 0.00285344 0.00292973
0.00250248 0.00285344 0.00292973
0.00630198 0.00375372 0.00408942
0.0204776 0.00671397 0.00712596
0.0521401 0.0135958 0.0131075
0.106172 0.0261234 0.023209
0.181018 0.0414282 0.033814
0.283162 0.0606241 0.0458381
0.398291 0.083772 0.06009
0.505089 0.107027 0.0745708
0.603723 0.127275 0.0861677
0.696742 0.145785 0.0960708
0.780026 0.164858 0.10724
0.840436 0.177768 0.116548
0.857969 0.180636 0.119387
0.857969 0.180636 0.119387
0.857969 0.180636 0.119387
0.857969 0.180636 0.119387
0.857969 0.180636 0.119387
0.857969 0.180636 0.119387
0.857969 0.180636 0.119387
0.857969 0.180636 0.119387
0.857969 0.180636 0.119387
0.857969 0.180636 0.119387
0.857969 0.180636 0.119387
0.857969 0.180636 0.119387
0.857969 0.180636 0.119387
0.857969 0.180636 0.119387
0.00250248 0.00285344 0.00292973
0.00250248 0.00285344 0.00292973
0.00250248 0.00285344 0.00292973
0.00250248 0.00285344 0.00292973
0.00250248 0.00285344 0.00292973
0.00250248 0.00285344 0.00292973
0.00250248 0.00285344 0.00292973
0.00384527 0.00314336 0.00343328
0.0134279 0.00526436 0.00567636
0.0404059 0.010956 0.0108186
0.0934157 0.0231937 0.0209049
0.168933 0.0390478 0.0322118
0.273152 0.0587472 0.0446479
0.391867 0.082414 0.0593271
0.500725 0.106096 0.0740215
0.600656 0.126696 0.0858778
0.695018 0.145464 0.0958877
0.77911 0.16463 0.107103
0.840894 0.17792 0.116609
0.857969 0.180636 0.119387
0.857969 0.180636 0.119387
0.857969 0.180636 0.119387
0.857969 0.180636 0.119387
0.857969 0.180636 0.119387
0.857969 0.180636 0.119387
0.857969 0.180636 0.119387
0.857969 0.180636 0.119387
0.857969 0.180636 0.119387
0.857969 0.180636 0.119387
0.857969 0.180636 0.119387
0.857969 0.180636 0.119387
0.857969 0.180636 0.119387
0.857969 0.180636 0.119387
0.00250248 0.00285344 0.00292973
0.00250248 0.00285344 0.00292973
0.00250248 0.00285344 0.00292973
0.00250248 0.00285344 0.00292973
0.00250248 0.00285344 0.00292973
0.00250248 0.00285344 0.00292973
0.00250248 0.00285344 0.00292973
0.00259403 0.0028687 0.00297551
0.00808728 0.00416571 0.00451667
0.0296483 0.00863661 0.0087129
0.079057 0.0198672 0.0182345
0.151415 0.0355535 0.0298314
0.254795 0.0552987 0.0425116
0.379782 0.0798962 0.0578164
0.494591 0.104753 0.0731975
0.598016 0.126192 0.0856031
0.694621 0.145403 0.0958572
0.780423 0.164965 0.107271
0.842802 0.178317 0.116915
0.857969 0.180636 0.119387
0.857969 0.180636 0.119387
0.857969 0.180636 0.119387
0.857969 0.180636 0.119387
0.857969 0.180636 0.119387
0.857969 0.180636 0.119387
0.857969 0.180636 0.119387
0.857969 0.180636 0.119387
0.857969 0.180636 0.119387
0.857969 0.180636 0.119387
0.857969 0.180636 0.119387
0.857969 0.180636 0.119387
0.857969 0.180636 0.119387
0.857969 0.180636 0.119387
0.00250248 0.00285344 0.00292973
0.00250248 0.00285344 0.00292973
0.00250248 0.00285344 0.00292973
0.00250248 0.00285344 0.00292973
0.00250248 0.00285344 0.00292973
0.00250248 0.00285344 0.00292973
0.00250248 0.00285344 0.00292973
0.00250248 0.00285344 0.00292973
0.00444038 0.00331121 0.00360113
0.0196536 0.00654612 0.00695811
0.0638437 0.0163119 0.0153506
0.132784 0.0317082 0.0271611
0.232013 0.0510109 0.0398718
0.357748 0.075349 0.0549935
0.480964 0.101778 0.0712902
0.590066 0.124636 0.0847944
0.691005 0.144686 0.0954757
0.78088 0.165072 0.107362
0.845304 0.178775 0.117311
0.857969 0.180636 0.119387
0.857969 0.180636 0.119387
0.857969 0.180636 0.119387
0.857969 0.180636 0.119387
0.857969 0.180636 0.119387
0.857969 0.180636 0.119387
0.857969 0.180636 0.119387
0.857969 0.180636 0.119387
0.857969 0.180636 0.119387
0.857969 0.180636 0.119387
0.857969 0.180636 0.119387
0.857969 0.180636 0.119387
0.857969 0.180636 0.119387
0.857969 0.180636 0.119387
0.00318914 0.0037232 0.00369268
0.00318914 0.00373846 0.00369268
0.00320439 0.00376898 0.00370794
0.00320439 0.00376898 0.0037232
0.00294499 0.00334173 0.00340276
0.00250248 0.00285344 0.00292973
0.00250248 0.00285344 0.00292973
0.00250248 0.00285344 0.00292973
0.00270085 0.00289921 0.00303655
0.010605 0.0047303 0.00511177
0.0468147 0.0124361 0.0120546
0.111513 0.0271458 0.0238346
0.2056 0.0459907 0.0367132
0.330953 0.0699168 0.0515908
0.459724 0.0970779 0.0683146
0.572839 0.121218 0.0828717
0.677806 0.141939 0.0940261
0.77258 0.163058 0.106111
0.841871 0.178332 0.116777
0.857969 0.180636 0.119387
0.857969 0.180636 0.119387
0.857969 0.180636 0.119387
0.857969 0.180636 0.119387
0.857969 0.180636 0.119387
0.857969 0.180636 0.119387
0.857969 0.180636 0.119387
0.857969 0.180636 0.119387
0.857969 0.180636 0.119387
0.857969 0.180636 0.119387
0.857969 0.180636 0.119387
0.857969 0.180636 0.119387
0.857969 0.180636 0.119387
0.857969 0.180636 0.119387
0.00932326 0.0124971 0.00856031
0.00943008 0.0126497 0.00865187
0.00959792 0.0128786 0.00877394
0.00988785 0.0132753 0.00901808
0.0096437 0.0129702 0.00891127
0.009308 0.0124971 0.00868238
0.00851453 0.0114443 0.0081178
0.00749218 0.0100557 0.00732433
0.00616464 0.00822461 0.00631724
0.00587472 0.00604257 0.00534066
0.0274205 0.00825513 0.00831617
0.0851148 0.0212253 0.0192569
0.171115 0.0393835 0.0323339
0.293507 0.0625925 0.0470283
0.428946 0.0902571 0.0641184
0.546136 0.11574 0.0797284
0.654337 0.137118 0.0914168
0.752773 0.158267 0.103288
0.831479 0.176944 0.115145
0.857969 0.180636 0.119387
0.857969 0.180636 0.119387
0.857969 0.180636 0.119387
0.857969 0.180636 0.119387
0.857969 0.180636 0.119387
0.857969 0.180636 0.119387
0.857969 0.180636 0.119387
0.857969 0.180636 0.119387
0.857969 0.180636 0.119387
0.857969 0.180636 0.119387
0.857969 0.180636 0.119387
0.857969 0.180636 0.119387
0.857969 0.180636 0.119387
0.857969 0.180636 0.119387
0.0253452 0.0345006 0.0190738
0.0256352 0.0349432 0.0192264
0.026154 0.0357061 0.0194705
0.0271305 0.0371862 0.0199741
0.0279088 0.0383917 0.0203555
0.0285496 0.0393683 0.0206607
0.0288853 0.0398871 0.0208133
0.0277562 0.0382391 0.0202029
0.0256046 0.0351263 0.0189364
0.0221866 0.0303349 0.0168002
0.0263523 0.0277714 0.0185245
0.0716564 0.0318608 0.022385
0.142657 0.0411231 0.0303197
0.248814 0.0576791 0.0424811
0.38352 0.0824598 0.0584878
0.507042 0.108019 0.074815
0.619013 0.13022 0.0877089
0.720974 0.151034 0.0990463
0.808545 0.171679 0.111528
0.853666 0.180026 0.118669
0.857969 0.180636 0.119387
0.857969 0.180636 0.119387
0.857969 0.180636 0.119387
0.857969 0.180636 0.119387
0.857969 0.180636 0.119387
0.857969 0.180636 0.119387
0.857969 0.180636 0.119387
0.857969 0.180636 0.119387
0.857969 0.180636 0.119387
0.857969 0.180636 0.119387
0.857969 0.180636 0.119387
0.857969 0.180636 0.119387
0.857969 0.180636 0.119387
0.0482795 0.0697032 0.0303044
0.0488594 0.070634 0.0305486
0.0496223 0.0718853 0.0308843
0.0510262 0.0741588 0.0314794
0.0530861 0.0775158 0.0323644
0.0548104 0.0803235 0.0331121
0.0564279 0.0829786 0.033814
0.056733 0.0834974 0.0339361
0.0551919 0.0809949 0.0332647
0.0517739 0.0754864 0.0317693
0.0482643 0.0674144 0.0300908
0.066392 0.0677653 0.0373236
0.133852 0.0712291 0.0371557
0.229191 0.0811322 0.0440375
0.346975 0.0958724 0.0560006
0.465278 0.112886 0.0704662
0.577569 0.130739 0.0840009
0.682231 0.148119 0.0948653
0.775082 0.166125 0.10663
0.839445 0.178271 0.116472
0.857969 0.180636 0.119387
0.857969 0.180636 0.119387
0.857969 0.180636 0.119387
0.857969 0.180636 0.119387
0.857969 0.180636 0.119387
0.857969 0.180636 0.119387
0.857969 0.180636 0.119387
0.857969 0.180636 0.119387
0.857969 0.180636 0.119387
0.857969 0.180636 0.119387
0.857969 0.180636 0.119387
0.857969 0.180636 0.119387
0.857969 0.180636 0.119387
0.0784924 0.119493 0.0435187
0.0792401 0.120745 0.0438697
0.0802014 0.122362 0.0443122
0.0818189 0.125093 0.0450446
0.0847486 0.130037 0.0463874
0.0872053 0.134218 0.0475471
0.0895857 0.138277 0.0486763
0.0912642 0.141131 0.0495003
0.0908675 0.140459 0.0493172
0.0879835 0.135546 0.0479438
0.0833753 0.127459 0.0457771
0.0921798 0.118227 0.0499275
0.116854 0.120027 0.0564584
0.201434 0.122225 0.0505379
0.309865 0.130297 0.0571145
0.423972 0.142962 0.0695964
0.537606 0.157259 0.083238
0.644633 0.169863 0.0941939
0.742779 0.182483 0.105303
0.822736 0.193957 0.116503
0.860471 0.196033 0.121843
0.862486 0.191714 0.12137
0.860685 0.187366 0.120562
0.858976 0.183139 0.119829
0.858045 0.180819 0.119417
0.857969 0.180636 0.119387
0.857969 0.180636 0.119387
0.857969 0.180636 0.119387
0.857969 0.180636 0.119387
0.857969 0.180636 0.119387
0.857969 0.180636 0.119387
0.857969 0.180636 0.119387
0.857969 0.180636 0.119387
0.110506 0.174197 0.0586862
0.111208 0.175418 0.0590372
0.112215 0.177157 0.0595254
0.113878 0.180026 0.0603494
0.116854 0.185245 0.061799
0.119554 0.190036 0.0631113
0.122042 0.194491 0.0643168
0.124346 0.198657 0.0654307
0.125261 0.20029 0.0658732
0.123339 0.196826 0.0649577
0.119478 0.189822 0.0630808
0.117754 0.180728 0.0621042
0.141955 0.169039 0.0742199
0.166735 0.171511 0.0762188
0.261448 0.172732 0.0654154
0.380911 0.18201 0.0756847
0.498177 0.19527 0.0893416
0.610941 0.208453 0.102098
0.713512 0.219486 0.111589
0.80502 0.231937 0.122347
0.870054 0.238285 0.131365
0.881071 0.232197 0.131289
0.877028 0.223789 0.12903
0.873091 0.215534 0.126894
0.869581 0.20798 0.124987
0.867994 0.20444 0.124147
0.867247 0.202731 0.123766
0.866377 0.200793 0.123293
0.865568 0.198947 0.122881
0.864973 0.197604 0.122576
0.864866 0.19736 0.122515
0.864805 0.197177 0.122499
0.864683 0.196933 0.122438
0.141024 0.22948 0.0730755
0.141787 0.230915 0.0734417
0.142763 0.232715 0.0738842
0.144488 0.23592 0.0746624
0.147829 0.242161 0.0761883
0.150973 0.24799 0.0775769
0.154055 0.253697 0.0789197
0.156771 0.258732 0.0801404
0.158801 0.262501 0.0810407
0.157824 0.2607 0.0806287
0.154238 0.254063 0.0790723
0.149645 0.245472 0.0770428
0.156939 0.233127 0.0793469
0.192874 0.219715 0.0991836
0.218509 0.225055 0.0977035
0.328222 0.229221 0.088777
0.456687 0.243 0.102617
0.57557 0.257053 0.116838
0.68452 0.26833 0.127886
0.782681 0.278874 0.137118
0.865782 0.28925 0.146456
0.906279 0.287495 0.149599
0.903777 0.277653 0.146212
0.899001 0.267994 0.142763
0.894255 0.258503 0.139483
0.890959 0.252003 0.137346
0.889555 0.249256 0.136446
0.888106 0.246403 0.135531
0.886595 0.243442 0.134569
0.885603 0.241489 0.133944
0.885435 0.241169 0.133837
0.885191 0.240696 0.133669
0.885039 0.240391 0.133562
0.17322 0.289326 0.0877394
0.174182 0.291157 0.0882277
0.175357 0.2934 0.0888228
0.177295 0.297078 0.0897993
0.181247 0.304601 0.0917983
0.184802 0.31136 0.0935988
0.188205 0.317845 0.0953231
0.191318 0.323781 0.0968948
0.193759 0.328435 0.0981308
0.194034 0.328954 0.0982834
0.190951 0.32314 0.0967422
0.186206 0.314122 0.0943618
0.182696 0.303624 0.0921187
0.209201 0.286549 0.101579
0.245243 0.278782 0.125124
0.282856 0.28658 0.119905
0.396231 0.293126 0.11548
0.53106 0.312764 0.133455
0.651347 0.328252 0.14873
0.756497 0.338247 0.158053
0.850233 0.34789 0.166995
0.920882 0.35285 0.174075
0.933059 0.343572 0.172045
0.927962 0.331487 0.167285
0.922942 0.319768 0.162676
0.918364 0.309422 0.158541
0.916518 0.305241 0.156863
0.91487 0.301518 0.155383
0.913161 0.297704 0.153872
0.911849 0.294789 0.152712
0.911681 0.294438 0.152575
0.911513 0.294087 0.152422
0.91136 0.293721 0.152285
0.207187 0.354299 0.105119
0.208164 0.356191 0.105638
0.209461 0.358709 0.106325
0.21146 0.362585 0.107393
0.215793 0.371008 0.109712
0.219562 0.378378 0.111757
0.22327 0.385565 0.113741
0.226627 0.392065 0.115526
0.22945 0.397528 0.117037
0.230793 0.400137 0.117769
0.227985 0.394675 0.116258
0.223484 0.385916 0.113817
0.218219 0.375677 0.110964
0.22295 0.36112 0.110475
0.273487 0.341146 0.131624
0.300343 0.344335 0.153689
0.349172 0.352438 0.146151
0.460746 0.360143 0.140627
0.601129 0.386084 0.164584
0.723812 0.403143 0.182437
0.825971 0.412329 0.190036
0.913237 0.420645 0.197925
0.957168 0.416938 0.200229
0.956283 0.403555 0.195483
0.951202 0.389715 0.190112
0.946242 0.376455 0.184985
0.943709 0.36968 0.182345
0.941756 0.364721 0.180377
0.939803 0.359838 0.17847
0.938415 0.35642 0.177142
0.938338 0.356222 0.177066
0.93817 0.355825 0.176898
0.938018 0.355444 0.176745
0.241886 0.421714 0.123812
0.242985 0.42385 0.124407
0.244297 0.426413 0.125139
0.246448 0.430625 0.126329
0.25095 0.439353 0.128817
0.255039 0.447364 0.131121
0.259083 0.455268 0.133394
0.262821 0.462547 0.135485
0.265782 0.468299 0.137133
0.267414 0.471473 0.138033
0.265248 0.467292 0.136843
0.260685 0.458381 0.134279
0.255451 0.448157 0.131304
0.248966 0.435035 0.127581
0.280583 0.414725 0.135241
0.341939 0.400305 0.167239
0.358694 0.412345 0.184436
0.415152 0.419013 0.175296
0.521981 0.426642 0.164065
0.667323 0.456153 0.193881
0.793973 0.475547 0.214847
0.891829 0.484901 0.221347
0.963668 0.489265 0.227054
0.981384 0.477897 0.224475
0.976761 0.463157 0.218601
0.971969 0.448463 0.212772
0.968612 0.438376 0.208835
0.966735 0.432944 0.206729
0.964843 0.42742 0.204623
0.963623 0.423911 0.203265
0.963546 0.423697 0.203189
0.963394 0.423301 0.203037
0.963333 0.423087 0.20296
0.277516 0.490898 0.143557
0.27863 0.493065 0.144183
0.279973 0.495644 0.144915
0.282307 0.50016 0.146212
0.287129 0.509438 0.148852
0.291447 0.517754 0.151247
0.295903 0.526253 0.153704
0.299565 0.533303 0.155718
0.302678 0.539284 0.157458
0.304448 0.542702 0.15848
0.30312 0.540154 0.157717
0.298177 0.530678 0.155016
0.292424 0.519677 0.151873
0.285634 0.506615 0.148119
0.29015 0.489586 0.146517
0.357595 0.467185 0.171603
0.406332 0.46334 0.203281
0.419181 0.478889 0.214496
0.48159 0.48394 0.203433
0.589044 0.491569 0.193256
0.732509 0.522271 0.221515
0.858305 0.543542 0.244862
0.948745 0.55317 0.253101
0.995285 0.550362 0.253941
0.997864 0.536446 0.248508
0.993744 0.521096 0.242084
0.990387 0.508949 0.237171
0.988693 0.502922 0.234684
0.987106 0.497337 0.23241
0.986099 0.493782 0.230961
0.986038 0.493568 0.230869
0.985916 0.493141 0.230701
0.985855 0.492943 0.230625
0.313924 0.561135 0.164019
0.315206 0.563561 0.164752
0.316732 0.566445 0.165637
0.319097 0.570916 0.166995
0.3243 0.580697 0.16997
0.328862 0.589258 0.172549
0.333196 0.59736 0.175021
0.337102 0.604669 0.177264
0.340276 0.610544 0.17908
0.342016 0.613764 0.180087
0.341146 0.612161 0.179614
0.335866 0.602365 0.176623
0.329809 0.591073 0.173159
0.322667 0.577585 0.168978
0.314733 0.5617 0.164157
0.362554 0.538231 0.175631
0.429999 0.522728 0.20911
0.464469 0.527443 0.236988
0.479896 0.543603 0.24361
0.54696 0.547372 0.230381
0.652735 0.554971 0.219821
0.791318 0.584649 0.244083
0.913573 0.608682 0.271458
0.993011 0.616434 0.281315
1 0.607492 0.278355
1 0.592966 0.272374
1 0.57995 0.266926
1 0.572854 0.263905
1 0.567086 0.261479
1 0.5635 0.259953
1 0.563302 0.259876
1 0.563088 0.259785
1 0.56289 0.259693
0.352148 0.632593 0.186221
0.353475 0.634974 0.186999
0.355154 0.63801 0.187991
0.357687 0.642588 0.189502
0.362844 0.651942 0.192584
0.367483 0.660319 0.195407
0.371893 0.668223 0.198138
0.375814 0.675227 0.200549
0.378805 0.680613 0.202426
0.380331 0.68336 0.203387
0.379889 0.682582 0.203098
0.374304 0.672602 0.199542
0.367987 0.661189 0.195605
0.360357 0.647395 0.191012
0.351476 0.631266 0.185733
0.368109 0.610544 0.185992
0.439033 0.588418 0.211826
0.497353 0.581796 0.246448
0.520134 0.592554 0.269505
0.540734 0.607523 0.272572
0.610361 0.610239 0.258564
0.712947 0.618158 0.243488
0.842802 0.644541 0.2636
0.960357 0.669352 0.29456
1 0.672831 0.305226
1 0.660365 0.30016
1 0.647257 0.294667
1 0.639582 0.291524
1 0.634134 0.289265
1 0.630777 0.287846
1 0.630579 0.28777
1 0.630396 0.287709
1 0.630396 0.287709
0.390784 0.701976 0.210193
0.392187 0.704448 0.211109
0.393805 0.707347 0.212177
0.396277 0.711727 0.213794
0.401221 0.7205 0.21706
0.405493 0.728099 0.219928
0.409644 0.735424 0.222751
0.413138 0.741543 0.225116
0.415579 0.745846 0.226856
0.416724 0.747814 0.227665
0.416251 0.746975 0.227344
0.411673 0.73901 0.224186
0.405112 0.727428 0.219669
0.397696 0.714305 0.214618
0.388937 0.698741 0.20885
0.387717 0.681239 0.204395
0.443717 0.657328 0.217685
0.512016 0.642939 0.250584
0.561318 0.642847 0.28365
0.575189 0.657633 0.301717
0.602853 0.670863 0.302266
0.673976 0.673182 0.287373
0.773251 0.68014 0.270878
0.890288 0.702296 0.283803
0.99559 0.724819 0.314443
1 0.720623 0.323629
1 0.708293 0.319509
1 0.700374 0.31664
1 0.695598 0.314839
1 0.692744 0.313741
1 0.692744 0.313741
1 0.692576 0.31368
1 0.692393 0.313619
0.427237 0.766155 0.235172
0.428519 0.768414 0.236088
0.430137 0.771267 0.237232
0.432349 0.775082 0.238819
0.436622 0.782483 0.242023
0.440299 0.788815 0.24477
0.44358 0.794476 0.247227
0.446479 0.799435 0.249378
0.448676 0.803174 0.251011
0.449638 0.804837 0.251759
0.449195 0.804044 0.251408
0.445533 0.797757 0.248676
0.439582 0.787518 0.244205
0.432731 0.775677 0.239216
0.424857 0.762005 0.233585
0.418112 0.746334 0.22768
0.447471 0.726101 0.229892
0.519692 0.706538 0.255528
0.581491 0.699947 0.290303
0.621866 0.704875 0.320729
0.630228 0.721492 0.333837
0.664729 0.732387 0.331853
0.737255 0.734325 0.315145
0.830457 0.740841 0.298512
0.933837 0.758267 0.303548
1 0.769009 0.326925
1 0.759854 0.328023
1 0.752255 0.327565
1 0.747951 0.327153
1 0.745663 0.326986
1 0.745663 0.326986
1 0.745525 0.326986
1 0.745525 0.326986
0.459495 0.821393 0.258824
0.460502 0.822965 0.259495
0.461738 0.824933 0.260319
0.463584 0.827863 0.26157
0.467018 0.833341 0.26389
0.469566 0.837385 0.265614
0.471412 0.84036 0.266896
0.472877 0.842725 0.267903
0.47393 0.844388 0.268605
0.474525 0.845335 0.269001
0.474586 0.845365 0.268986
0.473762 0.843976 0.268345
0.469963 0.838071 0.265949
0.4645 0.829648 0.262608
0.457649 0.818387 0.25771
0.449973 0.805356 0.251926
0.458244 0.78938 0.248753
0.521233 0.768734 0.263035
0.590082 0.757427 0.295171
0.647318 0.755581 0.330449
0.676097 0.76463 0.356054
0.684688 0.782055 0.365011
0.725673 0.791379 0.360845
0.797009 0.793057 0.343694
0.882307 0.79855 0.323751
0.96379 0.809277 0.325597
0.988769 0.806317 0.334478
0.99147 0.797192 0.331807
0.992996 0.79292 0.330983
0.99382 0.790677 0.330587
0.99382 0.790677 0.330587
0.99382 0.790677 0.330587
0.993866 0.790555 0.330571
0.47834 0.851179 0.271366
0.478431 0.851331 0.271427
0.478538 0.851484 0.271489
0.478767 0.85182 0.271611
0.479194 0.852476 0.271855
0.479362 0.85272 0.271946
0.479362 0.85272 0.271946
0.479362 0.85272 0.271946
0.479362 0.85272 0.271946
0.479362 0.85272 0.271946
0.479362 0.85272 0.271946
0.479362 0.85272 0.271946
0.479362 0.85272 0.271946
0.479362 0.85272 0.271946
0.479362 0.85272 0.271946
0.4766 0.84863 0.27039
0.474647 0.839628 0.267659
0.515129 0.824765 0.273198
0.591257 0.810254 0.299855
0.655848 0.805264 0.335073
0.706523 0.807385 0.3691
0.72433 0.820783 0.38938
0.737285 0.837308 0.394827
0.783505 0.84506 0.388693
0.852995 0.846845 0.371283
0.929351 0.851331 0.352651
0.977661 0.853178 0.353033
0.981247 0.843626 0.348913
0.981888 0.838865 0.346868
0.982193 0.836728 0.345937
0.982193 0.836728 0.345937
0.982193 0.836728 0.345937
0.982193 0.836728 0.345937
0.479362 0.85272 0.271946
0.479362 0.85272 0.271946
0.479362 0.85272 0.271946
0.479362 0.85272 0.271946
0.479362 0.85272 0.271946
0.479362 0.85272 0.271946
0.479362 0.85272 0.271946
0.479362 0.85272 0.271946
0.479362 0.85272 0.271946
0.479362 0.85272 0.271946
0.479362 0.85272 0.271946
0.479362 0.85272 0.271946
0.479362 0.85272 0.271946
0.479362 0.85272 0.271946
0.479362 0.85272 0.271946
0.479362 0.85272 0.271946
0.479362 0.85272 0.271946
0.499519 0.850431 0.275395
0.5729 0.841535 0.295644
0.64741 0.838819 0.33135
0.712276 0.842359 0.370214
0.755611 0.85362 0.402747
0.766445 0.871214 0.418662
0.78735 0.886793 0.422049
0.837919 0.893599 0.415091
0.90396 0.895186 0.396735
0.963638 0.896696 0.378744
0.979156 0.890471 0.37113
0.979019 0.884535 0.368078
0.978988 0.882521 0.367117
0.978988 0.882521 0.367117
0.978988 0.882521 0.367117
0.978988 0.882521 0.367117
0.479362 0.85272 0.271946
0.479362 0.85272 0.271946
0.479362 0.85272 0.271946
0.479362 0.85272 0.271946
0.479362 0.85272 0.271946
0.479362 0.85272 0.271946
0.479362 0.85272 0.271946
0.479362 0.85272 0.271946
0.479362 0.85272 0.271946
0.479362 0.85272 0.271946
0.479362 0.85272 0.271946
0.479362 0.85272 0.271946
0.479362 0.85272 0.271946
0.479362 0.85272 0.271946
