LUT预设1/LUT全系打包/电影感系列lut/电影感各机型log灰片/WARM暖调.cube
TITLE "Generated by Resolve"
LUT_3D_SIZE 9
0.0167849 0.0120699 0.012314
0.0167849 0.0120699 0.012314
0.0485847 0.0183261 0.0198825
0.254505 0.0342565 0.0321813
0.52607 0.0913863 0.0451057
0.77351 0.145052 0.0583352
0.921935 0.165057 0.0658579
0.932784 0.165774 0.0663767
0.932784 0.165774 0.0663767
0.0167849 0.0120699 0.012314
0.0167849 0.0120699 0.012314
0.046067 0.0180972 0.0195926
0.268254 0.0358129 0.0331579
0.542885 0.0955825 0.0459754
0.787717 0.147509 0.0591135
0.928695 0.16556 0.0661631
0.932784 0.165774 0.0663767
0.932784 0.165774 0.0663767
0.0248722 0.0338293 0.0343328
0.0247044 0.0345617 0.0349737
0.0340734 0.0355688 0.0307164
0.243839 0.0441749 0.0322271
0.546059 0.0976577 0.0462959
0.801694 0.149676 0.0598001
0.931456 0.165713 0.0663005
0.932784 0.165774 0.0663767
0.932784 0.165774 0.0663767
0.0208591 0.159289 0.128573
0.0211795 0.168109 0.135714
0.021561 0.176761 0.142992
0.145098 0.177539 0.0778058
0.480644 0.193683 0.066804
0.762173 0.220249 0.0674449
0.936461 0.224948 0.0743572
0.942901 0.220111 0.0739452
0.942931 0.220081 0.07393
0.0295567 0.329183 0.277684
0.0297704 0.344732 0.288853
0.0299687 0.36025 0.299474
0.0447852 0.351553 0.284733
0.342916 0.3691 0.16466
0.712932 0.408804 0.195651
0.93959 0.40322 0.178805
0.984726 0.385779 0.165072
0.983383 0.38024 0.161227
0.0319829 0.515755 0.380545
0.0326085 0.534554 0.387396
0.0331121 0.548119 0.391989
0.0343786 0.5346 0.385092
0.272602 0.533364 0.339483
0.552407 0.544594 0.261921
0.914076 0.602411 0.314839
1 0.585306 0.302022
1 0.577234 0.296437
0.0437018 0.694316 0.42887
0.0455024 0.710353 0.43212
0.046128 0.716579 0.43331
0.0481727 0.701411 0.429877
0.22002 0.680903 0.41004
0.448844 0.705318 0.353948
0.743374 0.709148 0.336828
1 0.766384 0.40943
1 0.760983 0.408438
0.0501717 0.797192 0.448783
0.0501717 0.797192 0.448783
0.0501717 0.797192 0.448783
0.0502022 0.797131 0.448783
0.154818 0.794568 0.440162
0.382254 0.832044 0.431388
0.634684 0.861479 0.406256
0.918624 0.868238 0.403021
0.978698 0.871336 0.408408
0.0501717 0.797192 0.448783
0.0501717 0.797192 0.448783
0.0501717 0.797192 0.448783
0.050309 0.797177 0.448768
0.144442 0.795911 0.441382
0.35964 0.83595 0.434272
0.608057 0.874754 0.414389
0.884962 0.894041 0.413031
0.965759 0.901183 0.417212
0.0167849 0.0120699 0.012314
0.0167849 0.0120699 0.012314
0.0498054 0.0184176 0.0200504
0.260594 0.0349737 0.0325628
0.532036 0.0929122 0.0454414
0.777615 0.145785 0.0585641
0.923796 0.165194 0.0659342
0.932784 0.165774 0.0663767
0.932784 0.165774 0.0663767
0.0167849 0.0120699 0.012314
0.0167849 0.0120699 0.012314
0.0484321 0.0183261 0.0198978
0.276295 0.0368658 0.0333715
0.550118 0.0973526 0.0464179
0.792111 0.14818 0.0593423
0.929351 0.165591 0.0662089
0.932784 0.165774 0.0663767
0.932784 0.165774 0.0663767
0.0247959 0.0346075 0.0350347
0.0246891 0.035874 0.0361181
0.0349737 0.0367132 0.0313115
0.253651 0.0461128 0.032578
0.556695 0.100542 0.0469062
0.808682 0.15079 0.0601663
0.932006 0.165728 0.066331
0.932784 0.165774 0.0663767
0.932784 0.165774 0.0663767
0.0209964 0.163378 0.131853
0.0213779 0.173037 0.139803
0.0218051 0.182147 0.147539
0.150805 0.18381 0.0789654
0.492393 0.200259 0.0699016
0.77258 0.225513 0.0687572
0.93933 0.228931 0.0750591
0.944091 0.224613 0.0746014
0.944045 0.224399 0.0745861
0.0296635 0.335882 0.282643
0.0298466 0.351827 0.293721
0.0300755 0.367758 0.304494
0.0479286 0.359075 0.28925
0.350866 0.376425 0.16875
0.723659 0.416724 0.200305
0.947768 0.409461 0.182483
0.986175 0.391989 0.169711
0.984848 0.386313 0.165499
0.0322271 0.523598 0.383444
0.0328985 0.542473 0.390112
0.0334173 0.555596 0.394476
0.0354009 0.54136 0.387274
0.277409 0.540261 0.341176
0.559731 0.550668 0.26511
0.92134 0.608713 0.318669
1 0.591302 0.306127
1 0.583734 0.300908
0.0444648 0.701015 0.430243
0.0461433 0.716381 0.433295
0.0466773 0.722255 0.434409
0.0496834 0.70695 0.430869
0.223743 0.687282 0.411307
0.454749 0.71136 0.356268
0.749874 0.714855 0.339071
1 0.770993 0.411612
1 0.765652 0.410178
0.0501717 0.797192 0.448783
0.0501717 0.797192 0.448783
0.0501717 0.797192 0.448783
0.050248 0.797192 0.448783
0.156497 0.796231 0.440345
0.385809 0.834943 0.431739
0.639155 0.864851 0.40708
0.922408 0.872068 0.404593
0.976806 0.875029 0.409445
0.0501717 0.797192 0.448783
0.0501717 0.797192 0.448783
0.0501717 0.797192 0.448783
0.0504005 0.797162 0.448753
0.148013 0.796124 0.441184
0.365499 0.837095 0.433982
0.614557 0.875425 0.413886
0.892683 0.894392 0.413077
0.965759 0.901183 0.417212
0.0186313 0.0258183 0.0409857
0.0182956 0.0265049 0.0419928
0.0608072 0.02533 0.0654765
0.265431 0.030396 0.0572824
0.532296 0.0917067 0.045594
0.778943 0.146029 0.0586404
0.925093 0.165301 0.0659953
0.932784 0.165774 0.0663767
0.932784 0.165774 0.0663767
0.0193637 0.0247349 0.0402991
0.0178531 0.0271763 0.042237
0.0597543 0.0259403 0.0670481
0.284138 0.0314488 0.0569467
0.553445 0.0948959 0.0467536
0.794324 0.148516 0.0594339
0.929793 0.165621 0.0662242
0.932784 0.165774 0.0663767
0.932784 0.165774 0.0663767
0.0213169 0.0449836 0.0475624
0.0214237 0.0466316 0.0495918
0.0312657 0.0442817 0.0468147
0.267872 0.0429236 0.0434119
0.566964 0.100755 0.0474708
0.81445 0.151705 0.0604562
0.932448 0.165698 0.0663462
0.932784 0.165774 0.0663767
0.932784 0.165774 0.0663767
0.021088 0.165713 0.133791
0.0215152 0.176226 0.142489
0.0220188 0.186923 0.151598
0.155459 0.188602 0.0797894
0.504311 0.205417 0.0724956
0.781964 0.229191 0.0697642
0.941176 0.231281 0.0754711
0.944717 0.226993 0.0749676
0.944579 0.226474 0.074876
0.0297246 0.341268 0.286397
0.0299382 0.358114 0.297993
0.0301823 0.374334 0.308782
0.0479896 0.365332 0.293523
0.357198 0.381704 0.171679
0.732311 0.421546 0.203037
0.953063 0.412299 0.184115
0.986694 0.394125 0.171267
0.985275 0.388159 0.16669
0.0324102 0.529213 0.385458
0.0331121 0.547967 0.391943
0.0336309 0.560769 0.396185
0.035584 0.545754 0.38883
0.278401 0.543648 0.342596
0.563043 0.553323 0.266514
0.925139 0.610727 0.319905
1 0.592752 0.307088
1 0.585 0.301778
0.0448157 0.704204 0.430884
0.0463569 0.718822 0.433768
0.0468757 0.724437 0.434821
0.0497902 0.709743 0.431449
0.222644 0.689494 0.411994
0.455268 0.713161 0.35758
0.751369 0.716121 0.339544
1 0.771481 0.412009
1 0.765805 0.410101
0.0501717 0.797192 0.448783
0.0501717 0.797192 0.448783
0.0501717 0.797192 0.448783
0.0502022 0.797192 0.448783
0.154818 0.79649 0.440513
0.384146 0.834058 0.431678
0.637903 0.864912 0.407431
0.921202 0.871931 0.404486
0.976898 0.874784 0.409384
0.0501717 0.797192 0.448783
0.0501717 0.797192 0.448783
0.0501717 0.797192 0.448783
0.0503548 0.797177 0.448753
0.146578 0.796063 0.441245
0.363607 0.836637 0.434089
0.613169 0.875288 0.413993
0.891814 0.894347 0.413077
0.965759 0.901183 0.417212
0 0.136477 0.150317
0 0.141115 0.15552
0.00697337 0.139834 0.156176
0.26659 0.0898299 0.265171
0.543694 0.0640116 0.20412
0.806348 0.0506142 0.120287
0.937514 0.103227 0.0727092
0.940566 0.12488 0.0641947
0.936965 0.136767 0.0644083
0 0.144823 0.159701
0 0.150332 0.165866
0.00247196 0.150469 0.166308
0.282017 0.0971084 0.281712
0.566262 0.0695659 0.217884
0.822873 0.0570535 0.145724
0.959014 0.0678416 0.0956741
0.955962 0.0812695 0.0702678
0.951797 0.0887922 0.063386
0 0.140871 0.156054
0 0.147402 0.1635
0 0.151736 0.166934
0.276768 0.100145 0.279393
0.587777 0.0740673 0.23125
0.84683 0.0617685 0.187137
0.970047 0.0514839 0.147341
0.970474 0.0528878 0.131823
0.968811 0.0569924 0.136248
0.0219272 0.205402 0.21294
0.0226902 0.218082 0.225849
0.0234836 0.232013 0.241733
0.165225 0.20647 0.209247
0.512444 0.191058 0.173831
0.787869 0.196155 0.144747
0.945068 0.194186 0.118898
0.948226 0.192538 0.114733
0.946578 0.19472 0.113863
0.0297551 0.352667 0.304265
0.0299992 0.372854 0.319661
0.0302586 0.391806 0.333364
0.0368963 0.379004 0.318532
0.356008 0.37998 0.198138
0.730755 0.414481 0.216983
0.950256 0.402533 0.192599
0.98677 0.384421 0.177295
0.985229 0.378683 0.173053
0.0324254 0.531182 0.391867
0.0331426 0.551354 0.400504
0.0336461 0.564233 0.405692
0.0331579 0.547768 0.396506
0.270787 0.53843 0.352026
0.554421 0.547112 0.268803
0.920195 0.602914 0.31899
1 0.583749 0.304173
1 0.576074 0.298192
0.0434882 0.700984 0.433631
0.0447089 0.717021 0.438544
0.045182 0.723278 0.440223
0.046479 0.707866 0.434897
0.211017 0.683589 0.413748
0.445304 0.706157 0.35758
0.742855 0.708888 0.336614
1 0.765164 0.409628
1 0.759487 0.407782
0.0501411 0.797696 0.449805
0.0500954 0.798138 0.450706
0.0501106 0.797925 0.450278
0.0501411 0.79736 0.449073
0.147082 0.796002 0.441321
0.373968 0.828367 0.431296
0.628885 0.860548 0.406775
0.914244 0.866377 0.40206
0.979477 0.869886 0.408026
0.0501106 0.797787 0.449912
0.0499886 0.798383 0.450874
0.0500038 0.798413 0.451041
0.0501411 0.797559 0.449531
0.139376 0.795636 0.441657
0.352453 0.834287 0.434607
0.602213 0.87422 0.41471
0.881468 0.893874 0.413001
0.965759 0.901183 0.417212
0 0.298695 0.330495
0 0.304967 0.337377
0 0.305364 0.336004
0.12256 0.296712 0.414054
0.541222 0.1935 0.499855
0.795392 0.160525 0.433616
0.955154 0.13695 0.387457
0.966079 0.122148 0.354971
0.965072 0.115251 0.338857
0 0.311986 0.345068
0 0.318502 0.352209
0 0.319341 0.351568
0.139376 0.305959 0.442069
0.566659 0.20322 0.520974
0.820905 0.173251 0.463416
0.967239 0.15436 0.426078
0.970428 0.14583 0.407736
0.970031 0.143465 0.402747
0 0.302754 0.33518
0 0.311147 0.344396
0 0.317678 0.350805
0.132692 0.314626 0.444968
0.598596 0.215503 0.547066
0.859648 0.191119 0.504005
0.978439 0.176455 0.475624
0.97731 0.172351 0.466667
0.977188 0.171801 0.465446
0 0.319158 0.363058
0 0.333501 0.379828
0 0.348058 0.396735
0.0718395 0.32903 0.353597
0.514427 0.247562 0.489525
0.8038 0.214908 0.44744
0.971817 0.196567 0.419348
0.978286 0.189517 0.407782
0.977508 0.187137 0.403571
0.0293278 0.416999 0.428321
0.0294957 0.438148 0.44889
0.0296483 0.45716 0.466636
0.0298772 0.442374 0.452155
0.379339 0.407034 0.411063
0.719097 0.405859 0.400656
0.964279 0.393606 0.380285
1 0.363088 0.347189
1 0.356695 0.340429
0.0337835 0.581521 0.471977
0.0349279 0.603113 0.486198
0.0356756 0.615763 0.494102
0.034638 0.597513 0.480064
0.264088 0.571191 0.453605
0.561944 0.555901 0.380835
0.939513 0.603494 0.40911
1 0.574151 0.376287
1 0.566903 0.370596
0.0435035 0.735851 0.494545
0.0442664 0.754482 0.50399
0.0445411 0.761563 0.506874
0.0438544 0.743053 0.495811
0.182589 0.70518 0.468193
0.453208 0.710033 0.432013
0.736812 0.706249 0.386236
1 0.767926 0.44947
1 0.761105 0.446754
0.0460212 0.827695 0.497765
0.0459754 0.830381 0.502159
0.0459449 0.830533 0.502327
0.0458686 0.826795 0.495674
0.127077 0.815442 0.480018
0.357656 0.838209 0.470298
0.618555 0.865171 0.440192
0.910277 0.864698 0.416373
0.991928 0.870283 0.426596
0.0459907 0.82536 0.493477
0.0459297 0.828519 0.498833
0.0459602 0.828412 0.498772
0.046128 0.824826 0.492515
0.120974 0.817273 0.478431
0.33666 0.846601 0.471565
0.589288 0.886213 0.447456
0.871077 0.90193 0.429419
0.97229 0.908583 0.433524
0 0.434043 0.478752
0 0.437568 0.482628
0 0.436774 0.481468
0.0908217 0.439796 0.513191
0.517128 0.326802 0.747158
0.809293 0.291295 0.697978
0.985061 0.263981 0.653651
0.997787 0.247074 0.622034
0.997055 0.239643 0.607645
0 0.441459 0.486931
0 0.444511 0.490318
0 0.443671 0.489265
0.101427 0.447013 0.528344
0.545953 0.331807 0.761852
0.841306 0.303197 0.722972
0.995956 0.282582 0.690105
0.99826 0.272602 0.670802
0.998474 0.269673 0.665522
0 0.433997 0.478691
0 0.438788 0.48397
0 0.442237 0.487556
0.107286 0.450629 0.53611
0.588006 0.33756 0.7841
0.884199 0.317266 0.754772
0.996445 0.302876 0.731487
0.996628 0.298543 0.722576
0.996658 0.297581 0.720623
0 0.450233 0.499092
0 0.461189 0.511452
0 0.471855 0.523507
0.0404364 0.459678 0.502892
0.482307 0.3626 0.744732
0.817334 0.327947 0.711421
0.99559 0.297581 0.6795
0.9991 0.287663 0.664134
0.999466 0.283436 0.656825
0.00164797 0.509239 0.585916
0.00271611 0.530449 0.609903
0.00328069 0.54873 0.630716
0.00450141 0.533654 0.613565
0.263111 0.502327 0.530648
0.689448 0.428229 0.632364
0.953902 0.396643 0.600961
1 0.364263 0.57673
1 0.357458 0.56878
0.0367132 0.636103 0.620645
0.0381933 0.657176 0.638224
0.0390173 0.66891 0.648096
0.0378271 0.651133 0.633677
0.208713 0.61117 0.609476
0.575235 0.584634 0.578485
0.915923 0.598459 0.586816
1 0.574777 0.567483
1 0.568109 0.56051
0.0452888 0.786618 0.612833
0.0457313 0.805554 0.624674
0.0458839 0.812436 0.628428
0.0455024 0.794018 0.614954
0.119234 0.751919 0.583261
0.474464 0.746212 0.591653
0.74696 0.725673 0.550408
1 0.791363 0.604608
1 0.782803 0.599054
0.0455482 0.877791 0.595453
0.0455177 0.880949 0.602594
0.0455024 0.881102 0.602975
0.0454719 0.877119 0.592935
0.102144 0.863264 0.572488
0.360723 0.88188 0.574945
0.63769 0.887388 0.560555
0.922744 0.882414 0.516335
1 0.892164 0.518593
0.0455024 0.874876 0.587396
0.0454719 0.878401 0.596109
0.0455024 0.87837 0.596048
0.045594 0.874174 0.585809
0.0963607 0.864942 0.566583
0.338231 0.890318 0.569375
0.601984 0.915312 0.557198
0.871962 0.933104 0.491691
0.992874 0.932372 0.484245
0 0.470405 0.519631
0 0.470405 0.519631
0 0.470253 0.519387
0.0670787 0.474479 0.545464
0.438895 0.39791 0.863737
0.794003 0.365591 0.868635
0.989776 0.355474 0.851148
0.995087 0.347662 0.832151
0.995239 0.343084 0.820966
0 0.470405 0.519631
0 0.470405 0.519631
0 0.470329 0.519478
0.0798047 0.474495 0.551873
0.497429 0.387015 0.873594
0.830243 0.367041 0.873671
0.993713 0.362478 0.870054
0.994659 0.360281 0.864302
0.994705 0.359075 0.861082
0 0.470695 0.519936
0 0.470863 0.520104
0 0.470893 0.520058
0.092256 0.474586 0.558846
0.562005 0.379538 0.872602
0.877684 0.366598 0.874052
0.994553 0.363317 0.87248
0.994553 0.363073 0.871824
0.994553 0.363043 0.871748
0 0.496818 0.548302
0 0.500816 0.55288
0 0.505013 0.557809
0.0239719 0.499519 0.550622
0.392096 0.43566 0.835721
0.805402 0.38909 0.873396
0.992142 0.380819 0.869749
0.994766 0.376364 0.863813
0.994842 0.373236 0.858
0 0.583459 0.662638
0 0.597635 0.680369
0 0.608499 0.693889
0 0.596887 0.676921
0.204181 0.580224 0.641001
0.649226 0.495277 0.859739
0.945281 0.468452 0.823423
0.996307 0.448554 0.79913
0.996414 0.442542 0.790311
0.0128176 0.711589 0.812833
0.0147402 0.728267 0.830381
0.0161593 0.736248 0.83827
0.0131228 0.721645 0.824033
0.168643 0.687739 0.762905
0.444862 0.668818 0.728084
0.862852 0.596414 0.779904
1 0.568856 0.746212
1 0.562707 0.736965
0.0451057 0.835752 0.799802
0.0446937 0.854307 0.818006
0.0445258 0.860624 0.823606
0.0450752 0.842084 0.805081
0.0902571 0.799847 0.766415
0.446159 0.775189 0.768856
0.763745 0.753719 0.730968
1 0.774945 0.753552
1 0.767697 0.74725
0.043946 0.925933 0.743297
0.0436103 0.929229 0.756329
0.043595 0.92961 0.757855
0.043946 0.925643 0.741588
0.0638132 0.915724 0.714397
0.314031 0.915251 0.705242
0.633387 0.920684 0.702556
0.93315 0.901061 0.684688
1 0.917784 0.681941
0.0441749 0.92256 0.729442
0.0438544 0.92639 0.744228
0.0438544 0.926467 0.744305
0.0443275 0.922255 0.727428
0.0603952 0.91368 0.700648
0.29781 0.923445 0.691157
0.59086 0.954681 0.68983
0.875624 0.965484 0.652064
1 0.96669 0.612558
0 0.470405 0.519631
0 0.470405 0.519631
0 0.470329 0.519509
0.0566873 0.474235 0.540673
0.402991 0.405158 0.856504
0.779858 0.36762 0.873808
0.982208 0.363989 0.873442
0.994553 0.363333 0.872541
0.994553 0.363333 0.872541
0 0.470405 0.519631
0 0.470405 0.519631
0 0.470359 0.519554
0.0711376 0.474403 0.547433
0.476478 0.390555 0.872068
0.821576 0.367208 0.873899
0.993301 0.363577 0.87306
0.994553 0.363333 0.872541
0.994553 0.363333 0.872541
0 0.470588 0.519814
0 0.470726 0.519966
0 0.470787 0.519966
0.0891737 0.474586 0.557076
0.555306 0.380285 0.872633
0.872404 0.366674 0.874067
0.994553 0.363378 0.872633
0.994553 0.363333 0.872541
0.994553 0.363333 0.872541
0 0.495888 0.547234
0 0.50013 0.552071
0 0.504616 0.557336
0.0233768 0.49955 0.550622
0.382376 0.438499 0.828611
0.797971 0.389273 0.873732
0.991211 0.381369 0.872129
0.994659 0.378531 0.871595
0.994659 0.377111 0.871519
0 0.586252 0.664042
0 0.599023 0.680888
0 0.608408 0.693095
0 0.596979 0.675929
0.194705 0.584955 0.649836
0.633112 0.499748 0.880812
0.936522 0.480537 0.87805
0.995178 0.466682 0.876371
0.995163 0.463294 0.876219
0 0.721645 0.830732
0.00440986 0.734157 0.843153
0.00732433 0.739834 0.848341
0.00129702 0.727474 0.836591
0.145556 0.702098 0.771969
0.390433 0.68896 0.77882
0.84065 0.615 0.897765
0.996201 0.593179 0.891524
0.99617 0.588861 0.890593
0.0396124 0.855451 0.905348
0.0406348 0.869093 0.90721
0.0408637 0.873259 0.907744
0.0399176 0.859037 0.905913
0.0830243 0.826001 0.895415
0.402396 0.811917 0.872663
0.674922 0.798474 0.880186
0.997833 0.746151 0.920668
0.997848 0.740063 0.91632
0.0390326 0.956344 0.899748
0.0390021 0.95668 0.899718
0.0390021 0.956756 0.899702
0.0390326 0.956497 0.899535
0.0477913 0.952499 0.897414
0.287968 0.945586 0.909697
0.567132 0.94519 0.924651
0.935409 0.920729 0.902693
1 0.920241 0.897566
0.0390173 0.956664 0.899046
0.0390021 0.956725 0.899489
0.0390021 0.956756 0.899626
0.0390021 0.956756 0.899702
0.0462959 0.955474 0.897246
0.262165 0.955993 0.890196
0.502846 0.97995 0.896757
0.869368 0.990005 0.877272
1 0.98909 0.853437
0 0.470405 0.519631
0 0.470405 0.519631
0 0.470405 0.519631
0.0486915 0.473991 0.537255
0.372351 0.411994 0.847318
0.770077 0.367712 0.873838
0.976928 0.364096 0.873472
0.994553 0.363333 0.872541
0.994553 0.363333 0.872541
0 0.470405 0.519631
0 0.470405 0.519631
0 0.470344 0.519539
0.0652171 0.474403 0.544671
0.463233 0.392996 0.86978
0.816922 0.367254 0.873884
0.993118 0.363592 0.873075
0.994553 0.363333 0.872541
0.994553 0.363333 0.872541
0 0.470451 0.519692
0 0.470603 0.519829
0 0.47068 0.519875
0.0879225 0.474617 0.556329
0.552483 0.380667 0.87245
0.869551 0.36672 0.874067
0.994537 0.363394 0.872663
0.994553 0.363333 0.872541
0.994553 0.363333 0.872541
0 0.495537 0.546822
0 0.500282 0.55227
0 0.504768 0.557519
0.0238956 0.49987 0.550973
0.381262 0.439811 0.823865
0.793927 0.389761 0.873747
0.990387 0.381689 0.872175
0.994659 0.378485 0.87158
0.994659 0.377172 0.871519
0 0.586404 0.664225
0 0.599451 0.681468
0 0.608499 0.693233
0 0.596582 0.675471
0.194553 0.584695 0.649332
0.627756 0.500237 0.880888
0.931289 0.48127 0.878172
0.995193 0.467048 0.876371
0.995163 0.463325 0.876219
0 0.721202 0.830289
0.00415045 0.733654 0.842695
0.00680552 0.738766 0.847364
0.00062562 0.726055 0.835172
0.147601 0.701503 0.770459
0.3897 0.688701 0.778561
0.834669 0.615854 0.897932
0.996216 0.593957 0.8916
0.99617 0.588891 0.890532
0.0395209 0.854566 0.90518
0.0405585 0.868269 0.907164
0.0407874 0.871916 0.907713
0.0398108 0.85745 0.905669
0.0868086 0.824063 0.894591
0.405631 0.811048 0.870665
0.674479 0.79852 0.880293
0.997833 0.747921 0.922179
0.997787 0.740429 0.919982
0.0390173 0.95639 0.899748
0.0390021 0.956725 0.899718
0.0390021 0.956756 0.899702
0.0390326 0.956374 0.899763
0.0496834 0.951919 0.899229
0.291691 0.94551 0.913542
0.57084 0.944427 0.944961
0.925063 0.9252 0.95288
1 0.912642 0.951751
0.0390021 0.956756 0.899702
0.0390021 0.956756 0.899702
0.0390021 0.956756 0.899702
0.0390021 0.956756 0.899702
0.0467994 0.955581 0.89897
0.260563 0.958404 0.90724
0.492653 0.983139 0.93933
0.852674 0.994415 0.957641
0.999969 0.993301 0.958358
