LUT预设1/LUT全系打包/电影感系列lut/电影感各机型log灰片/WARM暖调.cube
TITLE "Generated by Resolve"
LUT_3D_SIZE 33
0.0167849 0.0120699 0.012314
0.0167849 0.0120699 0.012314
0.0167849 0.0120699 0.012314
0.0167849 0.0120699 0.012314
0.0167849 0.0120699 0.012314
0.0176089 0.0126802 0.0130007
0.0212558 0.0145724 0.0150759
0.0302281 0.0166171 0.0174258
0.0485847 0.0183261 0.0198825
0.078294 0.020264 0.0227359
0.123766 0.0228428 0.0258488
0.184817 0.0272221 0.0285039
0.254505 0.0342565 0.0321813
0.325383 0.0437018 0.0351568
0.393484 0.057084 0.0378576
0.459648 0.0739605 0.0412604
0.52607 0.0913863 0.0451057
0.593118 0.107576 0.0486458
0.658717 0.12224 0.0520485
0.721004 0.135241 0.0554818
0.77351 0.145052 0.0583352
0.816022 0.151888 0.0605783
0.855604 0.157458 0.0626535
0.895094 0.162463 0.0646067
0.921935 0.165057 0.0658579
0.931487 0.165698 0.0663157
0.932784 0.165774 0.0663767
0.932784 0.165774 0.0663767
0.932784 0.165774 0.0663767
0.932784 0.165774 0.0663767
0.932784 0.165774 0.0663767
0.932784 0.165774 0.0663767
0.932784 0.165774 0.0663767
0.0167849 0.0120699 0.012314
0.0167849 0.0120699 0.012314
0.0167849 0.0120699 0.012314
0.0167849 0.0120699 0.012314
0.0167849 0.0120699 0.012314
0.017792 0.0128176 0.013138
0.0217746 0.014786 0.0153201
0.0314488 0.0167697 0.0176242
0.0511025 0.0185092 0.0201877
0.0819257 0.0204929 0.0230259
0.129732 0.0231785 0.0262303
0.192248 0.0278325 0.0288853
0.262592 0.0352178 0.0326543
0.333501 0.044892 0.0354162
0.40116 0.0588998 0.0382239
0.467292 0.0760052 0.0416724
0.534066 0.093431 0.0455634
0.60116 0.109438 0.0490578
0.666743 0.123995 0.0524758
0.728267 0.136706 0.0558938
0.779461 0.14609 0.0586709
0.82092 0.152621 0.0608225
0.860517 0.158129 0.0629129
0.899992 0.163058 0.0648508
0.92459 0.165255 0.0659648
0.932006 0.165728 0.066331
0.932784 0.165774 0.0663767
0.932784 0.165774 0.0663767
0.932784 0.165774 0.0663767
0.932784 0.165774 0.0663767
0.932784 0.165774 0.0663767
0.932784 0.165774 0.0663767
0.932784 0.165774 0.0663767
0.0167849 0.0120699 0.012314
0.0167849 0.0120699 0.012314
0.0167849 0.0120699 0.012314
0.0167849 0.0120699 0.012314
0.0167849 0.0120699 0.012314
0.0179294 0.0129091 0.0132448
0.0222324 0.0149691 0.0155337
0.032578 0.0169223 0.017792
0.0533455 0.0186618 0.0204471
0.08542 0.0207065 0.0233005
0.1355 0.0235142 0.0266117
0.199435 0.0284276 0.0292668
0.27068 0.0361791 0.0331273
0.341344 0.046067 0.0356756
0.408591 0.0606546 0.0385748
0.474937 0.0780346 0.0420691
0.542046 0.0954452 0.0459907
0.609186 0.111299 0.0494545
0.67454 0.125689 0.0528878
0.735775 0.138231 0.0563211
0.785229 0.147112 0.0589609
0.825818 0.153368 0.0610819
0.865293 0.158785 0.0631571
0.90457 0.163638 0.0650645
0.927047 0.165438 0.0660868
0.932509 0.165759 0.0663767
0.932784 0.165774 0.0663767
0.932784 0.165774 0.0663767
0.932784 0.165774 0.0663767
0.932784 0.165774 0.0663767
0.932784 0.165774 0.0663767
0.932784 0.165774 0.0663767
0.932784 0.165774 0.0663767
0.0167849 0.0120699 0.012314
0.0167849 0.0120699 0.012314
0.0167849 0.0120699 0.012314
0.0167849 0.0120699 0.012314
0.0167849 0.0120699 0.012314
0.0176089 0.0126802 0.0129854
0.021149 0.0147402 0.0152743
0.0309758 0.0167391 0.0175479
0.0516365 0.0185245 0.0202792
0.0833143 0.0206149 0.0231937
0.134798 0.0234684 0.026566
0.199207 0.028336 0.0292515
0.270649 0.0361639 0.0332189
0.341634 0.0460365 0.0357519
0.409049 0.0607004 0.0386206
0.475471 0.0781567 0.0421149
0.542214 0.0954757 0.0459602
0.6094 0.111452 0.0494392
0.674403 0.125704 0.0529183
0.735897 0.138399 0.0563363
0.786038 0.147295 0.0590372
0.825925 0.153429 0.0610666
0.865904 0.158862 0.0632334
0.904845 0.163745 0.0650797
0.928069 0.16553 0.0661326
0.932784 0.165774 0.0663767
0.932784 0.165774 0.0663767
0.932784 0.165774 0.0663767
0.932784 0.165774 0.0663767
0.932784 0.165774 0.0663767
0.932784 0.165774 0.0663767
0.932784 0.165774 0.0663767
0.932784 0.165774 0.0663767
0.0167849 0.0120699 0.012314
0.0167849 0.0120699 0.012314
0.0167849 0.0120699 0.012314
0.0167849 0.0120699 0.012314
0.0167849 0.0120699 0.012314
0.0169375 0.012192 0.0124361
0.0193637 0.0139773 0.0144198
0.0274357 0.0161746 0.0168765
0.046067 0.0180972 0.0195926
0.0764782 0.0202335 0.0227054
0.12813 0.0231022 0.0261845
0.19411 0.0278019 0.0289921
0.268254 0.0358129 0.0331579
0.340658 0.0458381 0.0358434
0.408835 0.0605631 0.0386053
0.475776 0.0781872 0.0421759
0.542885 0.0955825 0.0459754
0.610513 0.111742 0.0495155
0.676143 0.12604 0.0530556
0.737499 0.138674 0.0564431
0.787717 0.147509 0.0591135
0.82855 0.153796 0.0612192
0.869215 0.159274 0.063386
0.907103 0.163912 0.0651865
0.928695 0.16556 0.0661631
0.932784 0.165774 0.0663767
0.932784 0.165774 0.0663767
0.932784 0.165774 0.0663767
0.932784 0.165774 0.0663767
0.932784 0.165774 0.0663767
0.932784 0.165774 0.0663767
0.932784 0.165774 0.0663767
0.932784 0.165774 0.0663767
0.0167849 0.0120699 0.012314
0.0167849 0.0120699 0.012314
0.0167849 0.0120699 0.012314
0.0167849 0.0120699 0.012314
0.0167849 0.0120699 0.012314
0.0167849 0.0120699 0.012314
0.0182956 0.0131838 0.01355
0.024155 0.0156405 0.0162814
0.0401007 0.0176852 0.0188602
0.0707866 0.0198672 0.0222324
0.120821 0.0227207 0.0257572
0.188464 0.0274052 0.0287327
0.263691 0.0352331 0.0327306
0.339483 0.0459144 0.0359045
0.410117 0.0609293 0.0386969
0.478187 0.0787823 0.0423743
0.546166 0.096376 0.0461738
0.614527 0.112627 0.0497292
0.681147 0.127077 0.0533455
0.742153 0.139498 0.0566873
0.792172 0.148196 0.0593423
0.833768 0.154498 0.0614939
0.875502 0.160067 0.0636912
0.912001 0.164309 0.0654154
0.929839 0.165621 0.0662242
0.932784 0.165774 0.0663767
0.932784 0.165774 0.0663767
0.932784 0.165774 0.0663767
0.932784 0.165774 0.0663767
0.932784 0.165774 0.0663767
0.932784 0.165774 0.0663767
0.932784 0.165774 0.0663767
0.932784 0.165774 0.0663767
0.0186007 0.0148318 0.0155489
0.018677 0.0149386 0.0156863
0.0187381 0.0150454 0.0157931
0.0185245 0.0146944 0.0153811
0.0180514 0.0139773 0.0145418
0.0175937 0.0132906 0.0137484
0.0173648 0.0127565 0.0130922
0.0208591 0.0150607 0.0156252
0.0341344 0.017258 0.0181277
0.0662852 0.0196384 0.0218357
0.114961 0.022446 0.02533
0.182544 0.0270085 0.0284428
0.25893 0.0346227 0.0324102
0.336385 0.0455482 0.0358587
0.408835 0.0606546 0.0386664
0.479332 0.079057 0.0424506
0.549508 0.0971847 0.0463722
0.619699 0.113756 0.0500191
0.687083 0.128313 0.053666
0.748791 0.140673 0.0570382
0.798795 0.149233 0.0596933
0.841306 0.15552 0.0618906
0.883757 0.161074 0.0640574
0.917372 0.164736 0.0656596
0.930846 0.165667 0.0662699
0.932784 0.165774 0.0663767
0.932784 0.165774 0.0663767
0.932784 0.165774 0.0663767
0.932784 0.165774 0.0663767
0.932784 0.165774 0.0663767
0.932784 0.165774 0.0663767
0.932784 0.165774 0.0663767
0.932784 0.165774 0.0663767
0.0229953 0.0214847 0.0233463
0.0231327 0.0216831 0.0235752
0.0232547 0.0218814 0.0238193
0.0230411 0.0216526 0.0235142
0.0226291 0.0211795 0.0228885
0.0222171 0.0207065 0.0222934
0.0218204 0.0202029 0.0216678
0.0241855 0.0214847 0.0216678
0.0359503 0.0231937 0.0221256
0.0637369 0.0237278 0.0231785
0.109575 0.0246586 0.0252537
0.176318 0.0283055 0.0284581
0.252796 0.0352026 0.0321508
0.331487 0.0453498 0.035584
0.406256 0.0601511 0.038529
0.47837 0.0787823 0.0424048
0.550256 0.0973983 0.0464332
0.621744 0.114183 0.0501259
0.691188 0.129168 0.0539101
0.753216 0.141436 0.0572671
0.803189 0.149905 0.0599069
0.846647 0.156252 0.0621653
0.889754 0.161776 0.0643626
0.920577 0.164981 0.0658122
0.931426 0.165698 0.0663005
0.932784 0.165774 0.0663767
0.932784 0.165774 0.0663767
0.932784 0.165774 0.0663767
0.932784 0.165774 0.0663767
0.932784 0.165774 0.0663767
0.932784 0.165774 0.0663767
0.932784 0.165774 0.0663767
0.932784 0.165774 0.0663767
0.0248722 0.0338293 0.0343328
0.0248722 0.0344549 0.0349126
0.0248722 0.0350347 0.0354162
0.0248112 0.0349432 0.0353246
0.0247044 0.0345617 0.0349737
0.0245975 0.0341344 0.0345769
0.0245365 0.0335546 0.0340276
0.0255283 0.0334936 0.0331426
0.0340734 0.0355688 0.0307164
0.0618143 0.0369573 0.0280613
0.110048 0.037232 0.0285649
0.172564 0.0400854 0.0299077
0.243839 0.0441749 0.0322271
0.320348 0.0513619 0.0350347
0.396704 0.0637522 0.0381018
0.471839 0.0803845 0.0419928
0.546059 0.0976577 0.0462959
0.618647 0.113588 0.0499886
0.688655 0.128634 0.0537423
0.751171 0.140993 0.0571298
0.801694 0.149676 0.0598001
0.845838 0.156146 0.06215
0.88954 0.161807 0.0643626
0.920424 0.164935 0.0657816
0.931456 0.165713 0.0663005
0.932784 0.165774 0.0663767
0.932784 0.165774 0.0663767
0.932784 0.165774 0.0663767
0.932784 0.165774 0.0663767
0.932784 0.165774 0.0663767
0.932784 0.165774 0.0663767
0.932784 0.165774 0.0663767
0.932784 0.165774 0.0663767
0.024567 0.0554208 0.0528572
0.024506 0.0563516 0.0536049
0.0244602 0.0571603 0.0542611
0.0244755 0.0570382 0.0541238
0.024445 0.0573281 0.0543374
0.0244297 0.0576181 0.0545357
0.0244297 0.0575875 0.0544747
0.0246738 0.0574044 0.0538491
0.0283513 0.058381 0.0498207
0.049485 0.0612497 0.0404212
0.100618 0.0620127 0.033463
0.163943 0.0620584 0.0323644
0.229374 0.0649271 0.0325475
0.300237 0.070222 0.034287
0.376806 0.0786908 0.0370947
0.455421 0.0908827 0.0412757
0.532052 0.105104 0.0460517
0.605798 0.119158 0.0499275
0.676234 0.13254 0.0535134
0.741497 0.144259 0.0569619
0.79411 0.152392 0.0597543
0.839506 0.15787 0.06215
0.883421 0.162539 0.0642405
0.918502 0.165057 0.0657359
0.931289 0.165713 0.0663005
0.932784 0.165774 0.0663767
0.932799 0.165896 0.066392
0.93283 0.166155 0.0664378
0.932845 0.166384 0.0664683
0.93286 0.166598 0.0664836
0.932876 0.166735 0.0665141
0.932876 0.166873 0.0665293
0.932891 0.166949 0.0665446
0.0226139 0.085832 0.0763867
0.0225376 0.0869154 0.0771344
0.022446 0.0879835 0.0778668
0.0224002 0.0886702 0.078294
0.0222782 0.0900282 0.0792096
0.0221561 0.0917067 0.080354
0.0220645 0.0928969 0.0811322
0.0220188 0.0933852 0.0814374
0.0229038 0.0932784 0.07953
0.0334173 0.0943008 0.069749
0.0721294 0.0956436 0.0510872
0.141024 0.0937057 0.039704
0.212741 0.0934005 0.0385748
0.280949 0.0972 0.0374304
0.357198 0.103517 0.0385901
0.436835 0.112474 0.0417945
0.514763 0.123873 0.0463722
0.588891 0.135592 0.0504768
0.659205 0.14638 0.0539864
0.725597 0.156313 0.0576333
0.78323 0.163577 0.0607309
0.829709 0.168856 0.0629892
0.873716 0.173251 0.0652628
0.916472 0.176669 0.067155
0.932296 0.176944 0.0678111
0.933761 0.176303 0.0677806
0.93373 0.175647 0.067689
0.933684 0.175235 0.0676432
0.9337 0.175189 0.067628
0.9337 0.175204 0.0676432
0.933715 0.175174 0.0676432
0.933715 0.175174 0.067628
0.933715 0.175235 0.067628
0.020676 0.121096 0.100542
0.0206607 0.122271 0.101335
0.0206302 0.123552 0.102205
0.0205997 0.125643 0.103624
0.0205539 0.128115 0.105303
0.0205081 0.130861 0.107179
0.0205081 0.132982 0.108705
0.0205234 0.134295 0.109636
0.0205692 0.134371 0.109453
0.0238651 0.133181 0.104997
0.0458381 0.133684 0.0877546
0.103731 0.134295 0.0626383
0.187396 0.131701 0.053666
0.263905 0.133196 0.0512551
0.338216 0.138537 0.0483711
0.418418 0.145541 0.0486152
0.498146 0.154314 0.0500649
0.573388 0.1635 0.0527657
0.643519 0.171923 0.0560922
0.711208 0.180591 0.0596933
0.773434 0.187594 0.0630045
0.822629 0.19115 0.0654002
0.865782 0.193683 0.0674449
0.908904 0.195636 0.0691997
0.933623 0.195743 0.0701457
0.936767 0.19472 0.0701915
0.936629 0.193896 0.0700847
0.936507 0.193133 0.0699931
0.936538 0.193164 0.0700084
0.936553 0.19324 0.0700389
0.936584 0.193271 0.0700389
0.936599 0.193332 0.0700389
0.936599 0.193378 0.0700542
0.0208591 0.159289 0.128573
0.0209049 0.160525 0.129564
0.0209506 0.162173 0.130877
0.0210574 0.164996 0.133181
0.0211795 0.168109 0.135714
0.0213321 0.171542 0.138582
0.0214694 0.174487 0.14107
0.0215457 0.176257 0.14258
0.021561 0.176761 0.142992
0.0218204 0.175128 0.14052
0.0309758 0.173571 0.131701
0.0682078 0.176425 0.104875
0.145098 0.177539 0.0778058
0.240345 0.175357 0.0741741
0.320729 0.178988 0.072282
0.399329 0.185824 0.0681773
0.480644 0.193683 0.066804
0.558495 0.20116 0.0657511
0.630442 0.207782 0.0639353
0.697459 0.214145 0.0648966
0.762173 0.220249 0.0674449
0.817899 0.223011 0.0695201
0.861845 0.224262 0.0714733
0.903838 0.225177 0.0731518
0.936461 0.224948 0.0743572
0.943511 0.222797 0.074342
0.943236 0.221393 0.0741131
0.942931 0.220249 0.0739452
0.942901 0.220111 0.0739452
0.942946 0.220279 0.0739452
0.942962 0.220279 0.0739605
0.942946 0.220203 0.07393
0.942931 0.220081 0.07393
0.0227512 0.19942 0.163027
0.0228275 0.200702 0.164172
0.0229496 0.202701 0.165988
0.0231632 0.205982 0.169009
0.0233768 0.209583 0.17232
0.023621 0.213413 0.17586
0.0238346 0.216968 0.179141
0.0239872 0.219501 0.181506
0.0240482 0.220249 0.182177
0.0239567 0.219104 0.181003
0.0243687 0.216648 0.175738
0.0511177 0.215579 0.162478
0.0955978 0.224277 0.119722
0.192111 0.224231 0.0957961
0.297078 0.222812 0.0982834
0.383047 0.228397 0.0989242
0.462806 0.2365 0.0976272
0.541939 0.245396 0.0970474
0.616037 0.252064 0.0943008
0.684642 0.255772 0.088014
0.750484 0.259342 0.0835737
0.810239 0.261753 0.0813916
0.85951 0.262089 0.0796521
0.902434 0.261723 0.0789197
0.938415 0.260777 0.0797742
0.951629 0.258442 0.0799725
0.952331 0.256611 0.0797284
0.95198 0.255344 0.07953
0.951797 0.254765 0.079408
0.951736 0.254597 0.0793774
0.951644 0.254322 0.0793317
0.951522 0.253956 0.0792554
0.951415 0.25359 0.0791943
0.025452 0.240772 0.201587
0.0255589 0.242252 0.202976
0.0257115 0.244709 0.20528
0.0259403 0.248707 0.209033
0.0261997 0.252918 0.212955
0.0264439 0.257084 0.216846
0.026688 0.261128 0.2206
0.0268864 0.264195 0.223468
0.0269474 0.265232 0.224445
0.0269169 0.264607 0.223819
0.0267796 0.262074 0.220432
0.0307164 0.259724 0.212421
0.0888838 0.260548 0.194858
0.129763 0.274159 0.132128
0.238926 0.272343 0.117082
0.351644 0.271275 0.12224
0.446189 0.281392 0.127993
0.526421 0.290578 0.129763
0.600855 0.299077 0.130343
0.671412 0.304601 0.128801
0.737728 0.306813 0.123384
0.801053 0.307698 0.116579
0.855772 0.306386 0.108522
0.901076 0.304433 0.101946
0.938918 0.30251 0.0972
0.960357 0.299535 0.09308
0.96347 0.296696 0.090547
0.963027 0.294682 0.0886091
0.962722 0.293431 0.087602
0.96257 0.292988 0.0874647
0.962386 0.2925 0.0872816
0.962203 0.292012 0.0870985
0.96202 0.291524 0.0869001
0.0279393 0.284291 0.24123
0.0280156 0.285847 0.242634
0.0281682 0.288869 0.245289
0.0284123 0.293431 0.249287
0.0286564 0.298161 0.253376
0.0288396 0.3028 0.257252
0.0289616 0.30695 0.260487
0.0290532 0.310536 0.263233
0.0290837 0.312032 0.264347
0.0290684 0.31162 0.263996
0.0289921 0.309758 0.262333
0.0294652 0.305882 0.255833
0.0589761 0.304433 0.243824
0.134157 0.310369 0.215839
0.18613 0.322103 0.155718
0.289464 0.32108 0.139391
0.40557 0.320974 0.14847
0.504128 0.335332 0.158343
0.584527 0.346151 0.161563
0.658152 0.354055 0.163043
0.726207 0.358434 0.161837
0.790158 0.358968 0.157717
0.849393 0.357427 0.152209
0.898894 0.354269 0.145434
0.9402 0.350454 0.138277
0.967102 0.34641 0.132326
0.974121 0.342458 0.127901
0.974105 0.33959 0.124895
0.973693 0.337743 0.123079
0.973465 0.336767 0.122118
0.973281 0.335805 0.121035
0.973083 0.334737 0.119738
0.972885 0.333593 0.118273
0.0295567 0.329183 0.277684
0.0296025 0.33077 0.27895
0.0296635 0.334829 0.281895
0.0297093 0.339757 0.285359
0.0297704 0.344732 0.288853
0.0298314 0.349706 0.292287
0.0298924 0.354406 0.295521
0.0299535 0.358175 0.298116
0.0299687 0.36025 0.299474
0.0299535 0.359426 0.298894
0.0299382 0.357839 0.297627
0.030457 0.354177 0.293172
0.0447852 0.351553 0.284733
0.110506 0.352422 0.267262
0.1794 0.361776 0.228656
0.237888 0.371618 0.17496
0.342916 0.3691 0.16466
0.455726 0.370474 0.174792
0.556252 0.388312 0.188556
0.638773 0.401358 0.19411
0.712932 0.408804 0.195651
0.779492 0.4112 0.193179
0.840925 0.41062 0.188739
0.894804 0.407675 0.18381
0.93959 0.40322 0.178805
0.972 0.397848 0.173663
0.984649 0.392721 0.169528
0.985351 0.388388 0.166644
0.984726 0.385779 0.165072
0.98436 0.384253 0.164187
0.984024 0.38291 0.163409
0.983703 0.381567 0.162325
0.983383 0.38024 0.161227
0.0300755 0.375647 0.310063
0.0301061 0.377295 0.31107
0.0301518 0.381918 0.314046
0.0302129 0.386938 0.317235
0.0303044 0.392432 0.320577
0.030396 0.397742 0.323705
0.0304875 0.402655 0.326619
0.0305638 0.406439 0.328817
0.0305791 0.408392 0.329931
0.0305486 0.40763 0.329473
0.030518 0.405905 0.328359
0.030457 0.402579 0.325185
0.0399481 0.398169 0.317861
0.0899672 0.396506 0.305959
0.168292 0.401938 0.282948
0.222705 0.412879 0.234134
0.289967 0.420188 0.192416
0.398779 0.415824 0.191501
0.505745 0.418662 0.201312
0.605051 0.438956 0.217685
0.690532 0.454047 0.225742
0.766384 0.461021 0.227893
0.831769 0.461952 0.224781
0.889754 0.459785 0.219608
0.937285 0.455528 0.214054
0.978012 0.450111 0.20853
0.995666 0.444205 0.203998
0.997604 0.439551 0.200809
0.996796 0.436011 0.198428
0.996307 0.434028 0.197101
0.99588 0.43238 0.195987
0.995422 0.430549 0.194766
0.995087 0.429206 0.193851
0.0308537 0.422736 0.338247
0.030869 0.42446 0.339162
0.0308995 0.42945 0.341833
0.0309148 0.434821 0.34461
0.0309453 0.440543 0.347524
0.0309758 0.44593 0.350286
0.0310063 0.450507 0.352544
0.0310369 0.454047 0.354253
0.0310521 0.455726 0.355047
0.0310521 0.455283 0.354833
0.0310521 0.453422 0.353902
0.0310216 0.449729 0.351247
0.0361028 0.444572 0.345342
0.0770733 0.44065 0.335576
0.156741 0.442313 0.321126
0.221027 0.451209 0.290211
0.265766 0.462791 0.235492
0.346166 0.466133 0.21178
0.452827 0.460502 0.217105
0.553948 0.46482 0.226856
0.653071 0.486809 0.244099
0.742 0.503609 0.25507
0.818326 0.510033 0.258335
0.882261 0.509194 0.255146
0.935546 0.505699 0.250019
0.977935 0.501198 0.244495
1 0.495323 0.239139
1 0.490013 0.234989
1 0.485634 0.231983
1 0.483574 0.23064
1 0.48188 0.229511
1 0.480186 0.228397
1 0.478523 0.227298
0.0312505 0.469352 0.361639
0.0312657 0.471519 0.3626
0.031342 0.476768 0.36495
0.0314183 0.4822 0.367239
0.0314794 0.487663 0.369512
0.0315557 0.492866 0.371664
0.031632 0.497246 0.373419
0.031693 0.500542 0.374716
0.0317235 0.502052 0.375341
0.0317235 0.501366 0.375113
0.0316777 0.499138 0.374273
0.0316014 0.495201 0.372015
0.0341497 0.489906 0.367376
0.0707103 0.483787 0.358709
0.142977 0.483528 0.347631
0.218463 0.488945 0.331594
0.262303 0.499611 0.288808
0.314092 0.508659 0.242908
0.4047 0.508354 0.237018
0.50341 0.503304 0.240421
0.601053 0.509071 0.250248
0.699718 0.532219 0.268025
0.789593 0.550301 0.28191
0.867903 0.556817 0.287221
0.929931 0.555505 0.285054
0.976822 0.551095 0.280171
1 0.545678 0.274952
1 0.539773 0.270314
1 0.535531 0.267292
1 0.532815 0.265354
1 0.531121 0.264149
1 0.529351 0.262913
1 0.527794 0.261814
0.0319829 0.515755 0.380545
0.0320592 0.518441 0.381552
0.0322271 0.523766 0.383505
0.0324102 0.529168 0.385458
0.0326085 0.534554 0.387396
0.0327916 0.53962 0.389136
0.0329595 0.543877 0.390585
0.0330663 0.546899 0.391577
0.0331121 0.548119 0.391989
0.033051 0.547021 0.391653
0.032929 0.544442 0.390784
0.0327306 0.540505 0.389105
0.0343786 0.5346 0.385092
0.0657969 0.526238 0.377371
0.131914 0.523171 0.368261
0.204898 0.527367 0.357061
0.272602 0.533364 0.339483
0.2972 0.54641 0.28336
0.366995 0.551247 0.256657
0.460288 0.54902 0.261372
0.552407 0.544594 0.261921
0.646815 0.551843 0.27155
0.744808 0.575769 0.290089
0.836744 0.596048 0.308232
0.914076 0.602411 0.314839
0.971771 0.60032 0.313344
1 0.595834 0.30959
1 0.589899 0.305196
1 0.585306 0.302022
1 0.582116 0.299809
1 0.580331 0.298589
1 0.578317 0.2972
1 0.577234 0.296437
0.0336309 0.562554 0.396506
0.0337682 0.565621 0.397436
0.0340124 0.570779 0.398978
0.0342718 0.576013 0.400534
0.0345159 0.58117 0.40206
0.0347448 0.585824 0.403388
0.0349432 0.589807 0.404501
0.0350652 0.592218 0.405188
0.0350958 0.592996 0.405417
0.0350042 0.591379 0.40502
0.0348516 0.58851 0.404242
0.0346838 0.584573 0.403113
0.0360418 0.577935 0.399573
0.0635843 0.568078 0.392569
0.122026 0.562036 0.385031
0.191272 0.565042 0.376303
0.260639 0.570642 0.364782
0.311879 0.578378 0.338674
0.345922 0.588907 0.290227
0.426047 0.590829 0.279561
0.514458 0.588937 0.284016
0.600946 0.585657 0.282704
0.691646 0.594354 0.291218
0.790234 0.61857 0.312139
0.882902 0.63975 0.333501
0.956909 0.646372 0.341817
1 0.64445 0.341527
1 0.639857 0.338628
1 0.634714 0.335225
1 0.631083 0.33286
1 0.629114 0.331609
1 0.627054 0.330282
1 0.626307 0.329809
0.0359197 0.608057 0.409384
0.0361028 0.611322 0.410239
0.0363928 0.616083 0.411444
0.0366979 0.621042 0.412695
0.0370184 0.62591 0.413901
0.0372931 0.630152 0.414939
0.0375219 0.633433 0.415763
0.0376287 0.635187 0.41619
0.0376287 0.635508 0.416281
0.0374914 0.633738 0.415869
0.0372473 0.630655 0.415137
0.0369268 0.626459 0.414145
0.0399176 0.619242 0.411139
0.0647288 0.608927 0.405035
0.114916 0.601526 0.398474
0.180957 0.601968 0.391913
0.246021 0.607996 0.3832
0.311177 0.61326 0.371008
0.349111 0.622446 0.335332
0.404303 0.628916 0.306889
0.484733 0.630045 0.303578
0.567315 0.62884 0.304753
0.648661 0.62678 0.302434
0.737682 0.636439 0.310262
0.835813 0.660441 0.334081
0.927504 0.682109 0.357794
0.99556 0.689204 0.367575
1 0.687434 0.368231
1 0.682872 0.365728
1 0.679133 0.363485
1 0.676951 0.362158
1 0.674952 0.360922
1 0.674739 0.360815
0.0392004 0.651835 0.419898
0.0395361 0.655253 0.420661
0.0399939 0.659876 0.421683
0.0404517 0.664363 0.422675
0.0408942 0.668681 0.423606
0.0412909 0.672343 0.424384
0.0415961 0.675303 0.425025
0.0417487 0.676829 0.425361
0.0417487 0.676753 0.425345
0.0415351 0.674861 0.424933
0.0411536 0.671473 0.424216
0.04065 0.667155 0.423316
0.0432288 0.660594 0.421332
0.0672313 0.649973 0.415732
0.110445 0.641764 0.409781
0.169863 0.639658 0.404425
0.233021 0.644495 0.397757
0.295872 0.650141 0.389197
0.353323 0.656199 0.372519
0.395743 0.664591 0.340078
0.463951 0.668345 0.32781
0.539864 0.669551 0.325322
0.618067 0.669032 0.323766
0.696239 0.667781 0.32015
0.783444 0.678203 0.329549
0.880888 0.701915 0.355779
0.968811 0.722866 0.38024
1 0.729961 0.390997
1 0.72784 0.391501
1 0.724178 0.389624
1 0.721981 0.388418
1 0.72018 0.387411
1 0.720272 0.387472
0.0437018 0.694316 0.42887
0.0441291 0.698085 0.429648
0.0445869 0.702235 0.430488
0.0450599 0.706371 0.431312
0.0455024 0.710353 0.43212
0.0458686 0.713634 0.432776
0.0461128 0.716091 0.433249
0.0462043 0.717128 0.433433
0.046128 0.716579 0.43331
0.0458991 0.714656 0.432929
0.0455177 0.711177 0.432227
0.045182 0.707057 0.431403
0.0481727 0.701411 0.429877
0.0707561 0.691096 0.425177
0.107973 0.682033 0.419669
0.158694 0.678157 0.415061
0.22002 0.680903 0.41004
0.280324 0.68716 0.403952
0.341436 0.692638 0.39443
0.395102 0.699046 0.374945
0.448844 0.705318 0.353948
0.519005 0.708339 0.347631
0.59176 0.70988 0.344167
0.667369 0.709804 0.340215
0.743374 0.709148 0.336828
0.829694 0.7196 0.348821
0.924559 0.742336 0.37583
1 0.761379 0.400153
1 0.766384 0.40943
1 0.764218 0.409628
1 0.762219 0.40885
1 0.760601 0.40824
1 0.760983 0.408438
0.0477455 0.732677 0.436439
0.0479744 0.735561 0.436973
0.0482032 0.738598 0.437522
0.0483864 0.741497 0.438056
0.0485542 0.744335 0.438575
0.0487068 0.74696 0.439078
0.0487831 0.748592 0.439384
0.0488136 0.749249 0.439521
0.0487678 0.748821 0.43946
0.048661 0.747478 0.439246
0.0484932 0.744762 0.438743
0.0482948 0.741695 0.438193
0.0514229 0.736889 0.436912
0.0700084 0.728405 0.43328
0.104128 0.720027 0.428336
0.148318 0.715923 0.424262
0.205676 0.717403 0.420523
0.264439 0.723491 0.416098
0.325353 0.729595 0.410483
0.385443 0.735058 0.399359
0.439963 0.741268 0.381994
0.501198 0.746258 0.370077
0.56994 0.749432 0.365011
0.641276 0.751232 0.359777
0.714839 0.750912 0.354376
0.789166 0.750195 0.352956
0.874846 0.760723 0.366735
0.963836 0.781048 0.392645
1 0.7944 0.412268
1 0.795392 0.417044
1 0.793881 0.417044
1 0.792676 0.416907
1 0.793164 0.4168
0.0493782 0.762188 0.442115
0.0494698 0.764691 0.442618
0.0495613 0.76733 0.443153
0.0496529 0.770153 0.443687
0.0497292 0.772763 0.444205
0.0497902 0.774884 0.444633
0.0498207 0.776303 0.444892
0.0498207 0.776669 0.444968
0.0498054 0.776226 0.444877
0.0497749 0.774914 0.444617
0.0497292 0.772686 0.444205
0.0496529 0.769833 0.443656
0.0517739 0.765682 0.442618
0.0666056 0.759075 0.43978
0.0979477 0.752026 0.435401
0.136721 0.748135 0.431724
0.188418 0.749157 0.428763
0.24712 0.755749 0.425925
0.305562 0.764096 0.422126
