LUT预设1/LUT全系打包/电影感系列lut/电影感各机型log灰片/WARM2暖调.cube
TITLE "Generated by Resolve"
LUT_3D_SIZE 9
0.00250248 0.00285344 0.00292973
0.00250248 0.00285344 0.00292973
0.0315404 0.00901808 0.00909438
0.293095 0.0625772 0.0470893
0.686366 0.143343 0.094667
0.857969 0.180636 0.119387
0.857969 0.180636 0.119387
0.857969 0.180636 0.119387
0.857969 0.180636 0.119387
0.00250248 0.00285344 0.00292973
0.00250248 0.00285344 0.00292973
0.0204776 0.00671397 0.00712596
0.283162 0.0606241 0.0458381
0.696742 0.145785 0.0960708
0.857969 0.180636 0.119387
0.857969 0.180636 0.119387
0.857969 0.180636 0.119387
0.857969 0.180636 0.119387
0.00318914 0.0037232 0.00369268
0.00294499 0.00334173 0.00340276
0.00270085 0.00289921 0.00303655
0.2056 0.0459907 0.0367132
0.677806 0.141939 0.0940261
0.857969 0.180636 0.119387
0.857969 0.180636 0.119387
0.857969 0.180636 0.119387
0.857969 0.180636 0.119387
0.0784924 0.119493 0.0435187
0.0847486 0.130037 0.0463874
0.0908675 0.140459 0.0493172
0.116854 0.120027 0.0564584
0.537606 0.157259 0.083238
0.860471 0.196033 0.121843
0.858045 0.180819 0.119417
0.857969 0.180636 0.119387
0.857969 0.180636 0.119387
0.207187 0.354299 0.105119
0.215793 0.371008 0.109712
0.22945 0.397528 0.117037
0.218219 0.375677 0.110964
0.349172 0.352438 0.146151
0.825971 0.412329 0.190036
0.951202 0.389715 0.190112
0.939803 0.359838 0.17847
0.938018 0.355444 0.176745
0.352148 0.632593 0.186221
0.362844 0.651942 0.192584
0.378805 0.680613 0.202426
0.367987 0.661189 0.195605
0.439033 0.588418 0.211826
0.610361 0.610239 0.258564
1 0.672831 0.305226
1 0.634134 0.289265
1 0.630396 0.287709
0.47834 0.851179 0.271366
0.479194 0.852476 0.271855
0.479362 0.85272 0.271946
0.479362 0.85272 0.271946
0.474647 0.839628 0.267659
0.706523 0.807385 0.3691
0.852995 0.846845 0.371283
0.981888 0.838865 0.346868
0.982193 0.836728 0.345937
0.479362 0.85272 0.271946
0.479362 0.85272 0.271946
0.479362 0.85272 0.271946
0.479362 0.85272 0.271946
0.479362 0.85272 0.271946
0.637827 0.844114 0.326253
0.801999 0.912108 0.439826
0.989487 0.961257 0.431571
0.989487 0.961257 0.431571
0.479362 0.85272 0.271946
0.479362 0.85272 0.271946
0.479362 0.85272 0.271946
0.479362 0.85272 0.271946
0.479362 0.85272 0.271946
0.633768 0.843885 0.324086
0.800748 0.911025 0.439475
0.989487 0.961257 0.431571
0.989487 0.961257 0.431571
0.00250248 0.00285344 0.00292973
0.00250248 0.00285344 0.00292973
0.0315404 0.0090486 0.00910964
0.292103 0.0623789 0.0469673
0.689998 0.144152 0.0951247
0.857969 0.180636 0.119387
0.857969 0.180636 0.119387
0.857969 0.180636 0.119387
0.857969 0.180636 0.119387
0.00250248 0.00285344 0.00292973
0.00250248 0.00285344 0.00292973
0.022034 0.00701915 0.0074464
0.294484 0.0627756 0.0471656
0.705043 0.14757 0.0970779
0.857969 0.180636 0.119387
0.857969 0.180636 0.119387
0.857969 0.180636 0.119387
0.857969 0.180636 0.119387
0.00309758 0.00360113 0.00360113
0.00285344 0.00323491 0.00329595
0.00262455 0.00288396 0.00299077
0.218082 0.0483864 0.0382696
0.690578 0.144549 0.0954299
0.857969 0.180636 0.119387
0.857969 0.180636 0.119387
0.857969 0.180636 0.119387
0.857969 0.180636 0.119387
0.0810864 0.123827 0.0447089
0.0878157 0.135241 0.0478218
0.0944839 0.146593 0.0510109
0.121798 0.125292 0.0583352
0.549203 0.16228 0.0850996
0.862959 0.198459 0.122545
0.858015 0.180758 0.119402
0.857969 0.180636 0.119387
0.857969 0.180636 0.119387
0.210575 0.360861 0.10692
0.219638 0.378454 0.111757
0.233799 0.405951 0.119371
0.222187 0.383368 0.113069
0.356359 0.360098 0.149508
0.836713 0.420386 0.193591
0.953231 0.395056 0.192187
0.942184 0.365728 0.180789
0.940703 0.362066 0.17937
0.356329 0.640177 0.188708
0.367498 0.660334 0.195377
0.383505 0.689036 0.205341
0.372152 0.668757 0.198093
0.445579 0.595163 0.215152
0.617304 0.617594 0.262257
1 0.678813 0.308019
1 0.640482 0.291783
1 0.637217 0.29044
0.478721 0.851759 0.27158
0.479347 0.852689 0.271946
0.479362 0.85272 0.271946
0.479362 0.85272 0.271946
0.476234 0.841779 0.268559
0.712047 0.81297 0.372747
0.859388 0.852583 0.374411
0.981247 0.843793 0.349096
0.981491 0.841825 0.348257
0.479362 0.85272 0.271946
0.479362 0.85272 0.271946
0.479362 0.85272 0.271946
0.479362 0.85272 0.271946
0.479362 0.85272 0.271946
0.641947 0.844358 0.328466
0.804181 0.913832 0.440452
0.989487 0.961257 0.431571
0.989487 0.961257 0.431571
0.479362 0.85272 0.271946
0.479362 0.85272 0.271946
0.479362 0.85272 0.271946
0.479362 0.85272 0.271946
0.479362 0.85272 0.271946
0.639704 0.844205 0.32726
0.803357 0.913207 0.440253
0.989487 0.961257 0.431571
0.989487 0.961257 0.431571
0.00105287 0.00698863 0.0204166
0.00109865 0.0069276 0.0200504
0.0256962 0.0101472 0.0226749
0.272358 0.058793 0.0455024
0.683024 0.142763 0.0943618
0.857969 0.180636 0.119387
0.857969 0.180636 0.119387
0.857969 0.180636 0.119387
0.857969 0.180636 0.119387
0.00177005 0.00544747 0.0133059
0.00161746 0.00573739 0.0146792
0.0192874 0.00827039 0.0175937
0.285771 0.0611582 0.0461738
0.703777 0.147341 0.0969253
0.857969 0.180636 0.119387
0.857969 0.180636 0.119387
0.857969 0.180636 0.119387
0.857969 0.180636 0.119387
0.002533 0.00291447 0.00306706
0.00250248 0.00289921 0.0030518
0.00250248 0.0028687 0.00294499
0.227787 0.0503243 0.0395361
0.700847 0.146624 0.0965896
0.857969 0.180636 0.119387
0.857969 0.180636 0.119387
0.857969 0.180636 0.119387
0.857969 0.180636 0.119387
0.0825513 0.126329 0.0453956
0.0899062 0.138796 0.0488136
0.0980697 0.152712 0.0527504
0.126787 0.1308 0.0604105
0.566308 0.16875 0.0878309
0.865965 0.201556 0.123476
0.858244 0.181353 0.119509
0.857969 0.180636 0.119387
0.857969 0.180636 0.119387
0.215137 0.369787 0.109392
0.224643 0.388205 0.114458
0.239612 0.417288 0.12253
0.228061 0.394766 0.116228
0.366125 0.370108 0.153887
0.85095 0.430411 0.198062
0.955367 0.400809 0.1944
0.944701 0.371984 0.183276
0.943496 0.369024 0.182101
0.362127 0.650629 0.192187
0.373404 0.670924 0.199008
0.389273 0.699413 0.209003
0.377493 0.67834 0.201434
0.452705 0.603708 0.218845
0.625666 0.62591 0.265965
1 0.684291 0.310216
1 0.646891 0.294499
1 0.643992 0.293263
0.479362 0.85272 0.271946
0.479362 0.85272 0.271946
0.479362 0.85272 0.271946
0.479362 0.85272 0.271946
0.478187 0.84448 0.269642
0.718196 0.819242 0.376791
0.866087 0.858869 0.377462
0.980713 0.84863 0.351263
0.980896 0.846967 0.350561
0.479362 0.85272 0.271946
0.479362 0.85272 0.271946
0.479362 0.85272 0.271946
0.479362 0.85272 0.271946
0.479362 0.85272 0.271946
0.646036 0.844617 0.330709
0.806683 0.915633 0.441047
0.989487 0.961257 0.431571
0.989487 0.961257 0.431571
0.479362 0.85272 0.271946
0.479362 0.85272 0.271946
0.479362 0.85272 0.271946
0.479362 0.85272 0.271946
0.479362 0.85272 0.271946
0.645029 0.844541 0.330159
0.806134 0.915251 0.44094
0.989487 0.961257 0.431571
0.989487 0.961257 0.431571
0 0.0372473 0.150622
0 0.0375525 0.152392
0.0115663 0.033875 0.147066
0.239094 0.0633097 0.222354
0.604898 0.13933 0.206302
0.849439 0.182254 0.151202
0.857832 0.180667 0.119921
0.857969 0.180636 0.119387
0.857969 0.180636 0.119387
0 0.0349432 0.138979
0 0.0359503 0.144213
0.00590524 0.034226 0.14435
0.252934 0.0659342 0.23566
0.626245 0.145022 0.220005
0.842008 0.183642 0.173999
0.855161 0.181201 0.130282
0.857298 0.180774 0.122133
0.857694 0.180697 0.120485
0 0.0257877 0.0973983
0 0.0274357 0.104402
0 0.0278172 0.106401
0.216648 0.0586404 0.205203
0.638193 0.147921 0.224079
0.834958 0.18262 0.207156
0.84564 0.182971 0.163058
0.849622 0.1823 0.150103
0.850919 0.182055 0.145541
0.0584115 0.117586 0.114961
0.0634318 0.130297 0.127184
0.0694133 0.14583 0.141985
0.112032 0.116899 0.11577
0.544884 0.158038 0.122896
0.861341 0.194705 0.131121
0.857618 0.180713 0.120775
0.857771 0.180682 0.12015
0.857786 0.180682 0.120104
0.209216 0.35819 0.106157
0.218463 0.376135 0.111086
0.233021 0.404913 0.119341
0.223743 0.386389 0.113863
0.352956 0.35787 0.148959
0.843198 0.415137 0.19176
0.950195 0.386664 0.188952
0.939666 0.35938 0.178347
0.938628 0.356817 0.17734
0.357687 0.642588 0.189502
0.368261 0.661738 0.195804
0.383246 0.688655 0.205066
0.372671 0.669688 0.198535
0.43621 0.596399 0.210575
0.615213 0.615824 0.261524
1 0.675563 0.306188
1 0.637949 0.290837
1 0.635142 0.289677
0.478416 0.851316 0.271412
0.479332 0.852674 0.271931
0.479362 0.85272 0.271946
0.479362 0.85272 0.271946
0.474937 0.842725 0.268452
0.711604 0.814588 0.372122
0.86125 0.854566 0.375174
0.981109 0.845106 0.349828
0.981338 0.843153 0.348959
0.479362 0.85272 0.271946
0.479362 0.85272 0.271946
0.479362 0.85272 0.271946
0.479362 0.85272 0.271946
0.479362 0.85272 0.271946
0.639277 0.84419 0.327016
0.80441 0.914 0.440543
0.989487 0.961257 0.431571
0.989487 0.961257 0.431571
0.479362 0.85272 0.271946
0.479362 0.85272 0.271946
0.479362 0.85272 0.271946
0.479362 0.85272 0.271946
0.479362 0.85272 0.271946
0.638972 0.84416 0.326833
0.803861 0.913588 0.440421
0.989487 0.961257 0.431571
0.989487 0.961257 0.431571
0 0.0822156 0.432319
0 0.0821851 0.43209
0 0.0796674 0.413931
0.214267 0.0763714 0.56643
0.551293 0.125505 0.522683
0.763638 0.180117 0.444099
0.774227 0.182559 0.377722
0.786206 0.184558 0.337407
0.792508 0.185351 0.319966
0 0.081239 0.424872
0 0.0815442 0.42678
0 0.0802472 0.416892
0.227726 0.0791333 0.58761
0.575814 0.130587 0.548913
0.763622 0.179934 0.471519
0.768475 0.180987 0.408988
0.774777 0.182452 0.375982
0.777844 0.183185 0.363256
0 0.0751354 0.381933
0 0.0767376 0.393011
0 0.0768902 0.39408
0.203464 0.0757916 0.566873
0.599863 0.135637 0.572717
0.76437 0.180423 0.514809
0.763638 0.180056 0.466575
0.764569 0.180148 0.446403
0.765255 0.180255 0.437842
0 0.153964 0.316579
0 0.168231 0.330648
0 0.185611 0.34847
0.0290684 0.147234 0.376989
0.478126 0.132738 0.458015
0.766354 0.182879 0.429343
0.770855 0.181796 0.392966
0.77319 0.182361 0.38143
0.774212 0.182498 0.377752
0.148363 0.357641 0.350225
0.155291 0.376638 0.368399
0.166217 0.406546 0.397696
0.159136 0.386984 0.378347
0.334478 0.335637 0.330694
0.77145 0.40209 0.361349
0.918196 0.389914 0.339406
0.908705 0.358068 0.308476
0.90811 0.356161 0.30663
0.269093 0.64303 0.318288
0.274296 0.663783 0.338933
0.282277 0.691829 0.366491
0.280049 0.672053 0.337179
0.372595 0.59234 0.27068
0.581018 0.58883 0.31194
1 0.650965 0.323751
1 0.609979 0.294652
1 0.608225 0.296254
0.459678 0.852415 0.291234
0.459968 0.860441 0.299672
0.454765 0.862425 0.307393
0.461357 0.859754 0.297124
0.465385 0.833204 0.265278
0.681361 0.791196 0.351766
0.835355 0.829709 0.362203
0.984253 0.825513 0.341482
0.984604 0.823758 0.34078
0.479362 0.85272 0.271946
0.479362 0.85272 0.271946
0.479332 0.852735 0.271992
0.47924 0.852766 0.272114
0.479362 0.85272 0.271946
0.612909 0.843214 0.313466
0.796109 0.906569 0.437644
0.989197 0.961212 0.431647
0.989487 0.961257 0.431571
0.479362 0.85272 0.271946
0.479362 0.85272 0.271946
0.479042 0.852842 0.272358
0.479286 0.85275 0.272053
0.479362 0.85272 0.271946
0.614557 0.843198 0.314244
0.795789 0.906188 0.437476
0.989013 0.961181 0.431708
0.989487 0.961257 0.431571
0 0.0822614 0.432654
0 0.0822614 0.432654
0 0.0822614 0.432654
0.158785 0.0802472 0.613718
0.519982 0.122576 0.708934
0.789242 0.180026 0.727382
0.790234 0.18088 0.706203
0.782956 0.181262 0.662379
0.779171 0.181353 0.638361
0 0.0822614 0.432654
0 0.0822614 0.432654
0 0.0822614 0.432654
0.17731 0.0809491 0.621118
0.547265 0.127016 0.71162
0.793484 0.180865 0.72755
0.792432 0.18088 0.720699
0.789624 0.181003 0.703532
0.787457 0.181064 0.69015
0 0.0822614 0.432654
0 0.0822614 0.432654
0 0.0822614 0.432654
0.164889 0.0802625 0.61416
0.579202 0.132387 0.714519
0.793484 0.180865 0.72755
0.793484 0.180865 0.72755
0.793484 0.180865 0.72755
0.793378 0.180865 0.726787
0 0.156786 0.483528
0 0.169833 0.484413
0 0.18555 0.48394
0 0.15024 0.524208
0.456321 0.127428 0.699779
0.789624 0.180194 0.727214
0.791791 0.180896 0.716442
0.79057 0.180926 0.70869
0.790066 0.180941 0.70547
0.0326238 0.403403 0.479362
0.0410315 0.422339 0.491936
0.0547189 0.450858 0.511635
0.0420081 0.430274 0.500526
0.21886 0.385992 0.502953
0.66981 0.352819 0.655283
0.809522 0.337423 0.601709
0.802106 0.309148 0.568093
0.801953 0.308415 0.563073
0.254124 0.636683 0.629068
0.26215 0.656443 0.648508
0.273091 0.682948 0.674571
0.264927 0.663233 0.655283
0.282048 0.596674 0.593606
0.574624 0.574304 0.567407
0.983017 0.644648 0.6056
0.987167 0.609018 0.569924
0.987167 0.608713 0.56939
0.35259 0.877333 0.634333
0.358755 0.889281 0.650965
0.361944 0.894575 0.667628
0.358373 0.888304 0.653254
0.342123 0.85687 0.588647
0.681086 0.803479 0.570535
0.83476 0.812421 0.552636
1 0.839261 0.514809
1 0.839521 0.521202
0.371237 0.889815 0.499062
0.367361 0.890898 0.519829
0.363806 0.89192 0.54551
0.365606 0.89131 0.530861
0.380529 0.887129 0.461585
0.542794 0.870207 0.402228
0.811307 0.89836 0.50695
0.985183 0.961898 0.47071
0.990814 0.962951 0.472068
0.374868 0.888747 0.482658
0.369146 0.890379 0.509453
0.364385 0.891768 0.540719
0.365835 0.891218 0.529107
0.37998 0.887297 0.463462
0.547707 0.870954 0.408713
0.813825 0.898283 0.516426
0.983978 0.961852 0.475685
0.99089 0.963134 0.47425
0 0.0822614 0.432654
0 0.0822614 0.432654
0 0.0822614 0.432654
0.113451 0.0787213 0.584649
0.479988 0.11664 0.703807
0.777676 0.177371 0.726925
0.793484 0.180865 0.72755
0.793484 0.180865 0.72755
0.793484 0.180865 0.72755
0 0.0822614 0.432654
0 0.0822614 0.432654
0 0.0822614 0.432654
0.136889 0.079118 0.598489
0.511559 0.121355 0.707774
0.789548 0.180163 0.727428
0.793484 0.180865 0.72755
0.793484 0.180865 0.72755
0.793484 0.180865 0.72755
0 0.0822614 0.432654
0 0.0822614 0.432654
0 0.0822614 0.432654
0.140764 0.0792554 0.600122
0.55523 0.128389 0.712261
0.793484 0.180865 0.72755
0.793484 0.180865 0.72755
0.793484 0.180865 0.72755
0.793484 0.180865 0.72755
0 0.136339 0.477302
0 0.150668 0.481834
0 0.170077 0.484657
0 0.138048 0.515358
0.435477 0.119127 0.696696
0.780575 0.17821 0.727108
0.793484 0.180865 0.72755
0.793484 0.180865 0.72755
0.793484 0.180865 0.72755
0.00917067 0.389685 0.49781
0.0201724 0.408179 0.503136
0.0370489 0.434943 0.512596
0.0236667 0.413855 0.504936
0.187533 0.374243 0.548577
0.62591 0.336904 0.758038
0.825605 0.322332 0.75967
0.81915 0.291249 0.753124
0.819013 0.290654 0.752987
0.217624 0.640131 0.701701
0.231876 0.655924 0.719783
0.248783 0.676646 0.740917
0.234424 0.65893 0.723064
0.211017 0.607202 0.652293
0.430915 0.598215 0.69836
0.873701 0.568551 0.83003
0.880781 0.536355 0.814542
0.880049 0.536767 0.809125
0.362203 0.874128 0.861173
0.368963 0.8878 0.868788
0.373846 0.897642 0.875929
0.370748 0.891478 0.87332
0.3505 0.850217 0.842252
0.573846 0.809674 0.828092
0.807172 0.804349 0.801495
0.997925 0.815976 0.796551
0.99794 0.816007 0.796582
0.372702 0.901366 0.801755
0.373571 0.902205 0.813535
0.37464 0.903227 0.828458
0.374212 0.902861 0.822217
0.371633 0.900465 0.786816
0.432181 0.898817 0.74992
0.791821 0.916945 0.708171
0.987762 0.97081 0.711849
0.999298 0.972961 0.71107
0.372213 0.900893 0.792493
0.37319 0.901854 0.807294
0.37438 0.902998 0.824872
0.374029 0.902693 0.819821
0.371527 0.900359 0.785031
0.437476 0.898894 0.749798
0.79295 0.917739 0.711757
0.982895 0.970047 0.719219
0.999329 0.973358 0.709865
0 0.0822614 0.432654
0 0.0822614 0.432654
0 0.0822614 0.432654
0.0818647 0.0784314 0.561379
0.454475 0.112947 0.70013
0.764813 0.174243 0.726452
0.793484 0.180865 0.72755
0.793484 0.180865 0.72755
0.793484 0.180865 0.72755
0 0.0822614 0.432654
0 0.0822614 0.432654
0 0.0822614 0.432654
0.108797 0.0784161 0.580362
0.489464 0.117922 0.705196
0.784695 0.179324 0.727291
0.793484 0.180865 0.72755
0.793484 0.180865 0.72755
0.793484 0.180865 0.72755
0 0.0822614 0.432654
0 0.0822614 0.432654
0 0.0822614 0.432654
0.12871 0.0789197 0.59263
0.543069 0.12639 0.711055
0.793484 0.180865 0.72755
0.793484 0.180865 0.72755
0.793484 0.180865 0.72755
0.793484 0.180865 0.72755
0 0.128878 0.473579
0 0.143984 0.479667
0 0.164584 0.484291
0 0.134783 0.512322
0.427604 0.117037 0.69543
0.774777 0.17673 0.726864
0.793484 0.180865 0.72755
0.793484 0.180865 0.72755
0.793484 0.180865 0.72755
0.00520333 0.382788 0.496056
0.0165713 0.402213 0.501305
0.033753 0.429847 0.510628
0.0204318 0.408576 0.503288
0.182254 0.368505 0.547829
0.611795 0.329595 0.755001
0.824521 0.316838 0.758587
0.817197 0.28246 0.751034
0.8168 0.280751 0.750622
0.20824 0.630304 0.68983
0.223285 0.646296 0.708965
0.241718 0.667674 0.732189
0.226215 0.649546 0.712673
0.200336 0.597436 0.640131
0.415061 0.588083 0.690333
0.859342 0.559106 0.827344
0.878462 0.523949 0.816678
0.878264 0.523171 0.816464
0.35639 0.862699 0.862898
0.363684 0.877501 0.86981
0.370779 0.891463 0.876081
0.366934 0.883818 0.872602
0.344121 0.838041 0.850828
0.54696 0.800946 0.835538
0.756283 0.80325 0.854627
0.941421 0.768856 0.887388
0.941405 0.768826 0.887388
0.378805 0.907118 0.882948
0.378805 0.907118 0.882948
0.378805 0.907118 0.882948
0.378805 0.907118 0.882948
0.378805 0.907118 0.882948
0.429557 0.906859 0.883787
0.715129 0.936294 0.916716
0.985489 0.979461 0.953124
1 0.980468 0.95317
0.378805 0.907118 0.882948
0.378805 0.907118 0.882948
0.378805 0.907118 0.882948
0.378805 0.907118 0.882948
0.378805 0.907118 0.882948
0.431525 0.906859 0.883833
0.715724 0.93637 0.916793
0.975616 0.978088 0.953918
0.999847 0.98233 0.953246
0 0.0822614 0.432654
0 0.0822614 0.432654
0 0.0822614 0.432654
0.0695048 0.0786297 0.551797
0.443503 0.111421 0.698436
0.758526 0.172549 0.726192
0.793484 0.180865 0.72755
0.793484 0.180865 0.72755
0.793484 0.180865 0.72755
0 0.0822614 0.432654
0 0.0822614 0.432654
0 0.0822614 0.432654
0.101106 0.0783246 0.575341
0.482139 0.116793 0.704356
0.783307 0.179065 0.727245
0.793484 0.180865 0.72755
0.793484 0.180865 0.72755
0.793484 0.180865 0.72755
0 0.0822614 0.432654
0 0.0822614 0.432654
0 0.0822614 0.432654
0.124544 0.0787976 0.589944
0.537545 0.125505 0.710506
0.793484 0.180865 0.72755
0.793484 0.180865 0.72755
0.793484 0.180865 0.72755
0.793484 0.180865 0.72755
0 0.12668 0.472541
0 0.14258 0.479149
0 0.163531 0.484123
0 0.134157 0.511849
0.424186 0.116747 0.69482
0.771374 0.17583 0.726711
0.793484 0.180865 0.72755
0.793484 0.180865 0.72755
0.793484 0.180865 0.72755
0.00418097 0.380987 0.495613
0.0158846 0.401068 0.500969
0.0330205 0.428702 0.510201
0.019791 0.407523 0.502968
0.182025 0.368292 0.547936
0.606897 0.32987 0.754452
0.825071 0.319478 0.759152
0.817548 0.283833 0.7514
0.816922 0.281239 0.750759
0.20708 0.629099 0.68835
0.222553 0.645502 0.708034
0.240955 0.666682 0.731258
0.224933 0.648112 0.711025
0.201266 0.596475 0.638392
0.41532 0.588251 0.690471
0.855573 0.560372 0.82771
0.878965 0.52578 0.817227
0.878462 0.523873 0.816678
0.355886 0.861692 0.862409
0.363394 0.876905 0.869535
0.370596 0.891112 0.875929
0.366308 0.882567 0.872038
0.343145 0.836072 0.849836
0.551308 0.799908 0.834546
0.756771 0.803525 0.854887
0.942077 0.771542 0.888167
0.941588 0.769528 0.887587
0.378805 0.907118 0.882948
0.378805 0.907118 0.882948
0.378805 0.907118 0.882948
0.378805 0.907118 0.882948
0.378805 0.907118 0.882948
0.435416 0.906859 0.883925
0.722744 0.937331 0.917784
0.984726 0.978897 0.953063
1 0.979843 0.95314
0.378805 0.907118 0.882948
0.378805 0.907118 0.882948
0.378805 0.907118 0.882948
0.378805 0.907118 0.882948
0.378805 0.907118 0.882948
0.435035 0.906844 0.883909
0.718929 0.936797 0.917235
0.975006 0.977981 0.953994
0.999847 0.98233 0.953246
