LUT预设1/LUT全系打包/电影感系列lut/电影感各机型log灰片/WARM2暖调.cube
TITLE "Generated by Resolve"
LUT_3D_SIZE 5
0.00250248 0.00285344 0.00292973
0.0315404 0.00901808 0.00909438
0.686366 0.143343 0.094667
0.857969 0.180636 0.119387
0.857969 0.180636 0.119387
0.00318914 0.0037232 0.00369268
0.00270085 0.00289921 0.00303655
0.677806 0.141939 0.0940261
0.857969 0.180636 0.119387
0.857969 0.180636 0.119387
0.207187 0.354299 0.105119
0.22945 0.397528 0.117037
0.349172 0.352438 0.146151
0.951202 0.389715 0.190112
0.938018 0.355444 0.176745
0.47834 0.851179 0.271366
0.479362 0.85272 0.271946
0.474647 0.839628 0.267659
0.852995 0.846845 0.371283
0.982193 0.836728 0.345937
0.479362 0.85272 0.271946
0.479362 0.85272 0.271946
0.479362 0.85272 0.271946
0.800748 0.911025 0.439475
0.989487 0.961257 0.431571
0.00105287 0.00698863 0.0204166
0.0256962 0.0101472 0.0226749
0.683024 0.142763 0.0943618
0.857969 0.180636 0.119387
0.857969 0.180636 0.119387
0.002533 0.00291447 0.00306706
0.00250248 0.0028687 0.00294499
0.700847 0.146624 0.0965896
0.857969 0.180636 0.119387
0.857969 0.180636 0.119387
0.215137 0.369787 0.109392
0.239612 0.417288 0.12253
0.366125 0.370108 0.153887
0.955367 0.400809 0.1944
0.943496 0.369024 0.182101
0.479362 0.85272 0.271946
0.479362 0.85272 0.271946
0.478187 0.84448 0.269642
0.866087 0.858869 0.377462
0.980896 0.846967 0.350561
0.479362 0.85272 0.271946
0.479362 0.85272 0.271946
0.479362 0.85272 0.271946
0.806134 0.915251 0.44094
0.989487 0.961257 0.431571
0 0.0822156 0.432319
0 0.0796674 0.413931
0.551293 0.125505 0.522683
0.774227 0.182559 0.377722
0.792508 0.185351 0.319966
0 0.0751354 0.381933
0 0.0768902 0.39408
0.599863 0.135637 0.572717
0.763638 0.180056 0.466575
0.765255 0.180255 0.437842
0.148363 0.357641 0.350225
0.166217 0.406546 0.397696
0.334478 0.335637 0.330694
0.918196 0.389914 0.339406
0.90811 0.356161 0.30663
0.459678 0.852415 0.291234
0.454765 0.862425 0.307393
0.465385 0.833204 0.265278
0.835355 0.829709 0.362203
0.984604 0.823758 0.34078
0.479362 0.85272 0.271946
0.479042 0.852842 0.272358
0.479362 0.85272 0.271946
0.795789 0.906188 0.437476
0.989487 0.961257 0.431571
0 0.0822614 0.432654
0 0.0822614 0.432654
0.479988 0.11664 0.703807
0.793484 0.180865 0.72755
0.793484 0.180865 0.72755
0 0.0822614 0.432654
0 0.0822614 0.432654
0.55523 0.128389 0.712261
0.793484 0.180865 0.72755
0.793484 0.180865 0.72755
0.00917067 0.389685 0.49781
0.0370489 0.434943 0.512596
0.187533 0.374243 0.548577
0.825605 0.322332 0.75967
0.819013 0.290654 0.752987
0.362203 0.874128 0.861173
0.373846 0.897642 0.875929
0.3505 0.850217 0.842252
0.807172 0.804349 0.801495
0.99794 0.816007 0.796582
0.372213 0.900893 0.792493
0.37438 0.902998 0.824872
0.371527 0.900359 0.785031
0.79295 0.917739 0.711757
0.999329 0.973358 0.709865
0 0.0822614 0.432654
0 0.0822614 0.432654
0.443503 0.111421 0.698436
0.793484 0.180865 0.72755
0.793484 0.180865 0.72755
0 0.0822614 0.432654
0 0.0822614 0.432654
0.537545 0.125505 0.710506
0.793484 0.180865 0.72755
0.793484 0.180865 0.72755
0.00418097 0.380987 0.495613
0.0330205 0.428702 0.510201
0.182025 0.368292 0.547936
0.825071 0.319478 0.759152
0.816922 0.281239 0.750759
0.355886 0.861692 0.862409
0.370596 0.891112 0.875929
0.343145 0.836072 0.849836
0.756771 0.803525 0.854887
0.941588 0.769528 0.887587
0.378805 0.907118 0.882948
0.378805 0.907118 0.882948
0.378805 0.907118 0.882948
0.718929 0.936797 0.917235
0.999847 0.98233 0.953246
