LUT预设1/LUT全系打包/电影感系列lut/电影感各机型log灰片/WARM暖调.cube
TITLE "Generated by Resolve"
LUT_3D_SIZE 5
0.0167849 0.0120699 0.012314
0.0485847 0.0183261 0.0198825
0.52607 0.0913863 0.0451057
0.921935 0.165057 0.0658579
0.932784 0.165774 0.0663767
0.0248722 0.0338293 0.0343328
0.0340734 0.0355688 0.0307164
0.546059 0.0976577 0.0462959
0.931456 0.165713 0.0663005
0.932784 0.165774 0.0663767
0.0295567 0.329183 0.277684
0.0299687 0.36025 0.299474
0.342916 0.3691 0.16466
0.93959 0.40322 0.178805
0.983383 0.38024 0.161227
0.0437018 0.694316 0.42887
0.046128 0.716579 0.43331
0.22002 0.680903 0.41004
0.743374 0.709148 0.336828
1 0.760983 0.408438
0.0501717 0.797192 0.448783
0.0501717 0.797192 0.448783
0.144442 0.795911 0.441382
0.608057 0.874754 0.414389
0.965759 0.901183 0.417212
0.0186313 0.0258183 0.0409857
0.0608072 0.02533 0.0654765
0.532296 0.0917067 0.045594
0.925093 0.165301 0.0659953
0.932784 0.165774 0.0663767
0.0213169 0.0449836 0.0475624
0.0312657 0.0442817 0.0468147
0.566964 0.100755 0.0474708
0.932448 0.165698 0.0663462
0.932784 0.165774 0.0663767
0.0297246 0.341268 0.286397
0.0301823 0.374334 0.308782
0.357198 0.381704 0.171679
0.953063 0.412299 0.184115
0.985275 0.388159 0.16669
0.0448157 0.704204 0.430884
0.0468757 0.724437 0.434821
0.222644 0.689494 0.411994
0.751369 0.716121 0.339544
1 0.765805 0.410101
0.0501717 0.797192 0.448783
0.0501717 0.797192 0.448783
0.146578 0.796063 0.441245
0.613169 0.875288 0.413993
0.965759 0.901183 0.417212
0 0.298695 0.330495
0 0.305364 0.336004
0.541222 0.1935 0.499855
0.955154 0.13695 0.387457
0.965072 0.115251 0.338857
0 0.302754 0.33518
0 0.317678 0.350805
0.598596 0.215503 0.547066
0.978439 0.176455 0.475624
0.977188 0.171801 0.465446
0.0293278 0.416999 0.428321
0.0296483 0.45716 0.466636
0.379339 0.407034 0.411063
0.964279 0.393606 0.380285
1 0.356695 0.340429
0.0435035 0.735851 0.494545
0.0445411 0.761563 0.506874
0.182589 0.70518 0.468193
0.736812 0.706249 0.386236
1 0.761105 0.446754
0.0459907 0.82536 0.493477
0.0459602 0.828412 0.498772
0.120974 0.817273 0.478431
0.589288 0.886213 0.447456
0.97229 0.908583 0.433524
0 0.470405 0.519631
0 0.470253 0.519387
0.438895 0.39791 0.863737
0.989776 0.355474 0.851148
0.995239 0.343084 0.820966
0 0.470695 0.519936
0 0.470893 0.520058
0.562005 0.379538 0.872602
0.994553 0.363317 0.87248
0.994553 0.363043 0.871748
0 0.583459 0.662638
0 0.608499 0.693889
0.204181 0.580224 0.641001
0.945281 0.468452 0.823423
0.996414 0.442542 0.790311
0.0451057 0.835752 0.799802
0.0445258 0.860624 0.823606
0.0902571 0.799847 0.766415
0.763745 0.753719 0.730968
1 0.767697 0.74725
0.0441749 0.92256 0.729442
0.0438544 0.926467 0.744305
0.0603952 0.91368 0.700648
0.59086 0.954681 0.68983
1 0.96669 0.612558
0 0.470405 0.519631
0 0.470405 0.519631
0.372351 0.411994 0.847318
0.976928 0.364096 0.873472
0.994553 0.363333 0.872541
0 0.470451 0.519692
0 0.47068 0.519875
0.552483 0.380667 0.87245
0.994537 0.363394 0.872663
0.994553 0.363333 0.872541
0 0.586404 0.664225
0 0.608499 0.693233
0.194553 0.584695 0.649332
0.931289 0.48127 0.878172
0.995163 0.463325 0.876219
0.0395209 0.854566 0.90518
0.0407874 0.871916 0.907713
0.0868086 0.824063 0.894591
0.674479 0.79852 0.880293
0.997787 0.740429 0.919982
0.0390021 0.956756 0.899702
0.0390021 0.956756 0.899702
0.0467994 0.955581 0.89897
0.492653 0.983139 0.93933
0.999969 0.993301 0.958358
