LUT预设1/LUT全系打包/电影感系列lut/电影感各机型log灰片/柯达2383.cube
TITLE "Generated by Resolve"
LUT_3D_SIZE 33
0.0426642 0.0436255 0.0532998
0.0459449 0.0449073 0.0548867
0.0528878 0.0468147 0.0562448
0.0581369 0.049424 0.0571603
0.0784314 0.0539559 0.0579538
0.101717 0.0605783 0.0588083
0.148165 0.0690776 0.0598611
0.202976 0.0796674 0.060502
0.268666 0.0869001 0.0614328
0.346609 0.090898 0.062623
0.414923 0.0906844 0.0645762
0.474952 0.0838941 0.0681315
0.522622 0.0737469 0.0715343
0.556359 0.0599374 0.0738537
0.581323 0.0450904 0.0756542
0.598459 0.0293278 0.0771038
0.610849 0.00276188 0.0783093
0.619394 0 0.0794385
0.625589 0 0.0803082
0.625589 0 0.0803082
0.625589 0 0.0803082
0.625589 0 0.0803082
0.625589 0 0.0803082
0.625589 0 0.0803082
0.625589 0 0.0803082
0.625589 0 0.0803082
0.625589 0 0.0803082
0.625589 0 0.0803082
0.625589 0 0.0803082
0.625589 0 0.0803082
0.625589 0 0.0803082
0.625589 0 0.0803082
0.625589 0 0.0803082
0.0439765 0.0460212 0.054612
0.0459144 0.0465095 0.0553292
0.0503853 0.0475929 0.0565652
0.0561685 0.0496071 0.0574655
0.0688029 0.0527657 0.0580911
0.0936599 0.0584115 0.0586862
0.125765 0.0654307 0.059617
0.181262 0.0756085 0.0603342
0.240726 0.0846723 0.0610666
0.316136 0.0894789 0.0619821
0.389944 0.0914015 0.0635538
0.452506 0.0873579 0.0665599
0.506218 0.0782483 0.0703441
0.54432 0.0654002 0.0730602
0.572381 0.0515145 0.0749523
0.592523 0.0343633 0.076585
0.60647 0.00888075 0.077821
0.61648 0 0.0790265
0.623667 0 0.0800488
0.625589 0 0.0803082
0.625589 0 0.0803082
0.625589 0 0.0803082
0.625589 0 0.0803082
0.625589 0 0.0803082
0.625589 0 0.0803082
0.625589 0 0.0803082
0.625589 0 0.0803082
0.625589 0 0.0803082
0.625589 0 0.0803082
0.625589 0 0.0803082
0.625589 0 0.0803082
0.625589 0 0.0803082
0.625589 0 0.0803082
0.0453803 0.0489967 0.0560159
0.0458534 0.0485695 0.0560464
0.0486152 0.0490578 0.0571603
0.0558633 0.0505684 0.0581521
0.0615396 0.0530251 0.0589151
0.0866712 0.0582132 0.0595712
0.113481 0.0652781 0.0603189
0.165728 0.0746471 0.0610361
0.221286 0.0844587 0.061387
0.291356 0.0902571 0.0623026
0.367163 0.0930037 0.0634012
0.431373 0.0907454 0.0655375
0.487907 0.0822614 0.0690623
0.531121 0.0710155 0.0721599
0.562417 0.0571756 0.0742351
0.585458 0.0410925 0.0760052
0.60145 0.023331 0.0773632
0.613214 0 0.078584
0.620905 0 0.0796521
0.625589 0 0.0803082
0.625589 0 0.0803082
0.625589 0 0.0803082
0.625589 0 0.0803082
0.625589 0 0.0803082
0.625589 0 0.0803082
0.625589 0 0.0803082
0.625589 0 0.0803082
0.625589 0 0.0803082
0.625589 0 0.0803082
0.625589 0 0.0803082
0.625589 0 0.0803082
0.625589 0 0.0803082
0.625589 0 0.0803082
0.0461738 0.0543221 0.0581979
0.0461128 0.0534066 0.0578012
0.0482338 0.053254 0.0584726
0.0531777 0.0536965 0.0593271
0.0580148 0.0551003 0.0599985
0.0779736 0.0590219 0.0607156
0.10399 0.065568 0.0612497
0.147585 0.0744945 0.0619974
0.206088 0.0839704 0.062501
0.270146 0.0919203 0.0630503
0.348943 0.0961471 0.0639658
0.419135 0.0965896 0.0657206
0.478981 0.0905928 0.0690166
0.527871 0.0812085 0.0724498
0.561135 0.069398 0.0745861
0.584588 0.0556954 0.076173
0.600687 0.0414893 0.0773785
0.611688 0.0179446 0.0783703
0.619181 0.00521859 0.0793469
0.625223 0 0.0802625
0.625589 0 0.0803082
0.625589 0 0.0803082
0.625589 0 0.0803082
0.625589 0 0.0803082
0.625589 0 0.0803082
0.625589 0 0.0803082
0.625589 0 0.0803082
0.625589 0 0.0803082
0.625589 0 0.0803082
0.625589 0 0.0803082
0.625589 0 0.0803082
0.625589 0 0.0803082
0.625589 0 0.0803082
0.0470741 0.0588388 0.0609903
0.0471199 0.0576791 0.0604562
0.0483558 0.0574655 0.0605478
0.0513619 0.0577859 0.0612955
0.057496 0.0593423 0.0619669
0.0675669 0.0626383 0.0626535
0.0978408 0.0687114 0.0630808
0.130831 0.0771191 0.0636454
0.190066 0.0860304 0.0640116
0.252369 0.0954757 0.064332
0.328191 0.101152 0.0651102
0.405386 0.102968 0.0663157
0.468452 0.0996109 0.0689555
0.522835 0.0905928 0.0726024
0.561318 0.0809033 0.0752728
0.587839 0.0688182 0.0769055
0.606134 0.0586862 0.0781109
0.618082 0.0527504 0.079057
0.626474 0.0486152 0.079881
0.631937 0.047776 0.0806592
0.633356 0.0457923 0.0809186
0.631724 0.0361334 0.0807965
0.630076 0.0264744 0.0806592
0.628473 0.0169985 0.0805371
0.626825 0.00733959 0.080415
0.625589 0 0.0803082
0.625589 0 0.0803082
0.625589 0 0.0803082
0.625589 0 0.0803082
0.625589 0 0.0803082
0.625589 0 0.0803082
0.625589 0 0.0803082
0.625589 0 0.0803082
0.0443427 0.0695811 0.0648661
0.0453956 0.0669718 0.0641031
0.0466316 0.0644083 0.063386
0.0501717 0.0635386 0.0639353
0.0569009 0.0643015 0.0645457
0.0634775 0.0666056 0.0651255
0.0897688 0.0714427 0.0656138
0.117433 0.0793164 0.0659953
0.172519 0.088304 0.0663462
0.23595 0.0995956 0.066453
0.307942 0.107637 0.0669718
0.389273 0.111284 0.0677195
0.458305 0.111315 0.069276
0.516991 0.105104 0.0729229
0.561364 0.0962387 0.0759594
0.590936 0.0863203 0.0777295
0.611627 0.0770123 0.0789044
0.624933 0.0712596 0.0798505
0.633951 0.0678874 0.0806439
0.639796 0.0666514 0.0813611
0.643488 0.065507 0.0818952
0.641718 0.0618143 0.0817121
0.64004 0.0585031 0.0815442
0.638437 0.0554513 0.0813916
0.636866 0.0524605 0.0812543
0.635264 0.0494087 0.0811017
0.633661 0.0463569 0.0809491
0.632029 0.0379187 0.0808118
0.630411 0.0284428 0.0806897
0.628779 0.0187839 0.0805676
0.627131 0.0091249 0.0804303
0.625589 0 0.0803082
0.625589 0 0.0803082
0.038117 0.0853895 0.0699626
0.0390936 0.0828565 0.0690929
0.0400702 0.0803235 0.0682383
0.0443275 0.0785077 0.0681163
0.0517586 0.0773938 0.0684062
0.0596475 0.0781109 0.0687724
0.0796216 0.0807507 0.0690471
0.110918 0.0865644 0.0692912
0.153124 0.0942092 0.0693828
0.219684 0.10428 0.0694285
0.28864 0.114107 0.0693523
0.370596 0.119707 0.0700542
0.447791 0.12166 0.0712749
0.509896 0.117891 0.07364
0.561135 0.111086 0.0767376
0.59472 0.104189 0.078645
0.617716 0.0971542 0.0799268
0.633295 0.0925307 0.0809339
0.643015 0.0907454 0.0816815
0.649546 0.0899214 0.0823529
0.653895 0.0897536 0.082948
0.653269 0.0861677 0.0829175
0.651164 0.0816052 0.0826886
0.649104 0.0771801 0.0824598
0.647334 0.0735027 0.0822766
0.645594 0.0698711 0.0821088
0.643824 0.0661936 0.0819257
0.642054 0.062501 0.0817426
0.640345 0.0590677 0.0815747
0.638773 0.0560769 0.0814221
0.637171 0.0530251 0.0812695
0.635554 0.0499733 0.0811322
0.633951 0.0469215 0.0809796
0.0249638 0.101244 0.0760815
0.0287022 0.0981918 0.0750134
0.0307164 0.0957351 0.0740215
0.0344701 0.0936141 0.0733349
0.0423133 0.0923934 0.0735332
0.0555734 0.0928206 0.0737621
0.0666819 0.0948806 0.073991
0.103532 0.100343 0.0741131
0.138842 0.108309 0.0739605
0.203098 0.117845 0.0736706
0.27129 0.128328 0.0728771
0.351339 0.135271 0.0730449
0.435172 0.138628 0.0737163
0.502815 0.137346 0.0752575
0.559152 0.130449 0.0776684
0.598962 0.122332 0.0796216
0.624292 0.116014 0.0810712
0.642039 0.111727 0.0821088
0.653269 0.110094 0.0829175
0.660761 0.109483 0.0836194
0.665171 0.110231 0.0843824
0.666835 0.109773 0.0846113
0.664576 0.10663 0.0842908
0.662287 0.103426 0.0839857
0.659998 0.100221 0.0836652
0.657847 0.0960403 0.0834058
0.655772 0.0915694 0.0831769
0.653666 0.0870069 0.082948
0.651545 0.0824598 0.0827192
0.649439 0.0778973 0.0824903
0.647684 0.0742504 0.0823224
0.645914 0.0705577 0.0821393
0.644144 0.066865 0.0819562
0 0.12755 0.083711
0 0.122332 0.0823224
0.000534066 0.117174 0.0809339
0.00637827 0.113359 0.0797742
0.0169833 0.110567 0.0793774
0.0428473 0.108995 0.0793774
0.0595865 0.109575 0.0796216
0.0923323 0.113176 0.0797742
0.128496 0.121798 0.0796674
0.184543 0.131853 0.0791638
0.256733 0.143374 0.0782177
0.332723 0.153521 0.0773632
0.420859 0.159533 0.0772259
0.496376 0.161898 0.0777752
0.556954 0.158526 0.0793164
0.603647 0.152316 0.0809796
0.632883 0.145708 0.0822919
0.652247 0.139742 0.0834516
0.665202 0.136446 0.0842451
0.673442 0.134768 0.084947
0.678584 0.13431 0.0857099
0.682063 0.134279 0.0863813
0.679622 0.130175 0.0861067
0.677073 0.125948 0.085832
0.67454 0.121721 0.0855573
0.672007 0.117494 0.0852827
0.669535 0.113573 0.0849775
0.667292 0.11043 0.0846723
0.665003 0.107225 0.0843519
0.662715 0.104021 0.0840314
0.660426 0.100816 0.0837262
0.658274 0.0969711 0.0834516
0.656153 0.0924086 0.0832227
0 0.160418 0.0927443
0 0.155077 0.0912337
0 0.149828 0.0897536
0 0.144472 0.0882277
3.0518e-05 0.139925 0.087068
0.00701915 0.136187 0.0862287
0.0370031 0.135103 0.085832
0.0717784 0.136446 0.0859541
0.119509 0.141726 0.085771
0.165942 0.151232 0.0851911
0.240696 0.161959 0.0839246
0.316625 0.172686 0.0823377
0.403449 0.180346 0.0813764
0.489723 0.185122 0.0810254
0.554788 0.18529 0.0818036
0.607919 0.181338 0.0833143
0.642924 0.176425 0.0843519
0.664729 0.171115 0.08542
0.679469 0.168124 0.0859846
0.688548 0.167239 0.0865492
0.694545 0.166751 0.087129
0.698024 0.167086 0.0878309
0.697322 0.163684 0.087953
0.694316 0.158053 0.0876478
0.691386 0.152361 0.0873426
0.688472 0.14667 0.0870375
0.685542 0.140978 0.0867475
0.682673 0.135393 0.0864424
0.680079 0.130953 0.0861677
0.677546 0.126726 0.0858778
0.675013 0.122499 0.0856031
0.67248 0.118288 0.0853285
0.670008 0.114229 0.0850538
0 0.193881 0.102449
0 0.188418 0.100847
0 0.182971 0.0992599
0 0.17763 0.0977035
0 0.172396 0.0961776
0 0.16907 0.0953536
0.00334173 0.167056 0.0938125
0.0277256 0.167987 0.0929427
0.102647 0.173205 0.0925765
0.14934 0.182345 0.0916457
0.222004 0.192767 0.0902113
0.301457 0.20415 0.0878004
0.386297 0.212696 0.0858015
0.478279 0.218402 0.0846418
0.552697 0.219318 0.0842756
0.611429 0.215656 0.0854963
0.65333 0.210559 0.0867628
0.678737 0.204501 0.0873884
0.695384 0.199527 0.0884108
0.70573 0.197086 0.0887312
0.712505 0.197955 0.0891737
0.716533 0.199359 0.0898451
0.718273 0.199176 0.0901198
0.714672 0.193561 0.0896468
0.711192 0.188022 0.0892195
0.707881 0.182208 0.0889143
0.70457 0.176394 0.0886091
0.701259 0.170581 0.088304
0.698009 0.164858 0.088014
0.69485 0.159106 0.0877089
0.691936 0.153414 0.0874037
0.689006 0.147723 0.0870985
0.686137 0.142138 0.0868086
0 0.231617 0.110887
0 0.225025 0.109621
0 0.218799 0.108278
0 0.212818 0.106874
0 0.206943 0.105501
0 0.202976 0.104585
0 0.200107 0.103655
0 0.200687 0.102083
0.0607004 0.204578 0.100282
0.135424 0.214557 0.0991531
0.199786 0.226963 0.0974441
0.285725 0.239841 0.0942092
0.370275 0.25185 0.0904555
0.464515 0.259998 0.0881819
0.549676 0.264454 0.0866255
0.61384 0.262913 0.0868086
0.663951 0.257542 0.087541
0.694118 0.250797 0.0886244
0.712932 0.243809 0.089189
0.725063 0.239078 0.090135
0.732113 0.236301 0.0906233
0.737011 0.236118 0.0913863
0.740169 0.236973 0.0923018
0.737545 0.231296 0.092195
0.733654 0.224262 0.0918898
0.729839 0.217365 0.0915847
0.726162 0.211414 0.0911574
0.72256 0.205814 0.0906844
0.718944 0.200214 0.0902113
0.715404 0.194705 0.0897383
0.711803 0.189105 0.0892653
0.708492 0.183291 0.0889601
0.70518 0.177462 0.0886702
0 0.272862 0.118853
0 0.266056 0.11754
0 0.259266 0.116243
0 0.252491 0.114931
0 0.245899 0.113664
0 0.240589 0.112642
0 0.237446 0.11191
0 0.236774 0.110536
0.000991836 0.239322 0.108904
0.105455 0.248005 0.106508
0.177264 0.261845 0.104692
0.265705 0.276371 0.101534
0.354513 0.290822 0.0962539
0.4486 0.301885 0.0921798
0.543618 0.309453 0.0892805
0.6159 0.311254 0.0879683
0.672374 0.307454 0.0877699
0.710628 0.301808 0.0884871
0.732265 0.294804 0.0890822
0.746334 0.289509 0.0899062
0.754376 0.286259 0.090425
0.75967 0.284733 0.0908675
0.762676 0.284657 0.0919814
0.76257 0.280705 0.0926833
0.758404 0.272023 0.0927596
0.754223 0.263325 0.0928511
0.750134 0.25481 0.0929274
0.746044 0.246662 0.0928664
0.742153 0.239628 0.0925612
0.738262 0.232593 0.092256
0.734447 0.225696 0.0919509
0.730556 0.218662 0.0916457
0.726833 0.212451 0.091249
0 0.31249 0.127138
0 0.30631 0.125795
0 0.300023 0.124437
0 0.293736 0.123064
0 0.287449 0.121691
0 0.280919 0.120394
0 0.278065 0.120089
0 0.277058 0.119081
0 0.279973 0.117479
0.0441291 0.285847 0.113649
0.150698 0.300374 0.111315
0.239353 0.316823 0.108034
0.336065 0.333669 0.102663
0.43061 0.347814 0.0959793
0.53228 0.357504 0.0914473
0.615702 0.362509 0.0881514
0.678645 0.360601 0.0867933
0.72488 0.355047 0.0865644
0.752316 0.347814 0.0875715
0.76878 0.340978 0.0882734
0.778546 0.33727 0.0892195
0.784176 0.335286 0.089601
0.787839 0.335409 0.0904097
0.789975 0.335286 0.0916304
0.785428 0.32636 0.0919051
0.780941 0.317479 0.0920729
0.776455 0.308614 0.0922408
0.772045 0.299901 0.0924086
0.767559 0.29102 0.0925765
0.763348 0.282322 0.092668
0.759167 0.273625 0.0927443
0.755077 0.265095 0.0928206
0.750896 0.256413 0.0929122
0 0.345785 0.133532
0 0.340719 0.132631
0 0.335439 0.131624
0 0.330053 0.130587
0 0.324681 0.129549
0 0.319295 0.128527
0 0.316548 0.127977
0 0.315618 0.12755
0 0.319188 0.125963
0.00610361 0.326467 0.123156
0.110201 0.339712 0.118181
0.206744 0.358999 0.114656
0.312718 0.378759 0.108644
0.411612 0.397589 0.100526
0.514 0.410941 0.0924239
0.611902 0.419821 0.0863813
0.6822 0.420905 0.0828717
0.736431 0.416251 0.0813153
0.770657 0.408896 0.0816052
0.790524 0.400092 0.083299
0.803067 0.393393 0.0850233
0.80943 0.389944 0.0855421
0.813657 0.388525 0.0863661
0.81619 0.388724 0.087541
0.814023 0.382422 0.0886244
0.809384 0.37293 0.0895399
0.80473 0.363897 0.0900435
0.800153 0.355032 0.0905318
0.795499 0.345998 0.0910353
0.790845 0.336965 0.0915389
0.786267 0.328008 0.0918746
0.781781 0.319127 0.0920424
0.777371 0.310414 0.0922103
0 0.375952 0.138643
0 0.371298 0.137896
0 0.366644 0.137148
0 0.361837 0.136324
0 0.356802 0.135454
0 0.351751 0.134569
0 0.347555 0.133822
0 0.348379 0.133989
0 0.351919 0.132906
0 0.360525 0.131258
0.0340124 0.373358 0.125582
0.169665 0.394675 0.120943
0.282139 0.41854 0.114992
0.38941 0.442679 0.105776
0.493614 0.461982 0.0943618
0.59968 0.475929 0.0839704
0.682811 0.483101 0.0755932
0.745464 0.481941 0.0706645
0.787808 0.475883 0.0691234
0.811841 0.466529 0.0709697
0.826719 0.458335 0.0737926
0.835035 0.452705 0.076173
0.839658 0.448829 0.0776684
0.842237 0.447242 0.0788586
0.842634 0.443778 0.080293
0.837995 0.43328 0.0822003
0.833356 0.422797 0.0840925
0.828717 0.412985 0.0852979
0.82417 0.40351 0.0863355
0.819532 0.393866 0.0873732
0.814893 0.384222 0.088426
0.810239 0.374594 0.0894484
0.805676 0.365728 0.0899367
0 0.40148 0.142931
0 0.397665 0.14226
0 0.393851 0.141604
0 0.390036 0.140948
0 0.38613 0.140276
0 0.381476 0.139528
0 0.376822 0.138781
0 0.377401 0.138735
0 0.380682 0.138415
0 0.389349 0.136873
0 0.401984 0.132616
0.11545 0.422004 0.126162
0.242267 0.448356 0.120043
0.360937 0.476417 0.110735
0.468696 0.502617 0.0974594
0.579355 0.522118 0.0823529
0.676402 0.535821 0.0655833
0.747616 0.540673 0.050248
0.801404 0.539284 0.0429084
0.831693 0.532021 0.0412757
0.849515 0.523156 0.0445563
0.860502 0.517372 0.0458534
0.866163 0.513283 0.0543832
0.869307 0.510552 0.0618143
0.870695 0.508232 0.0617533
0.86688 0.498756 0.0651865
0.86215 0.487968 0.0691081
0.857404 0.47718 0.0730297
0.852705 0.466499 0.076173
0.848142 0.456199 0.0780346
0.843503 0.445716 0.079942
0.838865 0.435218 0.0818341
0.834211 0.424735 0.0837415
0 0.419486 0.146593
0 0.417014 0.14609
0 0.414191 0.145495
0 0.411368 0.144884
0 0.408591 0.144305
0 0.405768 0.143694
0 0.402197 0.143053
0 0.401312 0.142657
0 0.405539 0.142702
0 0.414084 0.141238
0 0.427512 0.138949
0.0493172 0.445853 0.130983
0.196765 0.47306 0.124193
0.324575 0.503502 0.114473
0.439765 0.534874 0.10045
0.551705 0.560143 0.0818341
0.660746 0.579232 0.0517739
0.742718 0.590265 0.018143
0.805554 0.59321 0.00030518
0.847105 0.590768 0.000915541
0.86952 0.583001 0.00428778
0.883436 0.576867 0.00691234
0.890806 0.572793 0.00645457
0.895003 0.569924 0.00865187
0.896819 0.568368 0.0100099
0.895445 0.5626 0.0170443
0.890929 0.552621 0.0267643
0.886336 0.542458 0.0366674
0.881743 0.53228 0.0465705
0.87715 0.522118 0.0564736
0.872496 0.511559 0.0605478
0.867765 0.500755 0.0644694
0.86302 0.489967 0.0683909
0 0.43151 0.148836
0 0.429877 0.148577
0 0.428183 0.148287
0 0.426093 0.14789
0 0.424002 0.147478
0 0.421958 0.147082
0 0.419867 0.14667
0 0.417533 0.146197
0 0.423301 0.146288
0 0.431601 0.145205
0 0.445319 0.142824
0.00450141 0.463813 0.136767
0.142367 0.490669 0.128481
0.28101 0.522972 0.118746
0.405661 0.558083 0.103807
0.520043 0.58996 0.081239
0.636225 0.615625 0.0381628
0.731823 0.634363 0.00144961
0.803952 0.643214 3.0518e-05
0.855711 0.644923 0
0.885649 0.640604 0
0.903456 0.634119 0
0.913359 0.629419 1.5259e-05
0.918379 0.625391 0
0.920775 0.622461 0
0.921736 0.619745 0
0.91783 0.610986 0.000579843
0.913558 0.601785 0.00267033
0.909285 0.592584 0.00474556
0.905013 0.583398 0.00683604
0.90074 0.574197 0.00892653
0.896376 0.56466 0.0150149
0.891783 0.554498 0.024918
0 0.441077 0.150683
0 0.439628 0.150362
0 0.438193 0.150042
0 0.436744 0.149722
0 0.435157 0.149447
0 0.433494 0.149172
0 0.431861 0.148898
0 0.430198 0.148623
0 0.434394 0.148394
0 0.442435 0.147936
0 0.455695 0.145983
0 0.473548 0.141741
0.0649119 0.498344 0.132265
0.232502 0.532403 0.123781
0.36585 0.569314 0.109712
0.484886 0.606668 0.0864729
0.602228 0.637827 0.0396277
0.712901 0.6654 0
0.794675 0.682322 0
0.856886 0.689372 0
0.895872 0.690089 0
0.918425 0.686107 0
0.932555 0.682536 0
0.939116 0.67866 0
0.942336 0.674571 0
0.943374 0.671168 0
0.941329 0.664576 0
0.937926 0.656565 0
0.934096 0.647837 0
0.93022 0.639017 0
0.926345 0.630198 0
0.92253 0.621546 0
0.918608 0.612696 0.000198367
0 0.448768 0.152941
0 0.447578 0.15256
0 0.446387 0.152178
0 0.445228 0.151812
0 0.444038 0.151431
0 0.442786 0.151064
0 0.441337 0.150744
0 0.439918 0.150423
0 0.440513 0.150118
0 0.449851 0.150011
0 0.462104 0.148638
0 0.478828 0.14551
0.023209 0.501244 0.136904
0.181216 0.533394 0.128191
0.320699 0.570947 0.115755
0.445624 0.611643 0.0946059
0.563424 0.647349 0.0530404
0.68162 0.679637 0
0.776028 0.704433 0
0.84889 0.718791 0
0.8981 0.724926 0
0.926986 0.724895 0
0.945098 0.72311 0
0.955139 0.721386 0
0.960464 0.719265 0
0.961715 0.715694 0
0.961456 0.711406 0
0.958495 0.704631 0
0.955581 0.697963 0
0.952407 0.690593 0
0.948928 0.682429 0
0.945449 0.674266 0
0.942046 0.666239 0
0 0.455009 0.155917
0 0.453941 0.155398
0 0.452918 0.15491
0 0.451911 0.154437
0 0.450935 0.153979
0 0.449943 0.153506
0 0.448951 0.153033
0 0.447791 0.152636
0 0.446632 0.152255
0 0.455268 0.152041
0 0.467033 0.151324
0 0.482765 0.148699
0 0.50277 0.141848
0.12195 0.531624 0.132372
0.272572 0.568307 0.122026
0.403571 0.608927 0.104402
0.522026 0.649119 0.072221
0.643275 0.684276 0.00894179
0.749859 0.714992 0
0.830152 0.734691 0
0.891478 0.746502 0
0.928679 0.751263 0
0.951125 0.751415 0
0.964843 0.750957 0
0.972015 0.749859 0
0.975814 0.748638 0
0.976913 0.746395 0
0.974884 0.741512 0
0.972549 0.736385 0
0.97026 0.73135 0
0.96791 0.726238 0
0.964965 0.719448 0
0.962005 0.712657 0
0 0.462654 0.160037
0 0.461204 0.159197
0 0.45977 0.158373
0 0.458396 0.15758
0 0.457343 0.157061
0 0.456275 0.156542
0 0.455207 0.156024
0 0.454139 0.155489
0 0.453101 0.154986
0 0.457801 0.154391
0 0.470405 0.153597
0 0.485588 0.150973
0 0.503883 0.146395
0.0706798 0.52903 0.136782
0.228122 0.56405 0.128099
0.360662 0.603479 0.113146
0.481865 0.64535 0.0862745
0.600565 0.682841 0.0275425
0.718166 0.718318 0
0.80679 0.743313 0
0.876143 0.758953 0
0.923476 0.768277 0
0.952132 0.771725 0
0.969787 0.772595 0
0.979171 0.772244 0
0.984619 0.771511 0
0.98677 0.770428 0
0.986862 0.768032 0
0.985077 0.764065 0
0.983291 0.760082 0
0.981552 0.756191 0
0.979767 0.752224 0
0.977661 0.747585 0
0 0.472602 0.166262
0 0.470924 0.165194
0 0.46923 0.164111
0 0.467536 0.163012
0 0.465843 0.161929
0 0.464347 0.161028
0 0.462913 0.160189
0 0.461479 0.159365
0 0.460044 0.158526
0 0.458701 0.157702
0 0.473045 0.156466
0 0.487846 0.154009
0 0.505089 0.150042
0.0172885 0.526589 0.142092
0.190082 0.558419 0.133211
0.318776 0.596201 0.121279
0.442206 0.637903 0.0999313
0.559014 0.677607 0.0578012
0.679591 0.714946 0
0.77995 0.745983 0
0.856275 0.765606 0
0.912688 0.778317 0
0.948119 0.785092 0
0.970855 0.788235 0
0.983459 0.789166 0
0.990372 0.788846 0
0.993774 0.788174 0
0.995178 0.78703 0
0.994125 0.784527 0
0.992767 0.78143 0
0.991379 0.778286 0
0.990021 0.775189 0
0.988647 0.772045 0
0 0.483574 0.173938
0 0.481834 0.172717
0 0.480064 0.171481
0 0.478279 0.170214
0 0.476478 0.168948
0 0.474678 0.167681
0 0.472938 0.166491
0 0.471244 0.165393
0 0.469551 0.164309
0 0.467842 0.16321
0 0.476936 0.161181
0 0.492042 0.158999
0 0.508568 0.155245
0.0113375 0.527291 0.148791
0.153017 0.554482 0.139635
0.281666 0.589578 0.130175
0.404776 0.629129 0.113237
0.519966 0.669917 0.0842908
0.636851 0.706844 0.0217288
0.748012 0.741878 0
0.832105 0.76672 0
0.897169 0.782574 0
0.940108 0.792493 0
0.967483 0.79762 0
0.984848 0.800549 0
0.993835 0.801465 0
0.998383 0.801175 0
0.999313 0.800168 0
0.999329 0.798657 0
0.99913 0.797009 0
0.99852 0.794949 0
0.997482 0.792493 0
0.996429 0.78999 0
0 0.490166 0.178561
0 0.490166 0.178561
0 0.490166 0.178561
0 0.489113 0.177813
0 0.487373 0.176593
0 0.485634 0.175387
0 0.483894 0.174166
0 0.482185 0.172961
0 0.4804 0.17171
0 0.478599 0.170443
0 0.481224 0.16878
0 0.49839 0.166079
0 0.514961 0.16199
0.000747692 0.531609 0.156939
0.133333 0.554635 0.149462
0.259785 0.586465 0.140841
0.372412 0.622507 0.128359
0.486 0.662547 0.107103
0.597574 0.69929 0.0682841
0.710948 0.734066 0.00578317
0.803494 0.762921 0
0.876432 0.782452 0
0.928283 0.795453 0
0.960723 0.802579 0
0.982254 0.806851 0
0.994369 0.808942 0
1 0.809415 0
1 0.808164 0
1 0.807111 0
1 0.806043 0
1 0.804974 0
0.999985 0.803861 0
0.999786 0.802243 0
0 0.490166 0.178561
0 0.490166 0.178561
0 0.490166 0.178561
0 0.490166 0.178561
0 0.490166 0.178561
0 0.490166 0.178561
0 0.490166 0.178561
0 0.490166 0.178561
0 0.490166 0.178561
0 0.489433 0.178042
0 0.487694 0.176822
0 0.5037 0.1738
0 0.521843 0.169894
0.00205997 0.538399 0.165164
0.124575 0.557595 0.159487
0.248692 0.585962 0.15317
0.348318 0.619074 0.143267
0.457954 0.656031 0.128099
0.564721 0.693339 0.105348
0.674525 0.726421 0.0616007
0.772931 0.756436 0.00624094
0.850935 0.779065 1.5259e-05
0.911727 0.794934 0
0.9514 0.804974 0
0.976867 0.810407 0
0.99266 0.813642 0
0.999725 0.81445 0
1 0.813291 0
1 0.812482 0
1 0.811704 0
1 0.81091 0
1 0.810117 0
1 0.809339 0
0 0.490166 0.178561
0 0.490166 0.178561
0 0.490166 0.178561
0 0.490166 0.178561
0 0.490166 0.178561
0 0.490166 0.178561
0 0.490166 0.178561
0 0.490166 0.178561
0 0.490166 0.178561
