LUT预设1/LUT全系打包/电影感系列lut/电影感各机型log灰片/柯达2383.cube
TITLE "Generated by Resolve"
LUT_3D_SIZE 9
0.0426642 0.0436255 0.0532998
0.0784314 0.0539559 0.0579538
0.268666 0.0869001 0.0614328
0.522622 0.0737469 0.0715343
0.610849 0.00276188 0.0783093
0.625589 0 0.0803082
0.625589 0 0.0803082
0.625589 0 0.0803082
0.625589 0 0.0803082
0.0470741 0.0588388 0.0609903
0.057496 0.0593423 0.0619669
0.190066 0.0860304 0.0640116
0.468452 0.0996109 0.0689555
0.606134 0.0586862 0.0781109
0.633356 0.0457923 0.0809186
0.626825 0.00733959 0.080415
0.625589 0 0.0803082
0.625589 0 0.0803082
0 0.12755 0.083711
0.0169833 0.110567 0.0793774
0.128496 0.121798 0.0796674
0.420859 0.159533 0.0772259
0.632883 0.145708 0.0822919
0.678584 0.13431 0.0857099
0.67454 0.121721 0.0855573
0.665003 0.107225 0.0843519
0.656153 0.0924086 0.0832227
0 0.272862 0.118853
0 0.245899 0.113664
0.000991836 0.239322 0.108904
0.354513 0.290822 0.0962539
0.672374 0.307454 0.0877699
0.754376 0.286259 0.090425
0.758404 0.272023 0.0927596
0.742153 0.239628 0.0925612
0.726833 0.212451 0.091249
0 0.40148 0.142931
0 0.38613 0.140276
0 0.380682 0.138415
0.242267 0.448356 0.120043
0.676402 0.535821 0.0655833
0.849515 0.523156 0.0445563
0.870695 0.508232 0.0617533
0.852705 0.466499 0.076173
0.834211 0.424735 0.0837415
0 0.448768 0.152941
0 0.444038 0.151431
0 0.440513 0.150118
0.023209 0.501244 0.136904
0.563424 0.647349 0.0530404
0.8981 0.724926 0
0.960464 0.719265 0
0.955581 0.697963 0
0.942046 0.666239 0
0 0.483574 0.173938
0 0.476478 0.168948
0 0.469551 0.164309
0 0.508568 0.155245
0.404776 0.629129 0.113237
0.832105 0.76672 0
0.984848 0.800549 0
0.999329 0.798657 0
0.996429 0.78999 0
0 0.490166 0.178561
0 0.490166 0.178561
0 0.490166 0.178561
0 0.513252 0.175906
0.296941 0.606683 0.160754
0.709957 0.743618 0.107378
0.956985 0.80975 0
1 0.817761 0
1 0.816495 0
0 0.490166 0.178561
0 0.490166 0.178561
0 0.490166 0.178561
0 0.490166 0.178561
0.105547 0.561532 0.167071
0.548562 0.693324 0.135073
0.893126 0.793957 0.0264591
0.998962 0.820752 0
1 0.818509 0
0.0408637 0.045182 0.0965286
0.0749828 0.0545663 0.0894331
0.266056 0.0877852 0.0835126
0.529854 0.0725414 0.0874342
0.620813 0 0.0921035
0.635187 0 0.0910964
0.632837 0 0.0870069
0.630503 0 0.0842145
0.628168 0 0.0825818
0.0411536 0.0605936 0.0747539
0.0583658 0.0601053 0.0728466
0.181201 0.083772 0.0720531
0.460121 0.0991836 0.0737774
0.603693 0.0562448 0.0806287
0.632334 0.0285039 0.0822766
0.625589 0 0.0803082
0.625589 0 0.0803082
0.625589 0 0.0803082
0 0.121965 0.0864271
0.0246128 0.105669 0.0803388
0.1205 0.115038 0.0787976
0.397452 0.1514 0.0758221
0.621836 0.137652 0.0814221
0.672557 0.12491 0.0850538
0.670222 0.114534 0.0850843
0.661097 0.101762 0.0838178
0.652567 0.0846571 0.0828412
0 0.261143 0.116594
0 0.234668 0.111482
0.00326543 0.2262 0.106798
0.331136 0.273579 0.0958419
0.653834 0.292561 0.0876478
0.74461 0.270558 0.0904097
0.751293 0.257221 0.0928969
0.735531 0.227649 0.0920424
0.720684 0.202899 0.0904402
0 0.39498 0.141802
0 0.378195 0.13901
0 0.369818 0.137057
0.21622 0.430365 0.120943
0.653468 0.517555 0.07364
0.837568 0.504936 0.0570535
0.861295 0.488045 0.0686961
0.844785 0.448631 0.079408
0.826307 0.40798 0.0858473
0 0.446738 0.1523
0 0.441764 0.150835
0 0.435966 0.149569
0.00549325 0.491936 0.138857
0.537484 0.634852 0.0673075
0.885496 0.714092 0
0.953613 0.706294 0
0.949905 0.684703 0
0.935897 0.651926 0
0 0.480568 0.171832
0 0.473411 0.166796
0 0.466651 0.162448
0 0.501396 0.154604
0.376837 0.618219 0.115908
0.815152 0.760037 0
0.980652 0.796872 0
0.998825 0.795697 0
0.994629 0.785733 0
0 0.490166 0.178561
0 0.490166 0.178561
0 0.490166 0.178561
0 0.508919 0.17641
0.278843 0.60029 0.161807
0.688991 0.736919 0.109071
0.951507 0.807965 0
1 0.817563 0
1 0.816007 0
0 0.490166 0.178561
0 0.490166 0.178561
0 0.490166 0.178561
0 0.490166 0.178561
0.0711223 0.556939 0.167742
0.528084 0.68629 0.137865
0.881956 0.791135 0.0395361
0.99762 0.820508 0
1 0.818509 0
0 0 0.29369
0.0487831 0 0.280247
0.26334 0.0421302 0.285496
0.540444 0.00547799 0.274342
0.641474 0 0.254597
0.657069 0 0.231052
0.654307 0 0.200595
0.651789 0 0.175265
0.649454 0 0.155032
0 0.0443275 0.228458
0.0307774 0.053193 0.201511
0.170825 0.0767834 0.192126
0.462043 0.0957351 0.175509
0.617288 0.0273747 0.157214
0.650645 0.00195315 0.149599
0.646418 0 0.131868
0.644068 0 0.115526
0.641688 0 0.103059
0 0.136629 0.187549
0 0.115877 0.157702
0.110918 0.11989 0.141817
0.391516 0.152316 0.128206
0.629984 0.134798 0.11371
0.683223 0.121798 0.107881
0.679988 0.112413 0.103273
0.668376 0.0968643 0.0977646
0.65745 0.0770581 0.0910353
0 0.276692 0.168551
0 0.244175 0.144152
0 0.230091 0.130434
0.320058 0.272053 0.118181
0.648615 0.289143 0.106294
0.745205 0.262592 0.101732
0.751354 0.24918 0.0998093
0.73254 0.21825 0.0954299
0.715099 0.193744 0.0902419
0 0.406195 0.165194
0 0.383886 0.153872
0 0.369589 0.145632
0.193988 0.420569 0.127947
0.630732 0.501549 0.0849165
0.825284 0.486366 0.0661326
0.85182 0.467765 0.0751812
0.836881 0.430762 0.0826581
0.818402 0.391546 0.0876326
0 0.449622 0.159503
0 0.441016 0.153002
0 0.433127 0.149111
0 0.482765 0.140459
0.51133 0.62179 0.0796216
0.872862 0.703273 0
0.946639 0.693065 0
0.943969 0.670787 0
0.92929 0.636896 0
0 0.477501 0.169665
0 0.470527 0.164935
0 0.464012 0.16083
0 0.494301 0.15404
0.348577 0.607233 0.118608
0.798169 0.753384 0
0.975814 0.792615 0
0.997024 0.79144 0
0.992432 0.780682 0
0 0.490166 0.178561
0 0.490166 0.178561
0 0.490166 0.178561
0 0.504585 0.176898
0.260884 0.593927 0.162829
0.665431 0.728817 0.107851
0.944671 0.805829 0
1 0.817227 0
1 0.815473 0
0 0.490166 0.178561
0 0.490166 0.178561
0 0.490166 0.178561
0 0.490166 0.178561
0.0431373 0.553109 0.168582
0.507149 0.678828 0.140642
0.869856 0.788098 0.0502632
0.996292 0.820279 0
1 0.818509 0
0 0 0.471748
0 0 0.474891
0.268528 0 0.506706
0.564324 0 0.52668
0.671687 0 0.519875
0.688563 0 0.50454
0.685252 0 0.478904
0.681453 0 0.452064
0.677821 0 0.423133
0 0 0.452552
0 0 0.429511
0.159396 0 0.435874
0.471687 1.5259e-05 0.44683
0.64007 0 0.431815
0.676295 0 0.413016
0.672679 0 0.381979
0.669154 0 0.350896
0.66569 0 0.319615
0 0.0974441 0.436454
0 0.0725109 0.398093
0.0488899 0.113542 0.383841
0.381369 0.139193 0.386038
0.638575 0.113924 0.358953
0.696849 0.101244 0.328588
0.695705 0.0961929 0.296162
0.68455 0.0728923 0.256947
0.674403 0.0490425 0.220508
0 0.317723 0.429755
0 0.282231 0.385138
0 0.260807 0.350652
0.291005 0.286976 0.327199
0.647425 0.298451 0.294423
0.757763 0.2663 0.253117
0.767514 0.256382 0.227497
0.749859 0.225437 0.194797
0.732952 0.198215 0.167178
0 0.457389 0.368856
0 0.429328 0.325841
0 0.408179 0.289021
0.0614023 0.444984 0.256367
0.623209 0.521904 0.225452
0.840085 0.50341 0.187884
0.867582 0.478645 0.164874
0.851331 0.438911 0.142153
0.829938 0.395621 0.128985
0 0.492317 0.295293
0 0.478706 0.261204
0 0.465537 0.23061
0 0.505089 0.20473
0.49482 0.635615 0.157351
0.871977 0.710643 0.0862287
0.951232 0.695644 0.0566262
0.948226 0.67129 0.0324712
0.930755 0.633219 0.0240482
0 0.508019 0.277256
0 0.49395 0.240391
0 0.481636 0.211658
0 0.502724 0.188602
0.31928 0.607721 0.148241
0.784985 0.751507 0
0.973724 0.791455 0
0.995682 0.787762 0
0.990082 0.775311 0
0 0.509636 0.244388
0 0.504585 0.226551
0 0.499809 0.211017
0 0.50486 0.19472
0.241672 0.587228 0.163577
0.641352 0.720531 0.1075
0.937819 0.803708 0
1 0.81677 0
1 0.814466 0
0 0.493278 0.189609
0 0.490166 0.178561
0 0.490166 0.178561
0 0.490166 0.178561
0.0151522 0.549279 0.169406
0.486152 0.671321 0.14342
0.856596 0.784802 0.0580606
0.99382 0.819669 0
1 0.818509 0
0 0 0.552773
0 0 0.559289
0.268498 0 0.600458
0.584573 0 0.641199
0.697185 0 0.650431
0.716457 0 0.651896
0.7131 0 0.642664
0.709819 0 0.63209
0.707271 0 0.620295
0 0 0.559319
0 0 0.549218
0.126467 0 0.568658
0.479927 0 0.610681
0.662135 0 0.616999
0.704784 0 0.614878
0.70399 0 0.601709
0.700587 0 0.585016
0.697887 0 0.567697
0 0 0.587243
0 0 0.566873
0 0.0109712 0.567987
0.368521 0.0272984 0.604623
0.650477 0 0.610224
0.718563 0 0.593576
0.719631 0 0.569757
0.710872 0 0.537057
0.70164 0 0.504234
0 0.312093 0.652537
0 0.277226 0.621744
0 0.253651 0.600366
0.241032 0.291585 0.606317
0.63769 0.297429 0.609018
0.763302 0.260227 0.573953
0.776745 0.255314 0.546593
0.76054 0.222339 0.501045
0.745007 0.189868 0.45536
0 0.503319 0.662486
0 0.478141 0.628489
0 0.456275 0.596185
0 0.488899 0.586419
0.58854 0.55201 0.578729
0.836103 0.529046 0.53785
0.870237 0.500481 0.497444
0.857755 0.461341 0.451621
0.838834 0.414405 0.401144
0 0.557305 0.604105
0 0.546227 0.56614
0 0.53315 0.526116
0 0.566125 0.505669
0.428611 0.680079 0.484047
0.860395 0.751415 0.446525
0.956329 0.730419 0.395834
0.958038 0.704845 0.354803
0.944183 0.664149 0.306538
0 0.568048 0.551125
0 0.554498 0.505577
0 0.541283 0.459464
0 0.555779 0.421683
0.146563 0.644877 0.382849
0.766522 0.786191 0.33994
0.977707 0.819806 0.281468
1 0.810391 0.238285
1 0.79646 0.190906
0 0.565652 0.482811
0 0.559274 0.452735
0 0.552346 0.422065
0 0.550805 0.393118
0.0381323 0.621057 0.36434
0.611276 0.747494 0.31899
0.936996 0.824826 0.248997
1 0.827146 0.178058
1 0.818601 0.110399
0 0.542977 0.381582
0 0.536309 0.352361
0 0.530098 0.325429
0 0.524392 0.301488
0 0.574334 0.283299
0.45597 0.685527 0.258137
0.848341 0.798352 0.212024
0.994904 0.82919 0.173754
1 0.822751 0.141054
0 0 0.56968
0 0 0.58613
0.269978 0 0.638666
0.600702 0 0.690898
0.725582 0 0.708934
0.745449 0 0.719356
0.745449 0 0.719356
0.745449 0 0.719356
0.742092 0 0.712581
0 0 0.598032
0 0 0.59791
0.124346 0.0420539 0.627726
0.495659 0.0147402 0.683925
0.697963 0.000320439 0.703502
0.738079 0 0.707317
0.735149 0 0.697826
0.73022 0 0.68661
0.725689 0 0.675807
0 0.122362 0.64268
0 0.0613107 0.628244
0 0.103105 0.64268
0.364736 0.160739 0.693355
0.663554 0.0672313 0.713802
0.739544 0.00556954 0.709941
0.744366 1.5259e-05 0.700847
0.737163 0 0.684092
0.728191 0 0.666194
0 0.319738 0.716899
0 0.274754 0.695766
0 0.242084 0.687327
0.188098 0.289754 0.71606
0.623804 0.289662 0.756085
0.766949 0.244617 0.746746
0.785534 0.239368 0.736828
0.770352 0.194034 0.709133
0.755932 0.139269 0.680232
0 0.505486 0.778881
0 0.479973 0.766278
0 0.456031 0.752789
0 0.486641 0.770581
0.541054 0.545815 0.801266
0.823468 0.527199 0.798718
0.866453 0.498817 0.775845
0.857572 0.46566 0.746395
0.840543 0.419181 0.707683
0 0.581216 0.786038
0 0.576211 0.774487
0 0.566995 0.757687
0 0.598795 0.763989
0.309117 0.704906 0.779477
0.831617 0.781247 0.793622
0.944533 0.760311 0.761517
0.94966 0.737148 0.728099
0.937423 0.69691 0.685878
0 0.602136 0.769085
0 0.595544 0.748837
0 0.587716 0.723766
0 0.603937 0.707805
0.00112917 0.695521 0.710201
0.723201 0.832837 0.715496
0.962539 0.871061 0.682567
0.997375 0.865339 0.642786
0.995697 0.848997 0.596216
0 0.610636 0.730068
0 0.607156 0.709255
0 0.604669 0.688228
0 0.601129 0.662089
0 0.670222 0.6533
0.546746 0.790112 0.641352
0.916884 0.872984 0.609628
1 0.879942 0.555596
1 0.868452 0.499794
0 0.598642 0.652522
0 0.593774 0.624216
0 0.587533 0.59501
0 0.5823 0.56669
0 0.627848 0.555184
0.370581 0.726085 0.541329
0.822828 0.841001 0.52697
0.990539 0.872694 0.491264
1 0.86566 0.455451
0 0 0.56968
0 0 0.584421
0.253223 0 0.635172
0.58819 0 0.689387
0.723018 0 0.708247
0.745449 0 0.719356
0.745449 0 0.719356
0.745449 0 0.719356
0.745449 0 0.719356
0 0 0.595392
0 0 0.593927
0.103151 0.0188907 0.620523
0.476478 0.00863661 0.677852
0.692515 0 0.702525
0.742473 0 0.716976
0.745449 0 0.719356
0.745449 0 0.719356
0.745449 0 0.719356
0 0.103517 0.637156
0 0.0432746 0.626307
0 0.113466 0.64921
0.353094 0.207248 0.710262
0.676326 0.205661 0.746349
0.763226 0.192294 0.752316
0.773602 0.202441 0.75465
0.765866 0.174365 0.745403
0.757809 0.140185 0.735759
0 0.331655 0.724056
0 0.300343 0.711269
0 0.281346 0.709819
0.112932 0.337148 0.742687
0.626551 0.364385 0.798383
0.791714 0.340002 0.804303
0.820645 0.350637 0.808759
0.807889 0.312337 0.793683
0.791608 0.260365 0.773663
0 0.507225 0.791455
0 0.484337 0.783627
0 0.464622 0.777905
0 0.494697 0.804211
0.509331 0.556252 0.847974
0.8177 0.542657 0.866957
0.869154 0.508293 0.85864
0.861372 0.47216 0.844724
0.844648 0.420844 0.824033
0 0.58648 0.821042
0 0.579355 0.816724
0 0.57055 0.812161
0 0.598291 0.831189
0.203464 0.694972 0.864836
0.801801 0.772442 0.915297
0.933822 0.752865 0.913741
0.942763 0.732586 0.903502
0.930541 0.693599 0.884581
0 0.608469 0.826642
0 0.603113 0.821027
0 0.598932 0.81561
0 0.616876 0.824704
0 0.706386 0.858305
0.676753 0.844938 0.90544
0.94728 0.891615 0.917418
0.989242 0.889158 0.903487
0.987121 0.87538 0.883162
0 0.62681 0.830976
0 0.625956 0.826825
0 0.624659 0.82089
0 0.62121 0.811978
0 0.689876 0.834073
0.473167 0.810285 0.861875
0.893278 0.903685 0.88217
0.993774 0.919188 0.862821
1 0.914427 0.833204
0 0.622599 0.810895
0 0.621454 0.801968
0 0.620645 0.791623
0 0.619547 0.780011
0 0.663951 0.786923
0.184939 0.756176 0.792737
0.788693 0.876066 0.819074
0.976211 0.912947 0.804105
1 0.911986 0.776349
0 0 0.56968
0 0 0.582742
0.235981 0 0.631693
0.57554 0 0.687831
0.720455 0 0.707561
0.745449 0 0.719356
0.745449 0 0.719356
0.745449 0 0.719356
0.745449 0 0.719356
0 0 0.592477
0 0 0.589929
0.0826123 0.000244144 0.613397
0.457374 0.00263981 0.671717
0.687129 0 0.7019
0.741604 0 0.716228
0.745449 0 0.719356
0.745449 0 0.719356
0.745449 0 0.719356
0 0.081529 0.632074
0 0.0146639 0.621988
0 0.0767224 0.642084
0.331945 0.196628 0.703258
0.662882 0.196658 0.741711
0.757824 0.178027 0.747723
0.770352 0.190967 0.750774
0.762509 0.161944 0.74139
0.754299 0.123919 0.731563
0 0.318624 0.719158
0 0.286229 0.705043
0 0.265721 0.702296
0.0822614 0.32015 0.735759
0.606577 0.349996 0.791302
0.783703 0.326589 0.798932
0.816663 0.338903 0.804303
0.807919 0.311833 0.794568
0.800076 0.286458 0.785657
0 0.497429 0.788235
0 0.474556 0.779858
0 0.450172 0.771252
0 0.475868 0.796735
0.4804 0.541833 0.842756
0.810239 0.543191 0.86952
0.872023 0.521279 0.867048
0.870573 0.503563 0.861143
0.85919 0.46862 0.849668
0 0.583871 0.820172
0 0.576623 0.816968
0 0.56759 0.813352
0 0.592508 0.832364
0.141649 0.684108 0.866789
0.780499 0.764767 0.923934
0.928389 0.749371 0.930007
0.941802 0.73315 0.926482
0.93109 0.698436 0.917296
0 0.609567 0.830427
0 0.604852 0.827802
0 0.601877 0.826154
0 0.618082 0.836728
0 0.702708 0.874815
0.640406 0.836545 0.930709
0.934096 0.888106 0.959869
0.985107 0.886671 0.960647
0.983764 0.87393 0.95639
0 0.630747 0.841657
0 0.630747 0.841657
0 0.630747 0.841657
0 0.626032 0.838483
0 0.689525 0.868742
0.413611 0.80499 0.908095
0.872221 0.906722 0.956588
0.988388 0.927489 0.963317
0.99884 0.926787 0.959045
0 0.629526 0.840192
0 0.628412 0.838911
0 0.627268 0.837339
0 0.626673 0.835843
0 0.669474 0.856123
0.0610056 0.759533 0.880995
0.75642 0.883574 0.936934
0.965988 0.928038 0.951446
1 0.933318 0.945937
0 0 0.56968
0 0 0.581033
0.218173 0 0.628153
0.561654 0 0.685863
0.71725 0 0.706813
0.745449 0 0.719356
0.745449 0 0.719356
0.745449 0 0.719356
0.745449 0 0.719356
0 0 0.589548
0 0 0.585916
0.052079 9.15541e-05 0.607172
0.438117 0 0.667369
0.68162 0 0.701244
0.740734 0 0.715496
0.745449 0 0.719356
0.745449 0 0.719356
0.745449 0 0.719356
0 0.0529183 0.627756
0 0.00784314 0.619547
0 0.0404364 0.635767
0.31107 0.186191 0.696254
0.649485 0.187762 0.737072
0.752361 0.163363 0.743084
0.766995 0.178546 0.746761
0.758999 0.145678 0.737179
0.751278 0.0934157 0.727626
0 0.304891 0.713283
0 0.271565 0.698756
0 0.24976 0.694743
0.042237 0.303304 0.728222
0.586358 0.335943 0.784115
0.77528 0.314305 0.793713
0.811612 0.324895 0.799237
0.80441 0.300679 0.7906
0.796826 0.275822 0.781949
0 0.487633 0.784909
0 0.464668 0.776043
0 0.434638 0.76405
0 0.456794 0.789319
0.450736 0.52195 0.834379
0.796887 0.526253 0.863584
0.865293 0.503304 0.861341
0.865629 0.488426 0.856199
0.854383 0.453849 0.8448
0 0.581048 0.81883
0 0.573175 0.815549
0 0.562402 0.811383
0 0.582284 0.828107
0.0928664 0.667872 0.861738
0.76141 0.749157 0.919188
0.921492 0.733669 0.926055
0.937331 0.7187 0.922683
0.926207 0.682445 0.913008
0 0.60737 0.829206
0 0.603586 0.8271
0 0.600732 0.825574
0 0.613153 0.834073
0 0.69427 0.871809
0.61297 0.827375 0.926772
0.926299 0.882475 0.958907
0.982467 0.880293 0.961425
0.981323 0.866819 0.958389
0 0.630747 0.841657
0 0.630747 0.841657
0 0.629725 0.841077
0 0.624384 0.838026
0 0.683894 0.868452
0.371237 0.796445 0.906386
0.855161 0.902678 0.959869
0.984634 0.926268 0.972045
0.996887 0.925078 0.971038
0 0.630747 0.841657
0 0.630747 0.841657
0 0.630747 0.841657
0 0.630747 0.841657
0 0.67039 0.86215
0.0358587 0.756344 0.889555
0.728832 0.878492 0.947799
0.956558 0.9281 0.971817
0.999954 0.936339 0.975418
