LUT预设1/LUT全系打包/电影感系列lut/电影感各机型log灰片/柯达2383.cube
TITLE "Generated by Resolve"
LUT_3D_SIZE 5
0.0426642 0.0436255 0.0532998
0.268666 0.0869001 0.0614328
0.610849 0.00276188 0.0783093
0.625589 0 0.0803082
0.625589 0 0.0803082
0 0.12755 0.083711
0.128496 0.121798 0.0796674
0.632883 0.145708 0.0822919
0.67454 0.121721 0.0855573
0.656153 0.0924086 0.0832227
0 0.40148 0.142931
0 0.380682 0.138415
0.676402 0.535821 0.0655833
0.870695 0.508232 0.0617533
0.834211 0.424735 0.0837415
0 0.483574 0.173938
0 0.469551 0.164309
0.404776 0.629129 0.113237
0.984848 0.800549 0
0.996429 0.78999 0
0 0.490166 0.178561
0 0.490166 0.178561
0.105547 0.561532 0.167071
0.893126 0.793957 0.0264591
1 0.818509 0
0 0 0.29369
0.26334 0.0421302 0.285496
0.641474 0 0.254597
0.654307 0 0.200595
0.649454 0 0.155032
0 0.136629 0.187549
0.110918 0.11989 0.141817
0.629984 0.134798 0.11371
0.679988 0.112413 0.103273
0.65745 0.0770581 0.0910353
0 0.406195 0.165194
0 0.369589 0.145632
0.630732 0.501549 0.0849165
0.85182 0.467765 0.0751812
0.818402 0.391546 0.0876326
0 0.477501 0.169665
0 0.464012 0.16083
0.348577 0.607233 0.118608
0.975814 0.792615 0
0.992432 0.780682 0
0 0.490166 0.178561
0 0.490166 0.178561
0.0431373 0.553109 0.168582
0.869856 0.788098 0.0502632
1 0.818509 0
0 0 0.552773
0.268498 0 0.600458
0.697185 0 0.650431
0.7131 0 0.642664
0.707271 0 0.620295
0 0 0.587243
0 0.0109712 0.567987
0.650477 0 0.610224
0.719631 0 0.569757
0.70164 0 0.504234
0 0.503319 0.662486
0 0.456275 0.596185
0.58854 0.55201 0.578729
0.870237 0.500481 0.497444
0.838834 0.414405 0.401144
0 0.568048 0.551125
0 0.541283 0.459464
0.146563 0.644877 0.382849
0.977707 0.819806 0.281468
1 0.79646 0.190906
0 0.542977 0.381582
0 0.530098 0.325429
0 0.574334 0.283299
0.848341 0.798352 0.212024
1 0.822751 0.141054
0 0 0.56968
0.253223 0 0.635172
0.723018 0 0.708247
0.745449 0 0.719356
0.745449 0 0.719356
0 0.103517 0.637156
0 0.113466 0.64921
0.676326 0.205661 0.746349
0.773602 0.202441 0.75465
0.757809 0.140185 0.735759
0 0.507225 0.791455
0 0.464622 0.777905
0.509331 0.556252 0.847974
0.869154 0.508293 0.85864
0.844648 0.420844 0.824033
0 0.608469 0.826642
0 0.598932 0.81561
0 0.706386 0.858305
0.94728 0.891615 0.917418
0.987121 0.87538 0.883162
0 0.622599 0.810895
0 0.620645 0.791623
0 0.663951 0.786923
0.788693 0.876066 0.819074
1 0.911986 0.776349
0 0 0.56968
0.218173 0 0.628153
0.71725 0 0.706813
0.745449 0 0.719356
0.745449 0 0.719356
0 0.0529183 0.627756
0 0.0404364 0.635767
0.649485 0.187762 0.737072
0.766995 0.178546 0.746761
0.751278 0.0934157 0.727626
0 0.487633 0.784909
0 0.434638 0.76405
0.450736 0.52195 0.834379
0.865293 0.503304 0.861341
0.854383 0.453849 0.8448
0 0.60737 0.829206
0 0.600732 0.825574
0 0.69427 0.871809
0.926299 0.882475 0.958907
0.981323 0.866819 0.958389
0 0.630747 0.841657
0 0.630747 0.841657
0 0.67039 0.86215
0.728832 0.878492 0.947799
0.999954 0.936339 0.975418
